/* XPM */
static char *a7bbbdb0e9a34f5b9595004578a2f465Zsrr760guAlZVNFg[] = {
/* columns rows colors chars-per-pixel */
"260 309 253 2 ",
"   c #020101",
".  c #0C0101",
"X  c #03020A",
"o  c #0B030B",
"O  c #0B0A0B",
"+  c #080A06",
"@  c #130100",
"#  c #1B0100",
"$  c #1D0901",
"%  c #140909",
"&  c #18130B",
"*  c #080813",
"=  c #160C12",
"-  c #0D1315",
";  c #141313",
":  c #1C1C1C",
">  c #181516",
",  c #0C120D",
"<  c #240100",
"1  c #2C0200",
"2  c #230A00",
"3  c #2C0A00",
"4  c #220A08",
"5  c #340200",
"6  c #3B0400",
"7  c #340B00",
"8  c #3B0C00",
"9  c #261204",
"0  c #3B1400",
"q  c #23191A",
"w  c #270F17",
"e  c #2B231D",
"r  c #171924",
"t  c #241B24",
"y  c #19252E",
"u  c #282727",
"i  c #3D3E3C",
"p  c #383636",
"a  c #332E2D",
"s  c #430C00",
"d  c #480800",
"f  c #441300",
"g  c #4C1300",
"h  c #4A1B01",
"j  c #531B00",
"k  c #5B1B00",
"l  c #551400",
"z  c #631C00",
"x  c #5C2300",
"c  c #582602",
"v  c #542C11",
"b  c #632F00",
"n  c #6C2B00",
"m  c #662502",
"M  c #732C01",
"N  c #633000",
"B  c #6A3407",
"V  c #783705",
"C  c #703A15",
"Z  c #453C3F",
"A  c #423A35",
"S  c #493629",
"D  c #3E403D",
"F  c #3E4135",
"G  c #7A4417",
"H  c #78410C",
"J  c #424339",
"K  c #5B4120",
"L  c #745335",
"P  c #3D3E43",
"I  c #3D3A47",
"U  c #322F40",
"Y  c #443C41",
"T  c #483C45",
"R  c #3C4348",
"E  c #424242",
"W  c #4A4949",
"Q  c #4B4954",
"!  c #585758",
"~  c #545051",
"^  c #645B58",
"/  c #575863",
"(  c #655E66",
")  c #5D626A",
"_  c #656263",
"`  c #696869",
"'  c #736D6B",
"]  c #777778",
"[  c #6E6D73",
"{  c #65625E",
"}  c #863B03",
"|  c #883D14",
" . c #894309",
".. c #964807",
"X. c #894716",
"o. c #974C15",
"O. c #98561A",
"+. c #935116",
"@. c #A6591A",
"#. c #AB570C",
"$. c #B36318",
"%. c #985826",
"&. c #8C5128",
"*. c #A65B24",
"=. c #A95E30",
"-. c #A96428",
";. c #B76729",
":. c #A96734",
">. c #B66C35",
",. c #B97539",
"<. c #B27230",
"1. c #9C6532",
"2. c #DA7619",
"3. c #DA750D",
"4. c #EB7808",
"5. c #F47503",
"6. c #FD7602",
"7. c #F57B03",
"8. c #FE7C04",
"9. c #FD760B",
"0. c #F57C0C",
"q. c #FE7D09",
"w. c #F4760B",
"e. c #ED7B13",
"r. c #EC7D1B",
"t. c #E67818",
"y. c #FE7613",
"u. c #F47D12",
"i. c #FC7C13",
"p. c #F47E1B",
"a. c #FC7C1B",
"s. c #F87617",
"d. c #EE6E04",
"f. c #C6752B",
"g. c #D97B2A",
"h. c #CC7C3B",
"j. c #C77838",
"k. c #D77D36",
"l. c #C56C2B",
"z. c #E47D23",
"x. c #EC7D23",
"c. c #E67C29",
"v. c #F57D24",
"b. c #E57E34",
"n. c #B47647",
"m. c #837B79",
"M. c #906B50",
"N. c #C57B44",
"B. c #D47C45",
"V. c #E07E41",
"C. c #7D817B",
"Z. c #F68204",
"A. c #FB8104",
"S. c #F5810C",
"D. c #FB810B",
"F. c #FE880A",
"G. c #ED8315",
"H. c #EC821C",
"J. c #E7841D",
"K. c #F48214",
"L. c #FD8212",
"P. c #F4821B",
"I. c #FD841B",
"U. c #FB8A18",
"Y. c #F0850D",
"T. c #DC842A",
"R. c #CC813B",
"E. c #DD8334",
"W. c #D4833C",
"Q. c #DC843C",
"!. c #D98737",
"~. c #CC822E",
"^. c #E48324",
"/. c #EC8223",
"(. c #E5832C",
"). c #EC832B",
"_. c #E8892E",
"`. c #E78929",
"'. c #F38323",
"]. c #F78727",
"[. c #E48333",
"{. c #EB8533",
"}. c #EC8A33",
"|. c #E3853B",
" X c #E48B3C",
".X c #E88938",
"XX c #F38935",
"oX c #F39336",
"OX c #DE821D",
"+X c #BB8252",
"@X c #998776",
"#X c #CB8547",
"$X c #D48443",
"%X c #DA8542",
"&X c #D88A46",
"*X c #D18A53",
"=X c #E48B42",
"-X c #E68945",
";X c #E69147",
":X c #E99250",
">X c #DA965F",
",X c #6E7884",
"<X c #887D86",
"1X c #7D858D",
"2X c #878688",
"3X c #898B94",
"4X c #969697",
"5X c #918F8F",
"6X c #ABA29C",
"7X c #959AA3",
"8X c #9BA1A9",
"9X c #A7A6A7",
"0X c #B7B8B8",
"qX c #AEAFB2",
"wX c #A39DA1",
"eX c #C5BDBA",
"rX c #B7C2BA",
"tX c #C9C5BE",
"yX c #B6B9C5",
"uX c #C3BCC2",
"iX c #BBC2C6",
"pX c #C8C7C7",
"aX c #D4D4D5",
"sX c #D8D9D9",
"dX c #D1CFD2",
"fX c #E1DBD9",
"gX c #DDE2DB",
"hX c #DADBE4",
"jX c #D6D4E9",
"kX c #E4DDE7",
"lX c #DCE5ED",
"zX c #E4E3E3",
"xX c #ECECEC",
"cX c #E7E7E8",
"vX c #F4EDEA",
"bX c #EBF4EA",
"nX c #F3F3ED",
"mX c #FCF5ED",
"MX c #FDFCED",
"NX c #F4FBEC",
"BX c #E9ECF3",
"VX c #ECF3F4",
"CX c #ECF9FA",
"ZX c #F4F5F5",
"AX c #FBF5F4",
"SX c #F4FCF5",
"DX c #FDFDF5",
"FX c #F4F6FB",
"GX c #FCF6FB",
"HX c #F5FDFD",
"JX c #FEFEFE",
"KX c #F5EDF5",
"LX c #E8E4D9",
/* pixels */
"JXJXJXJXJXJXJXJXJXJXJXJXJXJXJXJXJXJXJXJXJXJXJXJXJXJXJXJXJXJXJXJXJXJXJXJXJXJXJXJXJXJXJXJXJXJXJXJXJXJXJXJXJXJXJXJXJXJXJXJXJXJXJXJXJXJXJXJXJXJXJXJXJXJXJXJXJXJXJXJXJXJXJXJXJXJXJXJXJXJXJXJXJXJXJXJXJXJXJXJXJXJXJXJXJXJXJXJXJXJXJXJXJXZXGXJXGXJXFXJXJXZXpX5X^ S w 2 . . % q I ( wXdXGXGXAXDXDXGXSXSXJXJXJXJXJXJXJXJXJXJXJXJXJXJXJXJXJXJXJXJXJXJXJXJXJXJXJXJXJXJXJXJXJXJXJXJXJXJXJXJXJXJXJXJXJXJXJXJXJXJXJXJXJXJXJXJXJXJXJXJXJXJXJXJXJXJXJXJXJXJXJXJXJXJXJXJXJXJXJXJXJXJXJXJXJXJXJXJXJXJXJXJXJXJXJXJXJXJXJXJXJXJXJXJXJXJXJXJXJXJXJXJXJXJXJXJX",
"JXJXJXJXJXJXJXJXJXJXJXJXJXJXJXJXJXJXJXJXJXJXJXJXJXJXJXJXJXJXJXJXJXJXJXJXJXJXJXJXJXJXJXJXJXJXJXJXJXJXJXJXJXJXJXJXJXJXJXJXJXJXJXJXJXJXJXJXJXJXJXJXJXJXJXJXJXJXJXJXJXJXJXJXJXJXJXJXJXJXJXJXJXJXJXJXJXJXJXJXJXJXJXJXJXJXJXJXJXJXJXJXGXJXJXJXBXJXJXdX_ a + . @ @ @ @ @ @ # $ @ . . . w <XcXJXAXSXGXSXJXJXJXJXJXJXJXJXJXJXJXJXJXJXJXJXJXJXJXJXJXJXJXJXJXJXJXJXJXJXJXJXJXJXJXJXJXJXJXJXJXJXJXJXJXJXJXJXJXJXJXJXJXJXJXJXJXJXJXJXJXJXJXJXJXJXJXJXJXJXJXJXJXJXJXJXJXJXJXJXJXJXJXJXJXJXJXJXJXJXJXJXJXJXJXJXJXJXJXJXJXJXJXJXJXJXJXJXJXJXJXJXJXJXJXJX",
"JXJXJXJXJXJXJXJXJXJXJXJXJXJXJXJXJXJXJXJXJXJXJXJXJXJXJXJXJXJXJXJXJXJXJXJXJXJXJXJXJXJXJXJXJXJXJXJXJXJXJXJXJXJXJXJXJXJXJXJXJXJXJXJXJXJXJXJXJXJXJXJXJXJXJXJXJXJXJXJXJXJXJXJXJXJXJXJXJXJXJXJXJXJXJXJXJXJXJXJXJXJXJXJXJXJXJXJXJXJXJXJXGXGXJXGXJXbX!   X     @ $ # $ 9 9 2 < < < # @ . +   X ` VXGXnXDXJXJXJXJXJXJXJXJXJXJXJXJXJXJXJXJXJXJXJXJXJXJXJXJXJXJXJXJXJXJXJXJXJXJXJXJXJXJXJXJXJXJXJXJXJXJXJXJXJXJXJXJXJXJXJXJXJXJXJXJXJXJXJXJXJXJXJXJXJXJXJXJXJXJXJXJXJXJXJXJXJXJXJXJXJXJXJXJXJXJXJXJXJXJXJXJXJXJXJXJXJXJXJXJXJXJXJXJXJXJXJXJXJXJXJXJX",
"JXJXJXJXJXJXJXJXJXJXJXJXJXJXJXJXJXJXJXJXJXJXJXJXJXJXJXJXJXJXJXJXJXJXJXJXJXJXJXJXJXJXJXJXJXJXJXJXJXJXJXJXJXJXJXJXJXJXJXJXJXJXJXJXJXJXJXJXJXJXJXJXJXJXJXJXJXJXJXJXJXJXJXJXJXJXJXJXJXJXJXJXJXJXJXJXJXJXJXJXJXJXJXJXJXJXJXJXJXJXJXJXJXJXAXJX0X+   . # 3 h v &.n.+X+X*X*X*X#X,.O.N 0 9     + > sXAXJXJXJXJXJXJXJXJXJXJXJXJXJXJXJXJXJXJXJXJXJXJXJXJXJXJXJXJXJXJXJXJXJXJXJXJXJXJXJXJXJXJXJXJXJXJXJXJXJXJXJXJXJXJXJXJXJXJXJXJXJXJXJXJXJXJXJXJXJXJXJXJXJXJXJXJXJXJXJXJXJXJXJXJXJXJXJXJXJXJXJXJXJXJXJXJXJXJXJXJXJXJXJXJXJXJXJXJXJXJXJXJXJXJXJXJXJX",
"JXJXJXJXJXJXJXJXJXJXJXJXJXJXJXJXJXJXJXJXJXJXJXJXJXJXJXJXJXJXJXJXJXJXJXJXJXJXJXJXJXJXJXJXJXJXJXJXJXJXJXJXJXJXJXJXJXJXJXJXJXJXJXJXJXJXJXJXJXJXJXJXJXJXJXJXJXJXJXJXJXJXJXJXJXJXJXJXJXJXJXJXJXJXJXJXJXJXJXJXJXJXJXJXJXJXJXJXJXJXJXJXAXJXxXfX% @ 0 < n @..X_.z.c.{.c.v.v.s.s.u.P.^.~.O.B 2   ; > kXGXJXJXJXJXJXJXJXJXJXJXJXJXJXJXJXJXJXJXJXJXJXJXJXJXJXJXJXJXJXJXJXJXJXJXJXJXJXJXJXJXJXJXJXJXJXJXJXJXJXJXJXJXJXJXJXJXJXJXJXJXJXJXJXJXJXJXJXJXJXJXJXJXJXJXJXJXJXJXJXJXJXJXJXJXJXJXJXJXJXJXJXJXJXJXJXJXJXJXJXJXJXJXJXJXJXJXJXJXJXJXJXJXJXJXJXJX",
"JXJXJXJXJXJXJXJXJXJXJXJXJXJXJXJXJXJXJXJXJXJXJXJXJXJXJXJXJXJXJXJXJXJXJXJXJXJXJXJXJXJXJXJXJXJXJXJXJXJXJXJXJXJXJXJXJXJXJXJXJXJXJXJXJXJXJXJXJXJXJXJXJXJXJXJXJXJXJXJXJXJXJXJXJXJXJXJXJXJXJXJXJXJXJXJXJXJXJXJXJXJXJXJXJXJXJXJXJXJXJXJXAXJXJXu $ # 5 ,.}.I.8.6.6.i.a.y.a.y.9.6.6.8.S.J.T.&X&.f @ . Q JXJXJXJXJXJXJXJXJXJXJXJXJXJXJXJXJXJXJXJXJXJXJXJXJXJXJXJXJXJXJXJXJXJXJXJXJXJXJXJXJXJXJXJXJXJXJXJXJXJXJXJXJXJXJXJXJXJXJXJXJXJXJXJXJXJXJXJXJXJXJXJXJXJXJXJXJXJXJXJXJXJXJXJXJXJXJXJXJXJXJXJXJXJXJXJXJXJXJXJXJXJXJXJXJXJXJXJXJXJXJXJXJXJXJXJXJX",
"JXJXJXJXJXJXJXJXJXJXJXJXJXJXJXJXJXJXJXJXJXJXJXJXJXJXJXJXJXJXJXJXJXJXJXJXJXJXJXJXJXJXJXJXJXJXJXJXJXJXJXJXJXJXJXJXJXJXJXJXJXJXJXJXJXJXJXJXJXJXJXJXJXJXJXJXJXJXJXJXJXJXJXJXJXJXJXJXJXJXJXJXJXJXJXJXJXJXJXJXJXJXJXJXJXJXJXJXJXJXJXJXZXJXdX@ # 8 n.[.e.6.6.8.6.6.w.a.y.y.y.y.9.q.D.D.I.z.=Xn.5 @ t jXJXJXJXJXJXJXJXJXJXJXJXJXJXJXJXJXJXJXJXJXJXJXJXJXJXJXJXJXJXJXJXJXJXJXJXJXJXJXJXJXJXJXJXJXJXJXJXJXJXJXJXJXJXJXJXJXJXJXJXJXJXJXJXJXJXJXJXJXJXJXJXJXJXJXJXJXJXJXJXJXJXJXJXJXJXJXJXJXJXJXJXJXJXJXJXJXJXJXJXJXJXJXJXJXJXJXJXJXJXJXJXJXJXJXJXJX",
"JXJXJXJXJXJXJXJXJXJXJXJXJXJXJXJXJXJXJXJXJXJXJXJXJXJXJXJXJXJXJXJXJXJXJXJXJXJXJXJXJXJXJXJXJXJXJXJXJXJXJXJXJXJXJXJXJXJXJXJXJXJXJXJXJXJXJXJXJXJXJXJXJXJXJXJXJXJXJXJXJXJXJXJXJXJXJXJXJXJXJXJXJXJXJXJXJXJXJXJXJXJXJXJXJXJXJXJXJXJXJXJXJXGX5X. # c *Xg.I.9.6.6.6.D.0.u.s.a.a.i.s.0.q.7.D.4.).$Xj < o yXJXJXJXJXJXJXJXJXJXJXJXJXJXJXJXJXJXJXJXJXJXJXJXJXJXJXJXJXJXJXJXJXJXJXJXJXJXJXJXJXJXJXJXJXJXJXJXJXJXJXJXJXJXJXJXJXJXJXJXJXJXJXJXJXJXJXJXJXJXJXJXJXJXJXJXJXJXJXJXJXJXJXJXJXJXJXJXJXJXJXJXJXJXJXJXJXJXJXJXJXJXJXJXJXJXJXJXJXJXJXJXJXJXJXJXJX",
"JXJXJXJXJXJXJXJXJXJXJXJXJXJXJXJXJXJXJXJXJXJXJXJXJXJXJXJXJXJXJXJXJXJXJXJXJXJXJXJXJXJXJXJXJXJXJXJXJXJXJXJXJXJXJXJXJXJXJXJXJXJXJXJXJXJXJXJXJXJXJXJXJXJXJXJXJXJXJXJXJXJXJXJXJXJXJXJXJXJXJXJXJXJXJXJXJXJXJXJXJXJXJXJXJXJXJXJXJXJXJXJXFXJXW   @ 0 *X%Xz.a.i.8.8.0.L.u.w.0.K.e.4.4.S.L.0.4./.h.s 2   [ GXJXGXJXJXJXJXJXJXJXJXJXJXJXJXJXJXJXJXJXJXJXJXJXJXJXJXJXJXJXJXJXJXJXJXJXJXJXJXJXJXJXJXJXJXJXJXJXJXJXJXJXJXJXJXJXJXJXJXJXJXJXJXJXJXJXJXJXJXJXJXJXJXJXJXJXJXJXJXJXJXJXJXJXJXJXJXJXJXJXJXJXJXJXJXJXJXJXJXJXJXJXJXJXJXJXJXJXJXJXJXJXJXJXJXJX",
"JXJXJXJXJXJXJXJXJXJXJXJXJXJXJXJXJXJXJXJXJXJXJXJXJXJXJXJXJXJXJXJXJXJXJXJXJXJXJXJXJXJXJXJXJXJXJXJXJXJXJXJXJXJXJXJXJXJXJXJXJXJXJXJXJXJXJXJXJXJXJXJXJXJXJXJXJXJXJXJXJXJXJXJXJXJXJXJXJXJXJXJXJXJXJXJXJXJXJXJXJXJXJXJXJXJXJXJXJXJXJXJXHXFXO   9 # B #X|.).p.w.0.i.L.0.L.D.S.P.].].H.t.'._.=Xn 7 .   y JXGXJXGXJXJXJXJXJXJXJXJXJXJXJXJXJXJXJXJXJXJXJXJXJXJXJXJXJXJXJXJXJXJXJXJXJXJXJXJXJXJXJXJXJXJXJXJXJXJXJXJXJXJXJXJXJXJXJXJXJXJXJXJXJXJXJXJXJXJXJXJXJXJXJXJXJXJXJXJXJXJXJXJXJXJXJXJXJXJXJXJXJXJXJXJXJXJXJXJXJXJXJXJXJXJXJXJXJXJXJXJXJXJXJXJX",
"JXJXJXJXJXJXJXJXJXJXJXJXJXJXJXJXJXJXJXJXJXJXJXJXJXJXJXJXJXJXJXJXJXJXJXJXJXJXJXJXJXJXJXJXJXJXJXJXJXJXJXJXJXJXJXJXJXJXJXJXJXJXJXJXJXJXJXJXJXJXJXJXJXJXJXJXJXJXJXJXJXJXJXJXJXJXJXJXJXJXJXJXJXJXJXJXJXJXJXJXJXJXJXJXJXJXJXJXJXJXJXJXVX0XX o . @ 7 j <.f.(.'.I.I.s.w.5.7.0.u.t.c.{.;X:X%.s 3 @ &   - gXZXJXGXJXJXJXJXJXJXJXJXJXJXJXJXJXJXJXJXJXJXJXJXJXJXJXJXJXJXJXJXJXJXJXJXJXJXJXJXJXJXJXJXJXJXJXJXJXJXJXJXJXJXJXJXJXJXJXJXJXJXJXJXJXJXJXJXJXJXJXJXJXJXJXJXJXJXJXJXJXJXJXJXJXJXJXJXJXJXJXJXJXJXJXJXJXJXJXJXJXJXJXJXJXJXJXJXJXJXJXJXJXJXJXJX",
"JXJXJXJXJXJXJXJXJXJXJXJXJXJXJXJXJXJXJXJXJXJXJXJXJXJXJXJXJXJXJXJXJXJXJXJXJXJXJXJXJXJXJXJXJXJXJXJXJXJXJXJXJXJXJXJXJXJXJXJXJXJXJXJXJXJXJXJXJXJXJXJXJXJXJXJXJXJXJXJXJXJXJXJXJXJXJXJXJXJXJXJXJXJXJXJXJXJXJXJXJXJXJXJXJXJXJXJXJXJXJXJXHX]     w 2 # 1 5 m +.f.E.(.).).)./.c.}.;X%X;.X.s 8 1 # . .     5XZXJXGXJXJXGXJXJXJXJXJXJXJXJXJXJXJXJXJXJXJXJXJXJXJXJXJXJXJXJXJXJXJXJXJXJXJXJXJXJXJXJXJXJXJXJXJXJXJXJXJXJXJXJXJXJXJXJXJXJXJXJXJXJXJXJXJXJXJXJXJXJXJXJXJXJXJXJXJXJXJXJXJXJXJXJXJXJXJXJXJXJXJXJXJXJXJXJXJXJXJXJXJXJXJXJXJXJXJXJXJXJXJXJXJX",
"JXJXJXJXJXJXJXJXJXJXJXJXJXJXJXJXJXJXJXJXJXJXJXJXJXJXJXJXJXJXJXJXJXJXJXJXJXJXJXJXJXJXJXJXJXJXJXJXJXJXJXJXJXJXJXJXJXJXJXJXJXJXJXJXJXJXJXJXJXJXJXJXJXJXJXJXJXJXJXJXJXJXJXJXJXJXJXJXJXJXJXJXJXJXJXJXJXJXJXJXJXJXJXJXJXJXJXJXJXJXJXJXJXu . # L K 7 7 < # < 5 s j n H H X.C B g 5 5 8 1 1 < < M.S 2 @ i HXJXGXJXJXGXGXJXJXJXJXJXJXJXJXJXJXJXJXJXJXJXJXJXJXJXJXJXJXJXJXJXJXJXJXJXJXJXJXJXJXJXJXJXJXJXJXJXJXJXJXJXJXJXJXJXJXJXJXJXJXJXJXJXJXJXJXJXJXJXJXJXJXJXJXJXJXJXJXJXJXJXJXJXJXJXJXJXJXJXJXJXJXJXJXJXJXJXJXJXJXJXJXJXJXJXJXJXJXJXJXJXJXJXJX",
"JXJXJXJXJXJXJXJXJXJXJXJXJXJXJXJXJXJXJXJXJXJXJXJXJXJXJXJXJXJXJXJXJXJXJXJXJXJXJXJXJXJXJXJXJXJXJXJXJXJXJXJXJXJXJXJXJXJXJXJXJXJXJXJXJXJXJXJXJXJXJXJXJXJXJXJXJXJXJXJXJXJXJXJXJXJXJXJXJXJXJXJXJXJXJXJXJXJXJXJXJXJXJXJXJXJXJXJXJXJXJXJXhX  2 3 :.*X,.m s 1 # # # < < < 1 1 < < 1 1 < < 6 5 B >X+XM.7 @ & cXJXGXGXJXJXJXJXJXJXJXJXJXJXJXJXJXJXJXJXJXJXJXJXJXJXJXJXJXJXJXJXJXJXJXJXJXJXJXJXJXJXJXJXJXJXJXJXJXJXJXJXJXJXJXJXJXJXJXJXJXJXJXJXJXJXJXJXJXJXJXJXJXJXJXJXJXJXJXJXJXJXJXJXJXJXJXJXJXJXJXJXJXJXJXJXJXJXJXJXJXJXJXJXJXJXJXJXJXJXJXJXJXJXJX",
"JXJXJXJXJXJXJXJXJXJXJXJXJXJXJXJXJXJXJXJXJXJXJXJXJXJXJXJXJXJXJXJXJXJXJXJXJXJXJXJXJXJXJXJXJXJXJXJXJXJXJXJXJXJXJXJXJXJXJXJXJXJXJXJXJXJXJXJXJXJXJXJXJXJXJXJXJXJXJXJXJXJXJXJXJXJXJXJXJXJXJXJXJXJXJXJXJXJXJXJXJXJXJXJXJXJXJXJXJXJXJXJX4X+ # 6 %X{.).).g.@.m s 5 1 5 5 5 5 1 < < 5 j M ..[.{.g.:Xn.6 1 . 9XJXJXJXJXJXJXJXJXJXJXJXJXJXJXJXJXJXJXJXJXJXJXJXJXJXJXJXJXJXJXJXJXJXJXJXJXJXJXJXJXJXJXJXJXJXJXJXJXJXJXJXJXJXJXJXJXJXJXJXJXJXJXJXJXJXJXJXJXJXJXJXJXJXJXJXJXJXJXJXJXJXJXJXJXJXJXJXJXJXJXJXJXJXJXJXJXJXJXJXJXJXJXJXJXJXJXJXJXJXJXJXJXJXJX",
"JXJXJXJXJXJXJXJXJXJXJXJXJXJXJXJXJXJXJXJXJXJXJXJXJXJXJXJXJXJXJXJXJXJXJXJXJXJXJXJXJXJXJXJXJXJXJXJXJXJXJXJXJXJXJXJXJXJXJXJXJXJXJXJXJXJXJXJXJXJXJXJXJXJXJXJXJXJXJXJXJXJXJXJXJXJXJXJXJXJXJXJXJXJXJXJXJXJXJXJXJXJXJXJXJXJXJXJXJXJXJXJXi   7 X.{.s.a.i.'.).Q.$XN.:.%.&.X.X.&.%.:.,.W..X].0.0.p.(.;Xm 1 @ _ GXJXJXAXDXJXJXJXJXJXJXJXJXJXJXJXJXJXJXJXJXJXJXJXJXJXJXJXJXJXJXJXJXJXJXJXJXJXJXJXJXJXJXJXJXJXJXJXJXJXJXJXJXJXJXJXJXJXJXJXJXJXJXJXJXJXJXJXJXJXJXJXJXJXJXJXJXJXJXJXJXJXJXJXJXJXJXJXJXJXJXJXJXJXJXJXJXJXJXJXJXJXJXJXJXJXJXJXJXJXJXJXJXJX",
"JXJXJXJXJXJXJXJXJXJXJXJXJXJXJXJXJXJXJXJXJXJXJXJXJXJXJXJXJXJXJXJXJXJXJXJXJXJXJXJXJXJXJXJXJXJXJXJXJXJXJXJXJXJXJXJXJXJXJXJXJXJXJXJXJXJXJXJXJXJXJXJXJXJXJXJXJXJXJXJXJXJXJXJXJXJXJXJXJXJXJXJXJXJXJXJXHXGXHXJXJXJXJXJXJXJXDXJXZXAXJXcX  @ 5 -.XXu.9.9.i.K.P.H././.).c.x.x.).(.(.(./.K.D.D.5.I.).k.;.5 @ + JXSXGXDXDXGXJXJXJXGXGXHXJXJXJXJXJXJXJXJXJXJXJXJXJXJXJXJXJXJXJXJXJXJXJXJXJXJXJXJXJXJXJXJXJXJXJXJXJXJXJXJXJXJXJXJXJXJXJXJXJXJXJXJXJXJXJXJXJXJXJXJXJXJXJXJXJXJXJXJXJXJXJXJXJXJXJXJXJXJXJXJXJXJXJXJXJXJXJXJXJXJXJXJXJXJXJXJXJXJXJXJXJXJX",
"JXJXJXJXJXJXJXJXJXJXJXJXJXJXJXJXJXJXJXJXJXJXJXJXJXJXJXJXJXJXJXJXJXJXJXJXJXJXJXJXJXJXJXJXJXJXJXJXJXJXJXJXJXJXJXJXJXJXJXJXJXJXJXJXJXJXJXJXJXJXJXJXJXJXJXJXJXJXJXJXJXJXJXJXJXJXJXJXJXJXJXJXJXJXJXJXHXSXGXJXJXJXJXJXJXJXGXGXDXAXJX9X  # s f.).q.q.q.0.q.q.q.q.q.0.0.q.q.i.u.K.u.0.q.6.D.6.i.x.|.l.d # . pXGXSXJXJXJXJXJXJXGXSXHXJXJXJXJXJXJXJXJXJXJXJXJXJXJXJXJXJXJXJXJXJXJXJXJXJXJXJXJXJXJXJXJXJXJXJXJXJXJXJXJXJXJXJXJXJXJXJXJXJXJXJXJXJXJXJXJXJXJXJXJXJXJXJXJXJXJXJXJXJXJXJXJXJXJXJXJXJXJXJXJXJXJXJXJXJXJXJXJXJXJXJXJXJXJXJXJXJXJXJXJXJXJX",
"JXJXJXJXJXJXJXJXJXJXJXJXJXJXJXJXJXJXJXJXJXJXJXJXJXJXJXJXJXJXJXJXJXJXJXJXJXJXJXJXJXJXJXJXJXJXJXJXJXJXJXJXJXJXJXJXJXJXJXJXJXJXJXJXJXJXJXJXJXJXJXJXJXJXJXJXJXJXJXJXJXJXJXJXJXJXJXJXJXJXJXJXJXJXJXHXHXSXGXJXJXJXJXJXJXJXJXSXJXGXJX!   # b %X'.q.D.q.q.0.q.q.q.q.0.0.q.q.0.u.K.K.0.8.6.D.6.w.r.XXk.m # . ] GXSXJXJXJXJXJXJXGXHXHXJXJXJXJXJXJXJXJXJXJXJXJXJXJXJXJXJXJXJXJXJXJXJXJXJXJXJXJXJXJXJXJXJXJXJXJXJXJXJXJXJXJXJXJXJXJXJXJXJXJXJXJXJXJXJXJXJXJXJXJXJXJXJXJXJXJXJXJXJXJXJXJXJXJXJXJXJXJXJXJXJXJXJXJXJXJXJXJXJXJXJXJXJXJXJXJXJXJXJXJXJXJX",
"JXJXJXJXJXJXJXJXJXJXJXJXJXJXJXJXJXJXJXJXJXJXJXJXJXJXJXJXJXJXJXJXJXJXJXJXJXJXJXJXJXJXJXJXJXJXJXJXJXJXJXJXJXJXJXJXJXJXJXJXJXJXJXJXJXJXJXJXJXJXJXJXJXJXJXJXJXJXJXJXJXJXJXJXJXJXJXJXJXJXJXJXJXJXJXJXGXGXGXJXJXJXJXJXJXJXJXZXJXHXxX: . # %.=XP.q.8.q.0.q.q.q.q.q.i.0.8.8.0.0.K.S.0.8.6.8.6.0.p.].E.X.# . a GXSXHXJXJXJXJXJXGXHXHXJXJXJXJXJXJXJXJXJXJXJXJXJXJXJXJXJXJXJXJXJXJXJXJXJXJXJXJXJXJXJXJXJXJXJXJXJXJXJXJXJXJXJXJXJXJXJXJXJXJXJXJXJXJXJXJXJXJXJXJXJXJXJXJXJXJXJXJXJXJXJXJXJXJXJXJXJXJXJXJXJXJXJXJXJXJXJXJXJXJXJXJXJXJXJXJXJXJXJXJXJXJX",
"JXJXJXJXJXJXJXJXJXJXJXJXJXJXJXJXJXJXJXJXJXJXJXJXJXJXJXJXJXJXJXJXJXJXJXJXJXJXJXJXJXJXJXJXJXJXJXJXJXJXJXJXJXJXJXJXJXJXJXJXJXJXJXJXJXJXJXJXJXJXJXJXJXJXJXJXJXJXJXJXJXJXJXJXJXJXJXJXJXJXJXJXJXJXJXJXGXGXJXJXJXJXJXJXJXHXJXFXJXHXpX. # 1 N.[.P.q.6.q.0.0.q.8.q.q.i.D.8.A.D.D.S.D.0.q.8.6.6.q.u.H.(.<.1 . + gXHXHXJXJXJXJXJXGXHXJXJXJXJXJXJXJXJXJXJXJXJXJXJXJXJXJXJXJXJXJXJXJXJXJXJXJXJXJXJXJXJXJXJXJXJXJXJXJXJXJXJXJXJXJXJXJXJXJXJXJXJXJXJXJXJXJXJXJXJXJXJXJXJXJXJXJXJXJXJXJXJXJXJXJXJXJXJXJXJXJXJXJXJXJXJXJXJXJXJXJXJXJXJXJXJXJXJXJXJXJXJXJX",
"JXJXJXJXJXJXJXJXJXJXJXJXJXJXJXJXJXJXJXJXJXJXJXJXJXJXJXJXJXJXJXJXJXJXJXJXJXJXJXJXJXJXJXJXJXJXJXJXJXJXJXJXJXJXJXJXJXJXJXJXJXJXJXJXJXJXJXJXJXJXJXJXJXJXJXJXJXJXJXJXJXJXJXJXJXJXJXJXJXJXJXJXJXJXJXJXGXGXJXJXJXJXJXJXJXHXHXHXJXZX2X. # h &Xz.I.q.6.D.0.0.q.8.q.q.0.D.A.A.A.D.D.D.q.q.A.6.6.A.7.e.J.!.f @   4XHXHXJXJXJXJXJXHXHXJXJXJXJXJXJXJXJXJXJXJXJXJXJXJXJXJXJXJXJXJXJXJXJXJXJXJXJXJXJXJXJXJXJXJXJXJXJXJXJXJXJXJXJXJXJXJXJXJXJXJXJXJXJXJXJXJXJXJXJXJXJXJXJXJXJXJXJXJXJXJXJXJXJXJXJXJXJXJXJXJXJXJXJXJXJXJXJXJXJXJXJXJXJXJXJXJXJXJXJXJXJXJX",
"JXJXJXJXJXJXJXJXJXJXJXJXJXJXJXJXJXJXJXJXJXJXJXJXJXJXJXJXJXJXJXJXJXJXJXJXJXJXJXJXJXJXJXJXJXJXJXJXJXJXJXJXJXJXJXJXJXJXJXJXJXJXJXJXJXJXJXJXJXJXJXJXJXJXJXJXJXJXJXJXJXJXJXJXJXJXJXJXJXJXJXJXJXJXJXJXGXGXJXJXJXJXJXJXHXHXHXHXHXZXa @ < X. Xr.i.8.8.D.0.0.8.8.8.q.L.D.A.A.A.D.D.D.q.q.q.6.6.8.0.0.G.[.H @ . E HXHXJXJXJXJXJXHXHXJXJXJXJXJXJXJXJXJXJXJXJXJXJXJXJXJXJXJXJXJXJXJXJXJXJXJXJXJXJXJXJXJXJXJXJXJXJXJXJXJXJXJXJXJXJXJXJXJXJXJXJXJXJXJXJXJXJXJXJXJXJXJXJXJXJXJXJXJXJXJXJXJXJXJXJXJXJXJXJXJXJXJXJXJXJXJXJXJXJXJXJXJXJXJXJXJXJXJXJXJXJXJX",
"JXJXJXJXJXJXJXJXJXJXJXJXJXJXJXJXJXJXJXJXJXJXJXJXJXJXJXJXJXJXJXJXJXJXJXJXJXJXJXJXJXJXJXJXJXJXJXJXJXJXJXJXJXJXJXJXJXJXJXJXJXJXJXJXJXJXJXJXJXJXJXJXJXJXJXJXJXJXJXJXJXJXJXJXJXJXJXJXJXJXJXJXJXJXJXJXGXGXJXJXJXJXJXJXHXHXHXHXJXxX  @ 1 j.g.I.q.6.q.8.0.0.8.8.8.q.L.D.A.A.A.0.q.i.i.q.q.6.8.6.0.L.0.^.-.< $ + HXHXHXJXJXJXJXHXHXJXJXJXJXJXJXJXJXJXJXJXJXJXJXJXJXJXJXJXJXJXJXJXJXJXJXJXJXJXJXJXJXJXJXJXJXJXJXJXJXJXJXJXJXJXJXJXJXJXJXJXJXJXJXJXJXJXJXJXJXJXJXJXJXJXJXJXJXJXJXJXJXJXJXJXJXJXJXJXJXJXJXJXJXJXJXJXJXJXJXJXJXJXJXJXJXJXJXJXJXJXJXJX",
"JXJXJXJXJXJXJXJXJXJXJXJXJXJXJXJXJXJXJXJXJXJXJXJXJXJXJXJXJXJXJXJXJXJXJXJXJXJXJXJXJXJXJXJXJXJXJXJXJXJXJXJXJXJXJXJXJXJXJXJXJXJXJXJXJXJXJXJXJXJXJXJXJXJXJXJXJXJXJXJXJXJXJXJXJXJXJXJXJXJXJXJXJXJXJXJXJXJXJXJXJXJXJXJXHXHXHXHXVX4Xo @ g g./.i.q.6.6.8.q.q.8.8.8.8.D.D.8.8.8.0.0.i.i.i.9.9.q.q.q.D.0./.h.f @   qXHXCXJXJXJXJXHXHXJXJXJXJXJXJXJXJXJXJXJXJXJXJXJXJXJXJXJXJXJXJXJXJXJXJXJXJXJXJXJXJXJXJXJXJXJXJXJXJXJXJXJXJXJXJXJXJXJXJXJXJXJXJXJXJXJXJXJXJXJXJXJXJXJXJXJXJXJXJXJXJXJXJXJXJXJXJXJXJXJXJXJXJXJXJXJXJXJXJXJXJXJXJXJXJXJXJXJXJXJXJXJX",
"JXJXJXJXJXJXJXJXJXJXJXJXJXJXJXJXJXJXJXJXJXJXJXJXJXJXJXJXJXJXJXJXJXJXJXJXJXJXJXJXJXJXJXJXJXJXJXJXJXJXJXJXJXJXJXJXJXJXJXJXJXJXJXJXJXJXJXJXJXJXJXJXJXJXJXJXJXJXJXJXJXJXJXJXJXJXJXJXJXJXJXJXJXJXJXJXJXJXJXJXJXJXJXJXHXHXZXHXAXW . < V (.p.q.8.8.8.7.0.q.8.8.8.8.D.D.0.8.0.q.q.i.i.i.i.i.i.q.i.q.q.P.Q.x < @ _ HXHXJXJXJXJXHXHXJXJXDXJXJXJXJXJXJXJXJXJXJXJXJXJXJXJXJXJXJXJXJXJXJXJXJXJXJXJXJXJXJXJXJXJXJXJXJXJXJXJXJXJXJXJXJXJXJXJXJXJXJXJXJXJXJXJXJXJXJXJXJXJXJXJXJXJXJXJXJXJXJXJXJXJXJXJXJXJXJXJXJXJXJXJXJXJXJXJXJXJXJXJXJXJXJXJXJXJXJXJXJX",
"JXJXJXJXJXJXJXJXJXJXJXJXJXJXJXJXJXJXJXJXJXJXJXJXJXJXJXJXJXJXJXJXJXJXJXJXJXJXJXJXJXJXJXJXJXJXJXJXJXJXJXJXJXJXJXJXJXJXJXJXJXJXJXJXJXJXJXJXJXJXJXJXJXJXJXJXJXJXJXJXJXJXJXJXJXJXJXJXJXJXJXJXJXJXJXJXJXJXJXJXJXJXJXJXHXHXGXDXAX% . < @.].u.q.6.8.q.7.0.q.8.6.6.8.0.0.0.0.q.q.i.9.i.i.i.i.i.i.i.q.q.P..Xo.< $ : HXHXJXDXJXJXHXJXJXJXDXJXJXJXJXJXJXJXJXJXJXJXJXJXJXJXJXJXJXJXJXJXJXJXJXJXJXJXJXJXJXJXJXJXJXJXJXJXJXJXJXJXJXJXJXJXJXJXJXJXJXJXJXJXJXJXJXJXJXJXJXJXJXJXJXJXJXJXJXJXJXJXJXJXJXJXJXJXJXJXJXJXJXJXJXJXJXJXJXJXJXJXJXJXJXJXJXJXJXJXJX",
"JXJXJXJXJXJXJXJXJXJXJXJXJXJXJXJXJXJXJXJXJXJXJXJXJXJXJXJXJXJXJXJXJXJXJXJXJXJXJXJXJXJXJXJXJXJXJXJXJXJXJXJXJXJXJXJXJXJXJXJXJXJXJXJXJXJXJXJXJXJXJXJXJXJXJXJXJXJXJXJXJXJXJXJXJXJXJXJXJXJXJXJXJXJXJXJXJXJXJXJXJXJXJXHXFXHXJXDXeX. @ 1 j.].0.D.6.6.q.0.0.q.8.6.6.8.0.0.0.q.q.q.9.9.9.i.9.9.9.q.9.9.9.i.).f.5 @ o sXFXGXDXDXJXJXJXJXJXDXJXJXJXJXJXJXJXJXJXJXJXJXJXJXJXJXJXJXJXJXJXJXJXJXJXJXJXJXJXJXJXJXJXJXJXJXJXJXJXJXJXJXJXJXJXJXJXJXJXJXJXJXJXJXJXJXJXJXJXJXJXJXJXJXJXJXJXJXJXJXJXJXJXJXJXJXJXJXJXJXJXJXJXJXJXJXJXJXJXJXJXJXJXJXJXJXJXJXJXJX",
"JXJXJXJXJXJXJXJXJXJXJXJXJXJXJXJXJXJXJXJXJXJXJXJXJXJXJXJXJXJXJXJXJXJXJXJXJXJXJXJXJXJXJXJXJXJXJXJXJXJXJXJXJXJXJXJXJXJXJXJXJXJXJXJXJXJXJXJXJXJXJXJXJXJXJXJXJXJXJXJXJXJXJXJXJXJXJXJXJXJXJXJXJXJXJXJXJXJXJXJXJXJXJXHXHXJXJXDX^ @ # c E.P.7.D.6.6.q.i.i.0.8.6.6.8.0.0.0.q.q.q.q.q.q.q.0.0.0.0.q.9.q.s.H.E.j # . 3XHXDXDXDXJXJXJXJXJXDXJXJXJXJXJXJXJXJXJXJXJXJXJXJXJXJXJXJXJXJXJXJXJXJXJXJXJXJXJXJXJXJXJXJXJXJXJXJXJXJXJXJXJXJXJXJXJXJXJXJXJXJXJXJXJXJXJXJXJXJXJXJXJXJXJXJXJXJXJXJXJXJXJXJXJXJXJXJXJXJXJXJXJXJXJXJXJXJXJXJXJXJXJXJXJXJXJXJXJXJX",
"JXJXJXJXJXJXJXJXJXJXJXJXJXJXJXJXJXJXJXJXJXJXJXJXJXJXJXJXJXJXJXJXJXJXJXJXJXJXJXJXJXJXJXJXJXJXJXJXJXJXJXJXJXJXJXJXJXJXJXJXJXJXJXJXJXJXJXJXJXJXJXJXJXJXJXJXJXJXJXJXJXJXJXJXJXJXJXJXJXJXJXJXJXJXJXJXJXJXJXJXJXJXJXJXJXDXJXDX9 # # &.E.K.8.F.6.8.0.I.i.0.8.6.6.8.0.D.0.9.q.8.8.8.8.8.8.q.0.D.q.q.q.q.P.g.X.1 . p HXDXDXDXJXJXJXJXJXDXJXJXJXJXJXJXJXJXJXJXJXJXJXJXJXJXJXJXJXJXJXJXJXJXJXJXJXJXJXJXJXJXJXJXJXJXJXJXJXJXJXJXJXJXJXJXJXJXJXJXJXJXJXJXJXJXJXJXJXJXJXJXJXJXJXJXJXJXJXJXJXJXJXJXJXJXJXJXJXJXJXJXJXJXJXJXJXJXJXJXJXJXJXJXJXJXJXJXJXJX",
"JXJXJXJXJXJXJXJXJXJXJXJXJXJXJXJXJXJXJXJXJXJXJXJXJXJXJXJXJXJXJXJXJXJXJXJXJXJXJXJXJXJXJXJXJXJXJXJXJXJXJXJXJXJXJXJXJXJXJXJXJXJXJXJXJXJXJXJXJXJXJXJXJXJXJXJXJXJXJXJXJXJXJXJXJXJXJXJXJXJXJXJXJXJXJXJXJXJXJXJXJXJXJXJXJXAXDXdX@ # 1 n.(.K.7.A.6.D.w.I.u.0.8.6.8.8.0.D.i.q.q.8.8.8.8.8.8.A.D.D.q.q.q.q.0.z.n.7 . O sXDXDXDXJXJXJXJXDXDXJXJXJXJXJXJXJXJXJXJXJXJXJXJXJXJXJXJXJXJXJXJXJXJXJXJXJXJXJXJXJXJXJXJXJXJXJXJXJXJXJXJXJXJXJXJXJXJXJXJXJXJXJXJXJXJXJXJXJXJXJXJXJXJXJXJXJXJXJXJXJXJXJXJXJXJXJXJXJXJXJXJXJXJXJXJXJXJXJXJXJXJXJXJXJXJXJXJXJXJX",
"JXJXJXJXJXJXJXJXJXJXJXJXJXJXJXJXJXJXJXJXJXJXJXJXJXJXJXJXJXJXJXJXJXJXJXJXJXJXJXJXJXJXJXJXJXJXJXJXJXJXJXJXJXJXJXJXJXJXJXJXJXJXJXJXJXJXJXJXJXJXJXJXJXJXJXJXJXJXJXJXJXJXJXJXJXJXJXJXJXJXJXJXJXJXJXJXJXJXJXJXJXJXJXJXJXJXDX5X. < h #X^.L.7.6.6.D.5.I.i.0.8.8.8.8.0.0.q.q.q.8.8.8.8.8.8.8.8.8.8.8.8.8.5.'.$X5 # + qXDXDXDXJXJXJXJXJXDXJXJXJXJXJXJXJXJXJXJXJXJXJXJXJXJXJXJXJXJXJXJXJXJXJXJXJXJXJXJXJXJXJXJXJXJXJXJXJXJXJXJXJXJXJXJXJXJXJXJXJXJXJXJXJXJXJXJXJXJXJXJXJXJXJXJXJXJXJXJXJXJXJXJXJXJXJXJXJXJXJXJXJXJXJXJXJXJXJXJXJXJXJXJXJXJXJXJXJXJX",
"JXJXJXJXJXJXJXJXJXJXJXJXJXJXJXJXJXJXJXJXJXJXJXJXJXJXJXJXJXJXJXJXJXJXJXJXJXJXJXJXJXJXJXJXJXJXJXJXJXJXJXJXJXJXJXJXJXJXJXJXJXJXJXJXJXJXJXJXJXJXJXJXJXJXJXJXJXJXJXJXJXJXJXJXJXJXJXJXJXJXJXJXJXJXJXHXHXHXJXDXDXJXJXJXDXJXJXp . # } [.K.0.q.8.8.q.q.q.q.q.q.8.8.8.q.q.q.q.q.8.8.8.8.8.8.8.q.q.q.8.8.q.q.].k.V < . ~ SXGXJXDXAXJXZXJXJXJXJXJXJXJXJXJXJXJXJXJXJXJXJXJXJXJXJXJXJXJXJXJXJXJXJXJXJXJXJXJXJXJXJXJXJXJXJXJXJXJXJXJXJXJXJXJXJXJXJXJXJXJXJXJXJXJXJXJXJXJXJXJXJXJXJXJXJXJXJXJXJXJXJXJXJXJXJXJXJXJXJXJXJXJXJXJXJXJXJXJXJXJXJXJXJXJXJXJXJX",
"JXJXJXJXJXJXJXJXJXJXJXJXJXJXJXJXJXJXJXJXJXJXJXJXJXJXJXJXJXJXJXJXJXJXJXJXJXJXJXJXJXJXJXJXJXJXJXJXJXJXJXJXJXJXJXJXJXJXJXJXJXJXJXJXJXJXJXJXJXJXJXJXJXJXJXJXJXJXJXJXJXJXJXJXJXJXJXJXJXJXJXJXJXJXJXHXHXHXDXDXDXGXJXJXDXDXhX: . 1 ;.'.0.q.q.q.q.q.q.q.8.q.q.q.q.q.q.q.q.q.q.q.q.q.q.q.q.q.q.q.q.8.q.q.8.i.[.-.< . e VXSXDXJXDXJXGXJXGXJXJXJXJXJXJXJXJXJXJXJXJXJXJXJXJXJXJXJXJXJXJXJXJXJXJXJXJXJXJXJXJXJXJXJXJXJXJXJXJXJXJXJXJXJXJXJXJXJXJXJXJXJXJXJXJXJXJXJXJXJXJXJXJXJXJXJXJXJXJXJXJXJXJXJXJXJXJXJXJXJXJXJXJXJXJXJXJXJXJXJXJXJXJXJXJXJXJXJXJX",
"JXJXJXJXJXJXJXJXJXJXJXJXJXJXJXJXJXJXJXJXJXJXJXJXJXJXJXJXJXJXJXJXJXJXJXJXJXJXJXJXJXJXJXJXJXJXJXJXJXJXJXJXJXJXJXJXJXJXJXJXJXJXJXJXJXJXJXJXJXJXJXJXJXJXJXJXJXJXJXJXJXJXJXJXJXJXJXJXJXJXJXJXJXJXJXJXHXHXDXDXJXGXHXJXJXJX9X+ . 0 Q.r.0.q.q.q.q.q.q.q.8.q.q.q.q.q.q.q.q.q.q.q.q.q.q.q.q.q.q.q.q.q.q.8.8.q.(.#X1 .   iXSXSXJXJXJXJXJXHXJXJXJXJXJXJXJXJXJXJXJXJXJXJXJXJXJXJXJXJXJXJXJXJXJXJXJXJXJXJXJXJXJXJXJXJXJXJXJXJXJXJXJXJXJXJXJXJXJXJXJXJXJXJXJXJXJXJXJXJXJXJXJXJXJXJXJXJXJXJXJXJXJXJXJXJXJXJXJXJXJXJXJXJXJXJXJXJXJXJXJXJXJXJXJXJXJXJXJXJX",
"JXJXJXJXJXJXJXJXJXJXJXJXJXJXJXJXJXJXJXJXJXJXJXJXJXJXJXJXJXJXJXJXJXJXJXJXJXJXJXJXJXJXJXJXJXJXJXJXJXJXJXJXJXJXJXJXJXJXJXJXJXJXJXJXJXJXJXJXJXJXJXJXJXJXJXJXJXJXJXJXJXJXJXJXJXJXJXJXJXJXJXJXJXJXJXJXHXJXJXDXJXHXHXHXJXJX! . @ N [.p.0.q.q.q.q.q.q.q.q.q.q.q.q.q.q.q.q.q.q.q.q.q.q.q.q.q.q.q.q.q.q.8.8.q.^.$Xh 2   ] JXFXJXJXDXJXHXJXJXJXJXJXJXJXJXJXJXJXJXJXJXJXJXJXJXJXJXJXJXJXJXJXJXJXJXJXJXJXJXJXJXJXJXJXJXJXJXJXJXJXJXJXJXJXJXJXJXJXJXJXJXJXJXJXJXJXJXJXJXJXJXJXJXJXJXJXJXJXJXJXJXJXJXJXJXJXJXJXJXJXJXJXJXJXJXJXJXJXJXJXJXJXJXJXJXJXJXJX",
"JXJXJXJXJXJXJXJXJXJXJXJXJXJXJXJXJXJXJXJXJXJXJXJXJXJXJXJXJXJXJXJXJXJXJXJXJXJXJXJXJXJXJXJXJXJXJXJXJXJXJXJXJXJXJXJXJXJXJXJXJXJXJXJXJXJXJXJXJXJXJXJXJXJXJXJXJXJXJXJXJXJXJXJXJXJXJXJXJXJXJXJXJXJXJXJXJXJXDXDXGXHXHXHXGXZX> @ 1 %.c.I.q.q.q.q.q.q.q.q.q.q.q.q.q.q.q.q.q.q.q.q.q.q.q.q.q.q.q.q.q.q.q.8.8.D.r.k.X.< . u JXJXGXGXJXJXZXJXJXJXJXJXJXJXJXJXJXJXJXJXJXJXJXJXJXJXJXJXJXJXJXJXJXJXJXJXJXJXJXJXJXJXJXJXJXJXJXJXJXJXJXJXJXJXJXJXJXJXJXJXJXJXJXJXJXJXJXJXJXJXJXJXJXJXJXJXJXJXJXJXJXJXJXJXJXJXJXJXJXJXJXJXJXJXJXJXJXJXJXJXJXJXJXJXJXJXJXJX",
"JXJXJXJXJXJXJXJXJXJXJXJXJXJXJXJXJXJXJXJXJXJXJXJXJXJXJXJXJXJXJXJXJXJXJXJXJXJXJXJXJXJXJXJXJXJXJXJXJXJXJXJXJXJXJXJXJXJXJXJXJXJXJXJXJXJXJXJXJXJXJXJXJXJXJXJXJXJXJXJXJXJXJXJXJXJXJXJXJXJXJXJXJXJXJXJXJXJXDXDXGXHXHXHXHXpX. @ 8 N.z.I.q.q.q.q.q.q.q.q.q.q.q.q.q.q.q.q.q.q.q.q.q.q.q.q.q.q.q.q.q.q.q.8.6.8.P.[.n.1 @ . hXJXGXGXJXJXSXHXJXJXJXJXJXJXJXJXJXJXJXJXJXJXJXJXJXJXJXJXJXJXJXJXJXJXJXJXJXJXJXJXJXJXJXJXJXJXJXJXJXJXJXJXJXJXJXJXJXJXJXJXJXJXJXJXJXJXJXJXJXJXJXJXJXJXJXJXJXJXJXJXJXJXJXJXJXJXJXJXJXJXJXJXJXJXJXJXJXJXJXJXJXJXJXJXJXJXJXJX",
"JXJXJXJXJXJXJXJXJXJXJXJXJXJXJXJXJXJXJXJXJXJXJXJXJXJXJXJXJXJXJXJXJXJXJXJXJXJXJXJXJXJXJXJXJXJXJXJXJXJXJXJXJXJXJXJXJXJXJXJXJXJXJXJXJXJXJXJXJXJXJXJXJXJXJXJXJXJXJXJXJXJXJXJXJXJXJXJXJXJXJXJXJXJXJXJXJXJXDXDXGXHXHXHXHX] . # x %X'.w.q.q.q.q.q.q.q.q.q.q.q.q.q.q.q.q.q.q.q.q.q.q.q.q.q.q.q.q.q.q.q.8.6.A.K._.&Xh # . 5XJXJXHXJXGXHXHXJXJXJXJXJXJXJXJXJXJXJXJXJXJXJXJXJXJXJXJXJXJXJXJXJXJXJXJXJXJXJXJXJXJXJXJXJXJXJXJXJXJXJXJXJXJXJXJXJXJXJXJXJXJXJXJXJXJXJXJXJXJXJXJXJXJXJXJXJXJXJXJXJXJXJXJXJXJXJXJXJXJXJXJXJXJXJXJXJXJXJXJXJXJXJXJXJXJXJXJX",
"JXJXJXJXJXJXJXJXJXJXJXJXJXJXJXJXJXJXJXJXJXJXJXJXJXJXJXJXJXJXJXJXJXJXJXJXJXJXJXJXJXJXJXJXJXJXJXJXJXJXJXJXJXJXJXJXJXJXJXJXJXJXJXJXJXJXJXJXJXJXJXJXJXJXJXJXJXJXJXJXJXJXJXJXJXJXJXJXJXJXJXJXJXJXJXJXJXJXJXDXJXHXHXHXHXa @ 1 X.E.].0.q.q.q.q.q.q.q.q.q.q.q.q.q.q.q.q.q.q.q.q.q.q.q.q.q.q.q.q.q.q.q.8.6.A.4.J.W.V < # ~ FXJXSXGXSXHXHXJXJXJXJXJXJXJXJXJXJXJXJXJXJXJXJXJXJXJXJXJXJXJXJXJXJXJXJXJXJXJXJXJXJXJXJXJXJXJXJXJXJXJXJXJXJXJXJXJXJXJXJXJXJXJXJXJXJXJXJXJXJXJXJXJXJXJXJXJXJXJXJXJXJXJXJXJXJXJXJXJXJXJXJXJXJXJXJXJXJXJXJXJXJXJXJXJXJXJXJX",
"JXJXJXJXJXJXJXJXJXJXJXJXJXJXJXJXJXJXJXJXJXJXJXJXJXJXJXJXJXJXJXJXJXJXJXJXJXJXJXJXJXJXJXJXJXJXJXJXJXJXJXJXJXJXJXJXJXJXJXJXJXJXJXJXJXJXJXJXJXJXJXJXJXJXJXJXJXJXJXJXJXJXJXJXJXJXJXJXJXJXJXJXJXJXJXJXDXDXJXDXZXHXCXHXlX  # 5 l.c.I.6.q.q.q.q.q.q.q.q.q.q.q.q.8.8.q.q.q.8.8.q.q.q.q.8.q.q.q.q.8.q.q.8.6.8.F.4.T.-.5 # o KXJXHXGXbXHXZXJXJXJXJXJXJXJXJXJXJXJXJXJXJXJXJXJXJXJXJXJXJXJXJXJXJXJXJXJXJXJXJXJXJXJXJXJXJXJXJXJXJXJXJXJXJXJXJXJXJXJXJXJXJXJXJXJXJXJXJXJXJXJXJXJXJXJXJXJXJXJXJXJXJXJXJXJXJXJXJXJXJXJXJXJXJXJXJXJXJXJXJXJXJXJXJXJXJXJXJX",
"JXJXJXJXJXJXJXJXJXJXJXJXJXJXJXJXJXJXJXJXJXJXJXJXJXJXJXJXJXJXJXJXJXJXJXJXJXJXJXJXJXJXJXJXJXJXJXJXJXJXJXJXJXJXJXJXJXJXJXJXJXJXJXJXJXJXJXJXJXJXJXJXJXJXJXJXJXJXJXJXJXJXJXJXJXJXJXJXJXJXJXJXJXJXJXJXDXDXJXDXAXHXHXHX7X  # g k.x.I.q.q.q.q.q.q.8.q.q.q.q.q.q.q.8.q.q.q.8.8.q.q.q.q.q.q.q.q.q.8.q.q.8.8.8.A.Y._.h.d < @ 0XJXSXGXNXHXZXJXJXJXJXJXJXJXJXJXJXJXJXJXJXJXJXJXJXJXJXJXJXJXJXJXJXJXJXJXJXJXJXJXJXJXJXJXJXJXJXJXJXJXJXJXJXJXJXJXJXJXJXJXJXJXJXJXJXJXJXJXJXJXJXJXJXJXJXJXJXJXJXJXJXJXJXJXJXJXJXJXJXJXJXJXJXJXJXJXJXJXJXJXJXJXJXJXJXJXJX",
"JXJXJXJXJXJXJXJXJXJXJXJXJXJXJXJXJXJXJXJXJXJXJXJXJXJXJXJXJXJXJXJXJXJXJXJXJXJXJXJXJXJXJXJXJXJXJXJXJXJXJXJXJXJXJXJXJXJXJXJXJXJXJXJXJXJXJXJXJXJXJXJXJXJXJXJXJXJXJXJXJXJXJXJXJXJXJXJXJXJXJXJXJXJXJXJXJXDXJXGXJXJXHXHXR . 1 M .Xp.0.q.q.q.q.q.q.q.q.q.q.q.q.q.q.q.q.q.q.q.q.q.q.q.q.q.q.q.q.q.q.q.q.q.q.8.8.Z.H.;Xz 1 @ ( JXSXDXSXHXGXJXJXJXJXJXJXJXJXJXJXJXJXJXJXJXJXJXJXJXJXJXJXJXJXJXJXJXJXJXJXJXJXJXJXJXJXJXJXJXJXJXJXJXJXJXJXJXJXJXJXJXJXJXJXJXJXJXJXJXJXJXJXJXJXJXJXJXJXJXJXJXJXJXJXJXJXJXJXJXJXJXJXJXJXJXJXJXJXJXJXJXJXJXJXJXJXJXJXJXJX",
"JXJXJXJXJXJXJXJXJXJXJXJXJXJXJXJXJXJXJXJXJXJXJXJXJXJXJXJXJXJXJXJXJXJXJXJXJXJXJXJXJXJXJXJXJXJXJXJXJXJXJXJXJXJXJXJXJXJXJXJXJXJXJXJXJXJXJXJXJXJXJXJXJXJXJXJXJXJXJXJXJXJXJXJXJXJXJXJXJXJXJXJXJXJXJXJXJXJXGXHXJXDXJXcX* @ 1 *.).i.0.0.q.q.q.q.q.q.q.q.q.q.q.q.q.q.q.q.q.q.q.q.q.q.8.q.q.q.q.q.q.q.q.q.9.q.8.A.4.}.O.5 # t ZXSXDXDXGXJXJXJXJXJXJXJXJXJXJXJXJXJXJXJXJXJXJXJXJXJXJXJXJXJXJXJXJXJXJXJXJXJXJXJXJXJXJXJXJXJXJXJXJXJXJXJXJXJXJXJXJXJXJXJXJXJXJXJXJXJXJXJXJXJXJXJXJXJXJXJXJXJXJXJXJXJXJXJXJXJXJXJXJXJXJXJXJXJXJXJXJXJXJXJXJXJXJXJXJXJX",
"JXJXJXJXJXJXJXJXJXJXJXJXJXJXJXJXJXJXJXJXJXJXJXJXJXJXJXJXJXJXJXJXJXJXJXJXJXJXJXJXJXJXJXJXJXJXJXJXJXJXJXJXJXJXJXJXJXJXJXJXJXJXJXJXJXJXJXJXJXJXJXJXJXJXJXJXJXJXJXJXJXJXJXJXJXJXJXJXJXJXJXJXJXJXJXJXJXJXHXHXJXDXJX0X  @ 6 W.r.i.q.0.q.q.q.q.q.q.q.q.q.q.q.q.q.q.q.q.q.q.q.q.q.q.q.q.q.q.q.q.q.q.q.q.9.q.8.A.7.^.$X5 < . pXDXDXDXGXJXJXJXJXJXJXJXJXJXJXJXJXJXJXJXJXJXJXJXJXJXJXJXJXJXJXJXJXJXJXJXJXJXJXJXJXJXJXJXJXJXJXJXJXJXJXJXJXJXJXJXJXJXJXJXJXJXJXJXJXJXJXJXJXJXJXJXJXJXJXJXJXJXJXJXJXJXJXJXJXJXJXJXJXJXJXJXJXJXJXJXJXJXJXJXJXJXJXJXJXJX",
"JXJXJXJXJXJXJXJXJXJXJXJXJXJXJXJXJXJXJXJXJXJXJXJXJXJXJXJXJXJXJXJXJXJXJXJXJXJXJXJXJXJXJXJXJXJXJXJXJXJXJXJXJXJXJXJXJXJXJXJXJXJXJXJXJXJXJXJXJXJXJXJXJXJXJXJXJXJXJXJXJXJXJXJXJXJXJXJXJXJXJXJXJXJXJXJXJXHXHXHXJXMXAX'   @ x ;Xw.D.L.0.q.q.q.q.q.q.q.q.q.q.q.q.q.q.q.q.q.q.q.q.q.q.q.q.q.q.q.q.q.q.q.q.I.q.6.A.A.J.:Xd < . 2XSXDXDXGXJXJXJXJXJXJXJXJXJXJXJXJXJXJXJXJXJXJXJXJXJXJXJXJXJXJXJXJXJXJXJXJXJXJXJXJXJXJXJXJXJXJXJXJXJXJXJXJXJXJXJXJXJXJXJXJXJXJXJXJXJXJXJXJXJXJXJXJXJXJXJXJXJXJXJXJXJXJXJXJXJXJXJXJXJXJXJXJXJXJXJXJXJXJXJXJXJXJXJXJXJX",
"JXJXJXJXJXJXJXJXJXJXJXJXJXJXJXJXJXJXJXJXJXJXJXJXJXJXJXJXJXJXJXJXJXJXJXJXJXJXJXJXJXJXJXJXJXJXJXJXJXJXJXJXJXJXJXJXJXJXJXJXJXJXJXJXJXJXJXJXJXJXJXJXJXJXJXJXJXJXJXJXJXJXJXJXJXJXJXJXJXJXJXJXJXJXJXJXJXGXHXHXDXMXvXe   $ &..Xi.8.L.L.q.q.q.q.q.q.q.q.q.q.q.q.q.q.q.q.q.q.q.q.q.q.q.q.q.q.q.q.q.q.q.q.a.i.7.8.F.H.-X| < @ p bXDXDXJXJXJXJXJXJXJXJXJXJXJXJXJXJXJXJXJXJXJXJXJXJXJXJXJXJXJXJXJXJXJXJXJXJXJXJXJXJXJXJXJXJXJXJXJXJXJXJXJXJXJXJXJXJXJXJXJXJXJXJXJXJXJXJXJXJXJXJXJXJXJXJXJXJXJXJXJXJXJXJXJXJXJXJXJXJXJXJXJXJXJXJXJXJXJXJXJXJXJXJXJXJX",
"JXJXJXJXJXJXJXJXJXJXJXJXJXJXJXJXJXJXJXJXJXJXJXJXJXJXJXJXJXJXJXJXJXJXJXJXJXJXJXJXJXJXJXJXJXJXJXJXJXJXJXJXJXJXJXJXJXJXJXJXJXJXJXJXJXJXJXJXJXJXJXJXJXJXJXJXJXJXJXJXJXJXJXJXJXJXJXJXJXJXJXJXJXJXJXJXJXGXHXJXDXMXLX  . 3 n.c.I.6.0.0.q.q.q.q.q.q.q.q.q.q.q.q.q.q.q.q.q.8.8.8.q.q.q.q.q.q.q.q.q.q.q.q.i.i.8.7.A.K.g.N.< $   zXDXDXJXJXJXJXJXJXJXJXJXJXJXJXJXJXJXJXJXJXJXJXJXJXJXJXJXJXJXJXJXJXJXJXJXJXJXJXJXJXJXJXJXJXJXJXJXJXJXJXJXJXJXJXJXJXJXJXJXJXJXJXJXJXJXJXJXJXJXJXJXJXJXJXJXJXJXJXJXJXJXJXJXJXJXJXJXJXJXJXJXJXJXJXJXJXJXJXJXJXJXJXJXJX",
"JXJXJXJXJXJXJXJXJXJXJXJXJXJXJXJXJXJXJXJXJXJXJXJXJXJXJXJXJXJXJXJXJXJXJXJXJXJXJXJXJXJXJXJXJXJXJXJXJXJXJXJXJXJXJXJXJXJXJXJXJXJXJXJXJXJXJXJXJXJXJXJXJXJXJXJXJXJXJXJXJXJXJXJXJXJXJXJXJXJXJXJXJXJXJXJXJXFXJXJXDXJX2X. # g %Xx.I.q.7.0.q.q.q.q.q.q.q.q.q.q.q.q.q.q.q.q.q.q.8.8.q.q.q.q.q.q.q.q.8.8.q.8.8.8.9.9.8.0.J.W.8 # o 4XJXDXmXJXJXJXJXJXJXJXJXJXJXJXJXJXJXJXJXJXJXJXJXJXJXJXJXJXJXJXJXJXJXJXJXJXJXJXJXJXJXJXJXJXJXJXJXJXJXJXJXJXJXJXJXJXJXJXJXJXJXJXJXJXJXJXJXJXJXJXJXJXJXJXJXJXJXJXJXJXJXJXJXJXJXJXJXJXJXJXJXJXJXJXJXJXJXJXJXJXJXJXJXJX",
"JXJXJXJXJXJXJXJXJXJXJXJXJXJXJXJXJXJXJXJXJXJXJXJXJXJXJXJXJXJXJXJXJXJXJXJXJXJXJXJXJXJXJXJXJXJXJXJXJXJXJXJXJXJXJXJXJXJXJXJXJXJXJXJXJXJXJXJXJXJXJXJXJXJXJXJXJXJXJXJXJXJXJXJXJXJXJXJXJXJXJXJXJXJXJXJXHXJXDXAXJXJXp @ 1 C -Xx.9.8.8.D.q.q.q.q.q.q.q.q.q.q.q.q.q.q.q.q.q.q.8.q.q.q.q.q.q.q.q.q.q.q.q.8.A.8.i.i.q.0.G.T.B # o Q JXJXJXDXJXJXJXJXJXJXJXJXJXJXJXJXJXJXJXJXJXJXJXJXJXJXJXJXJXJXJXJXJXJXJXJXJXJXJXJXJXJXJXJXJXJXJXJXJXJXJXJXJXJXJXJXJXJXJXJXJXJXJXJXJXJXJXJXJXJXJXJXJXJXJXJXJXJXJXJXJXJXJXJXJXJXJXJXJXJXJXJXJXJXJXJXJXJXJXJXJXJXJXJX",
"JXJXJXJXJXJXJXJXJXJXJXJXJXJXJXJXJXJXJXJXJXJXJXJXJXJXJXJXJXJXJXJXJXJXJXJXJXJXJXJXJXJXJXJXJXJXJXJXJXJXJXJXJXJXJXJXJXJXJXJXJXJXJXJXJXJXJXJXJXJXJXJXJXJXJXJXJXJXJXJXJXJXJXJXJXJXJXJXJXJXJXJXJXJXJXJXJXJXJXDXJXcX  @ 5 :.;Xe.6.8.8.D.q.q.q.q.q.8.q.q.q.q.8.8.q.q.q.8.q.q.q.q.q.q.q.q.q.q.q.q.q.q.q.8.A.8.9.i.q.q.G.T.:.< @ * ZXJXJXDXJXJXJXJXJXJXJXJXJXJXJXJXJXJXJXJXJXJXJXJXJXJXJXJXJXJXJXJXJXJXJXJXJXJXJXJXJXJXJXJXJXJXJXJXJXJXJXJXJXJXJXJXJXJXJXJXJXJXJXJXJXJXJXJXJXJXJXJXJXJXJXJXJXJXJXJXJXJXJXJXJXJXJXJXJXJXJXJXJXJXJXJXJXJXJXJXJXJXJXJX",
"JXJXJXJXJXJXJXJXJXJXJXJXJXJXJXJXJXJXJXJXJXJXJXJXJXJXJXJXJXJXJXJXJXJXJXJXJXJXJXJXJXJXJXJXJXJXJXJXJXJXJXJXJXJXJXJXJXJXJXJXJXJXJXJXJXJXJXJXJXJXJXJXJXJXJXJXJXJXJXJXJXJXJXJXJXJXJXJXJXJXJXJXJXJXJXJXHXGXJXDXDX9X. @ 0 N.}.u.8.A.7.q.q.q.q.q.8.8.q.q.q.q.8.8.q.q.q.8.q.q.q.q.q.q.q.q.q.q.q.q.q.q.q.8.A.8.9.9.q.8.S.^.#X5 # . uXZXJXJXJXJXJXJXJXJXJXJXJXJXJXJXJXJXJXJXJXJXJXJXJXJXJXJXJXJXJXJXJXJXJXJXJXJXJXJXJXJXJXJXJXJXJXJXJXJXJXJXJXJXJXJXJXJXJXJXJXJXJXJXJXJXJXJXJXJXJXJXJXJXJXJXJXJXJXJXJXJXJXJXJXJXJXJXJXJXJXJXJXJXJXJXJXJXJXJXJXJXJXJX",
"JXJXJXJXJXJXJXJXJXJXJXJXJXJXJXJXJXJXJXJXJXJXJXJXJXJXJXJXJXJXJXJXJXJXJXJXJXJXJXJXJXJXJXJXJXJXJXJXJXJXJXJXJXJXJXJXJXJXJXJXJXJXJXJXJXJXJXJXJXJXJXJXJXJXJXJXJXJXJXJXJXJXJXJXJXJXJXJXJXJXJXJXJXJXJXJXGXDXSXJXJX~ @ # N W.r.D.A.A.6.q.q.q.q.q.q.q.q.q.q.q.q.q.q.q.8.8.q.q.q.8.8.q.q.q.q.q.q.q.q.q.q.8.A.8.9.9.8.8.S.J.&Xx # @ ` JXHXHXJXJXJXJXJXJXJXJXJXJXJXJXJXJXJXJXJXJXJXJXJXJXJXJXJXJXJXJXJXJXJXJXJXJXJXJXJXJXJXJXJXJXJXJXJXJXJXJXJXJXJXJXJXJXJXJXJXJXJXJXJXJXJXJXJXJXJXJXJXJXJXJXJXJXJXJXJXJXJXJXJXJXJXJXJXJXJXJXJXJXJXJXJXJXJXJXJXJXJXJX",
"JXJXJXJXJXJXJXJXJXJXJXJXJXJXJXJXJXJXJXJXJXJXJXJXJXJXJXJXJXJXJXJXJXJXJXJXJXJXJXJXJXJXJXJXJXJXJXJXJXJXJXJXJXJXJXJXJXJXJXJXJXJXJXJXJXJXJXJXJXJXJXJXJXJXJXJXJXJXJXJXJXJXJXJXJXJXJXJXJXJXJXJXJXJXJXJXSXDXZXJXJX& @ 1 %. X4.A.A.8.7.D.q.q.q.q.q.q.q.q.q.q.8.8.q.q.q.q.q.q.q.8.8.8.q.q.q.q.q.q.q.q.q.8.A.8.9.9.8.8.A.G.Q.&.< # q GXHXHXJXJXJXJXJXJXJXJXJXJXJXJXJXJXJXJXJXJXJXJXJXJXJXJXJXJXJXJXJXJXJXJXJXJXJXJXJXJXJXJXJXJXJXJXJXJXJXJXJXJXJXJXJXJXJXJXJXJXJXJXJXJXJXJXJXJXJXJXJXJXJXJXJXJXJXJXJXJXJXJXJXJXJXJXJXJXJXJXJXJXJXJXJXJXJXJXJXJXJXJX",
"JXJXJXJXJXJXJXJXJXJXJXJXJXJXJXJXJXJXJXJXJXJXJXJXJXJXJXJXJXJXJXJXJXJXJXJXJXJXJXJXJXJXJXJXJXJXJXJXJXJXJXJXJXJXJXJXJXJXJXJXJXJXJXJXJXJXJXJXJXJXJXJXJXJXJXJXJXJXJXJXJXJXJXJXJXJXJXJXJXJXJXJXJXJXJXJXDXDXGXJXuX. # f R.`.Y.A.6.8.q.i.q.q.q.q.q.q.q.q.q.q.q.q.q.q.q.q.q.q.q.8.q.q.q.q.q.q.q.q.q.q.q.8.A.8.9.9.8.8.A.K.(.j.6 # . dXHXHXJXJXJXJXJXJXJXJXJXJXJXJXJXJXJXJXJXJXJXJXJXJXJXJXJXJXJXJXJXJXJXJXJXJXJXJXJXJXJXJXJXJXJXJXJXJXJXJXJXJXJXJXJXJXJXJXJXJXJXJXJXJXJXJXJXJXJXJXJXJXJXJXJXJXJXJXJXJXJXJXJXJXJXJXJXJXJXJXJXJXJXJXJXJXJXJXJXJXJXJX",
"JXJXJXJXJXJXJXJXJXJXJXJXJXJXJXJXJXJXJXJXJXJXJXJXJXJXJXJXJXJXJXJXJXJXJXJXJXJXJXJXJXJXJXJXJXJXJXJXJXJXJXJXJXJXJXJXJXJXJXJXJXJXJXJXJXJXJXJXJXJXJXJXJXJXJXJXJXJXJXJXJXJXJXJXJXJXJXJXJXJXJXJXJXJXJXJXDXbXHXJX[ # < g W.J.F.A.6.8.I.9.q.q.q.q.q.q.q.q.q.q.q.q.q.q.q.q.q.q.q.q.q.q.q.q.q.q.q.q.q.q.q.q.D.q.q.q.8.8.8.S./.%Xl < @ 4XCXHXHXJXJXJXJXJXJXJXJXJXJXJXJXJXJXJXJXJXJXJXJXJXJXJXJXJXJXJXJXJXJXJXJXJXJXJXJXJXJXJXJXJXJXJXJXJXJXJXJXJXJXJXJXJXJXJXJXJXJXJXJXJXJXJXJXJXJXJXJXJXJXJXJXJXJXJXJXJXJXJXJXJXJXJXJXJXJXJXJXJXJXJXJXJXJXJXJXJXJXJX",
"JXJXJXJXJXJXJXJXJXJXJXJXJXJXJXJXJXJXJXJXJXJXJXJXJXJXJXJXJXJXJXJXJXJXJXJXJXJXJXJXJXJXJXJXJXJXJXJXJXJXJXJXJXJXJXJXJXJXJXJXJXJXJXJXJXJXJXJXJXJXJXJXJXJXJXJXJXJXJXJXJXJXJXJXJXJXJXJXJXJXJXJXJXJXJXJXGXHXHXJXt # 1 X.E.G.A.A.8.8.i.i.q.q.q.q.q.q.q.q.q.q.q.q.q.q.q.q.q.q.q.q.q.q.q.q.q.q.q.q.q.q.q.q.D.D.q.q.8.8.8.D.H.[.X.1 # p HXHXHXJXJXJXJXJXJXJXJXJXJXJXJXJXJXJXJXJXJXJXJXJXJXJXJXJXJXJXJXJXJXJXJXJXJXJXJXJXJXJXJXJXJXJXJXJXJXJXJXJXJXJXJXJXJXJXJXJXJXJXJXJXJXJXJXJXJXJXJXJXJXJXJXJXJXJXJXJXJXJXJXJXJXJXJXJXJXJXJXJXJXJXJXJXJXJXJXJXJXJX",
"JXJXJXJXJXJXJXJXJXJXJXJXJXJXJXJXJXJXJXJXJXJXJXJXJXJXJXJXJXJXJXJXJXJXJXJXJXJXJXJXJXJXJXJXJXJXJXJXJXJXJXJXJXJXJXJXJXJXJXJXJXJXJXJXJXJXJXJXJXJXJXJXJXJXJXJXJXJXJXJXJXJXJXJXJXJXJXJXJXJXJXJXJXJXJXJXSXHXFXhX= # 5 j.(.K.A.8.8.q.i.i.q.q.q.q.q.q.q.q.q.q.q.q.q.q.q.q.q.q.8.8.q.q.q.q.q.q.q.q.q.q.q.q.D.D.q.q.q.8.8.A.K.z.-.6 @ = VXCXHXJXJXJXJXJXJXJXJXJXJXJXJXJXJXJXJXJXJXJXJXJXJXJXJXJXJXJXJXJXJXJXJXJXJXJXJXJXJXJXJXJXJXJXJXJXJXJXJXJXJXJXJXJXJXJXJXJXJXJXJXJXJXJXJXJXJXJXJXJXJXJXJXJXJXJXJXJXJXJXJXJXJXJXJXJXJXJXJXJXJXJXJXJXJXJXJXJXJXJX",
"JXJXJXJXJXJXJXJXJXJXJXJXJXJXJXJXJXJXJXJXJXJXJXJXJXJXJXJXJXJXJXJXJXJXJXJXJXJXJXJXJXJXJXJXJXJXJXJXJXJXJXJXJXJXJXJXJXJXJXJXJXJXJXJXJXJXJXJXJXJXJXJXJXJXJXJXJXJXJXJXJXJXJXJXJXJXJXJXJXJXJXJXJXJXJXJXSXHXHX7X. # d :X/.L.A.A.8.q.i.i.q.q.q.q.q.q.q.q.8.8.q.q.q.q.q.q.q.q.q.q.q.q.q.q.q.q.q.q.q.q.q.q.8.8.8.8.q.q.8.A.S.'.k.l # . 0XCXJXJXJXJXJXJXJXJXJXJXJXJXJXJXJXJXJXJXJXJXJXJXJXJXJXJXJXJXJXJXJXJXJXJXJXJXJXJXJXJXJXJXJXJXJXJXJXJXJXJXJXJXJXJXJXJXJXJXJXJXJXJXJXJXJXJXJXJXJXJXJXJXJXJXJXJXJXJXJXJXJXJXJXJXJXJXJXJXJXJXJXJXJXJXJXJXJXJXJXJX",
"JXJXJXJXJXJXJXJXJXJXJXJXJXJXJXJXJXJXJXJXJXJXJXJXJXJXJXJXJXJXJXJXJXJXJXJXJXJXJXJXJXJXJXJXJXJXJXJXJXJXJXJXJXJXJXJXJXJXJXJXJXJXJXJXJXJXJXJXJXJXJXJXJXJXJXJXJXJXJXJXJXJXJXJXJXJXJXJXJXJXJXJXJXJXJXJXZXHXHXE . 1 V k.P.q.8.8.q.q.q.q.q.q.q.q.q.q.q.q.q.q.q.q.q.q.q.q.q.q.q.q.q.q.q.q.q.q.q.q.q.q.q.q.8.8.8.8.0.q.8.A.5.].k.M 5 . ! SXJXJXJXJXJXJXJXJXJXJXJXJXJXJXJXJXJXJXJXJXJXJXJXJXJXJXJXJXJXJXJXJXJXJXJXJXJXJXJXJXJXJXJXJXJXJXJXJXJXJXJXJXJXJXJXJXJXJXJXJXJXJXJXJXJXJXJXJXJXJXJXJXJXJXJXJXJXJXJXJXJXJXJXJXJXJXJXJXJXJXJXJXJXJXJXJXJXJXJXJX",
"JXJXJXJXJXJXJXJXJXJXJXJXJXJXJXJXJXJXJXJXJXJXJXJXJXJXJXJXJXJXJXJXJXJXJXJXJXJXJXJXJXJXJXJXJXJXJXJXJXJXJXJXJXJXJXJXJXJXJXJXJXJXJXJXJXJXJXJXJXJXJXJXJXJXJXJXJXJXJXJXJXJXJXJXJXJXJXJXJXJXJXJXJXJXJXJXGXHXCX= . 5 ;.z.i.8.8.8.q.q.q.q.q.q.q.q.q.q.q.q.q.q.q.q.q.q.q.q.q.q.q.q.q.q.q.q.q.q.q.q.q.q.q.8.8.8.A.8.0.0.q.A.7.U.b.*.5 # & NXJXJXJXJXJXJXJXJXJXJXJXJXJXJXJXJXJXJXJXJXJXJXJXJXJXJXJXJXJXJXJXJXJXJXJXJXJXJXJXJXJXJXJXJXJXJXJXJXJXJXJXJXJXJXJXJXJXJXJXJXJXJXJXJXJXJXJXJXJXJXJXJXJXJXJXJXJXJXJXJXJXJXJXJXJXJXJXJXJXJXJXJXJXJXJXJXJXJXJXJX",
"JXJXJXJXJXJXJXJXJXJXJXJXJXJXJXJXJXJXJXJXJXJXJXJXJXJXJXJXJXJXJXJXJXJXJXJXJXJXJXJXJXJXJXJXJXJXJXJXJXJXJXJXJXJXJXJXJXJXJXJXJXJXJXJXJXJXJXJXJXJXJXJXJXJXJXJXJXJXJXJXJXJXJXJXJXJXJXJXJXJXJXJXJXJXJXJXJXFX0X  . 7 W./.q.8.8.q.q.q.q.8.8.q.q.q.q.q.q.q.q.q.q.q.q.8.q.q.q.q.q.q.q.q.q.q.q.q.8.8.q.q.q.8.8.8.A.A.u.i.q.8.A.7.).B.1 #   tXJXJXJXJXJXJXJXJXJXJXJXJXJXJXJXJXJXJXJXJXJXJXJXJXJXJXJXJXJXJXJXJXJXJXJXJXJXJXJXJXJXJXJXJXJXJXJXJXJXJXJXJXJXJXJXJXJXJXJXJXJXJXJXJXJXJXJXJXJXJXJXJXJXJXJXJXJXJXJXJXJXJXJXJXJXJXJXJXJXJXJXJXJXJXJXJXJXJXJXJX",
"JXJXJXJXJXJXJXJXJXJXJXJXJXJXJXJXJXJXJXJXJXJXJXJXJXJXJXJXJXJXJXJXJXJXJXJXJXJXJXJXJXJXJXJXJXJXJXJXJXJXJXJXJXJXJXJXJXJXJXJXJXJXJXJXJXJXJXJXJXJXJXJXJXJXJXJXJXJXJXJXJXJXJXJXJXJXJXJXJXJXJXJXJXJXJXJXJXJX_ + @ c !.P.8.6.8.q.q.D.A.A.8.q.q.q.q.q.q.q.q.q.q.q.q.q.q.q.q.q.q.q.q.q.q.q.q.q.q.q.q.q.q.8.8.8.A.A.u.u.i.q.A.7./.:Xl <   ] JXJXJXJXJXJXJXJXJXJXJXJXJXJXJXJXJXJXJXJXJXJXJXJXJXJXJXJXJXJXJXJXJXJXJXJXJXJXJXJXJXJXJXJXJXJXJXJXJXJXJXJXJXJXJXJXJXJXJXJXJXJXJXJXJXJXJXJXJXJXJXJXJXJXJXJXJXJXJXJXJXJXJXJXJXJXJXJXJXJXJXJXJXJXJXJXJXJXJXJX",
"JXJXJXJXJXJXJXJXJXJXJXJXJXJXJXJXJXJXJXJXJXJXJXJXJXJXJXJXJXJXJXJXJXJXJXJXJXJXJXJXJXJXJXJXJXJXJXJXJXJXJXJXJXJXJXJXJXJXJXJXJXJXJXJXJXJXJXJXJXJXJXJXJXJXJXJXJXJXJXJXJXJXJXJXJXJXJXJXJXJXJXJXJXJXJXJXFXJX> $ # O.[.e.q.8.q.q.8.8.A.A.A.q.q.q.q.q.q.q.q.q.q.q.q.q.q.q.8.8.8.q.q.q.q.q.q.q.q.q.q.q.q.8.8.8.8.D.u.u.i.q.6.F.r.k.&.1 . p JXJXJXJXJXJXJXJXJXJXJXJXJXJXJXJXJXJXJXJXJXJXJXJXJXJXJXJXJXJXJXJXJXJXJXJXJXJXJXJXJXJXJXJXJXJXJXJXJXJXJXJXJXJXJXJXJXJXJXJXJXJXJXJXJXJXJXJXJXJXJXJXJXJXJXJXJXJXJXJXJXJXJXJXJXJXJXJXJXJXJXJXJXJXJXJXJXJXJXJX",
"JXJXJXJXJXJXJXJXJXJXJXJXJXJXJXJXJXJXJXJXJXJXJXJXJXJXJXJXJXJXJXJXJXJXJXJXJXJXJXJXJXJXJXJXJXJXJXJXJXJXJXJXJXJXJXJXJXJXJXJXJXJXJXJXJXJXJXJXJXJXJXJXJXJXJXJXJXJXJXJXJXJXJXJXJXJXJXJXJXGXJXJXJXJXJXJXJXdX. # 1 R.(.P.i.q.q.8.8.8.8.A.A.S.S.S.S.D.D.D.0.q.q.q.q.q.q.8.8.8.8.8.8.8.8.8.8.8.8.8.8.8.8.8.8.8.q.q.i.0.q.8.6.D.'.[.:.7   + sXZXJXJXZXJXJXJXJXJXJXJXJXJXJXJXJXJXJXJXJXJXJXJXJXJXJXJXJXJXJXJXJXJXJXJXJXJXJXJXJXJXJXJXJXJXJXJXJXJXJXJXJXJXJXJXJXJXJXJXJXJXJXJXJXJXJXJXJXJXJXJXJXJXJXJXJXJXJXJXJXJXJXJXJXJXJXJXJXJXJXJXJXJXJXJXJXJXJXJX",
"JXJXJXJXJXJXJXJXJXJXJXJXJXJXJXJXJXJXJXJXJXJXJXJXJXJXJXJXJXJXJXJXJXJXJXJXJXJXJXJXJXJXJXJXJXJXJXJXJXJXJXJXJXJXJXJXJXJXJXJXJXJXJXJXJXJXJXJXJXJXJXJXJXJXJXJXJXJXJXJXJXJXJXJXJXJXJXJXJXJXJXJXJXJXGXFXHX3X@ 1 g W.^.P.i.q.9.q.8.8.8.8.A.S.0.0.0.0.0.8.8.8.8.8.8.8.8.8.8.8.q.q.q.q.q.q.q.q.q.q.q.q.q.q.8.q.q.q.0.0.8.8.6.D.u.}.*X0 $   4XJXGXJXGXJXJXJXJXJXJXJXJXJXJXJXJXJXJXJXJXJXJXJXJXJXJXJXJXJXJXJXJXJXJXJXJXJXJXJXJXJXJXJXJXJXJXJXJXJXJXJXJXJXJXJXJXJXJXJXJXJXJXJXJXJXJXJXJXJXJXJXJXJXJXJXJXJXJXJXJXJXJXJXJXJXJXJXJXJXJXJXJXJXJXJXJXJXJXJX",
"JXJXJXJXJXJXJXJXJXJXJXJXJXJXJXJXJXJXJXJXJXJXJXJXJXJXJXJXJXJXJXJXJXJXJXJXJXJXJXJXJXJXJXJXJXJXJXJXJXJXJXJXJXJXJXJXJXJXJXJXJXJXJXJXJXJXJXJXJXJXJXJXJXJXJXJXJXJXJXJXJXJXJXJXJXJXJXJXJXJXGXJXJXJXJXHXHXp @ 3 H !.J.K.q.9.9.i.i.i.i.q.q.9.q.q.8.8.8.8.8.8.8.A.A.A.A.A.0.0.q.q.i.0.0.0.i.i.i.0.0.0.0.q.q.q.0.0.0.0.8.8.6.8.5./.&Xb < . Z JXZXJXJXJXGXJXJXJXJXJXJXJXJXJXJXJXJXJXJXJXJXJXJXJXJXJXJXJXJXJXJXJXJXJXJXJXJXJXJXJXJXJXJXJXJXJXJXJXJXJXJXJXJXJXJXJXJXJXJXJXJXJXJXJXJXJXJXJXJXJXJXJXJXJXJXJXJXJXJXJXJXJXJXJXJXJXJXJXJXJXJXJXJXJXJXJXJXJX",
"JXJXJXJXJXJXJXJXJXJXJXJXJXJXJXJXJXJXJXJXJXJXJXJXJXJXJXJXJXJXJXJXJXJXJXJXJXJXJXJXJXJXJXJXJXJXJXJXJXJXJXJXJXJXJXJXJXJXJXJXJXJXJXJXJXJXJXJXJXJXJXJXJXJXJXJXJXJXJXJXJXJXJXJXJXJXJXJXJXJXJXGXJXJXJXHXBX+ . 3 <._.G.7.q.q.9.i.i.p.P.i.9.6.6.6.6.8.6.8.8.8.8.8.8.A.A.A.0.0.i.i.i.0.0.0.0.i.i.0.0.0.0.0.q.q.0.0.0.8.8.8.A.6.5.P.g.-.< # % xXGXJXJXGXJXJXJXJXJXJXJXJXJXJXJXJXJXJXJXJXJXJXJXJXJXJXJXJXJXJXJXJXJXJXJXJXJXJXJXJXJXJXJXJXJXJXJXJXJXJXJXJXJXJXJXJXJXJXJXJXJXJXJXJXJXJXJXJXJXJXJXJXJXJXJXJXJXJXJXJXJXJXJXJXJXJXJXJXJXJXJXJXJXJXJXJXJXJX",
"JXJXJXJXJXJXJXJXJXJXJXJXJXJXJXJXJXJXJXJXJXJXJXJXJXJXJXJXJXJXJXJXJXJXJXJXJXJXJXJXJXJXJXJXJXJXJXJXJXJXJXJXJXJXJXJXJXJXJXJXJXJXJXJXJXJXJXJXJXJXJXJXJXJXJXJXJXJXJXJXJXJXJXJXJXJXJXJXJXJXJXJXGXJXJXHX9X  . 0 &XOXS.7.8.6.q.9.i.p.P.K.8.6.6.6.6.6.8.8.8.q.q.9.9.9.9.9.q.0.q.q.q.q.8.8.q.q.q.q.q.q.q.8.8.8.0.S.D.8.8.8.6.6.8.I.[.$X6 # . qXJXJXJXJXJXGXJXJXJXJXJXJXJXJXJXJXJXJXJXJXJXJXJXJXJXJXJXJXJXJXJXJXJXJXJXJXJXJXJXJXJXJXJXJXJXJXJXJXJXJXJXJXJXJXJXJXJXJXJXJXJXJXJXJXJXJXJXJXJXJXJXJXJXJXJXJXJXJXJXJXJXJXJXJXJXJXJXJXJXJXJXJXJXJXJXJXJXJX",
"JXJXJXJXJXJXJXJXJXJXJXJXJXJXJXJXJXJXJXJXJXJXJXJXJXJXJXJXJXJXJXJXJXJXJXJXJXJXJXJXJXJXJXJXJXJXJXJXJXJXJXJXJXJXJXJXJXJXJXJXJXJXJXJXJXJXJXJXJXJXJXJXJXJXJXJXJXJXJXJXJXJXJXJXJXJXJXJXJXJXJXJXJXJXJXJX~   # N ;X2.0.6.6.6.6.8.q.0.K.S.7.8.8.8.8.8.8.8.q.9.9.i.y.y.y.9.q.8.8.8.8.8.8.8.8.8.8.8.8.8.8.8.8.8.8.D.0.0.8.8.6.A.q.p.oXh.V # . _ JXJXGXJXJXJXJXJXJXJXJXJXJXJXJXJXJXJXJXJXJXJXJXJXJXJXJXJXJXJXJXJXJXJXJXJXJXJXJXJXJXJXJXJXJXJXJXJXJXJXJXJXJXJXJXJXJXJXJXJXJXJXJXJXJXJXJXJXJXJXJXJXJXJXJXJXJXJXJXJXJXJXJXJXJXJXJXJXJXJXJXJXJXJXJXJXJXJX",
"JXJXJXJXJXJXJXJXJXJXJXJXJXJXJXJXJXJXJXJXJXJXJXJXJXJXJXJXJXJXJXJXJXJXJXJXJXJXJXJXJXJXJXJXJXJXJXJXJXJXJXJXJXJXJXJXJXJXJXJXJXJXJXJXJXJXJXJXJXJXJXJXJXJXJXJXJXJXJXJXJXJXJXJXJXJXJXJXGXJXJXJXJXJXGXxX; . < &.&Xg.P.7.8.8.6.8.8.8.A.A.S.S.S.S.S.0.0.0.q.q.9.9.9.9.9.9.8.8.8.8.8.8.8.8.8.8.8.8.8.8.8.8.8.8.8.8.0.0.q.8.D.L.u.t.=XN.&.< . u cXJXJXJXJXJXJXJXJXJXJXJXJXJXJXJXJXJXJXJXJXJXJXJXJXJXJXJXJXJXJXJXJXJXJXJXJXJXJXJXJXJXJXJXJXJXJXJXJXJXJXJXJXJXJXJXJXJXJXJXJXJXJXJXJXJXJXJXJXJXJXJXJXJXJXJXJXJXJXJXJXJXJXJXJXJXJXJXJXJXJXJXJXJXJXJXJXJX",
"JXJXJXJXJXJXJXJXJXJXJXJXJXJXJXJXJXJXJXJXJXJXJXJXJXJXJXJXJXJXJXJXJXJXJXJXJXJXJXJXJXJXJXJXJXJXJXJXJXJXJXJXJXJXJXJXJXJXJXJXJXJXJXJXJXJXJXJXJXJXJXJXJXJXJXJXJXJXJXJXJXJXJXJXJXJXJXJXJXJXJXGXJXJXcXaX. . < M.#X-X}.t.i.q.8.8.8.8.8.8.A.S.S.S.D.D.0.q.q.q.q.q.9.9.9.9.q.8.8.8.8.8.8.8.8.8.8.8.8.8.8.8.8.8.8.q.0.i.i.i.I.r.).=X#X*XC #   + aXJXJXJXZXJXJXJXJXJXJXJXJXJXJXJXJXJXJXJXJXJXJXJXJXJXJXJXJXJXJXJXJXJXJXJXJXJXJXJXJXJXJXJXJXJXJXJXJXJXJXJXJXJXJXJXJXJXJXJXJXJXJXJXJXJXJXJXJXJXJXJXJXJXJXJXJXJXJXJXJXJXJXJXJXJXJXJXJXJXJXJXJXJXJXJXJXJX",
"JXJXJXJXJXJXJXJXJXJXJXJXJXJXJXJXJXJXJXJXJXJXJXJXJXJXJXJXJXJXJXJXJXJXJXJXJXJXJXJXJXJXJXJXJXJXJXJXJXJXJXJXJXJXJXJXJXJXJXJXJXJXJXJXJXJXJXJXJXJXJXJXJXJXJXJXJXJXJXJXJXJXJXJXJXJXJXJXJXZXJXJXJXJXGX] o . # 1 6 X.,.;XE.^.H.u.0.5.6.8.8.A.D.8.8.8.7.5.q.D.L.L.L.L.0.0.0.D.D.D.D.8.8.6.7.8.D.D.0.0.0.q.6.6.q.i.u.r.x.).XXb.%XN.C 5 # .   O 2XZXJXJXGXJXJXJXJXJXJXJXJXJXJXJXJXJXJXJXJXJXJXJXJXJXJXJXJXJXJXJXJXJXJXJXJXJXJXJXJXJXJXJXJXJXJXJXJXJXJXJXJXJXJXJXJXJXJXJXJXJXJXJXJXJXJXJXJXJXJXJXJXJXJXJXJXJXJXJXJXJXJXJXJXJXJXJXJXJXJXJXJXJXJXJXJXJX",
"JXJXJXJXJXJXJXJXJXJXJXJXJXJXJXJXJXJXJXJXJXJXJXJXJXJXJXJXJXJXJXJXJXJXJXJXJXJXJXJXJXJXJXJXJXJXJXJXJXJXJXJXJXJXJXJXJXJXJXJXJXJXJXJXJXJXJXJXJXJXJXJXJXJXJXJXJXJXJXJXJXJXJXJXJXJXJXJXJXJXJXGXJXJXZXa X . . @ < 7 5 f +.<.Q..X).'.].I.D.D.D.7.7.D.L.L.5.7.0.7.0.0.D.D.0.0.0.0.q.8.8.8.D.D.D.i.0.0.u.i.0.9.i.p.x.c.b.Q.h.;.n 5 < @ . O     J JXJXJXGXJXJXJXJXJXJXJXJXJXJXJXJXJXJXJXJXJXJXJXJXJXJXJXJXJXJXJXJXJXJXJXJXJXJXJXJXJXJXJXJXJXJXJXJXJXJXJXJXJXJXJXJXJXJXJXJXJXJXJXJXJXJXJXJXJXJXJXJXJXJXJXJXJXJXJXJXJXJXJXJXJXJXJXJXJXJXJXJXJXJXJXJXJX",
"JXJXJXJXJXJXJXJXJXJXJXJXJXJXJXJXJXJXJXJXJXJXJXJXJXJXJXJXJXJXJXJXJXJXJXJXJXJXJXJXJXJXJXJXJXJXJXJXJXJXJXJXJXJXJXJXJXJXJXJXJXJXJXJXJXJXJXJXJXJXJXJXJXJXJXJXJXJXJXJXJXJXJXJXJXJXJXJXZXJXGXJXJXJXzX      :   . . . $ # 1 f V *.B.V.g.r.P.I.I.P.u.u.0.U.U.L.L.0.0.0.0.D.q.q.q.q.q.D.D.8.7.7.0.0.i.I.I.P.].x.g.|.-X>.X.d 6 1 < #   > !     + cXZXJXJXJXJXJXJXJXJXJXJXJXJXJXJXJXJXJXJXJXJXJXJXJXJXJXJXJXJXJXJXJXJXJXJXJXJXJXJXJXJXJXJXJXJXJXJXJXJXJXJXJXJXJXJXJXJXJXJXJXJXJXJXJXJXJXJXJXJXJXJXJXJXJXJXJXJXJXJXJXJXJXJXJXJXJXJXJXJXJXJXJXJXJXJXJX",
"JXJXJXJXJXJXJXJXJXJXJXJXJXJXJXJXJXJXJXJXJXJXJXJXJXJXJXJXJXJXJXJXJXJXJXJXJXJXJXJXJXJXJXJXJXJXJXJXJXJXJXJXJXJXJXJXJXJXJXJXJXJXJXJXJXJXJXJXJXJXJXJXJXJXJXJXJXJXJXJXJXJXJXJXJXJXJXJXGXJXGXJXGXJX4X      pXcX2Xu O   . . @ < 5 d z | ;.l.k.E.[.(.(././.r.G.e.0.0.7.S.u.u.u.u.w.q.q.q.I.I.P.p.'././.c.g.Q.k.;.} k 6 1 1 # @ . t 2XlXHX-     9XZXGXJXGXJXJXJXJXJXJXJXJXJXJXJXJXJXJXJXJXJXJXJXJXJXJXJXJXJXJXJXJXJXJXJXJXJXJXJXJXJXJXJXJXJXJXJXJXJXJXJXJXJXJXJXJXJXJXJXJXJXJXJXJXJXJXJXJXJXJXJXJXJXJXJXJXJXJXJXJXJXJXJXJXJXJXJXJXJXJXJXJXJXJXJXJX",
"JXJXJXJXJXJXJXJXJXJXJXJXJXJXJXJXJXJXJXJXJXJXJXJXJXJXJXJXJXJXJXJXJXJXJXJXJXJXJXJXJXJXJXJXJXJXJXJXJXJXJXJXJXJXJXJXJXJXJXJXJXJXJXJXJXJXJXJXJXJXJXJXJXJXJXJXJXJXJXJXJXJXJXJXJXJXJXJXJXJXJXJXGXJXi   + > FXHXVXFXaX[ u ,   . @ @ < 5 1 5 g B X.=.n.#XW.E.(.`.H.H.G.G./.).).).).)./.c.2.z.[..X=XE.l.$.X.j 5 8 7 # # < # . Z 9XxXJXHXBXW     ~ JXGXJXJXJXJXJXJXJXJXJXJXJXJXJXJXJXJXJXJXJXJXJXJXJXJXJXJXJXJXJXJXJXJXJXJXJXJXJXJXJXJXJXJXJXJXJXJXJXJXJXJXJXJXJXJXJXJXJXJXJXJXJXJXJXJXJXJXJXJXJXJXJXJXJXJXJXJXJXJXJXJXJXJXJXJXJXJXJXJXJXJXJXJXJXJX",
"JXJXJXJXJXJXJXJXJXJXJXJXJXJXJXJXJXJXJXJXJXJXJXJXJXJXJXJXJXJXJXJXJXJXJXJXJXJXJXJXJXJXJXJXJXJXJXJXJXJXJXJXJXJXJXJXJXJXJXJXJXJXJXJXJXJXJXJXJXJXJXJXJXJXJXJXJXJXJXJXJXJXJXJXJXJXJXJXJXGXJXZXJXxXO   + W ZXJXJXJXHXHXHXaX5XE ; . . % @ @ @ @ # < 1 5 h x n V ..#.#.$.;.>.>.>.>.;.;.;.*.o.V k s 6 6 5 < # @ @ @ . % u ] dXJXJXJXZXZXJXwX    ; GXJXGXJXJXJXJXJXJXJXJXJXJXJXJXJXJXJXJXJXJXJXJXJXJXJXJXJXJXJXJXJXJXJXJXJXJXJXJXJXJXJXJXJXJXJXJXJXJXJXJXJXJXJXJXJXJXJXJXJXJXJXJXJXJXJXJXJXJXJXJXJXJXJXJXJXJXJXJXJXJXJXJXJXJXJXJXJXJXJXJXJXJXJXJXJX",
"JXJXJXJXJXJXJXJXJXJXJXJXJXJXJXJXJXJXJXJXJXJXJXJXJXJXJXJXJXJXJXJXJXJXJXJXJXJXJXJXJXJXJXJXJXJXJXJXJXJXJXJXJXJXJXJXJXJXJXJXJXJXJXJXJXJXJXJXJXJXJXJXJXJXJXJXJXJXJXJXJXJXJXJXJXJXJXJXJXGXJXZXJXqX      qXJXKXJXAXvXDXDXDXDXDXGXaX2Xi & +   . . . . @ @ # # < < < < < < < < < < < < # # # # $ # .       + + X i 4XsXBXHXHXVXZXJXJXnXJXzXO     0XJXJXJXJXJXJXJXJXJXJXJXJXJXJXJXJXJXJXJXJXJXJXJXJXJXJXJXJXJXJXJXJXJXJXJXJXJXJXJXJXJXJXJXJXJXJXJXJXJXJXJXJXJXJXJXJXJXJXJXJXJXJXJXJXJXJXJXJXJXJXJXJXJXJXJXJXJXJXJXJXJXJXJXJXJXJXJXJXJXJXJXJXJXJXJX",
"JXJXJXJXJXJXJXJXJXJXJXJXJXJXJXJXJXJXJXJXJXJXJXJXJXJXJXJXJXJXJXJXJXJXJXJXJXJXJXJXJXJXJXJXJXJXJXJXJXJXJXJXJXJXJXJXJXJXJXJXJXJXJXJXJXJXJXJXJXJXJXJXJXJXJXJXJXJXJXJXJXJXJXJXJXJXJXJXJXJXJXGXJX_     + vXJXDXAXDXJXDXDXDXDXSXSXSXHXHXGXgX9X] W :         X o o o o o . . . . . . . . . .       X - r Q ,XiXVXHXHXHXHXHXHXHXJXZXDXDXAXJXu +   ] GXJXGXJXJXJXJXJXJXJXJXJXJXJXJXJXJXJXJXJXJXJXJXJXJXJXJXJXJXJXJXJXJXJXJXJXJXJXJXJXJXJXJXJXJXJXJXJXJXJXJXJXJXJXJXJXJXJXJXJXJXJXJXJXJXJXJXJXJXJXJXJXJXJXJXJXJXJXJXJXJXJXJXJXJXJXJXJXJXJXJXJXJXJXJX",
"JXJXJXJXJXJXJXJXJXJXJXJXJXJXJXJXJXJXJXJXJXJXJXJXJXJXJXJXJXJXJXJXJXJXJXJXJXJXJXJXJXJXJXJXJXJXJXJXJXJXJXJXJXJXJXJXJXJXJXJXJXJXJXJXJXJXJXJXJXJXJXJXJXJXJXJXJXJXJXJXJXJXJXJXJXJXJXJXJXZXJXJXGX:   + W AXJXJXDXJXJXJXJXJXJXJXJXJXJXJXJXJXGXJXJXAXxXzXqX4X] ( W p u t = % . . + & : e Z W _ 2X9XpXcXHXJXJXJXJXJXJXJXJXHXJXJXJXJXJXJXJXJX[ + O > ZXJXJXJXJXJXJXJXJXJXJXJXJXJXJXJXJXJXJXJXJXJXJXJXJXJXJXJXJXJXJXJXJXJXJXJXJXJXJXJXJXJXJXJXJXJXJXJXJXJXJXJXJXJXJXJXJXJXJXJXJXJXJXJXJXJXJXJXJXJXJXJXJXJXJXJXJXJXJXJXJXJXJXJXJXJXJXJXJXJXJXJXJXJXJX",
"JXJXJXJXJXJXJXJXJXJXJXJXJXJXJXJXJXJXJXJXJXJXJXJXJXJXJXJXJXJXJXJXJXJXJXJXJXJXJXJXJXJXJXJXJXJXJXJXJXJXJXJXJXJXJXJXJXJXJXJXJXJXJXJXJXJXJXJXJXJXJXJXJXJXJXJXJXJXJXJXJXJXJXJXJXJXJXJXJXJXGXJXdX+     2XJXJXJXJXJXGXJXJXJXJXJXJXJXJXJXJXJXJXJXJXJXJXGXJXJXGXGXGXJXGXGXJXJXGXAXGXJXJXJXJXJXJXJXJXJXJXJXJXJXJXJXJXJXJXJXJXJXJXJXJXJXJXJXJXpX    ; sXGXGXJXJXJXJXJXJXJXJXJXJXJXJXJXJXJXJXJXJXJXJXJXJXJXJXJXJXJXJXJXJXJXJXJXJXJXJXJXJXJXJXJXJXJXJXJXJXJXJXJXJXJXJXJXJXJXJXJXJXJXJXJXJXJXJXJXJXJXJXJXJXJXJXJXJXJXJXJXJXJXJXJXJXJXJXJXJXJXJXJXJXJXJX",
"JXJXJXJXJXJXJXJXJXJXJXJXJXJXJXJXJXJXJXJXJXJXJXJXJXJXJXJXJXJXJXJXJXJXJXJXJXJXJXJXJXJXJXJXJXJXJXJXJXJXJXJXJXJXJXJXJXJXJXJXJXJXJXJXJXJXJXJXJXJXJXJXJXJXJXJXJXJXJXJXJXJXJXJXJXJXJXJXJXJXGXJX2X  +   sXJXJXGXJXJXGXJXJXJXJXJXJXJXJXJXJXJXJXJXJXJXJXJXJXJXJXJXJXJXJXJXJXJXJXJXJXJXJXJXJXJXJXJXJXGXGXZXJXJXJXJXJXJXJXJXJXJXJXJXJXJXJXJXGXJX>   O 5XZXGXJXJXJXJXJXJXJXJXJXJXJXJXJXJXJXJXJXJXJXJXJXJXJXJXJXJXJXJXJXJXJXJXJXJXJXJXJXJXJXJXJXJXJXJXJXJXJXJXJXJXJXJXJXJXJXJXJXJXJXJXJXJXJXJXJXJXJXJXJXJXJXJXJXJXJXJXJXJXJXJXJXJXJXJXJXJXJXJXJXJXJXJX",
"JXJXJXJXJXJXJXJXJXJXJXJXJXJXJXJXJXJXJXJXJXJXJXJXJXJXJXJXJXJXJXJXJXJXJXJXJXJXJXJXJXJXJXJXJXJXJXJXJXJXJXJXJXJXJXJXJXJXJXJXJXJXJXJXJXJXJXJXJXJXJXJXJXJXJXJXJXJXJXJXJXJXJXJXJXJXJXJXZXJXJXGXa   + u JXJXJXZXJXJXJXJXJXJXJXJXJXJXJXJXJXJXJXJXGXGXGXGXJXJXJXGXGXZXGXGXGXGXJXJXJXJXGXGXZXGXGXJXJXJXJXJXJXJXJXJXJXJXJXJXJXJXJXJXJXJXJXJXJXJX!     i JXJXJXJXJXJXJXJXJXJXJXJXJXJXJXJXJXJXJXJXJXJXJXJXJXJXJXJXJXJXJXJXJXJXJXJXJXJXJXJXJXJXJXJXJXJXJXJXJXJXJXJXJXJXJXJXJXJXJXJXJXJXJXJXJXJXJXJXJXJXJXJXJXJXJXJXJXJXJXJXJXJXJXJXJXJXJXJXJXJXJXJXJXJX",
"JXJXJXJXJXJXJXJXJXJXJXJXJXJXJXJXJXJXJXJXJXJXJXJXJXJXJXJXJXJXJXJXJXJXJXJXJXJXJXJXJXJXJXJXJXJXJXJXJXJXJXJXJXJXJXJXJXJXJXJXJXJXJXJXJXJXJXJXJXJXJXJXJXJXJXJXJXJXJXJXJXJXJXJXJXJXJXJXHXGXJXzX  +   [ JXZXJXZXJXJXJXJXJXJXJXJXJXJXJXJXGXJXJXJXJXJXJXJXJXJXGXGXJXJXJXJXJXJXJXJXJXJXJXJXJXJXJXJXJXJXGXGXJXJXJXJXJXJXJXJXJXJXJXJXJXJXJXJXJXZXqX    + ZXJXJXJXJXJXJXJXJXJXJXJXJXJXJXJXJXJXJXJXJXJXJXJXJXJXJXJXJXJXJXJXJXJXJXJXJXJXJXJXJXJXJXJXJXJXJXJXJXJXJXJXJXJXJXJXJXJXJXJXJXJXJXJXJXJXJXJXJXJXJXJXJXJXJXJXJXJXJXJXJXJXJXJXJXJXJXJXJXJXJXJXJXJX",
"JXJXJXJXJXJXJXJXJXJXJXJXJXJXJXJXJXJXJXJXJXJXJXJXJXJXJXJXJXJXJXJXJXJXJXJXJXJXJXJXJXJXJXJXJXJXJXJXJXJXJXJXJXJXJXJXJXJXJXJXJXJXJXJXJXJXJXJXJXJXJXJXJXJXJXJXJXJXJXJXJXJXJXJXJXJXJXJXJXxXJX9X      0XJXGXJXJXJXGXJXGXJXJXJXJXJXJXJXJXGXJXJXJXJXJXJXJXJXJXJXJXJXJXGXZXJXJXJXJXJXJXJXJXJXJXJXJXJXJXJXJXJXJXJXJXJXJXJXJXJXJXJXJXJXJXJXJXJXJXcX  +   qXGXJXJXJXJXJXJXJXJXJXJXJXJXJXJXJXJXJXJXJXJXJXJXJXJXJXJXJXJXJXJXJXJXJXJXJXJXJXJXJXJXJXJXJXJXJXJXJXJXJXJXJXJXJXJXJXJXJXJXJXJXJXJXJXJXJXJXJXJXJXJXJXJXJXJXJXJXJXJXJXJXJXJXJXJXJXJXJXJXJXJXJXJX",
"JXJXJXJXJXJXJXJXJXJXJXJXJXJXJXJXJXJXJXJXJXJXJXJXJXJXJXJXJXJXJXJXJXJXJXJXJXJXJXJXJXJXJXJXJXJXJXJXJXJXJXJXJXJXJXJXJXJXJXJXJXJXJXJXJXJXJXJXJXJXJXJXJXJXJXJXJXJXJXJXJXJXJXJXJXJXJXJXJXZXJX~     u xXJXJXJXJXJXGXJXGXJXJXJXJXJXJXJXJXJXJXJXJXJXJXJXGXGXJXJXJXJXJXJXGXJXJXJXJXJXJXJXJXJXJXJXJXJXJXJXJXJXJXJXJXJXJXJXJXJXJXJXJXJXJXJXJXJXJXGXi     ! GXJXJXJXJXJXJXJXJXJXJXJXJXJXJXJXJXJXJXJXJXJXJXJXJXJXJXJXJXJXJXJXJXJXJXJXJXJXJXJXJXJXJXJXJXJXJXJXJXJXJXJXJXJXJXJXJXJXJXJXJXJXJXJXJXJXJXJXJXJXJXJXJXJXJXJXJXJXJXJXJXJXJXJXJXJXJXJXJXJXJXJXJX",
"JXJXJXJXJXJXJXJXJXJXJXJXJXJXJXJXJXJXJXJXJXJXJXJXJXJXJXJXJXJXJXJXJXJXJXJXJXJXJXJXJXJXJXJXJXJXJXJXJXJXJXJXJXJXJXJXJXJXJXJXJXJXJXJXJXJXJXJXJXJXJXJXJXJXJXJXJXJXJXJXJXJXJXJXJXJXJXJXZXJXJX+ +   W JXJXJXZXJXJXGXJXJXJXJXJXJXJXJXJXJXJXJXJXJXJXJXJXJXJXJXJXJXJXGXJXJXJXJXJXJXJXJXJXJXJXJXGXJXJXJXJXGXJXJXJXJXJXJXJXJXJXJXJXJXJXJXJXJXGXJXGX2X    : JXJXJXJXJXJXJXJXJXJXJXJXJXJXJXJXJXJXJXJXJXJXJXJXJXJXJXJXJXJXJXJXJXJXJXJXJXJXJXJXJXJXJXJXJXJXJXJXJXJXJXJXJXJXJXJXJXJXJXJXJXJXJXJXJXJXJXJXJXJXJXJXJXJXJXJXJXJXJXJXJXJXJXJXJXJXJXJXJXJXJXJXJX",
"JXJXJXJXJXJXJXJXJXJXJXJXJXJXJXJXJXJXJXJXJXJXJXJXJXJXJXJXJXJXJXJXJXJXJXJXJXJXJXJXJXJXJXJXJXJXJXJXJXJXJXJXJXJXJXJXJXJXJXJXJXJXJXJXJXJXJXJXJXJXJXJXJXJXJXJXJXJXJXJXJXJXJXJXJXJXJXJXJXJX0XO     9XJXJXJXJXJXJXJXJXJXJXJXJXJXJXJXJXJXJXJXJXJXJXJXJXJXJXJXJXJXJXJXJXJXJXJXJXJXJXJXJXJXJXJXJXJXJXJXJXJXJXJXJXJXJXJXJXJXJXJXJXJXJXJXJXJXGXJXJXsX      pXZXJXJXGXGXGXJXGXJXJXJXJXJXJXJXJXJXJXJXJXJXJXJXJXJXJXJXJXJXJXJXJXJXJXJXJXJXJXJXJXJXJXJXJXJXJXJXJXJXJXJXJXJXJXJXJXJXJXJXJXJXJXJXJXJXJXJXJXJXJXJXJXJXJXJXJXJXJXJXJXJXJXJXJXJXJXJXJXJXJXJXJX",
"JXJXJXJXJXJXJXJXJXJXJXJXJXJXJXJXJXJXJXJXJXJXJXJXJXJXJXJXJXJXJXJXJXJXJXJXJXJXJXJXJXJXJXJXJXJXJXJXJXJXJXJXJXJXJXJXJXJXJXJXJXJXJXJXJXJXJXJXJXJXJXJXJXJXJXJXJXJXJXJXJXJXJXJXJXJXJXJXJXZX[ +   O cXJXJXJXJXJXJXJXJXJXJXJXJXJXJXJXJXJXJXJXJXJXJXJXJXJXJXJXJXJXJXJXJXJXJXJXJXJXJXJXJXJXJXJXJXJXJXJXJXJXJXJXJXJXJXJXJXJXJXJXJXJXJXJXJXJXJXJXJXxXu +   2XJXZXJXJXGXJXJXJXJXJXJXJXJXJXJXJXJXJXJXJXJXJXJXJXJXJXJXJXJXJXJXJXJXJXJXJXJXJXJXJXJXJXJXJXJXJXJXJXJXJXJXJXJXJXJXJXJXJXJXJXJXJXJXJXJXJXJXJXJXJXJXJXJXJXJXJXJXJXJXJXJXJXJXJXJXJXJXJXJXJXJXJX",
"JXJXJXJXJXJXJXJXJXJXJXJXJXJXJXJXJXJXJXJXJXJXJXJXJXJXJXJXJXJXJXJXJXJXJXJXJXJXJXJXJXJXJXJXJXJXJXJXJXJXJXJXJXJXJXJXJXJXJXJXJXJXJXJXJXJXJXJXJXJXJXJXJXJXJXJXJXJXJXJXJXJXJXJXJXJXJXJXJXJX:   + a JXGXJXJXJXJXJXJXJXJXJXJXJXJXJXJXJXJXJXJXJXJXJXJXJXJXJXJXJXJXJXJXJXJXJXJXJXJXJXJXJXJXJXJXJXJXJXJXJXJXJXJXJXJXJXJXJXJXJXJXJXJXJXJXJXJXJXGXGXJX`     a JXZXJXJXZXJXJXJXJXJXJXJXJXJXJXJXJXJXJXJXJXJXJXJXJXJXJXJXJXJXJXJXJXJXJXJXJXJXJXJXJXJXJXJXJXJXJXJXJXJXJXJXJXJXJXJXJXJXJXJXJXJXJXJXJXJXJXJXJXJXJXJXJXJXJXJXJXJXJXJXJXJXJXJXJXJXJXJXJXJXJXJX",
"JXJXJXJXJXJXJXJXJXJXJXJXJXJXJXJXJXJXJXJXJXJXJXJXJXJXJXJXJXJXJXJXJXJXJXJXJXJXJXJXJXJXJXJXJXJXJXJXJXJXJXJXJXJXJXJXJXJXJXJXJXJXJXJXJXJXJXJXJXJXJXJXJXJXJXJXJXJXJXJXJXJXJXJXJXJXJXJXZXcX    + ] JXGXJXJXJXJXJXJXJXJXJXJXJXJXJXJXJXJXJXJXJXJXJXJXJXJXJXJXJXJXJXJXJXJXJXJXJXJXJXJXJXJXJXJXJXJXJXJXJXJXJXJXJXJXJXJXJXJXJXJXJXJXJXJXJXJXJXGXGXJXqX    + zXJXJXJXGXJXGXGXJXJXJXJXJXJXJXJXJXJXJXJXJXJXJXJXJXJXJXJXJXJXJXJXJXJXJXJXJXJXJXJXJXJXJXJXJXJXJXJXJXJXJXJXJXJXJXJXJXJXJXJXJXJXJXJXJXJXJXJXJXJXJXJXJXJXJXJXJXJXJXJXJXJXJXJXJXJXJXJXJXJXJXJX",
"JXJXJXJXJXJXJXJXJXJXJXJXJXJXJXJXJXJXJXJXJXJXJXJXJXJXJXJXJXJXJXJXJXJXJXJXJXJXJXJXJXJXJXJXJXJXJXJXJXJXJXJXJXJXJXJXJXJXJXJXJXJXJXJXJXJXJXJXJXJXJXJXJXJXJXJXJXJXJXJXJXJXJXJXJXJXJXJXGX4X      dXZXJXJXJXJXJXJXJXJXJXJXJXJXJXJXJXJXJXJXJXJXJXJXJXJXJXJXJXJXJXJXJXJXJXJXJXJXJXJXJXJXJXJXJXJXJXJXJXJXJXJXJXJXJXJXJXJXJXJXJXJXJXJXJXJXJXJXJXJXJXxX;   + 5XJXGXGXJXJXJXJXJXJXJXJXJXJXJXJXJXJXJXJXJXJXJXJXJXJXJXJXJXJXJXJXJXJXJXJXJXJXJXJXJXJXJXJXJXJXJXJXJXJXJXJXJXJXJXJXJXJXJXJXJXJXJXJXJXJXJXJXJXJXJXJXJXJXJXJXJXJXJXJXJXJXJXJXJXJXJXJXJXJXJXJX",
"JXJXJXJXJXJXJXJXJXJXJXJXJXJXJXJXJXJXJXJXJXJXJXJXJXJXJXJXJXJXJXJXJXJXJXJXJXJXJXJXJXJXJXJXJXJXJXJXJXJXJXJXJXJXJXJXJXJXJXJXJXJXJXJXJXJXJXJXJXJXJXJXJXJXJXJXJXJXJXJXJXJXJXJXJXJXJXJXJXi +   ; JXJXJXJXJXJXJXJXJXJXJXJXJXJXJXJXJXJXJXJXJXJXJXJXJXJXJXJXJXJXJXJXJXJXJXJXJXJXJXJXJXJXJXJXJXJXJXJXJXJXJXJXJXJXJXJXJXJXJXJXJXJXJXJXJXJXJXJXJXJXZXJXW   + W JXGXJXJXGXJXJXJXJXJXJXJXJXJXJXJXJXJXJXJXJXJXJXJXJXJXJXJXJXJXJXJXJXJXJXJXJXJXJXJXJXJXJXJXJXJXJXJXJXJXJXJXJXJXJXJXJXJXJXJXJXJXJXJXJXJXJXJXJXJXJXJXJXJXJXJXJXJXJXJXJXJXJXJXJXJXJXJXJXJXJX",
"JXJXJXJXJXJXJXJXJXJXJXJXJXJXJXJXJXJXJXJXJXJXJXJXJXJXJXJXJXJXJXJXJXJXJXJXJXJXJXJXJXJXJXJXJXJXJXJXJXJXJXJXJXJXJXJXJXJXJXJXJXJXJXJXJXJXJXJXJXJXJXJXJXJXJXJXJXJXJXJXJXJXJXJXJXJXJXJXcXO +   _ JXJXGXJXJXJXJXJXJXJXJXJXJXJXJXJXJXJXJXJXJXJXJXJXJXJXJXJXJXJXJXJXJXJXJXJXJXJXJXJXJXJXJXJXJXJXJXJXJXJXJXJXJXJXJXJXJXJXJXJXJXJXJXJXJXJXJXJXGXJXGXJX5X    > cXGXJXJXJXJXJXJXJXJXJXJXJXJXJXJXJXJXJXJXJXJXJXJXJXJXJXJXJXJXJXJXJXJXJXJXJXJXJXJXJXJXJXJXJXJXJXJXJXJXJXJXJXJXJXJXJXJXJXJXJXJXJXJXJXJXJXJXJXJXJXJXJXJXJXJXJXJXJXJXJXJXJXJXJXJXJXJXJXJXJX",
"JXJXJXJXJXJXJXJXJXJXJXJXJXJXJXJXJXJXJXJXJXJXJXJXJXJXJXJXJXJXJXJXJXJXJXJXJXJXJXJXJXJXJXJXJXJXJXJXJXJXJXJXJXJXJXJXJXJXJXJXJXJXJXJXJXJXJXJXJXJXJXJXJXJXJXJXJXJXJXJXJXJXJXJXJXJXJXJXqX      0XZXGXJXJXJXJXJXJXJXJXJXJXJXJXJXJXJXJXJXJXJXJXJXJXJXJXJXJXJXJXJXJXJXJXJXJXJXJXJXJXJXJXJXJXJXJXJXJXJXJXJXJXJXJXJXJXJXJXJXJXJXJXJXJXJXJXJXJXZXJXJXGXaXO     pXZXJXGXJXJXJXJXJXJXJXJXJXJXJXJXJXJXJXJXJXJXJXJXJXJXJXJXJXJXJXJXJXJXJXJXJXJXJXJXJXJXJXJXJXJXJXJXJXJXJXJXJXJXJXJXJXJXJXJXJXJXJXJXJXJXJXJXJXJXJXJXJXJXJXJXJXJXJXJXJXJXJXJXJXJXJXJXJXJXJX",
"JXJXJXJXJXJXJXJXJXJXJXJXJXJXJXJXJXJXJXJXJXJXJXJXJXJXJXJXJXJXJXJXJXJXJXJXJXJXJXJXJXJXJXJXJXJXJXJXJXJXJXJXJXJXJXJXJXJXJXJXJXJXJXJXJXJXJXJXJXJXJXJXJXJXJXJXJXJXJXJXGXGXJXJXGXJXJXJX! +     ZXJXJXGXJXJXJXJXJXJXJXJXJXJXJXJXJXJXJXJXJXJXJXJXJXJXJXJXJXJXJXJXJXJXJXJXJXJXJXJXJXJXJXJXJXJXJXJXJXJXJXJXJXJXJXJXJXJXJXJXJXJXJXJXJXJXJXJXGXJXJXGXJXGXu + O ! JXJXJXJXGXGXJXJXJXJXJXJXJXJXJXJXJXJXJXJXJXJXJXJXJXJXJXJXJXJXJXJXJXJXJXJXJXJXJXJXJXJXJXJXJXJXJXJXJXJXJXJXJXJXJXJXJXJXJXJXJXJXJXJXJXJXJXJXJXJXJXJXJXJXJXJXJXJXJXJXJXJXJXJXJXJXJXJXJXJX",
"JXJXJXJXJXJXJXJXJXJXJXJXJXJXJXJXJXJXJXJXJXJXJXJXJXJXJXJXJXJXJXJXJXJXJXJXJXJXJXJXJXJXJXJXJXJXJXJXJXJXJXJXJXJXJXJXJXJXJXJXJXJXJXJXJXJXJXJXJXJXJXJXJXJXJXJXJXJXJXJXJXJXJXJXGXJXGXJXu   + W GXGXJXJXJXJXJXJXJXJXJXJXJXJXJXJXJXJXJXJXJXJXJXJXJXJXJXJXJXJXJXJXJXJXJXJXJXJXJXJXJXJXJXJXJXJXJXJXJXJXJXJXJXJXJXJXJXJXJXJXJXJXJXJXJXJXJXJXGXJXGXJXJXJX[     a GXJXJXGXJXJXJXJXJXJXJXJXJXJXJXJXJXJXJXJXJXJXJXJXJXJXJXJXJXJXJXJXJXJXJXJXJXJXJXJXJXJXJXJXJXJXJXJXJXJXJXJXJXJXJXJXJXJXJXJXJXJXJXJXJXJXJXJXJXJXJXJXJXJXJXJXJXJXJXJXJXJXJXJXJXJXJXJXJXJX",
"JXJXJXJXJXJXJXJXJXJXJXJXJXJXJXJXJXJXJXJXJXJXJXJXJXJXJXJXJXJXJXJXJXJXJXJXJXJXJXJXJXJXJXJXJXJXJXJXJXJXJXJXJXJXJXJXJXJXJXJXJXJXJXJXJXJXJXJXJXJXJXJXJXJXJXJXJXJXJXJXJXJXGXJXGXJXZXsX      4XJXGXJXJXJXJXJXJXJXJXJXJXJXJXJXJXJXJXJXJXJXJXJXJXJXJXJXJXJXJXJXJXJXJXJXJXJXJXJXJXJXJXJXJXJXJXJXJXJXJXJXJXJXJXJXJXJXJXJXJXJXJXJXJXJXJXJXJXJXJXZXJXJXJXpX    ; dXGXJXZXJXJXJXJXJXJXJXJXJXJXJXJXJXJXJXJXJXJXJXJXJXJXJXJXJXJXJXJXJXJXJXJXJXJXJXJXJXJXJXJXJXJXJXJXJXJXJXJXJXJXJXJXJXJXJXJXJXJXJXJXJXJXJXJXJXJXJXJXJXJXJXJXJXJXJXJXJXJXJXJXJXJXJXJXJXJX",
"JXJXJXJXJXJXJXJXJXJXJXJXJXJXJXJXJXJXJXJXJXJXJXJXJXJXJXJXJXJXJXJXJXJXJXJXJXJXJXJXJXJXJXJXJXJXJXJXJXJXJXJXJXJXJXJXJXJXJXJXJXJXJXJXJXJXJXJXJXJXJXJXJXJXJXJXJXJXJXJXGXJXGXJXJXJXZX2X      sXJXJXJXGXJXJXJXJXJXJXJXJXJXJXJXJXJXJXJXJXJXJXJXJXJXJXJXJXJXJXJXJXJXJXJXJXJXJXJXJXJXJXJXJXJXJXJXJXJXJXJXJXJXJXJXJXJXJXJXJXJXJXJXJXJXJXJXJXJXJXGXJXJXJXxX>   + 2XJXJXGXJXZXJXJXJXJXJXJXJXJXJXJXJXJXJXJXJXJXJXJXJXJXJXJXJXJXJXJXJXJXJXJXJXJXJXJXJXJXJXJXJXJXJXJXJXJXJXJXJXJXJXJXJXJXJXJXJXJXJXJXJXJXJXJXJXJXJXJXJXJXJXJXJXJXJXJXJXJXJXJXJXJXJXJXJXJX",
"JXJXJXJXJXJXJXJXJXJXJXJXJXJXJXJXJXJXJXJXJXJXJXJXJXJXJXJXJXJXJXJXJXJXJXJXJXJXJXJXJXJXJXJXJXJXJXJXJXJXJXJXJXJXJXJXJXJXJXJXJXJXJXJXJXJXJXJXJXJXJXJXJXJXJXJXJXJXJXJXGXJXJXJXJXJXJXa   + u GXJXJXJXJXJXJXJXJXJXJXJXJXJXJXJXJXJXJXJXJXJXJXJXJXJXJXJXJXJXJXJXJXJXJXJXJXJXJXJXJXJXJXJXJXJXJXJXJXJXJXJXJXJXJXJXJXJXJXJXJXJXJXJXJXJXJXJXJXJXJXJXZXJXJXZX~   + p JXJXJXJXGXJXJXJXJXJXJXJXJXJXJXJXJXJXJXJXJXJXJXJXJXJXJXJXJXJXJXJXJXJXJXJXJXJXJXJXJXJXJXJXJXJXJXJXJXJXJXJXJXJXJXJXJXJXJXJXJXJXJXJXJXJXJXJXJXJXJXJXJXJXJXJXJXJXJXJXJXJXJXJXJXJXJXJXJX",
"JXJXJXJXJXJXJXJXJXJXJXJXJXJXJXJXJXJXJXJXJXJXJXJXJXJXJXJXJXJXJXJXJXJXJXJXJXJXJXJXJXJXJXJXJXJXJXJXJXJXJXJXJXJXJXJXJXJXJXJXJXJXJXJXJXJXJXJXJXJXJXJXJXJXJXJXJXJXJXJXJXJXJXJXJXJXzX+   + [ JXGXGXJXJXJXJXJXJXJXJXJXJXJXJXJXJXJXJXJXJXJXJXJXJXJXJXJXJXJXJXJXJXJXJXJXJXJXJXJXJXJXJXJXJXJXJXJXJXJXJXJXJXJXJXJXJXJXJXJXJXJXJXJXJXJXJXJXJXJXJXJXGXJXJXZX9X  + O cXJXJXJXJXJXJXJXJXJXJXJXJXJXJXJXJXJXJXJXJXJXJXJXJXJXJXJXJXJXJXJXJXJXJXJXJXJXJXJXJXJXJXJXJXJXJXJXJXJXJXJXJXJXJXJXJXJXJXJXJXJXJXJXJXJXJXJXJXJXJXJXJXJXJXJXJXJXJXJXJXJXJXJXJXJXJXJXJX",
"JXJXJXJXJXJXJXJXJXJXJXJXJXJXJXJXJXJXJXJXJXJXJXJXJXJXJXJXJXJXJXJXJXJXJXJXJXJXJXJXJXJXJXJXJXJXJXJXJXJXJXJXJXJXJXJXJXJXJXJXJXJXJXJXJXJXJXJXJXJXJXJXJXJXJXJXJXJXJXJXJXGXJXJXJXJX4X    + pXJXJXGXJXJXJXJXJXJXJXJXJXJXJXJXJXJXJXJXJXJXJXJXJXJXJXJXJXJXJXJXJXJXJXJXJXJXJXJXJXJXJXJXJXJXJXJXJXJXJXJXJXJXJXJXJXJXJXJXJXJXJXJXJXJXJXJXJXJXJXJXJXJXJXJXJXsXO     4XJXJXJXJXJXJXJXJXJXJXJXJXJXJXJXJXJXJXJXJXJXJXJXJXJXJXJXJXJXJXJXJXJXJXJXJXJXJXJXJXJXJXJXJXJXJXJXJXJXJXJXJXJXJXJXJXJXJXJXJXJXJXJXJXJXJXJXJXJXJXJXJXJXJXJXJXJXJXJXJXJXJXJXJXJXJXJXJX",
"JXJXJXJXJXJXJXJXJXJXJXJXJXJXJXJXJXJXJXJXJXJXJXJXJXJXJXJXJXJXJXJXJXJXJXJXJXJXJXJXJXJXJXJXJXJXJXJXJXJXJXJXJXJXJXJXJXJXJXJXJXJXJXJXJXJXJXJXJXJXJXJXJXJXJXJXJXJXJXJXJXZXJXJXHXGX!   + + ZXGXJXJXJXJXJXJXJXJXJXJXJXJXJXJXJXJXJXJXJXJXJXJXJXJXJXJXJXJXJXJXJXJXJXJXJXJXJXJXJXJXJXJXJXJXJXJXJXJXJXJXJXJXJXJXJXJXJXJXJXJXJXJXJXJXJXJXJXJXJXJXGXJXZXJXJXJXu     ! GXJXGXJXJXJXJXJXJXJXJXJXJXJXJXJXJXJXJXJXJXJXJXJXJXJXJXJXJXJXJXJXJXJXJXJXJXJXJXJXJXJXJXJXJXJXJXJXJXJXJXJXJXJXJXJXJXJXJXJXJXJXJXJXJXJXJXJXJXJXJXJXJXJXJXJXJXJXJXJXJXJXJXJXJXJXJXJX",
"JXJXJXJXJXJXJXJXJXJXJXJXJXJXJXJXJXJXJXJXJXJXJXJXJXJXJXJXJXJXJXJXJXJXJXJXJXJXJXJXJXJXJXJXJXJXJXJXJXJXJXJXJXJXJXJXJXJXJXJXJXJXJXJXJXJXJXJXJXJXJXJXJXJXJXJXJXJXJXJXJXJXGXJXGXJXO     _ JXJXGXJXZXJXJXJXJXJXJXJXJXJXJXJXJXJXJXJXJXJXJXJXJXJXJXJXJXJXJXJXJXJXJXJXJXJXJXJXJXJXJXJXJXJXJXJXJXJXJXJXJXJXJXJXJXJXJXJXJXJXJXJXJXJXJXJXJXJXJXJXJXJXJXJXJXJX2X    ; xXJXJXJXJXJXJXJXJXJXJXJXJXJXJXJXJXJXJXJXJXJXJXJXJXJXJXJXJXJXJXJXJXJXJXJXJXJXJXJXJXJXJXJXJXJXJXJXJXJXJXJXJXJXJXJXJXJXJXJXJXJXJXJXJXJXJXJXJXJXJXJXJXJXJXJXJXJXJXJXJXJXJXJXJXJXJXJX",
"JXJXJXJXJXJXJXJXJXJXJXJXJXJXJXJXJXJXJXJXJXJXJXJXJXJXJXJXJXJXJXJXJXJXJXJXJXJXJXJXJXJXJXJXJXJXJXJXJXJXJXJXJXJXJXJXJXJXJXJXJXJXJXJXJXJXJXJXJXJXJXJXJXJXJXJXJXJXJXJXJXJXJXJXJX0X      9XJXJXGXJXGXJXJXJXJXJXJXJXJXJXJXJXJXJXJXJXJXJXJXJXJXJXJXJXJXJXJXJXJXJXJXJXJXJXJXJXJXJXJXJXJXJXJXJXJXJXJXJXJXJXJXJXJXJXJXJXJXJXJXJXJXJXJXJXJXJXJXJXJXJXJXJXJXJXpX    O 0XJXZXJXJXJXJXJXJXJXJXJXJXJXJXJXJXJXJXJXJXJXJXJXJXJXJXJXJXJXJXJXJXJXJXJXJXJXJXJXJXJXJXJXJXJXJXJXJXJXJXJXJXJXJXJXJXJXJXJXJXJXJXJXJXJXJXJXJXJXJXJXJXJXJXJXJXJXJXJXJXJXJXJXJXJXJXJX",
"JXJXJXJXJXJXJXJXJXJXJXJXJXJXJXJXJXJXJXJXJXJXJXJXJXJXJXJXJXJXJXJXJXJXJXJXJXJXJXJXJXJXJXJXJXJXJXJXJXJXJXJXJXJXJXJXJXJXJXJXJXJXJXJXJXJXJXJXJXJXJXJXJXJXJXJXJXJXJXJXJXJXJXJXJX`   + O cXJXJXGXJXGXJXJXJXJXJXJXJXJXJXJXJXJXJXJXJXJXJXJXJXJXJXJXJXJXJXJXJXJXJXJXJXJXJXJXJXJXJXJXJXJXJXJXJXJXJXJXJXJXJXJXJXJXJXJXJXJXJXJXJXJXJXJXJXJXJXJXJXJXJXJXJXJXJXJX:   + [ JXZXJXJXJXJXJXJXJXJXJXJXJXJXJXJXJXJXJXJXJXJXJXJXJXJXJXJXJXJXJXJXJXJXJXJXJXJXJXJXJXJXJXJXJXJXJXJXJXJXJXJXJXJXJXJXJXJXJXJXJXJXJXJXJXJXJXJXJXJXJXJXJXJXJXJXJXJXJXJXJXJXJXJXJXJXJX",
"JXJXJXJXJXJXJXJXJXJXJXJXJXJXJXJXJXJXJXJXJXJXJXJXJXJXJXJXJXJXJXJXJXJXJXJXJXJXJXJXJXJXJXJXJXJXJXJXJXJXJXJXJXJXJXJXJXJXJXJXJXJXJXJXJXJXJXJXJXJXJXJXJXJXJXJXJXJXJXJXJXJXJXJXGXu + + i JXZXJXGXJXGXJXJXJXJXJXJXJXJXJXJXJXJXJXJXJXJXJXJXJXJXJXJXJXJXJXJXJXJXJXJXJXJXJXJXJXJXJXJXJXJXJXJXJXJXJXJXJXJXJXJXJXJXJXJXJXJXJXJXJXJXJXJXJXJXJXJXJXJXJXJXJXJXJXJX!     u JXJXJXJXJXJXJXJXJXJXJXJXJXJXJXJXJXJXJXJXJXJXJXJXJXJXJXJXJXJXJXJXJXJXJXJXJXJXJXJXJXJXJXJXJXJXJXJXJXJXJXJXJXJXJXJXJXJXJXJXJXJXJXJXJXJXJXJXJXJXJXJXJXJXJXJXJXJXJXJXJXJXJXJXJXJXJX",
"JXJXJXJXJXJXJXJXJXJXJXJXJXJXJXJXJXJXJXJXJXJXJXJXJXJXJXJXJXJXJXJXJXJXJXJXJXJXJXJXJXJXJXJXJXJXJXJXJXJXJXJXJXJXJXJXJXJXJXJXJXJXJXJXJXJXJXJXJXJXJXJXJXJXJXJXJXJXJXJXGXJXHXGXsX+     5XGXZXJXJXGXJXJXJXJXJXJXJXJXJXJXJXJXJXJXJXJXJXJXJXJXJXJXJXJXJXJXJXJXJXJXJXJXJXJXJXJXJXJXJXJXJXJXJXJXJXJXJXJXJXJXJXJXJXJXJXJXJXJXJXJXJXJXJXJXJXJXJXJXJXJXJXJXJXJXJX9X+   + sXJXGXJXJXJXJXJXJXJXJXJXJXJXJXJXJXJXJXJXJXJXJXJXJXJXJXJXJXJXJXJXJXJXJXJXJXJXJXJXJXJXJXJXJXJXJXJXJXJXJXJXJXJXJXJXJXJXJXJXJXJXJXJXJXJXJXJXJXJXJXJXJXJXJXJXJXJXJXJXJXJXJXJXJXJXJX",
"JXJXJXJXJXJXJXJXJXJXJXJXJXJXJXJXJXJXJXJXJXJXJXJXJXJXJXJXJXJXJXJXJXJXJXJXJXJXJXJXJXJXJXJXJXJXJXJXJXJXJXJXJXJXJXJXJXJXJXJXJXJXJXJXJXJXJXJXJXJXJXJXJXJXJXJXJXJXJXJXGXJXJXJX5X      sXZXJXJXJXJXJXJXJXJXJXJXJXJXJXJXJXJXJXJXJXJXJXJXJXJXJXJXJXJXJXJXJXJXJXJXJXJXJXJXJXJXJXJXJXJXJXJXJXJXJXJXJXJXJXJXJXJXJXJXJXJXJXJXJXJXJXJXJXJXJXJXJXJXJXJXJXJXJXJXJXsX;     4XJXJXJXJXJXJXJXJXJXJXJXJXJXJXJXJXJXJXJXJXJXJXJXJXJXJXJXJXJXJXJXJXJXJXJXJXJXJXJXJXJXJXJXJXJXJXJXJXJXJXJXJXJXJXJXJXJXJXJXJXJXJXJXJXJXJXJXJXJXJXJXJXJXJXJXJXJXJXJXJXJXJXJXJXJXJX",
"JXJXJXJXJXJXJXJXJXJXJXJXJXJXJXJXJXJXJXJXJXJXJXJXJXJXJXJXJXJXJXJXJXJXJXJXJXJXJXJXJXJXJXJXJXJXJXJXJXJXJXJXJXJXJXJXJXJXJXJXJXJXJXJXJXJXJXJXJXJXJXJXJXJXJXJXJXJXJXJXHXJXJXGXE     a JXJXJXJXJXJXGXJXJXJXJXJXJXJXJXJXJXJXJXJXJXJXJXJXJXJXJXJXJXJXJXJXJXJXJXJXJXJXJXJXJXJXJXJXJXJXJXJXJXJXJXJXJXJXJXJXJXJXJXJXJXJXJXJXJXJXJXJXJXJXJXJXJXJXJXJXJXJXJXJXJXGXE     E GXJXJXJXJXJXJXJXJXJXJXJXJXJXJXJXJXJXJXJXJXJXJXJXJXJXJXJXJXJXJXJXJXJXJXJXJXJXJXJXJXJXJXJXJXJXJXJXJXJXJXJXJXJXJXJXJXJXJXJXJXJXJXJXJXJXJXJXJXJXJXJXJXJXJXJXJXJXJXJXJXJXJXJXJXJX",
"JXJXJXJXJXJXJXJXJXJXJXJXJXJXJXJXJXJXJXJXJXJXJXJXJXJXJXJXJXJXJXJXJXJXJXJXJXJXJXJXJXJXJXJXJXJXJXJXJXJXJXJXJXJXJXJXJXJXJXJXJXJXJXJXJXJXJXJXJXJXJXJXJXJXJXJXJXJXJXJXJXJXGXZX+ + O ` JXJXJXGXZXJXGXJXJXJXJXJXJXJXJXJXJXJXJXJXJXJXJXJXJXJXJXJXJXJXJXJXJXJXJXJXJXJXJXJXJXJXJXJXJXJXJXJXJXJXJXJXJXJXJXJXJXJXJXJXJXJXJXJXJXJXJXJXJXJXJXJXJXJXJXJXJXJXJXJXGXJX] O   + ZXGXJXJXJXJXJXJXJXJXJXJXJXJXJXJXJXJXJXJXJXJXJXJXJXJXJXJXJXJXJXJXJXJXJXJXJXJXJXJXJXJXJXJXJXJXJXJXJXJXJXJXJXJXJXJXJXJXJXJXJXJXJXJXJXJXJXJXJXJXJXJXJXJXJXJXJXJXJXJXJXJXJXJXJXJX",
"JXJXJXJXJXJXJXJXJXJXJXJXJXJXJXJXJXJXJXJXJXJXJXJXJXJXJXJXJXJXJXJXJXJXJXJXJXJXJXJXJXJXJXJXJXJXJXJXJXJXJXJXJXJXJXJXJXJXJXJXJXJXJXJXJXJXJXJXJXJXJXJXJXJXJXJXJXJXJXJXJXJXGXqX    O 0XJXJXJXJXJXJXJXJXJXJXJXJXJXJXJXJXJXJXJXJXJXJXJXJXJXJXJXJXJXJXJXJXJXJXJXJXJXJXJXJXJXJXJXJXJXJXJXJXJXJXJXJXJXJXJXJXJXJXJXJXJXJXJXJXJXJXJXJXJXJXJXJXJXJXJXJXJXJXJXJXGXGXzX    + 9XGXGXJXGXJXJXJXGXJXJXJXJXJXJXJXJXJXJXJXJXJXJXJXJXJXJXJXJXJXJXJXJXJXJXJXJXJXJXJXJXJXJXJXJXJXJXJXJXJXJXJXJXJXJXJXJXJXJXJXJXJXJXJXJXJXJXJXJXJXJXJXJXJXJXJXJXJXJXJXJXJXJXJXJXJX",
"JXJXJXJXJXJXJXJXJXJXJXJXJXJXJXJXJXJXJXJXJXJXJXJXJXJXJXJXJXJXJXJXJXJXJXJXJXJXJXJXJXJXJXJXJXJXJXJXJXJXJXJXJXJXJXJXJXJXJXJXJXJXJXJXJXJXJXJXJXJXJXJXJXJXJXJXJXJXJXJXGXJXJX! O + ; cXJXJXJXJXJXJXJXJXJXJXJXJXJXJXJXJXJXJXJXJXJXJXJXJXJXJXJXJXJXJXJXJXJXJXJXJXJXJXJXJXJXJXJXJXJXJXJXJXJXJXJXJXJXJXJXJXJXJXJXJXJXJXJXJXJXJXJXJXJXJXJXJXJXJXJXJXJXJXJXJXJXGXZXu +   ` JXJXJXJXJXGXJXJXJXJXJXJXJXJXJXJXJXJXJXJXJXJXJXJXJXJXJXJXJXJXJXJXJXJXJXJXJXJXJXJXJXJXJXJXJXJXJXJXJXJXJXJXJXJXJXJXJXJXJXJXJXJXJXJXJXJXJXJXJXJXJXJXJXJXJXJXJXJXJXJXJXJXJXJXJX",
"JXJXJXJXJXJXJXJXJXJXJXJXJXJXJXJXJXJXJXJXJXJXJXJXJXJXJXJXJXJXJXJXJXJXJXJXJXJXJXJXJXJXJXJXJXJXJXJXJXJXJXJXJXJXJXJXJXJXJXJXJXJXJXJXJXJXJXJXJXJXJXJXJXJXJXJXJXJXJXJXJXJXGXO + O W JXJXJXJXJXJXJXJXJXJXJXJXJXJXJXJXJXJXJXJXJXJXJXJXJXJXJXJXJXJXJXJXJXJXJXJXJXJXJXJXJXJXJXJXJXJXJXJXJXJXJXJXJXJXJXJXJXJXJXJXJXJXJXJXJXJXJXJXJXJXJXJXJXJXJXJXJXJXJXJXJXJXGXJX`     u ZXJXJXJXJXGXJXJXGXJXJXJXJXJXJXJXJXJXJXJXJXJXJXJXJXJXJXJXJXJXJXJXJXJXJXJXJXJXJXJXJXJXJXJXJXJXJXJXJXJXJXJXJXJXJXJXJXJXJXJXJXJXJXJXJXJXJXJXJXJXJXJXJXJXJXJXJXJXJXJXJXJXJXJXJX",
"JXJXJXJXJXJXJXJXJXJXJXJXJXJXJXJXJXJXJXJXJXJXJXJXJXJXJXJXJXJXJXJXJXJXJXJXJXJXJXJXJXJXJXJXJXJXJXJXJXJXJXJXJXJXJXJXJXJXJXJXJXJXJXJXJXJXJXJXJXJXJXJXJXJXJXJXJXJXJXJXJXGXaX      9XJXJXJXJXJXJXJXJXJXJXJXJXJXJXJXJXJXJXJXJXJXJXJXJXJXJXJXJXJXJXJXJXJXJXJXJXJXJXJXJXJXJXJXJXJXJXJXJXJXJXJXJXJXJXJXJXJXJXJXJXJXJXJXJXJXJXJXJXJXJXJXJXJXJXJXJXJXJXJXJXJXGXJXJX0X      dXJXGXJXJXGXJXJXZXJXJXJXJXJXJXJXJXJXJXJXJXJXJXJXJXJXJXJXJXJXJXJXJXJXJXJXJXJXJXJXJXJXJXJXJXJXJXJXJXJXJXJXJXJXJXJXJXJXJXJXJXJXJXJXJXJXJXJXJXJXJXJXJXJXJXJXJXJXJXJXJXJXJXJXJX",
"JXJXJXJXJXJXJXJXJXJXJXJXJXJXJXJXJXJXJXJXJXJXJXJXJXJXJXJXJXJXJXJXJXJXJXJXJXJXJXJXJXJXJXJXJXJXJXJXJXJXJXJXJXJXJXJXJXJXJXJXJXJXJXJXJXJXJXJXJXJXJXJXJXJXJXJXJXJXJXJXJXJX] +     xXJXJXJXJXJXJXJXJXJXJXJXJXJXJXJXJXJXJXJXJXJXJXJXJXJXJXJXJXJXJXJXJXJXJXJXJXJXJXJXJXJXJXJXJXJXJXJXJXJXJXJXJXJXJXJXJXJXJXJXJXJXJXJXJXJXJXJXJXJXJXJXJXJXJXJXJXJXJXJXJXJXGXJXJXZXO O   2XJXJXJXJXJXJXJXJXJXJXJXJXJXJXJXJXJXJXJXJXJXJXJXJXJXJXJXJXJXJXJXJXJXJXJXJXJXJXJXJXJXJXJXJXJXJXJXJXJXJXJXJXJXJXJXJXJXJXJXJXJXJXJXJXJXJXJXJXJXJXJXJXJXJXJXJXJXJXJXJXJXJXJXJX",
"JXJXJXJXJXJXJXJXJXJXJXJXJXJXJXJXJXJXJXJXJXJXJXJXJXJXJXJXJXJXJXJXJXJXJXJXJXJXJXJXJXJXJXJXJXJXJXJXJXJXJXJXJXJXJXJXJXJXJXJXJXJXJXJXJXJXJXJXJXJXJXJXJXJXJXJXJXJXJXJXJXJXa +   a JXGXJXJXJXJXJXJXJXJXJXJXJXJXJXJXJXJXJXJXJXJXJXJXJXJXJXJXJXJXJXJXJXJXJXJXJXJXJXJXJXJXJXJXJXJXJXJXJXJXJXJXJXJXJXJXJXJXJXJXJXJXJXJXJXJXJXJXJXJXJXJXJXJXJXJXJXJXJXJXJXJXHXJXZXJXE     a JXJXJXGXJXJXGXJXJXJXJXJXJXJXJXJXJXJXJXJXJXJXJXJXJXJXJXJXJXJXJXJXJXJXJXJXJXJXJXJXJXJXJXJXJXJXJXJXJXJXJXJXJXJXJXJXJXJXJXJXJXJXJXJXJXJXJXJXJXJXJXJXJXJXJXJXJXJXJXJXJXJXJXJX",
"JXJXJXJXJXJXJXJXJXJXJXJXJXJXJXJXJXJXJXJXJXJXJXJXJXJXJXJXJXJXJXJXJXJXJXJXJXJXJXJXJXJXJXJXJXJXJXJXJXJXJXJXJXJXJXJXJXJXJXJXJXJXJXJXJXJXJXJXJXJXJXJXJXJXJXJXJXJXJXJXJXsX+ +   1XGXGXJXJXJXJXJXJXJXJXJXJXJXJXJXJXJXJXJXJXJXJXJXJXJXJXJXJXJXJXJXJXJXJXJXJXJXJXJXJXJXJXJXJXJXJXJXJXJXJXJXJXJXJXJXJXJXJXJXJXJXJXJXJXJXJXJXJXJXJXJXJXJXJXJXJXJXJXJXJXJXJXJXJXGXJX4X    + sXJXJXZXJXJXGXJXJXJXJXJXJXJXJXJXJXJXJXJXJXJXJXJXJXJXJXJXJXJXJXJXJXJXJXJXJXJXJXJXJXJXJXJXJXJXJXJXJXJXJXJXJXJXJXJXJXJXJXJXJXJXJXJXJXJXJXJXJXJXJXJXJXJXJXJXJXJXJXJXJXJXJXJX",
"JXJXJXJXJXJXJXJXJXJXJXJXJXJXJXJXJXJXJXJXJXJXJXJXJXJXJXJXJXJXJXJXJXJXJXJXJXJXJXJXJXJXJXJXJXJXJXJXJXJXJXJXJXJXJXJXJXJXJXJXJXJXJXJXJXJXJXJXJXJXJXJXJXJXJXJXJXJXJXJXJX4X  +   pXJXJXJXJXJXJXJXJXJXJXJXJXJXJXJXJXJXJXJXJXJXJXJXJXJXJXJXJXJXJXJXJXJXJXJXJXJXJXJXJXJXJXJXJXJXJXJXJXJXJXJXJXJXJXJXJXJXJXJXJXJXJXJXJXJXJXJXJXJXJXJXJXJXJXJXJXJXJXJXJXJXJXJXZXJXJXzXO +   9XZXJXZXJXJXZXJXJXJXJXJXJXJXJXJXJXJXJXJXJXJXJXJXJXJXJXJXJXJXJXJXJXJXJXJXJXJXJXJXJXJXJXJXJXJXJXJXJXJXJXJXJXJXJXJXJXJXJXJXJXJXJXJXJXJXJXJXJXJXJXJXJXJXJXJXJXJXJXJXJXJXJXJX",
"JXJXJXJXJXJXJXJXJXJXJXJXJXJXJXJXJXJXJXJXJXJXJXJXJXJXJXJXJXJXJXJXJXJXJXJXJXJXJXJXJXJXJXJXJXJXJXJXJXJXJXJXJXJXJXJXJXJXJXJXJXJXJXJXJXJXJXJXJXJXJXJXJXJXGXJXJXZXJXJXJX~     u ZXGXJXJXJXJXJXJXJXJXJXJXJXJXJXJXJXJXJXJXJXJXJXJXJXJXJXJXJXJXJXJXJXJXJXJXJXJXJXJXJXJXJXJXJXJXJXJXJXJXJXJXJXJXJXJXJXJXJXJXJXJXJXJXJXJXJXJXJXJXJXJXJXJXJXJXJXJXJXJXJXJXJXJXJXGXGXJXu   + ~ JXZXJXGXJXJXJXJXJXJXJXJXJXJXJXJXJXJXJXJXJXJXJXJXJXJXJXJXJXJXJXJXJXJXJXJXJXJXJXJXJXJXJXJXJXJXJXJXJXJXJXJXJXJXJXJXJXJXJXJXJXJXJXJXJXJXJXJXJXJXJXJXJXJXJXJXJXJXJXJXJXJXJX",
"JXJXJXJXJXJXJXJXJXJXJXJXJXJXJXJXJXJXJXJXJXJXJXJXJXJXJXJXJXJXJXJXJXJXJXJXJXJXJXJXJXJXJXJXJXJXJXJXJXJXJXJXJXJXJXJXJXJXJXJXJXJXJXJXJXJXJXJXJXJXJXJXGXJXGXJXJXJXJXJXZX;   O ! JXJXZXJXJXJXJXJXJXJXJXJXJXJXJXJXJXJXJXJXJXJXJXJXJXJXJXJXJXJXJXJXJXJXJXJXJXJXJXJXJXJXJXJXJXJXJXJXJXJXJXJXJXJXJXJXJXJXJXJXJXJXJXJXJXJXJXJXJXJXJXJXJXJXJXJXJXJXJXJXJXJXJXJXJXJXGXJX]     > xXJXJXZXJXJXJXJXJXJXJXJXJXJXJXJXJXJXJXJXJXJXJXJXJXJXJXJXJXJXJXJXJXJXJXJXJXJXJXJXJXJXJXJXJXJXJXJXJXJXJXJXJXJXJXJXJXJXJXJXJXJXJXJXJXJXJXJXJXJXJXJXJXJXJXJXJXJXJXJXJXJXJX",
"JXJXJXJXJXJXJXJXJXJXJXJXJXJXJXJXJXJXJXJXJXJXJXJXJXJXJXJXJXJXJXJXJXJXJXJXJXJXJXJXJXJXJXJXJXJXJXJXJXJXJXJXJXJXJXJXJXJXJXJXJXJXJXJXJXJXJXJXJXJXJXJXGXJXJXJXJXJXGXJX0X  +   9XJXJXZXJXJXJXJXJXJXJXJXJXJXJXJXJXJXJXJXJXJXJXJXJXJXJXJXJXJXJXJXJXJXJXJXJXJXJXJXJXJXJXJXJXJXJXJXJXJXJXJXJXJXJXJXJXJXJXJXJXJXJXJXJXJXJXJXJXJXJXJXJXJXJXJXJXJXJXJXJXJXJXJXZXJXGXJXJXpX  O   0XJXGXJXJXZXJXJXJXJXJXJXJXJXJXJXJXJXJXJXJXJXJXJXJXJXJXJXJXJXJXJXJXJXJXJXJXJXJXJXJXJXJXJXJXJXJXJXJXJXJXJXJXJXJXJXJXJXJXJXJXJXJXJXJXJXJXJXJXJXJXJXJXJXJXJXJXJXJXJXJXJXJX",
"JXJXJXJXJXJXJXJXJXJXJXJXJXJXJXJXJXJXJXJXJXJXJXJXJXJXJXJXJXJXJXJXJXJXJXJXJXJXJXJXJXJXJXJXJXJXJXJXJXJXJXJXJXJXJXJXJXJXJXJXJXJXJXJXJXJXJXJXJXJXJXJXJXJXJXJXZXJXZXJX[     O GXGXZXJXJXJXJXJXJXJXJXJXJXJXJXJXJXJXJXJXJXJXJXJXJXJXJXJXJXJXJXJXJXJXJXJXJXJXJXJXJXJXJXJXJXJXJXJXJXJXJXJXJXJXJXJXJXJXJXJXJXJXJXJXJXJXJXJXJXJXJXJXJXJXJXJXJXJXJXJXJXJXJXJXJXJXxXZXJXGX;   + [ JXZXJXJXZXJXJXJXJXJXJXJXJXJXJXJXJXJXJXJXJXJXJXJXJXJXJXJXJXJXJXJXJXJXJXJXJXJXJXJXJXJXJXJXJXJXJXJXJXJXJXJXJXJXJXJXJXJXJXJXJXJXJXJXJXJXJXJXJXJXJXJXJXJXJXJXJXJXJXJXJXJX",
"JXJXJXJXJXJXJXJXJXJXJXJXJXJXJXJXJXJXJXJXJXJXJXJXJXJXJXJXJXJXJXJXJXJXJXJXJXJXJXJXJXJXJXJXJXJXJXJXJXJXJXJXJXJXJXJXJXJXJXJXJXJXJXJXJXJXJXJXJXJXJXJXJXJXJXJXZXJXGXJXa   O p HXJXJXcXJXJXJXJXJXJXJXJXJXJXJXJXJXJXJXJXJXJXJXJXJXJXJXJXJXJXJXJXJXJXJXJXJXJXJXJXJXJXJXJXJXJXJXJXJXJXJXJXJXJXJXJXJXJXJXJXJXJXJXJXJXJXJXJXJXJXJXJXJXJXJXJXJXJXJXJXJXJXJXJXJXZXJXJXcXJX!     : JXZXJXJXGXJXJXJXJXJXJXJXJXJXJXJXJXJXJXJXJXJXJXJXJXJXJXJXJXJXJXJXJXJXJXJXJXJXJXJXJXJXJXJXJXJXJXJXJXJXJXJXJXJXJXJXJXJXJXJXJXJXJXJXJXJXJXJXJXJXJXJXJXJXJXJXJXJXJXJXJXJX",
"JXJXJXJXJXJXJXJXJXJXJXJXJXJXJXJXJXJXJXJXJXJXJXJXJXJXJXJXJXJXJXJXJXJXJXJXJXJXJXJXJXJXJXJXJXJXJXJXJXJXJXJXJXJXJXJXJXJXJXJXJXJXJXJXJXJXJXJXJXJXJXJXJXGXJXJXGXJXJXsX  +   ! JXGXZXJXJXJXJXJXJXJXJXJXJXJXJXJXJXJXJXJXJXJXJXJXJXJXJXJXJXJXJXJXJXJXJXJXJXJXJXJXJXJXJXJXJXJXJXJXJXJXJXJXJXJXJXJXJXJXJXJXJXJXJXJXJXJXJXJXJXJXJXJXJXJXJXJXJXJXJXJXJXJXJXJXGXJXZXGXGX0Xu       sXJXGXJXJXGXJXJXJXJXJXJXJXJXJXJXJXJXJXJXJXJXJXJXJXJXJXJXJXJXJXJXJXJXJXJXJXJXJXJXJXJXJXJXJXJXJXJXJXJXJXJXJXJXJXJXJXJXJXJXJXJXJXJXJXJXJXJXJXJXJXJXJXJXJXJXJXJXJXJXJXJX",
"JXJXJXJXJXJXJXJXJXJXJXJXJXJXJXJXJXJXJXJXJXJXJXJXJXJXJXJXJXJXJXJXJXJXJXJXJXJXJXJXJXJXJXJXJXJXJXJXJXJXJXJXJXJXJXJXJXJXJXJXJXJXJXJXJXJXJXJXJXJXJXJXJXGXJXJXJXJXJX2X+       : 4XJXJXJXJXJXJXJXJXJXJXJXJXJXJXJXJXJXJXJXJXJXJXJXJXJXJXJXJXJXJXJXJXJXJXJXJXJXJXJXJXJXJXJXJXJXJXJXJXJXJXJXJXJXJXJXJXJXJXJXJXJXJXJXJXJXJXJXJXJXJXJXJXJXJXJXJXJXJXJXJXJXJXJXZXJXsX! O         5XJXJXJXJXGXJXJXJXJXJXJXJXJXJXJXJXJXJXJXJXJXJXJXJXJXJXJXJXJXJXJXJXJXJXJXJXJXJXJXJXJXJXJXJXJXJXJXJXJXJXJXJXJXJXJXJXJXJXJXJXJXJXJXJXJXJXJXJXJXJXJXJXJXJXJXJXJXJXJXJXJX",
"JXJXJXJXJXJXJXJXJXJXJXJXJXJXJXJXJXJXJXJXJXJXJXJXJXJXJXJXJXJXJXJXJXJXJXJXJXJXJXJXJXJXJXJXJXJXJXJXJXJXJXJXJXJXJXJXJXJXJXJXJXJXJXJXJXJXJXJXJXJXJXJXJXJXJXDXJXJXZXW       % .   > 4XJXJXHXHXJXJXJXJXJXJXJXJXJXJXJXJXJXJXJXJXJXJXJXJXJXJXJXJXJXJXJXJXJXJXJXJXJXJXJXJXJXJXJXJXJXJXJXJXJXJXJXJXJXJXJXJXJXJXJXJXJXJXJXJXJXJXJXJXJXJXJXJXJXJXJXJXJXJXJXJXJXcX] . . . . @ .   i GXJXHXJXJXJXJXJXJXJXJXJXJXJXJXJXJXJXJXJXJXJXJXJXJXJXJXJXJXJXJXJXJXJXJXJXJXJXJXJXJXJXJXJXJXJXJXJXJXJXJXJXJXJXJXJXJXJXJXJXJXJXJXJXJXJXJXJXJXJXJXJXJXJXJXJXJXJXJXJXJX",
"JXJXJXJXJXJXJXJXJXJXJXJXJXJXJXJXJXJXJXJXJXJXJXJXJXJXJXJXJXJXJXJXJXJXJXJXJXJXJXJXJXJXJXJXJXJXJXJXJXJXJXJXJXJXJXJXJXJXJXJXJXJXJXJXJXJXJXJXJXJXJXJXJXJXAXJXJXJXzX+ o . S $ # # @ . r 1XlXHXHXJXJXGXGXJXJXJXJXJXJXGXJXHXHXHXJXHXHXGXJXGXAXSXJXJXJXJXJXJXJXJXJXJXJXJXJXHXHXHXHXHXHXHXHXHXHXHXHXHXHXJXJXDXDXDXJXJXJXJXJXGXSXSXHXHXHXHXJXAXJXJXZXZXGXxX] % . $ # < h L # @ + cXHXHXHXJXDXJXJXHXHXJXJXJXJXJXJXJXJXJXJXJXJXJXJXJXJXJXJXJXJXJXJXJXJXJXJXJXJXJXJXJXJXJXJXJXJXJXJXJXJXJXJXJXJXJXJXJXJXJXJXJXJXJXJXJXJXJXJXJXJXJXJXJXJXJXJXJXJXJXJXJX",
"JXJXJXJXJXJXJXJXJXJXJXJXJXJXJXJXJXJXJXJXJXJXJXJXJXJXJXJXJXJXJXJXJXJXJXJXJXJXJXJXJXJXJXJXJXJXJXJXJXJXJXJXJXJXJXJXJXJXJXJXJXJXJXJXJXJXJXJXHXJXJXJXJXJXAXDXDXJX9X  @ 3 +Xn.c 8 1 @ .   - ` aXGXAXJXJXDXGXGXGXGXJXJXHXHXHXJXJXJXJXJXJXJXJXJXJXJXJXDXJXJXJXJXJXJXJXJXJXJXJXJXJXJXJXJXJXJXHXHXJXHXJXJXAXGXJXJXJXDXDXJXbXJXGXHXGXJXJXZXJXZXZXJXJXsX' . . @ < 1 s &.*X*X5 #   9XHXHXZXJXDXDXHXHXHXHXJXJXJXJXJXJXJXJXJXJXJXJXJXJXJXJXJXJXJXJXJXJXJXJXJXJXJXJXJXJXJXJXJXJXJXJXJXJXJXJXJXJXJXJXJXJXJXJXJXJXJXJXJXJXJXJXJXJXJXJXJXJXJXJXJXJXJXJXJXJX",
"JXJXJXJXJXJXJXJXJXJXJXJXJXJXJXJXJXJXJXJXJXJXJXJXJXJXJXJXJXJXJXJXJXJXJXJXJXJXJXJXJXJXJXJXJXJXJXJXJXJXJXJXJXJXJXJXJXJXJXJXJXJXJXJXJXJXJXJXHXJXJXJXJXJXJXDXDXJX! . 1 m *X#X&X>.M s 5 @ .     E 0XZXSXDXGXGXGXGXZXVXHXJXJXJXDXDXDXJXJXJXJXJXJXJXJXDXJXJXJXJXJXJXJXJXJXJXJXJXJXJXJXJXJXJXJXJXJXJXJXJXJXHXZXZXZXGXJXJXJXDXvXmXAXDXDXJXFXHXJX9Xi . . @ < 1 5 X.$XQ.=Xh.c $ . ! HXHXZXJXDXDXHXHXHXHXJXJXJXJXJXJXJXJXJXJXJXJXJXJXJXJXJXJXJXJXJXJXJXJXJXJXJXJXJXJXJXJXJXJXJXJXJXJXJXJXJXJXJXJXJXJXJXJXJXJXJXJXJXJXJXJXJXJXJXJXJXJXJXJXJXJXJXJXJXJX",
"JXJXJXJXJXJXJXJXJXJXJXJXJXJXJXJXJXJXJXJXJXJXJXJXJXJXJXJXJXJXJXJXJXJXJXJXJXJXJXJXJXJXJXJXJXJXJXJXJXJXJXJXJXJXJXJXJXJXJXJXJXJXJXJXJXJXJXJXJXJXHXJXJXJXJXJXJXZX> @ 1 @.-Xg.XXc.g.h.V 5 < 2 .   = ; ] qXbXGXSXSXHXHXGXGXGXDXJXJXJXJXDXGXJXJXJXJXJXJXJXJXJXJXJXJXJXJXJXJXJXJXJXJXJXJXJXDXDXJXJXJXJXJXZXSXHXHXHXJXJXJXGXJXJXDXDXmXmXDXcX[ = . @ @ # 1 6 %.R.E.(./.P.g.%.< . q VXHXZXJXDXDXHXHXHXHXJXJXJXJXJXJXJXJXJXJXJXJXJXJXJXJXJXJXJXJXJXJXJXJXJXJXJXJXJXJXJXJXJXJXJXJXJXJXJXJXJXJXJXJXJXJXJXJXJXJXJXJXJXJXJXJXJXJXJXJXJXJXJXJXJXJXJXJXJXJX",
"JXJXJXJXJXJXJXJXJXJXJXJXJXJXJXJXJXJXJXJXJXJXJXJXJXJXJXJXJXJXJXJXJXJXJXJXJXJXJXJXJXJXJXJXJXJXJXJXJXJXJXJXJXJXJXJXJXJXJXJXJXJXJXJXJXJXJXJXJXJXJXHXJXGXJXJXJXpX  # g l.).p.0.9.oXt.b.:X+.8 3 2 . .   + u ] pXJXJXZXJXJXJXJXDXDXDXmXJXHXHXHXHXHXHXJXHXHXHXHXHXHXHXJXHXHXJXHXJXJXJXJXJXJXJXJXJXJXJXJXJXJXJXJXZXZXZXHXHXHXZXZXJXcX5Xp . . # < < 1 x O.h.g.^.H.U.D.5.].N.5 @ o iXHXJXDXDXDXJXHXHXHXJXJXJXJXJXJXJXJXJXJXJXJXJXJXJXJXJXJXJXJXJXJXJXJXJXJXJXJXJXJXJXJXJXJXJXJXJXJXJXJXJXJXJXJXJXJXJXJXJXJXJXJXJXJXJXJXJXJXJXJXJXJXJXJXJXJXJXJXJXJX",
"JXJXJXJXJXJXJXJXJXJXJXJXJXJXJXJXJXJXJXJXJXJXJXJXJXJXJXJXJXJXJXJXJXJXJXJXJXJXJXJXJXJXJXJXJXJXJXJXJXJXJXJXJXJXJXJXJXJXJXJXJXJXJXJXJXJXJXJXJXJXJXGXHXJXGXJXJX2X  < l [.'.D.8.6.L.9.s.).E.R.<.N 1 7 @ . . . . > ' eXAXDXJXJXDXDXJXJXJXJXJXJXJXJXJXJXJXJXJXJXJXJXJXJXHXGXGXHXHXHXHXHXHXHXGXHXHXGXGXGXDXAXnXSXJXJXHXFXJXJXhX2Xp O   . # 1 < 1 m :.$XQ.XX].].d.7.A.5.K.&Xh # . ] HXJXJXDXJXJXHXHXHXJXJXJXJXJXJXJXJXJXJXJXJXJXJXJXJXJXJXJXJXJXJXJXJXJXJXJXJXJXJXJXJXJXJXJXJXJXJXJXJXJXJXJXJXJXJXJXJXJXJXJXJXJXJXJXJXJXJXJXJXJXJXJXJXJXJXJXJXJXJX",
"JXJXJXJXJXJXJXJXJXJXJXJXJXJXJXJXJXJXJXJXJXJXJXJXJXJXJXJXJXJXJXJXJXJXJXJXJXJXJXJXJXJXJXJXJXJXJXJXJXJXJXJXJXJXJXJXJXJXJXJXJXJXJXJXJXJXJXJXJXJXGXGXSXHXZXJXGXa o < } XXr.d.F.6.6.q.9.w.].oXT.~.j.%.j 8 1 1 1 # @ @ % E 5XdXVXHXHXHXAXDXDXJXDXDXDXDXJXJXJXJXJXJXJXJXJXDXDXDXDXDXJXDXDXDXDXDXDXDXDXDXJXJXGXJXJXFXsXyX/ u     . . . < 5 l } j.:X|.g./.4.u.L.7.A.F.8.4. XX.< . u VXHXJXJXJXJXHXHXHXJXJXJXJXJXJXJXJXJXJXJXJXJXJXJXJXJXJXJXJXJXJXJXJXJXJXJXJXJXJXJXJXJXJXJXJXJXJXJXJXJXJXJXJXJXJXJXJXJXJXJXJXJXJXJXJXJXJXJXJXJXJXJXJXJXJXJXJXJXJX",
"JXJXJXJXJXJXJXJXJXJXJXJXJXJXJXJXJXJXJXJXJXJXJXJXJXJXJXJXJXJXJXJXJXJXJXJXJXJXJXJXJXJXJXJXJXJXJXJXJXJXJXJXJXJXJXJXJXJXJXJXJXJXJXJXJXJXJXJXJXJXGXGXSXHXHXJXxX. % # j.c.P.D.8.8.6.8.q.9.7.0.K.].).b.&XN.o.l 5 1 1 < # @ . . - P ,XqXcXvXAXDXDXDXDXDXJXJXJXJXJXJXJXJXJXJXJXJXJXJXJXJXJXJXJXDXDXDXDXDXAXxXpX5X~ t     . . @ # # < 0 B ;..X.Xz.x.'.p.u.I.L.5.D.D.d.D.I..X;.5 @   VXZXJXJXJXJXHXHXHXJXJXJXJXJXJXJXJXJXJXJXJXJXJXJXJXJXJXJXJXJXJXJXJXJXJXJXJXJXJXJXJXJXJXJXJXJXJXJXJXJXJXJXJXJXJXJXJXJXJXJXJXJXJXJXJXJXJXJXJXJXJXJXJXJXJXJXJXJXJX",
"JXJXJXJXJXJXJXJXJXJXJXJXJXJXJXJXJXJXJXJXJXJXJXJXJXJXJXJXJXJXJXJXJXJXJXJXJXJXJXJXJXJXJXJXJXJXJXJXJXJXJXJXJXJXJXJXJXJXJXJXJXJXJXJXJXJXJXJXDXDXJXGXHXHXHXGXwX@ @ f %X).P.S.A.8.q.9.q.q.8.8.8.0.s.p.x.{..Xb.l.o.m d 5 1 # @ . . X X   > p ! 2XqXdXzXGXGXHXHXHXHXHXHXHXHXHXJXJXJXJXJXJXJXKXsXuX4X' ~ : - X     . @ # # 1 6 g V <.$X!./.P.p.u.i.0.q.q.8.8.q.q.0.0.u.P.c.%Xs # . 4XJXJXJXJXJXHXHXHXJXJXJXJXJXJXJXJXJXJXJXJXJXJXJXJXJXJXJXJXJXJXJXJXJXJXJXJXJXJXJXJXJXJXJXJXJXJXJXJXJXJXJXJXJXJXJXJXJXJXJXJXJXJXJXJXJXJXJXJXJXJXJXJXJXJXJXJXJXJX",
"JXJXJXJXJXJXJXJXJXJXJXJXJXJXJXJXJXJXJXJXJXJXJXJXJXJXJXJXJXJXJXJXJXJXJXJXJXJXJXJXJXJXJXJXJXJXJXJXJXJXJXJXJXJXJXJXJXJXJXJXJXJXJXJXJXJXJXJXDXDXGXGXHXHXHXGXW @ # C |.P.K.S.D.q.i.i.i.9.8.8.8.6.8.9.i.u.p.x.).{.k.h.*.V g 5 1 1 < @ .           + + = : u P Q / ) ` ] ] [ [ ) Q Q T t = o o . . . . . . . # < 1 1 5 m O.h. X}./.J.4.K.0.0.0.8.8.8.8.8.8.q.q.0.i.u.p.'.[.M < . W ZXJXJXJXJXJXHXHXJXJXJXJXJXJXJXJXJXJXJXJXJXJXJXJXJXJXJXJXJXJXJXJXJXJXJXJXJXJXJXJXJXJXJXJXJXJXJXJXJXJXJXJXJXJXJXJXJXJXJXJXJXJXJXJXJXJXJXJXJXJXJXJXJXJXJXJXJXJX",
"JXJXJXJXJXJXJXJXJXJXJXJXJXJXJXJXJXJXJXJXJXJXJXJXJXJXJXJXJXJXJXJXJXJXJXJXJXJXJXJXJXJXJXJXJXJXJXJXJXJXJXJXJXJXJXJXJXJXJXJXJXJXJXJXHXHXJXJXDXDXGXHXHXHXHXnX@ # 1 :.).i.0.A.A.D.i.a.p.u.0.8.8.8.q.q.D.0.7.0.u.P.'._.[.|.%Xj.-. .m f 3 $ @ @ @ . . . .   . . . + + +       . . . . . @ @ @ @ @ # $ < 5 6 s l V %.j.;XE._.].K.7.7.A.F.D.S.D.D.8.8.8.8.6.6.8.q.9.q.i.i.i.z.-.1 . O BXJXJXJXJXJXHXJXJXJXJXJXJXJXJXJXJXJXJXJXJXJXJXJXJXJXJXJXJXJXJXJXJXJXJXJXJXJXJXJXJXJXJXJXJXJXJXJXJXJXJXJXJXJXJXJXJXJXJXJXJXJXJXJXJXJXJXJXJXJXJXJXJXJXJXJXJXJX",
"JXJXJXJXJXJXJXJXJXJXJXJXJXJXJXJXJXJXJXJXJXJXJXJXJXJXJXJXJXJXJXJXJXJXJXJXJXJXJXJXJXJXJXJXJXJXJXJXJXJXJXJXJXJXJXJXJXJXJXJXJXJXJXJXHXHXJXJXDXJXJXHXHXHXHXtX@ < 8 N.v.8.8.8.A.D.i.p.p.u.0.8.8.8.q.9.7.7.0.0.7.7.w.4.e.H./.^.T.T.(.=X,.1.&.G c h 7 1 7 1 < # # # # # 3 2 < # # < < < 1 1 1 1 8 j B G =.l.k.-X-X[.c.t.P.u.5.8.A.A.6.6.8.S.D.0.8.8.8.8.8.6.8.8.q.q.9.9.q.p.h.8 .   yXJXJXJXJXJXJXJXJXJXJXJXJXJXJXJXJXJXJXJXJXJXJXJXJXJXJXJXJXJXJXJXJXJXJXJXJXJXJXJXJXJXJXJXJXJXJXJXJXJXJXJXJXJXJXJXJXJXJXJXJXJXJXJXJXJXJXJXJXJXJXJXJXJXJXJXJXJX",
"JXJXJXJXJXJXJXJXJXJXJXJXJXJXJXJXJXJXJXJXJXJXJXJXJXJXJXJXJXJXJXJXJXJXJXJXJXJXJXJXJXJXJXJXJXJXJXJXJXJXJXJXJXJXJXJXJXJXJXJXJXJXJXJXHXHXJXJXJXJXJXHXHXHXJX' @ < b W.a.8.8.8.8.0.i.a.a.i.0.8.8.0.i.i.i.0.0.0.0.q.D.D.A.7.7.Z.F.S.Z.4.)._.(.(.(.[.[.E.l.$.$.#....... .} V V }  ...o.#.;.l.~.!. X!.T.^.].].v.v.a.i.I.L.D.q.8.8.8.6.q.D.0.0.0.0.q.q.8.8.8.8.8.8.8.8.8.8.6.i.Q.c @   ` GXJXJXJXJXJXJXJXJXJXJXJXJXJXJXJXJXJXJXJXJXJXJXJXJXJXJXJXJXJXJXJXJXJXJXJXJXJXJXJXJXJXJXJXJXJXJXJXJXJXJXJXJXJXJXJXJXJXJXJXJXJXJXJXJXJXJXJXJXJXJXJXJXJXJXJXJX",
"JXJXJXJXJXJXJXJXJXJXJXJXJXJXJXJXJXJXJXJXJXJXJXJXJXJXJXJXJXJXJXJXJXJXJXJXJXJXJXJXJXJXJXJXJXJXJXJXJXJXJXJXJXJXJXJXJXJXJXJXJXJXJXJXHXHXJXJXJXJXJXHXCXHXGXq # < +.!.a.8.8.A.A.q.i.i.i.q.8.8.8.0.i.i.i.q.q.q.8.6.6.8.A.A.8.8.8.A.A.A.q.0.0.0.0.0.u.u.p.p.r.r.x.x.x.z.J.^.^.^.^.^.z.z.t.r.r.e.e.e.K.L.w.y.9.9.6.7.8.8.7.8.D.D.q.9.9.9.q.8.q.q.q.q.q.q.q.q.8.8.8.8.8.6.8.0.E.&.@   : HXJXJXJXJXJXJXJXJXJXJXJXJXJXJXJXJXJXJXJXJXJXJXJXJXJXJXJXJXJXJXJXJXJXJXJXJXJXJXJXJXJXJXJXJXJXJXJXJXJXJXJXJXJXJXJXJXJXJXJXJXJXJXJXJXJXJXJXJXJXJXJXJXJXJXJXJX",
"JXJXJXJXJXJXJXJXJXJXJXJXJXJXJXJXJXJXJXJXJXJXJXJXJXJXJXJXJXJXJXJXJXJXJXJXJXJXJXJXJXJXJXJXJXJXJXJXJXJXJXJXJXJXJXJXJXJXJXJXJXJXJXJXHXGXJXJXJXJXJXHXHXHXdX. # 8 ,.E.v.i.q.A.A.8.i.i.9.8.8.8.8.8.i.i.5.7.A.D.F.F.D.8.6.8.D.L.q.q.s.i.8.8.8.q.q.D.L.L.0.u.K.P.P.P.P.r.H.P.P.P.'.P.P.p.I.I.I.I.D.8.7.5.i.a.i.9.7.A.D.A.F.D.8.6.9.i.a.i.8.6.6.8.8.q.q.q.q.q.q.q.q.8.8.6.8.6.(.n.9     dXJXJXJXJXJXJXJXJXJXJXJXJXJXJXJXJXJXJXJXJXJXJXJXJXJXJXJXJXJXJXJXJXJXJXJXJXJXJXJXJXJXJXJXJXJXJXJXJXJXJXJXJXJXJXJXJXJXJXJXJXJXJXJXJXJXJXJXJXJXJXJXJXJXJXJXJX",
"JXJXJXJXJXJXJXJXJXJXJXJXJXJXJXJXJXJXJXJXJXJXJXJXJXJXJXJXJXJXJXJXJXJXJXJXJXJXJXJXJXJXJXJXJXJXJXJXJXJXJXJXJXJXJXJXJXJXJXJXJXJXJXJXHXGXJXJXJXJXJXJXHXFX4X. < h R.(.p.i.q.A.8.8.q.9.q.8.8.8.8.8.q.q.D.A.8.6.8.6.8.8.q.q.6.9.i.a.i.9.8.8.8.8.8.7.8.0.q.0.0.u.u.u.K.K.u.u.0.w.u.i.i.s.9.9.6.6.6.8.8.D.9.i.i.q.8.D.A.8.7.D.L.i.i.i.i.y.8.6.6.8.8.q.q.q.q.0.0.0.0.q.8.8.6.6.XX#X0 @   2XJXJXJXJXHXHXJXJXJXJXJXJXJXJXJXJXJXJXJXJXJXJXJXJXJXJXJXJXJXJXJXJXJXJXJXJXJXJXJXJXJXJXJXJXJXJXJXJXJXJXJXJXJXJXJXJXJXJXJXJXJXJXJXJXJXJXJXJXJXJXJXJXJXJXJXJX",
"JXJXJXJXJXJXJXJXJXJXJXJXJXJXJXJXJXJXJXJXJXJXJXJXJXJXJXJXJXJXJXJXJXJXJXJXJXJXJXJXJXJXJXJXJXJXJXJXJXJXJXJXJXJXJXJXJXJXJXJXJXJXJXJXJXJXJXJXJXDXDXDXDXJXi @ #  .[.P.i.q.q.q.q.q.q.q.q.8.8.8.8.8.q.q.q.8.8.8.8.8.8.8.q.q.q.q.q.q.q.q.q.8.8.8.8.q.q.q.q.q.q.q.q.q.q.q.q.q.q.q.q.q.q.q.q.q.q.q.8.8.8.8.q.q.q.q.q.q.8.8.8.q.q.q.q.q.q.q.q.8.8.8.q.q.q.q.q.q.q.q.q.q.q.8.L.5.'.|.X.1 . a MXDXDXHXHXHXJXJXJXJXJXJXJXJXJXJXJXJXJXJXJXJXJXJXJXJXJXJXJXJXJXJXJXJXJXJXJXJXJXJXJXJXJXJXJXJXJXJXJXJXJXJXJXJXJXJXJXJXJXJXJXJXJXJXJXJXJXJXJXJXJXJXJXJXJXJX",
"JXJXJXJXJXJXJXJXJXJXJXJXJXJXJXJXJXJXJXJXJXJXJXJXJXJXJXJXJXJXJXJXJXJXJXJXJXJXJXJXJXJXJXJXJXJXJXJXJXJXJXJXJXJXJXJXJXJXJXJXJXJXJXJXJXJXJXJXJXDXDXDXJXcX; . 7 <.t.i.q.q.q.q.q.q.q.q.q.q.q.q.q.q.q.q.q.q.q.q.q.q.q.q.q.q.q.q.q.q.q.q.q.q.q.q.q.q.q.q.q.q.q.q.q.q.q.q.q.q.q.q.q.q.q.q.q.q.q.q.q.q.q.q.q.q.q.q.q.q.q.q.q.q.q.q.q.q.q.q.q.q.q.q.q.q.q.q.q.q.q.q.q.q.q.q.D.w.a.{.-.1 @ & LXDXGXCXHXHXJXDXJXJXJXJXJXJXJXJXJXJXJXJXJXJXJXJXJXJXJXJXJXJXJXJXJXJXJXJXJXJXJXJXJXJXJXJXJXJXJXJXJXJXJXJXJXJXJXJXJXJXJXJXJXJXJXJXJXJXJXJXJXJXJXJXJXJXJXJX",
"JXJXJXJXJXJXJXJXJXJXJXJXJXJXJXJXJXJXJXJXJXJXJXJXJXJXJXJXJXJXJXJXJXJXJXJXJXJXJXJXJXJXJXJXJXJXJXJXJXJXJXJXJXJXJXJXJXJXJXJXJXJXJXJXJXJXJXJXJXDXDXDXJX9X  . 0 #Xt.I.q.q.q.q.q.q.q.q.q.q.q.q.q.q.q.q.q.q.q.q.q.q.q.q.q.q.q.q.q.q.q.q.q.q.q.q.q.q.q.q.q.q.q.q.q.q.q.q.q.q.q.q.q.q.q.q.q.q.q.q.q.q.q.q.q.q.q.q.q.q.q.q.q.q.q.q.q.q.q.q.q.8.q.q.q.q.q.q.q.q.q.q.q.q.q.q.q.q.i.).B.s @   6XmXGXSXCXHXJXJXJXJXJXJXJXJXJXJXJXJXJXJXJXJXJXJXJXJXJXJXJXJXJXJXJXJXJXJXJXJXJXJXJXJXJXJXJXJXJXJXJXJXJXJXJXJXJXJXJXJXJXJXJXJXJXJXJXJXJXJXJXJXJXJXJXJXJXJX",
"JXJXJXJXJXJXJXJXJXJXJXJXJXJXJXJXJXJXJXJXJXJXJXJXJXJXJXJXJXJXJXJXJXJXJXJXJXJXJXJXJXJXJXJXJXJXJXJXJXJXJXJXJXJXJXJXJXJXJXJXJXJXJXJXJXJXHXJXJXJXDXDXDX~ . 2 c W.].q.q.q.q.q.q.q.q.q.q.q.q.q.q.q.q.q.q.q.q.q.q.q.q.q.q.q.q.q.q.q.q.q.q.q.q.q.q.q.q.q.q.q.q.q.q.q.q.q.q.q.q.q.q.q.q.q.q.q.q.q.q.q.q.q.q.q.q.q.q.q.q.q.q.q.q.q.q.q.q.q.q.q.q.q.q.q.q.q.q.q.q.q.q.q.q.q.q.q.0.'.%XB # . ~ mXGXHXCXHXJXGXJXJXJXJXJXJXJXJXJXJXJXJXJXJXJXJXJXJXJXJXJXJXJXJXJXJXJXJXJXJXJXJXJXJXJXJXJXJXJXJXJXJXJXJXJXJXJXJXJXJXJXJXJXJXJXJXJXJXJXJXJXJXJXJXJXJXJXJX",
"JXJXJXJXJXJXJXJXJXJXJXJXJXJXJXJXJXJXJXJXJXJXJXJXJXJXJXJXJXJXJXJXJXJXJXJXJXJXJXJXJXJXJXJXJXJXJXJXJXJXJXJXJXJXJXJXJXJXJXJXJXJXJXJXJXJXJXHXJXJXJXJXAX> . < %.E.].5.q.q.q.q.q.q.q.q.q.q.q.q.q.q.q.q.q.q.q.q.q.q.q.q.q.q.q.q.q.q.q.q.q.q.q.q.q.q.q.q.q.q.q.q.q.q.q.q.q.q.q.q.q.q.q.q.q.q.q.q.q.q.q.q.q.q.q.q.q.q.q.q.q.q.q.q.q.q.q.q.q.q.q.q.q.q.q.q.q.q.q.q.q.q.q.q.q.q.7.K.E.%.< @ w nXSXSXHXHXJXGXJXJXJXJXJXJXJXJXJXJXJXJXJXJXJXJXJXJXJXJXJXJXJXJXJXJXJXJXJXJXJXJXJXJXJXJXJXJXJXJXJXJXJXJXJXJXJXJXJXJXJXJXJXJXJXJXJXJXJXJXJXJXJXJXJXJXJXJX",
"JXJXJXJXJXJXJXJXJXJXJXJXJXJXJXJXJXJXJXJXJXJXJXJXJXJXJXJXJXJXJXJXJXJXJXJXJXJXJXJXJXJXJXJXJXJXJXJXJXJXJXJXJXJXJXJXJXJXJXJXJXJXJXJXJXJXJXHXHXJXJXJXpX@ . < #Xg.I.6.8.q.q.q.q.q.q.q.q.q.q.q.q.q.q.q.q.q.q.q.q.q.q.q.q.q.q.q.q.q.q.q.q.q.q.q.q.q.q.q.q.q.q.q.q.q.q.q.q.q.q.q.q.q.q.q.q.q.q.q.q.q.q.q.q.q.q.q.q.q.q.8.q.q.q.q.q.q.q.q.q.q.q.q.q.q.q.q.q.q.q.q.q.q.8.q.9.6.8.L.T.N.6 # . pXSXSXSXSXJXJXJXJXJXJXJXJXJXJXJXJXJXJXJXJXJXJXJXJXJXJXJXJXJXJXJXJXJXJXJXJXJXJXJXJXJXJXJXJXJXJXJXJXJXJXJXJXJXJXJXJXJXJXJXJXJXJXJXJXJXJXJXJXJXJXJXJXJXJX",
"JXJXJXJXJXJXJXJXJXJXJXJXJXJXJXJXJXJXJXJXJXJXJXJXJXJXJXJXJXJXJXJXJXJXJXJXJXJXJXJXJXJXJXJXJXJXJXJXJXJXJXJXJXJXJXJXJXJXJXJXJXJXJXJXJXJXJXJXHXHXHXJX] . # c &Xt.q.A.8.q.q.q.q.q.q.q.q.q.q.q.q.q.q.q.q.q.q.q.q.q.q.q.q.q.q.q.q.q.q.q.q.q.q.q.q.q.q.q.q.q.q.q.q.q.q.q.q.q.q.q.q.q.q.q.q.q.q.q.q.q.q.q.q.q.q.q.q.q.q.q.q.q.q.q.q.q.q.q.q.q.q.q.q.q.q.q.q.q.q.q.q.q.q.q.9.8.A.Z.J.$Xm # @ ] GXSXSXSXJXJXJXJXJXJXJXJXJXJXJXJXJXJXJXJXJXJXJXJXJXJXJXJXJXJXJXJXJXJXJXJXJXJXJXJXJXJXJXJXJXJXJXJXJXJXJXJXJXJXJXJXJXJXJXJXJXJXJXJXJXJXJXJXJXJXJXJXJXJX",
"JXJXJXJXJXJXJXJXJXJXJXJXJXJXJXJXJXJXJXJXJXJXJXJXJXJXJXJXJXJXJXJXJXJXJXJXJXJXJXJXJXJXJXJXJXJXJXJXJXJXJXJXJXJXJXJXJXJXJXJXJXJXJXJXJXJXJXJXHXHXHXHXi . 1 X.E.r.L.6.8.q.q.q.q.q.q.q.q.q.q.q.q.q.q.q.q.q.q.q.q.q.q.q.q.q.q.q.q.q.q.q.q.q.q.q.q.q.q.q.q.q.q.q.q.q.q.q.q.q.q.q.q.q.q.q.q.q.q.q.q.q.q.q.q.q.q.q.q.q.q.q.q.q.q.q.q.q.q.q.q.q.q.q.q.q.q.q.q.q.q.q.q.q.q.q.9.q.A.5.G.E.| 1 @ u JXDXSXSXJXGXJXJXJXJXJXJXJXJXJXJXJXJXJXJXJXJXJXJXJXJXJXJXJXJXJXJXJXJXJXJXJXJXJXJXJXJXJXJXJXJXJXJXJXJXJXJXJXJXJXJXJXJXJXJXJXJXJXJXJXJXJXJXJXJXJXJXJXJX",
"JXJXJXJXJXJXJXJXJXJXJXJXJXJXJXJXJXJXJXJXJXJXJXJXJXJXJXJXJXJXJXJXJXJXJXJXJXJXJXJXJXJXJXJXJXJXJXJXJXJXJXJXJXJXJXJXJXJXJXJXJXJXJXJXJXmXJXJXHXHXHXhX. @ 5 ;.XXp.5.8.8.q.q.q.q.q.q.q.q.q.q.q.q.q.q.q.q.q.q.q.q.q.q.q.q.q.q.q.q.q.q.q.q.q.q.q.q.q.q.q.q.q.q.q.q.q.q.q.q.q.q.q.q.q.8.q.q.q.q.q.q.q.q.q.q.q.q.q.q.q.q.q.q.q.q.q.q.q.q.q.q.q.q.q.q.q.q.q.q.q.q.q.q.q.q.q.q.D.8.A.4._.,.5 # . sXNXDXSXJXGXJXJXJXJXJXJXJXJXJXJXJXJXJXJXJXJXJXJXJXJXJXJXJXJXJXJXJXJXJXJXJXJXJXJXJXJXJXJXJXJXJXJXJXJXJXJXJXJXJXJXJXJXJXJXJXJXJXJXJXJXJXJXJXJXJXJXJXJX",
"JXJXJXJXJXJXJXJXJXJXJXJXJXJXJXJXJXJXJXJXJXJXJXJXJXJXJXJXJXJXJXJXJXJXJXJXJXJXJXJXJXJXJXJXJXJXJXJXJXJXJXJXJXJXJXJXJXJXJXJXJXJXJXJXJXJXJXGXJXHXHX4X. # g f.).i.6.8.8.q.q.q.q.q.q.q.q.q.q.q.q.q.q.q.q.q.q.q.q.q.q.q.q.q.q.q.q.q.q.q.q.q.q.q.q.q.q.q.q.q.q.q.q.q.q.q.q.q.q.q.q.8.q.q.q.q.q.q.q.q.q.q.q.q.q.q.q.q.q.q.q.q.q.q.q.q.q.q.q.q.q.q.q.q.q.q.q.q.q.q.q.q.q.q.9.D.7.A.7.'.j.l # . 5XDXDXNXJXHXJXJXJXJXJXJXJXJXJXJXJXJXJXJXJXJXJXJXJXJXJXJXJXJXJXJXJXJXJXJXJXJXJXJXJXJXJXJXJXJXJXJXJXJXJXJXJXJXJXJXJXJXJXJXJXJXJXJXJXJXJXJXJXJXJXJXJXJX",
"JXJXJXJXJXJXJXJXJXJXJXJXJXJXJXJXJXJXJXJXJXJXJXJXJXJXJXJXJXJXJXJXJXJXJXJXJXJXJXJXJXJXJXJXJXJXJXJXJXJXJXJXJXJXJXJXJXJXJXJXJXJXJXJXDXJXJXZXJXFXHXE . 1 M .XP.q.8.8.8.q.q.q.q.q.q.q.q.q.q.q.q.q.q.q.q.q.q.q.q.q.q.q.q.q.q.q.q.q.q.q.q.q.q.q.q.q.q.q.q.q.q.q.q.q.q.q.q.q.q.q.q.q.q.q.q.q.q.q.q.q.q.q.q.8.q.q.8.q.q.q.q.q.q.q.q.q.q.q.q.q.q.q.q.q.q.q.q.q.q.q.q.q.q.q.9.q.7.A.7.K.k.| < @ p GXDXNXJXHXJXJXJXJXJXJXJXJXJXJXJXJXJXJXJXJXJXJXJXJXJXJXJXJXJXJXJXJXJXJXJXJXJXJXJXJXJXJXJXJXJXJXJXJXJXJXJXJXJXJXJXJXJXJXJXJXJXJXJXJXJXJXJXJXJXJXJXJX",
"JXJXJXJXJXJXJXJXJXJXJXJXJXJXJXJXJXJXJXJXJXJXJXJXJXJXJXJXJXJXJXJXJXJXJXJXJXJXJXJXJXJXJXJXJXJXJXJXJXJXJXJXJXJXJXJXJXJXJXJXJXJXJXJXDXJXJXGXJXHXBX= @ 1 @.XXu.q.8.8.q.q.q.q.q.q.q.q.q.q.q.q.q.q.q.q.q.q.q.q.q.q.q.q.q.q.q.q.q.q.q.q.q.q.q.q.q.q.q.q.q.q.q.q.q.q.q.q.q.q.q.q.q.q.q.q.q.q.q.q.q.q.q.q.q.q.q.q.q.q.q.q.q.q.q.q.q.q.q.q.q.q.q.q.q.q.q.q.q.q.q.q.q.q.q.q.9.q.8.A.8.D.).-.1 @ + xXDXAXHXHXJXJXJXJXJXJXJXJXJXJXJXJXJXJXJXJXJXJXJXJXJXJXJXJXJXJXJXJXJXJXJXJXJXJXJXJXJXJXJXJXJXJXJXJXJXJXJXJXJXJXJXJXJXJXJXJXJXJXJXJXJXJXJXJXJXJXJXJX",
"JXJXJXJXJXJXJXJXJXJXJXJXJXJXJXJXJXJXJXJXJXJXJXJXJXJXJXJXJXJXJXJXJXJXJXJXJXJXJXJXJXJXJXJXJXJXJXJXJXJXJXJXJXJXJXJXJXJXJXJXJXJXJXJXJXDXJXJXGXJXqX  @ 5 W./.w.q.0.q.q.q.q.q.q.q.q.q.q.q.q.q.q.q.q.q.q.q.q.q.q.q.q.q.q.q.q.q.q.q.q.q.q.q.q.q.q.q.q.q.q.q.q.q.q.q.q.q.8.q.q.q.q.q.q.8.q.q.q.q.q.q.q.q.q.q.q.q.q.q.q.q.q.q.q.q.q.q.q.q.q.q.q.q.q.q.q.q.q.q.q.q.q.q.q.q.i.9.8.F.8.8.'.k.s @   qXJXDXHXHXJXJXJXJXJXJXJXJXJXJXJXJXJXJXJXJXJXJXJXJXJXJXJXJXJXJXJXJXJXJXJXJXJXJXJXJXJXJXJXJXJXJXJXJXJXJXJXJXJXJXJXJXJXJXJXJXJXJXJXJXJXJXJXJXJXJXJXJX",
"JXJXJXJXJXJXJXJXJXJXJXJXJXJXJXJXJXJXJXJXJXJXJXJXJXJXJXJXJXJXJXJXJXJXJXJXJXJXJXJXJXJXJXJXJXJXJXJXJXJXJXJXJXJXJXJXJXJXJXJXJXJXJXJXJXGXJXJXGXJX` . # x =Xe.q.8.0.0.q.q.q.q.q.q.q.q.q.q.q.q.q.q.q.q.q.q.q.q.q.q.q.q.q.q.q.q.q.q.q.q.q.q.q.q.q.q.q.q.q.q.q.q.q.q.q.q.8.q.q.q.q.q.8.8.q.q.q.q.q.q.q.q.q.q.q.q.q.q.q.q.q.q.q.q.q.q.q.q.q.q.q.q.q.q.q.q.q.q.q.q.q.q.q.q.L.9.0.D.8.8.K.[.b @ . ` mXJXHXJXJXJXJXJXJXJXJXJXJXJXJXJXJXJXJXJXJXJXJXJXJXJXJXJXJXJXJXJXJXJXJXJXJXJXJXJXJXJXJXJXJXJXJXJXJXJXJXJXJXJXJXJXJXJXJXJXJXJXJXJXJXJXJXJXJXJXJXJX",
"JXJXJXJXJXJXJXJXJXJXJXJXJXJXJXJXJXJXJXJXJXJXJXJXJXJXJXJXJXJXJXJXJXJXJXJXJXJXJXJXJXJXJXJXJXJXJXJXJXJXJXJXJXJXJXJXJXJXJXJXJXJXJXJXJXGXJXJXJXcXu . < %.[.u.q.7.I.0.q.q.q.q.q.q.q.q.q.q.q.q.q.q.q.q.q.q.q.q.q.q.q.q.q.q.q.q.q.q.q.q.q.q.q.q.q.q.q.q.q.q.q.q.q.q.q.q.q.q.q.q.q.q.8.8.q.q.q.q.q.q.q.q.q.q.q.q.q.q.q.q.q.q.q.q.q.q.q.q.q.q.q.q.q.q.q.q.q.q.q.q.q.q.q.q.i.q.i.0.8.8.7.(.%.# . t zXJXJXJXJXJXJXJXJXJXJXJXJXJXJXJXJXJXJXJXJXJXJXJXJXJXJXJXJXJXJXJXJXJXJXJXJXJXJXJXJXJXJXJXJXJXJXJXJXJXJXJXJXJXJXJXJXJXJXJXJXJXJXJXJXJXJXJXJXJXJXJX",
"JXJXJXJXJXJXJXJXJXJXJXJXJXJXJXJXJXJXJXJXJXJXJXJXJXJXJXJXJXJXJXJXJXJXJXJXJXJXJXJXJXJXJXJXJXJXJXJXJXJXJXJXJXJXJXJXJXJXJXJXJXJXJXJXGXJXDXAXJXsX  @ 5 h.2.I.L.5.U.w.q.q.q.q.q.q.q.q.q.q.q.q.q.q.q.q.q.q.q.q.q.q.q.q.q.q.q.q.q.q.q.q.q.q.q.q.q.q.q.q.q.q.q.q.q.8.q.q.q.q.q.q.q.q.q.q.q.q.q.q.q.q.q.q.q.q.q.q.q.q.q.q.q.q.q.q.q.q.q.q.q.q.q.q.q.q.q.q.q.q.q.q.q.q.q.q.q.9.i.0.8.8.7./.#X3 .   fXDXJXJXJXJXJXJXJXJXJXJXJXJXJXJXJXJXJXJXJXJXJXJXJXJXJXJXJXJXJXJXJXJXJXJXJXJXJXJXJXJXJXJXJXJXJXJXJXJXJXJXJXJXJXJXJXJXJXJXJXJXJXJXJXJXJXJXJXJXJXJX",
"JXJXJXJXJXJXJXJXJXJXJXJXJXJXJXJXJXJXJXJXJXJXJXJXJXJXJXJXJXJXJXJXJXJXJXJXJXJXJXJXJXJXJXJXJXJXJXJXJXGXGXGXGXGXGXGXHXHXHXHXGXGXJXHXFXJXJXJXFX3X  # z g.p.I.L.0.7.q.q.q.q.q.q.q.q.q.q.q.q.q.q.q.q.q.q.q.q.q.q.q.q.q.q.q.q.q.q.q.q.q.q.q.q.q.q.q.q.q.q.q.q.q.q.q.q.q.q.q.q.q.q.q.q.q.q.q.q.q.q.q.q.q.q.q.q.q.q.q.q.q.q.q.q.q.q.q.q.q.q.q.q.q.q.q.q.q.q.q.q.q.q.q.q.8.8.8.q.q.8.8.0.r.Q.x @ % ] FXDXJXJXJXJXJXJXJXJXJXJXJXJXJXJXJXJXJXJXJXJXJXJXJXJXJXJXJXJXJXJXJXJXJXJXJXJXJXJXJXJXJXJXJXJXJXJXJXJXJXJXJXJXJXJXJXJXJXJXJXJXJXJXJXJXJXJXJXJXJX",
"JXJXJXJXJXJXJXJXJXJXJXJXJXJXJXJXJXJXJXJXJXJXJXJXJXJXJXJXJXJXJXJXJXJXJXJXJXJXJXJXJXJXJXJXJXJXJXJXJXGXGXGXGXGXGXGXHXHXHXHXJXHXJXJXJXJXDXDXZXR . 1 } x.s.L.L.0.q.8.8.q.q.q.q.q.q.q.q.q.q.q.q.q.q.q.q.q.q.q.q.q.q.q.q.q.q.q.q.q.q.q.q.q.q.q.q.q.q.q.q.q.q.q.q.q.q.q.q.q.q.q.q.q.q.q.q.q.q.q.q.q.q.q.q.q.q.q.q.q.q.q.q.q.q.q.q.q.q.q.q.q.q.q.q.q.q.q.q.q.q.q.q.q.q.8.8.8.q.q.q.q.q.u.[.} # . p HXJXDXJXJXJXJXJXJXJXJXJXJXJXJXJXJXJXJXJXJXJXJXJXJXJXJXJXJXJXJXJXJXJXJXJXJXJXJXJXJXJXJXJXJXJXJXJXJXJXJXJXJXJXJXJXJXJXJXJXJXJXJXJXJXJXJXJXJXJXJX",
"JXJXJXJXJXJXJXJXJXJXJXJXJXJXJXJXJXJXJXJXJXJXJXJXJXJXJXJXJXJXJXJXJXJXJXJXJXJXJXJXJXJXJXJXJXJXJXJXJXJXJXJXJXJXJXJXJXJXJXJXJXJXJXJXJXGXAXDXxX  . 1 ;.).u.L.i.0.q.6.8.q.q.q.q.q.q.q.q.q.q.q.q.q.q.q.q.8.q.q.q.q.q.q.q.q.q.q.q.q.q.q.q.q.q.q.q.q.q.q.q.8.q.q.q.q.q.q.q.q.q.q.q.q.q.q.q.q.q.q.q.q.q.q.q.8.q.q.q.q.q.q.q.q.q.q.q.q.q.q.q.q.q.q.q.q.q.q.q.q.q.q.q.q.q.8.8.8.D.D.8.8.q.u.(.<.< .   cXJXDXJXJXJXJXJXJXJXJXJXJXJXJXJXJXJXJXJXJXJXJXJXJXJXJXJXJXJXJXJXJXJXJXJXJXJXJXJXJXJXJXJXJXJXJXJXJXJXJXJXJXJXJXJXJXJXJXJXJXJXJXJXJXJXJXJXJXJXJX",
"JXJXJXJXJXJXJXJXJXJXJXJXJXJXJXJXJXJXJXJXJXJXJXJXJXJXJXJXJXJXJXJXJXJXJXJXJXJXJXJXJXJXJXJXJXJXJXJXJXJXJXJXJXJXJXJXJXJXJXJXJXJXJXJXZXGXAXJXqX  @ 5 $X).u.L.0.0.D.6.8.q.q.q.q.q.q.q.q.q.q.q.q.q.q.q.q.q.q.q.q.q.q.q.q.q.q.q.q.q.q.q.q.q.q.q.q.q.q.q.q.q.q.q.q.q.q.q.q.q.q.q.q.q.q.q.q.q.q.q.q.q.q.q.q.q.q.q.q.q.q.q.q.q.q.q.q.q.q.q.q.q.q.q.q.q.q.q.q.q.q.q.q.q.q.8.8.8.D.D.8.8.8.i.).&Xf @   wXZXJXJXJXJXJXJXJXJXJXJXJXJXJXJXJXJXJXJXJXJXJXJXJXJXJXJXJXJXJXJXJXJXJXJXJXJXJXJXJXJXJXJXJXJXJXJXJXJXJXJXJXJXJXJXJXJXJXJXJXJXJXJXJXJXJXJXJXJXJX",
"JXJXJXJXJXJXJXJXJXJXJXJXJXJXJXJXJXJXJXJXJXJXJXJXJXJXJXJXJXJXJXJXJXJXJXJXJXJXJXJXJXJXJXJXJXJXJXJXJXJXJXJXJXJXJXJXJXJXJXJXJXJXJXJXJXJXAXJXW . < b =Xr.q.q.0.5.D.8.8.q.q.q.q.q.q.q.q.q.q.q.q.q.q.q.q.q.q.q.q.q.q.q.q.q.q.q.q.q.q.q.q.q.q.q.q.q.q.q.q.q.q.q.q.q.q.8.q.q.q.q.q.q.q.q.q.q.q.q.q.q.q.q.q.q.q.q.q.q.q.q.q.q.q.q.q.q.q.q.q.q.q.q.q.q.q.q.q.q.q.q.q.q.q.q.8.0.0.0.8.8.8.i.x.Q.C # @ W JXJXJXJXJXJXJXJXJXJXJXJXJXJXJXJXJXJXJXJXJXJXJXJXJXJXJXJXJXJXJXJXJXJXJXJXJXJXJXJXJXJXJXJXJXJXJXJXJXJXJXJXJXJXJXJXJXJXJXJXJXJXJXJXJXJXJXJXJXJX",
"JXJXJXJXJXJXJXJXJXJXJXJXJXJXJXJXJXJXJXJXJXJXJXJXJXJXJXJXJXJXJXJXJXJXJXJXJXJXJXJXJXJXJXJXHXJXJXJXJXJXJXJXJXJXJXJXJXJXJXJXJXJXJXJXJXHXJXDX& @ < %.[.e.i.q.q.6.8.8.8.q.q.q.q.q.q.q.q.q.q.q.q.q.8.8.q.q.q.q.q.q.q.q.q.q.8.8.q.q.q.q.q.q.q.q.q.q.8.8.q.q.q.q.q.q.q.8.q.q.8.8.q.q.q.q.q.q.q.q.q.q.8.8.q.q.q.q.q.q.q.q.q.q.8.8.q.q.q.q.q.q.8.8.q.q.q.q.q.q.q.q.q.q.q.q.0.D.0.8.8.8.8.q.'.g.:.3 . = JXHXJXJXJXJXJXJXJXJXJXJXJXJXJXJXJXJXJXJXJXJXJXJXJXJXJXJXJXJXJXJXJXJXJXJXJXJXJXJXJXJXJXJXJXJXJXJXJXJXJXJXJXJXJXJXJXJXJXJXJXJXJXJXJXJXJXJXJXJX",
"JXJXJXJXJXJXJXJXJXJXJXJXJXJXJXJXJXJXJXJXJXJXJXJXJXJXJXJXJXJXJXJXJXJXJXJXJXJXJXJXJXJXJXJXHXHXHXJXJXJXJXJXJXJXJXJXJXJXJXJXJXJXJXJXHXZXJXpX. # 7 ,.(.e.i.6.q.6.8.8.8.q.q.q.q.q.q.q.q.q.q.q.q.q.q.q.q.q.q.q.q.q.q.q.q.q.q.q.q.q.q.q.q.q.q.q.q.q.q.q.q.q.q.q.q.q.q.q.q.q.q.q.q.q.q.q.q.q.q.q.q.q.q.q.q.q.q.q.q.q.q.q.q.q.q.q.q.q.q.q.q.q.q.q.q.q.q.q.q.q.q.q.q.q.q.q.7.S.0.8.8.8.8.q.u.z.#Xf @ . pXHXJXJXJXJXJXJXJXJXJXJXJXJXJXJXJXJXJXJXJXJXJXJXJXJXJXJXJXJXJXJXJXJXJXJXJXJXJXJXJXJXJXJXJXJXJXJXJXJXJXJXJXJXJXJXJXJXJXJXJXJXJXJXJXJXJXJXJXJX",
"JXJXJXJXJXJXJXJXJXJXJXJXJXJXJXJXJXJXJXJXJXJXJXJXJXJXJXJXJXJXJXJXJXJXJXJXJXJXJXJXJXJXJXJXHXHXJXJXJXJXJXJXJXJXJXJXJXJXJXJXJXJXJXJXJXJXFX] . < c &X).u.L.6.D.8.8.8.8.q.q.q.q.q.q.q.q.q.q.q.q.q.q.q.q.q.q.q.q.q.q.q.q.q.q.q.q.q.q.q.q.q.q.q.q.q.q.q.q.q.q.q.q.q.q.q.q.q.q.q.q.q.q.q.q.q.q.q.q.q.q.q.q.q.q.q.q.q.q.q.q.q.q.q.q.q.q.q.q.q.q.q.q.q.q.q.q.q.q.q.q.q.q.q.0.0.0.8.8.8.8.q.w.XXW.j < . [ HXJXJXJXJXJXJXJXJXJXJXJXJXJXJXJXJXJXJXJXJXJXJXJXJXJXJXJXJXJXJXJXJXJXJXJXJXJXJXJXJXJXJXJXJXJXJXJXJXJXJXJXJXJXJXJXJXJXJXJXJXJXJXJXJXJXJXJXJX",
"JXJXJXJXJXJXJXJXJXJXJXJXJXJXJXJXJXJXJXJXJXJXJXJXJXJXJXJXJXJXJXJXJXGXJXVXJXGXJXJXJXJXJXJXJXJXJXJXJXJXJXJXJXJXJXJXJXJXJXJXJXJXJXJXSXJXGXt # <  .E.J.u.9.q.q.8.8.8.8.q.q.q.q.q.q.q.q.q.q.8.8.8.q.q.q.q.q.q.q.q.q.q.q.q.q.q.q.q.q.q.q.q.q.q.q.q.q.q.q.q.q.q.q.q.q.q.q.q.q.q.q.q.q.q.q.q.q.8.8.8.q.q.q.q.q.q.q.q.q.q.q.q.q.q.q.q.q.q.q.q.q.q.q.q.q.q.q.q.q.q.q.q.q.q.L.D.0.q.8.8.8.8.L.r.[.*.< @ : HXJXJXJXGXGXJXJXJXJXJXJXJXJXJXJXJXJXJXJXJXJXJXJXJXJXGXJXZXJXJXJXAXJXJXJXJXJXJXJXJXJXJXJXJXJXJXJXJXJXJXJXJXJXJXJXJXJXJXJXJXJXJXJXJXJXJXJXJX",
"JXJXJXJXJXJXJXJXJXJXJXJXJXJXJXJXJXJXJXJXJXJXJXJXJXJXJXJXJXJXJXJXGXGXJXJXFXZXJXGXJXJXJXJXJXJXJXJXJXJXJXJXJXJXJXJXHXHXHXHXHXGXHXGXZXxXzX% # 5 ,.T.G.0.9.q.q.8.8.8.8.q.q.q.q.q.q.q.q.q.q.q.8.8.q.q.q.q.q.q.q.q.q.q.q.q.q.q.q.q.q.q.q.q.q.q.8.8.q.q.q.q.q.q.q.q.q.q.q.q.q.q.q.q.q.q.q.q.q.q.8.8.q.q.q.q.q.q.q.q.q.q.q.q.q.q.q.q.q.q.q.q.q.q.q.q.q.q.q.q.q.q.q.q.q.q.i.i.q.8.8.8.8.8.0.p.XX;.5 @ O jXHXJXJXHXJXJXJXJXJXJXJXJXJXJXJXJXJXJXJXJXJXJXJXJXxXDXZXJXJXGXJXJXJXJXJXJXJXJXJXJXJXJXJXJXJXJXJXJXJXJXJXJXJXJXJXJXJXJXJXJXJXJXJXJXJXJXJXJX",
"JXJXJXJXJXJXJXJXJXJXJXJXJXJXJXJXJXJXJXJXJXJXJXJXJXJXJXJXJXJXJXJXJXZXxXAXGXJXJXAXJXJXJXJXJXJXJXJXJXGXHXGXHXGXHXJXJXJXJXJXJXJXJXJXJXZX7X. # j  X3.S.8.9.9.9.8.8.8.8.q.q.q.q.8.q.q.q.q.q.q.q.q.q.q.q.q.q.q.q.q.q.q.q.q.q.q.q.q.q.q.q.q.q.q.8.8.q.q.q.q.q.q.q.q.8.8.q.q.q.q.q.8.q.q.q.q.q.q.q.q.q.q.q.q.q.q.q.q.q.q.q.q.q.q.q.q.q.q.q.q.q.q.q.q.q.q.q.q.q.q.q.q.q.q.i.i.q.8.8.8.8.q.7.u.].k.k #   3XJXJXJXJXJXJXJXGXJXJXJXJXJXJXJXJXDXDXJXJXJXJXJXJXJXJXAXJXJXDXZXJXJXJXJXJXJXJXJXJXJXJXJXJXJXJXJXJXJXJXJXJXJXJXJXJXJXJXJXJXJXJXJXJXJXJXJXJX",
"JXJXJXJXJXJXJXJXJXJXJXJXJXJXJXJXJXJXJXJXJXJXJXJXJXJXJXJXJXJXJXJXGXJXJXJXJXnXAXJXJXJXJXJXJXJXJXJXJXJXGXDXGXJXJXJXJXJXJXJXJXJXJXJXbXJXQ = < m T.U.Z.A.9.9.9.8.8.A.8.q.q.q.8.8.q.q.q.q.q.q.q.q.q.q.q.q.q.q.q.q.q.q.q.q.q.q.q.q.q.q.8.q.q.q.q.q.q.q.q.8.8.8.q.q.q.8.q.q.q.q.8.8.q.q.q.q.q.q.q.q.q.q.q.q.q.q.q.q.q.q.q.8.q.q.q.q.q.q.q.q.q.q.q.q.q.q.q.q.q.q.q.q.q.q.i.q.q.8.8.8.q.q.q.L.u.). .< . P JXJXJXJXJXJXJXGXJXJXJXJXJXJXJXJXJXJXJXJXJXJXJXJXJXvXAXDXDXJXAXGXJXJXJXJXJXJXJXJXJXJXJXJXJXJXJXJXJXJXJXJXJXJXJXJXJXJXJXJXJXJXJXJXJXJXJXJX",
"JXJXJXJXJXJXJXJXJXJXJXJXJXJXJXJXJXJXJXJXJXJXJXJXJXJXJXJXJXJXJXJXJXAXJXZXdXpX0X0XpXpXpXpXpXpXpXpXpXpXpXpXpXpXdXdXaXaXaXaXaXaXaXaXgXpXX @ 6 >.J.Z.Z.8.9.9.9.8.A.Z.8.q.q.q.8.8.8.q.q.8.8.q.q.q.8.8.q.q.q.q.q.q.q.q.q.q.q.q.q.q.q.q.8.8.q.q.q.q.q.q.q.q.8.8.q.q.q.q.8.q.q.q.8.8.8.q.q.8.8.q.q.q.8.8.q.q.q.q.8.q.q.q.q.q.q.q.q.q.q.q.q.q.q.q.q.q.q.q.8.q.q.q.q.q.q.q.q.9.q.8.q.0.0.0.0.L.5.'.;.1 @ X xXZXGXDXJXJXJXJXJXJXJXJXJXJXJXJXGXGXDXDXDXDXJXJXJXDXJXGXKXGXJXGXJXJXJXJXJXJXJXJXJXJXJXJXJXJXJXJXJXJXJXJXJXJXJXJXJXJXJXJXJXJXJXJXJXJXJXJX",
"JXJXJXJXJXJXJXJXJXJXJXJXJXJXJXJXJXJXJXJXJXJXJXJXJXJXJXJXJXJXJXJXJXZXJX0X; + . .     . . . . . . .       . . . .                   +   @ s B.H.7.A.8.9.9.9.8.A.Z.0.q.q.q.q.q.q.q.q.8.8.q.q.q.q.q.q.q.q.q.q.q.q.q.q.q.q.q.q.q.q.q.8.8.q.q.q.q.q.q.q.q.8.q.q.q.q.q.8.8.q.q.q.q.q.q.q.8.8.q.q.q.q.q.q.q.q.q.q.q.q.q.q.q.q.q.q.q.q.q.q.q.q.q.q.q.q.q.8.q.q.q.q.q.q.q.9.9.q.q.q.0.u.S.5.L.7.'.k.s $   W ~ ! ! ! ^ ^ ^ _ _ _ _ _ _ _ _ _ _ ` ` ` ' ' ' ( ] ' ' ] ] fXJXJXJXJXJXJXJXJXJXJXJXJXJXJXJXJXJXJXJXJXJXJXJXJXJXJXJXJXJXJXJXJXJXJXJXJXJX",
"JXJXJXJXJXJXJXJXJXJXJXJXJXJXJXJXJXJXJXJXJXJXJXJXJXJXJXJXJXJXJXJXJXZXAX~         . . . . . . . . . . . . . . . . . . . . . . . . +   o @ c h.U.A.A.A.9.9.9.q.Z.Z.0.q.q.q.q.q.q.q.q.q.q.q.q.q.q.q.8.q.q.q.q.q.8.q.q.q.q.q.q.q.q.q.q.q.q.q.8.q.q.q.q.q.q.q.q.q.q.q.q.q.q.q.q.q.q.q.q.q.q.q.q.q.q.q.q.q.q.q.q.q.q.q.q.q.q.q.q.q.q.q.q.q.q.q.q.q.q.q.8.8.q.q.q.q.q.q.9.9.q.q.q.0.u.K.0.q.q.I.E.n @       .                                             O         ! AXJXJXJXJXJXJXJXJXJXJXJXJXJXJXJXJXJXJXJXJXJXJXJXJXJXJXJXJXJXJXJXJXJXJXJXJX",
"JXJXJXJXJXJXJXJXJXJXJXJXJXJXJXJXJXJXJXJXJXJXJXJXJXJXJXJXJXJXJXJXAXJXJX  % @ 2 0 7 7 7 7 7 7 8 8 7 7 7 7 5 5 1 1 1 1 1 1 1 1 1 < . $ . 1 1.E.S.7.A.A.q.9.q.q.0.0.0.q.q.q.q.q.q.q.q.q.q.q.q.q.q.q.8.8.8.q.q.q.8.8.q.q.q.q.q.q.q.q.q.q.q.q.8.q.q.q.q.q.q.q.q.q.q.q.q.q.q.q.q.q.q.q.q.q.q.q.q.q.q.q.q.q.q.8.8.8.q.q.q.q.q.q.q.q.q.q.q.q.q.q.q.q.q.q.q.q.q.q.q.q.q.q.q.q.8.8.q.0.u.u.L.6.8.K..X%.# @ . @ # # # < < < < < < # # # # # < < < # # # # # # @ 3 @ @ .   GXJXJXJXJXJXJXJXJXJXJXJXJXJXJXJXJXJXJXJXJXJXJXJXJXJXJXJXJXJXJXJXJXJXJXJXJX",
"JXJXJXJXJXJXJXJXJXJXJXJXJXJXJXJXJXJXJXJXJXJXJXJXJXJXJXJXJXJXJXJXJXGXyXo . < *XR.E.E.!.!.T.T.[.b.Q.Q.[.[.{.[.|.Q.|.g.(.{.{.[.k.*XM.. < 1 %XH.5.A.A.A.A.A.8.q.a.a.q.q.q.q.q.q.q.q.q.q.q.q.q.q.q.q.q.q.q.q.q.q.q.q.q.q.q.q.q.q.q.q.q.q.q.q.q.q.q.q.q.q.q.q.q.q.q.q.q.q.q.q.q.q.q.q.q.q.q.q.q.q.q.q.q.q.q.q.q.q.q.q.q.q.q.q.q.q.q.q.q.q.q.q.q.q.q.q.q.q.q.q.q.q.q.8.8.6.8.8.8.8.9.9.6.8.7.K.(.N.5 # . S X.o.} .. . .} } } } } } } } } } } } } V V V } V } V 1 @ * yXFXJXGXJXJXZXJXJXJXJXJXJXHXHXHXHXJXJXJXJXJXJXJXJXJXJXJXJXJXJXJXJXJXJXJXJX",
"JXJXJXJXJXJXJXJXJXJXJXJXJXJXJXJXJXJXJXJXJXJXJXJXJXJXJXJXJXJXJXJXJXJX] % # j ~./.K.p.H.G.Y.Z.a.v.v.P.i.i.i.a.v.P.p.u.L.q.0.P./.$XL @ 1 l b.P.7.A.A.A.A.Z.A.q.a.y.q.q.q.q.q.q.q.q.q.q.q.q.q.q.q.q.q.q.q.q.q.q.q.q.q.q.q.q.q.q.q.q.q.q.q.q.q.q.q.q.q.q.q.q.q.q.q.q.q.q.q.q.q.q.q.q.q.q.q.q.q.q.q.q.q.q.q.q.q.q.q.q.q.q.q.q.q.q.q.q.q.q.q.q.q.q.q.q.8.8.8.8.8.8.q.8.6.6.8.8.8.8.q.9.8.q.8.K.`.R.x < $ K $Xc.x.'.c.[.).).).).{.(././.'.).).).(.[.E.E.(.(.b.f.B < X ,XHXZXJXJXJXJXJXJXJXJXJXJXJXHXHXHXJXJXJXJXJXJXJXJXJXJXJXJXJXJXJXJXJXJXJXJX",
"JXJXJXJXJXJXJXJXJXJXJXJXJXJXJXJXJXJXJXJXJXJXJXJXJXJXJXJXJXJXJXJXAXJXa . < &.T.P.0.0.K.K.Z.Z.i.a.p.K.i.q.i.i.a.P.u.0.q.8.0.p.).$Xf # 5 | b.v.q.8.8.8.A.Z.A.A.8.q.q.q.q.q.q.q.q.q.q.q.q.q.q.q.q.q.q.q.q.q.q.q.q.q.q.q.q.q.q.q.q.q.q.q.q.q.q.q.q.q.q.q.q.q.q.q.q.q.q.q.q.q.q.q.q.q.q.q.q.q.q.q.q.q.q.q.q.q.q.q.q.q.q.q.q.q.q.q.q.q.q.q.q.q.q.q.q.q.q.q.q.q.q.q.q.8.8.8.8.8.A.8.9.9.q.8.A.S.`.Q.X.1 @ 0 &Xc.].'.x.).x.p.p.x././.P.p.P.p.K.P.J.J.^.J.J.'.'.[.O.1   y HXZXJXGXJXJXJXDXJXJXJXJXJXJXHXHXJXJXJXJXJXJXJXJXJXJXJXJXJXJXJXJXJXJXJXJX",
"JXJXJXJXJXJXJXJXJXJXJXJXJXJXJXJXJXJXJXJXJXJXJXJXJXJXJXJXJXJXJXJXAXzXO . 1 n.`.e.0.8.0.D.A.A.i.i.i.K.q.q.q.q.i.i.L.7.7.A.0.p.).j.< # 5 n.b.v.i.q.q.q.D.A.A.A.A.8.8.q.q.q.q.q.q.q.q.q.q.q.q.q.q.q.q.q.q.q.q.q.q.q.q.q.q.q.q.q.q.q.q.q.q.q.q.q.q.q.q.q.q.q.q.q.q.q.q.q.q.q.q.q.q.q.q.q.q.q.q.q.q.q.q.q.q.q.q.q.q.q.q.q.q.q.q.q.q.q.q.q.q.q.q.q.q.q.q.q.q.q.q.q.q.q.q.8.8.A.D.7.0.9.8.8.A.7.J.|.>.6 # 1 j.c.v.p.t.P.p.i.i.I.P.P.u.i.L.L.D.K.K.K.K.K.4.7.0.).;.7 . X aXJXJXGXJXJXAXDXJXJXJXJXJXJXHXHXJXJXJXJXJXJXJXJXJXJXJXJXJXJXJXJXJXJXJXJX",
"JXJXJXJXJXJXJXJXJXJXJXJXJXJXJXJXJXJXJXJXJXJXJXJXJXJXJXJXJXJXJXJXJX6X. @ 8 $X).7.6.6.8.A.A.8.9.9.0.D.8.8.8.q.q.D.D.A.7.8.0.I.(.O.< # s B.b.v.y.9.9.9.q.0.D.A.A.A.8.q.q.q.q.q.q.q.q.q.q.q.q.q.q.q.q.q.q.q.q.q.q.q.q.q.q.q.q.q.q.q.q.q.q.q.q.q.q.q.q.q.q.q.q.q.q.q.q.q.q.q.q.q.q.q.q.q.q.q.q.q.q.q.q.q.q.q.q.q.q.q.q.q.q.q.q.q.q.q.q.q.q.q.q.q.q.q.8.8.8.8.8.8.8.8.q.q.0.S.S.0.i.9.8.6.A.8.K.).k.l < 1 o.{.'.I.I.L.0.0.0.q.u.u.q.0.0.7.8.8.8.7.S.Z.F.A.7.].k.j $   ] JXGXGXJXJXAXJXJXJXJXJXJXJXJXJXJXJXJXJXJXJXJXJXJXJXJXJXJXJXJXJXJXJXJXJX",
"JXJXJXJXJXJXJXJXJXJXJXJXJXJXJXJXJXJXJXJXJXJXJXJXJXJXJXJXJXJXJXJXJX~ @ < V E.P.q.6.6.8.8.8.q.q.q.q.8.8.8.6.8.q.q.5.F.8.5.w.].T.m 1 < n &X).s.y.9.9.9.i.i.i.q.A.A.8.q.q.q.q.q.q.q.q.q.q.q.q.q.q.q.8.8.8.8.8.8.8.8.q.q.q.q.q.q.q.q.q.q.q.q.q.q.q.q.8.8.8.8.8.8.8.8.q.q.q.q.q.q.q.q.q.q.q.q.q.q.q.q.q.q.q.q.q.q.q.q.q.q.q.q.q.q.q.q.q.q.q.q.q.q.q.q.q.q.q.q.q.q.q.q.q.q.0.S.S.u.i.9.6.6.A.8.S.H.(.} < < z g.x.u.L.5.8.8.8.q.i.i.q.q.q.q.8.8.8.A.A.A.6.6.5.I.E.V 3 . p HXZXJXJXJXAXJXJXJXJXJXJXJXJXJXJXJXJXJXJXJXJXJXJXJXJXJXJXJXJXJXJXJXJXJX",
"JXJXJXJXJXJXJXJXJXJXJXJXJXJXJXJXJXJXJXJXJXJXJXJXJXJXJXJXJXJXJXJXxXq @ 1 -.g.K.q.6.6.8.8.8.9.q.8.8.8.8.6.6.8.q.q.7.F.6.7.4._.f.d 1 1 -.!.P.w.i.9.q.9.i.a.v.i.A.A.8.q.q.q.q.q.q.q.q.q.q.q.q.q.q.q.q.q.q.q.q.q.q.q.q.q.q.q.q.q.q.q.q.q.q.q.q.q.q.q.q.q.q.q.q.q.q.q.q.q.q.q.q.q.q.q.q.q.q.q.q.q.q.q.q.q.q.q.q.q.q.q.q.q.q.q.q.q.q.q.q.q.q.q.q.q.q.q.q.q.q.q.q.q.q.q.q.q.0.D.0.0.0.q.8.8.8.6.q.u.x.;.6 < g j.).I.L.8.6.6.6.8.8.q.8.q.9.9.q.8.8.8.8.8.8.q.8.I.[.>.1 . = aXJXJXGXJXJXJXJXJXJXJXJXJXJXJXJXJXJXJXJXJXJXJXJXJXJXJXJXJXJXJXJXJXJXJX",
"JXJXJXJXJXJXJXJXJXJXJXJXJXJXJXJXJXJXJXJXJXJXJXJXJXJXJXJXJXJXJXJXdX+ @ 1 h.J.I.6.6.6.8.A.q.i.q.8.D.8.8.6.6.8.q.q.D.8.5.D.P.g.-.5 1 1 #XT.G.7.q.8.6.8.i.v.v.a.8.8.8.q.q.q.q.q.q.q.q.q.q.q.q.q.q.q.q.q.q.q.q.q.q.q.q.q.q.q.q.q.q.q.q.q.q.q.q.q.q.q.q.q.q.q.q.q.q.q.q.q.q.q.q.q.q.q.q.q.q.q.q.q.q.q.q.q.q.q.q.q.q.q.q.q.q.q.q.q.q.q.q.q.q.q.q.q.q.q.q.q.q.q.q.q.q.q.q.q.0.0.0.0.0.8.A.A.6.6.q.i.p.Q.8 # 5 *.g.p.q.D.8.8.8.8.8.q.q.q.i.i.9.q.8.q.q.8.6.q.9.i.c.*X5 @   9XGXJXZXJXJXAXJXJXJXJXJXJXJXJXJXJXJXJXJXJXJXJXJXJXJXJXJXJXJXJXJXJXJXJX",
"JXJXJXJXJXJXJXJXJXJXJXJXJXJXJXJXJXJXJXJXJXJXJXJXJXGXJXJXJXZXJXHX1X  3 j ~.].w.q.8.8.8.8.i.i.q.q.A.8.6.6.8.q.q.q.8.q.8.0./.%Xm 5 < c #XoX3.d.U.6.8.6.i.a.s.s.D.8.8.q.q.q.q.q.q.q.q.q.q.q.q.q.q.q.q.q.q.q.q.q.q.q.q.q.q.q.q.q.q.q.q.q.q.q.q.q.q.q.q.q.q.q.q.q.q.q.q.q.q.q.q.q.q.q.q.q.q.q.q.q.q.q.q.q.q.q.q.q.q.q.q.q.q.q.q.q.q.q.q.q.q.q.q.q.q.q.q.q.q.q.q.q.q.8.8.8.q.q.q.q.q.8.6.8.6.D.d.u.'.=Xv # 8 l W.).u.8.8.8.8.8.8.q.q.9.i.i.9.q.8.q.q.q.q.6.9.a.c.$XG # @ i JXJXZXJXJXAXJXJXJXJXJXJXJXJXJXJXJXJXJXJXJXJXJXJXJXJXJXJXJXJXJXJXJXJX",
"JXJXJXJXJXJXJXJXJXJXJXJXJXJXJXJXJXJXJXJXJXJXJXJXGXJXJXGXJXJXGXJXP . < X.T.G.i.I.8.8.8.8.i.a.q.8.q.q.8.8.q.9.i.i.D.q.8.u.).$Xg # # 5 :.~._.U.d.A.A.6.8.i.a.a.q.5.8.q.q.q.q.q.q.q.q.q.q.q.q.q.q.q.q.q.q.q.q.q.q.q.q.q.q.q.q.q.q.q.q.q.q.q.q.q.q.q.q.q.q.q.q.q.q.q.q.q.q.q.q.q.q.q.q.q.q.q.q.q.q.q.q.q.q.q.q.q.q.q.q.q.q.q.q.q.q.q.q.q.q.q.q.q.q.q.q.q.q.q.q.q.q.8.8.8.q.q.i.q.8.8.A.5.U.0.p.r.x.W.v @ # f N..X4.7.8.8.A.A.8.q.q.q.i.i.q.8.8.8.q.q.8.8.8.i.x.=X%.1 . e vXJXAXJXJXJXJXJXJXJXJXJXJXJXJXJXJXJXJXJXJXJXJXJXJXJXJXJXJXJXJXJXJXJX",
"JXJXJXJXJXJXJXJXJXJXJXJXJXJXJXJXJXJXJXJXJXJXJXJXGXJXJXGXJXJXZXxXX . < ,.`.4.I.L.q.8.8.q.i.i.0.A.D.D.q.8.q.i.i.i.i.q.q.p.[.,.1 @ # 1 1 %.f.}.J.4.F.A.8.0.5.6.A.A.8.q.q.q.q.q.q.q.q.q.q.q.q.q.q.q.q.q.q.q.q.q.q.q.q.q.q.q.q.q.q.q.q.q.q.q.q.q.q.q.q.q.q.q.q.q.q.q.q.q.q.q.q.q.q.q.q.q.q.q.q.q.q.q.q.q.q.q.q.q.q.q.q.q.q.q.q.q.q.q.q.q.q.q.q.q.q.q.q.q.q.q.q.q.q.8.8.8.q.q.9.9.8.8.A.5.p.t.XXg.=XV < = @ # X.k.'.q.D.D.D.D.q.q.q.q.D.D.8.8.8.8.8.8.7.8.6.6.K.}.f.8 @   eXJXDXJXJXJXJXJXJXJXJXJXJXJXJXJXJXJXJXJXJXJXJXJXJXJXJXJXJXJXJXJXJXJX",
"JXJXJXJXJXJXJXJXJXJXJXJXJXJXJXJXJXJXJXJXJXJXJXJXJXGXGXJXJXGXZXqXX $ 6 W./.0.I.0.q.q.q.q.i.i.q.A.D.D.8.q.9.i.i.i.9.q.q.'.Q.X.< @ . @ # 1 x R.!.^.G.Y.S.D.D.8.8.6.8.q.q.q.q.q.q.q.q.q.q.q.q.q.q.q.q.q.q.q.q.q.q.q.q.q.q.q.q.q.q.q.q.q.q.q.q.q.q.q.q.q.q.q.q.q.q.q.q.q.q.q.q.q.q.q.q.q.q.q.q.q.q.q.q.q.q.q.q.q.q.q.q.q.q.q.q.q.q.q.q.q.q.q.q.q.q.q.q.q.q.q.q.q.q.8.8.8.q.9.i.9.8.8.5.U.z.[.W.*Xz s @ .   @ b h.'.q.q.q.D.0.q.8.q.q.D.A.A.8.8.A.A.A.8.A.6.6.S.H.T.m 2   ' JXDXJXJXJXJXJXJXJXJXJXJXJXJXJXJXJXJXJXJXJXJXJXJXJXJXJXJXJXJXJXJXJX",
"JXJXJXJXJXJXJXJXJXJXJXJXJXJXJXJXJXJXJXJXJXJXJXJXJXGXGXGXJXZXJX! o < b T.P.L.i.0.D.D.q.q.i.q.8.A.8.q.8.8.q.9.i.i.7.D.0./.%Xj @   ! q % @ 1 6  .&X!.`.J.e.S.q.7.7.q.q.q.q.q.q.q.q.q.q.q.q.q.q.q.q.q.q.q.q.q.q.q.q.q.q.q.q.q.q.q.q.q.q.q.q.q.q.q.q.q.q.q.q.q.q.q.q.q.q.q.q.q.q.q.q.q.q.q.q.q.q.q.q.q.q.q.q.q.q.q.q.q.q.q.q.q.q.q.q.q.q.q.q.q.q.q.q.q.q.q.q.q.q.q.8.8.8.q.9.9.9.8.0.K.J.;X*Xn.j f # @ : O . 1 #X].w.0.0.i.0.8.8.q.0.A.A.A.8.8.A.A.A.A.8.6.8.A.4.`...< . e DXDXJXAXJXJXJXJXJXJXJXJXJXJXJXJXJXJXJXJXJXJXJXJXJXJXJXJXJXJXJXJXJX",
"JXJXJXJXJXJXJXJXJXJXJXJXJXJXJXJXJXJXJXJXJXJXJXJXJXJXJXZXJXJXJX> . < O.^.u.i.9.q.D.D.i.i.9.8.8.A.8.8.8.8.q.9.s.q.D.0.0./.j.5 .   iXhXQ   . < 8 h :.h.[./.K.7.q.I.q.8.8.8.8.8.8.8.8.8.8.8.8.8.8.8.8.8.8.8.8.8.8.8.8.8.8.8.8.8.8.8.8.8.8.8.8.8.8.8.8.8.8.8.8.8.8.8.q.q.q.q.q.q.q.q.8.8.8.8.8.8.8.8.8.8.8.8.8.8.8.8.8.8.8.8.8.8.8.8.8.8.8.8.8.8.8.8.8.8.8.8.8.8.8.8.8.8.9.i.y.9.q.7.].g.j.n.8 3 @ @ a DXX   0 o.).I.s.i.u.0.8.6.8.8.D.A.8.8.8.8.D.S.D.8.6.8.A.7.'.f.1 . . fXDXDXAXJXJXJXJXJXJXJXJXJXJXJXJXJXJXJXJXJXJXJXJXJXJXJXJXJXJXJXJXJX",
"JXJXJXJXJXJXJXJXJXJXJXJXJXJXJXJXJXJXJXJXJXJXJXJXGXJXJXGXGXJXpX  @ 5 f.H.0.q.9.D.Z.D.i.i.q.6.8.8.8.A.8.8.q.q.0.0.L.5.L./.o.1   y CXCXHXyXX . # < s V ;.g.].K.s.a.9.q.q.q.q.q.q.q.q.q.q.q.q.q.q.q.q.q.q.q.q.q.q.q.q.q.q.q.q.q.q.q.q.q.q.q.q.q.q.q.q.q.q.q.q.q.q.q.q.q.q.q.q.q.q.q.q.q.q.q.q.q.q.q.q.q.q.q.q.q.q.q.q.q.q.q.q.q.q.q.q.q.q.q.q.q.q.q.q.q.q.q.q.q.q.8.8.8.9.i.i.i.0.K.2.=XV 5 < . o ! mXnX/ . # } x.a.i.i.i.0.8.8.8.8.q.q.8.8.q.q.u.P.u.i.6.8.8.i.p.Q.h @ . @XDXDXDXJXJXJXHXHXHXJXJXJXJXJXJXJXJXJXJXJXJXJXJXJXJXJXJXJXJXJXJXJX",
"JXJXJXJXJXJXJXJXJXJXJXJXJXJXJXJXJXJXJXJXJXJXJXJXJXGXZXJXHXGX5X. < s E.].5.L.q.8.A.D.i.i.q.8.8.8.A.A.8.8.q.q.D.D.F.d.].(.n <   ! CXCXHXFXBXT % @ # 5 g } f. X-Xb.p.q.q.q.q.8.8.8.8.8.8.8.q.q.q.q.q.q.q.q.q.q.q.q.q.q.q.q.q.q.q.q.q.q.q.q.q.q.q.q.q.q.q.q.q.8.q.8.8.A.A.A.A.8.8.8.8.8.8.q.q.q.q.8.8.8.8.8.q.q.q.q.q.q.q.q.q.q.q.q.q.q.q.q.q.q.q.q.q.q.q.q.q.q.q.8.D.D.i.a.v.v./.(.@.g 1 @ . O 2XGXDXDX8X  2 d .Xa.a.i.i.q.8.8.8.q.q.q.q.q.q.i.i.a.u.I.q.6.6.I.4.{.C # . A DXJXJXDXJXHXHXHXJXJXJXJXJXJXJXJXJXJXJXJXJXJXJXJXJXJXJXJXJXJXJXJX",
"JXJXJXJXJXJXJXJXJXJXJXJXJXJXJXJXJXJXJXHXGXGXJXJXGXJXGXSXHXZXp # 1 }  Xt.L.D.6.D.8.D.L.i.q.q.8.8.0.0.8.8.q.0.A.8.8.F.t.:X1 . + qXGXZXJXJXJXJX9Xe . < < < 5 C n.*Xc.I.u.0.D.8.6.8.A.8.6.8.0.7.0.L.7.0.0.D.L.D.0.0.q.q.q.i.i.q.q.q.q.q.q.q.q.q.q.q.q.q.8.8.8.8.8.8.A.Z.Z.Z.A.A.A.A.A.A.8.8.8.8.8.8.8.8.8.8.8.q.q.q.q.q.q.q.q.8.8.8.8.q.q.q.q.9.9.i.i.9.9.q.q.7.q.D.L.w.].XXg.&Xn.c 3 @ .   p 0XJXnXMXmXCX  . 1 ;.{.p.q.8.6.q.D.q.6.q.q.q.q.q.q.q.q.q.q.q.q.q.q.0./.;.1 4 X FXJXMXMXDXHXHXHXJXJXJXJXJXJXJXJXJXJXJXJXJXJXJXJXJXJXJXJXJXJXJXJX",
"JXJXJXJXJXJXJXJXJXJXJXJXJXJXJXJXJXJXJXHXSXGXJXJXJXJXSXSXHXcXq @ 5 @..X/.i.8.8.6.8.D.S.K.0.q.8.8.0.i.q.8.q.0.Z.A.6.L.c.:.1 . O cXJXDXDXAXZXJXJXZX5Xq . @ # # < C ;.b._.z.P.I.L.D.7.6.D.F.D.0.0.7.L.D.D.D.0.0.7.0.q.q.q.q.i.i.i.i.q.q.q.q.q.q.q.q.q.8.8.8.8.8.8.8.8.A.A.A.A.A.A.A.A.8.8.q.q.q.q.8.8.8.8.8.0.0.0.q.q.q.q.q.q.8.8.q.q.0.7.q.D.L.i.9.q.q.q.L.L.q.0.u.e.z.[.%X<.B 1 # . + O _ zXJXJXDXMXDXFXa   # X.|.p.q.8.8.q.L.i.q.q.q.q.q.q.q.q.q.q.q.q.q.q.q.q.K.k.d # X 8XJXMXMXDXSXHXHXJXJXJXJXJXJXJXJXJXJXJXJXJXJXJXJXJXJXJXJXJXJXJXJX",
"JXJXJXJXJXJXJXJXJXJXJXJXJXJXJXJXJXJXJXHXSXGXJXJXJXJXHXSXHX0X  # s h.[.'.u.5.F.6.8.0.0.0.0.q.8.8.0.0.q.8.q.0.A.A.8.L.{.V < + p HXJXDXJXJXJXZXJXJXJXzX2Xe . @ 2 # 8 x X.N.;Xg.2./.P.L.0.5.5.8.q.q.6.6.6.6.8.8.8.8.8.8.q.q.q.i.i.q.8.8.8.8.8.8.8.8.8.8.8.8.8.8.8.8.9.9.9.9.9.9.9.9.9.9.9.9.9.9.9.9.q.D.0.0.0.0.0.0.0.0.q.0.q.q.q.q.0.L.L.D.8.7.7.8.A.8.8.8.0.w.u.x.XXQ.;.M 5 < # . % p pXJXZXAXJXDXMXDXHX,X  # l Q.x.q.8.8.8.D.q.9.q.q.q.q.q.q.q.q.q.q.q.q.q.q.q.P..Xn # o Q JXAXDXDXHXHXHXJXJXJXJXJXJXJXJXJXJXJXJXJXJXJXJXJXJXJXJXJXJXJXJX",
"JXJXJXJXJXJXJXJXJXJXJXJXJXJXJXJXJXJXJXHXGXGXJXJXJXJXHXSXHX` . < m  X(.P.q.7.A.6.8.0.0.0.0.q.8.8.0.0.8.8.q.0.A.A.F.4.|.l @ . 4XSXSXJXJXGXJXHXFXVXGXJXJXAX5X9 @ 2 @ # # 5 B :.#XQ.[.).H.p.I.I.I.8.8.8.8.8.8.8.6.6.8.8.8.8.q.q.q.q.8.8.8.8.8.8.8.q.8.q.q.q.q.q.q.9.9.i.i.i.i.9.9.9.9.9.9.9.9.9.q.q.0.D.0.D.0.0.8.8.q.q.q.q.q.q.q.q.L.0.7.A.F.F.A.Z.7.F.U.P.x.).{.|.o.k 5 1 # @ $ e wXJXZXZXJXGXAXJXMXDXHXiXO @ 6 j.x.i.q.7.7.q.q.q.q.q.q.q.q.q.q.q.q.q.q.q.q.q.q.K.}.O.# % r BXDXDXGXHXHXHXJXJXJXJXJXJXJXJXJXJXJXJXJXJXJXJXJXJXJXJXJXJXJXJX",
"JXJXJXJXJXJXJXJXJXJXJXJXJXJXJXJXJXJXJXHXGXGXJXJXJXZXHXHXHXu . 1 O..Xx.p.0.8.6.A.8.q.0.D.0.0.8.8.0.q.8.8.q.0.A.S.7.t.;.s @ + bXVXSXJXJXbXHXHXHXHXFXZXJXcXDXDX6Xa   X % . @ < f x :.R.;X{.t.t.p.I.7.6.6.6.6.8.8.8.8.8.8.8.8.8.8.8.8.q.q.q.q.q.q.q.0.0.0.0.i.i.u.i.9.9.9.9.9.9.9.q.q.8.8.8.8.8.8.8.q.0.0.0.8.8.8.8.8.8.8.8.q.q.9.q.6.8.8.8.7.7.Z.Y.G.J.T.g.W.,.} 6 8 7 # @ 9 a 2XJXJXJXJXHXFXJXDXJXDXAXHXVX: . 5 @.(.P.q.8.8.q.q.q.q.q.q.q.q.q.q.q.q.q.q.q.q.q.q.u.z.j.1 @ o 0XJXDXHXHXHXHXJXDXDXDXJXJXJXJXJXJXJXJXJXJXJXJXJXJXJXJXJXJXJXJX",
"JXJXJXJXJXJXJXJXJXJXJXJXJXJXJXJXJXJXJXHXHXJXJXJXJXFXHXHXgX  . 1 j.(.H.u.7.8.6.A.8.q.0.0.0.0.8.8.q.q.8.8.q.q.S.S.e.}.} 5 # u HXHXSXJXGXSXHXHXVXHXHXHXJXJXAXnXDXJXhX) *   . . @ 3 1 s n O.h.:X=Xg.'.P.K.K.p.K.L.D.q.8.8.8.8.8.6.8.q.q.q.q.q.q.q.q.0.i.i.i.i.u.u.i.q.q.q.q.q.0.0.q.8.A.8.A.8.A.8.A.q.q.q.8.8.8.8.8.8.8.8.q.9.9.i.i.q.q.D.L.L.K.J.(.!.W.<.G g 1 < # @ @ @ p 9XJXJXZXFXHXBXJXJXJXJXxXJXZXHXHX! . 1 n E.'.I.q.8.q.q.q.q.q.q.q.q.q.q.q.8.8.8.8.8.8.8.0.t.&Xc # % [ JXJXHXHXHXHXJXJXDXDXJXJXJXJXJXJXJXJXJXJXJXJXJXJXJXJXJXJXJXJX",
"JXJXJXJXJXJXJXJXJXJXJXJXJXJXJXJXJXJXJXHXHXGXJXJXJXHXHXHX2X  # g Q.r.P.q.8.6.8.6.8.8.0.0.0.q.8.8.8.8.8.8.8.q.7.K./.=Xl < @ ] FXHXJXGXSXSXHXHXHXHXHXHXcXHXJXAXJXZXGXHXFXqXW = . . @ < 1 5 5 l X.>.j.k.!.!..X(.c.t.P.i.q.q.8.6.6.6.q.q.q.q.q.q.q.q.q.q.q.q.q.q.q.q.q.q.q.0.0.0.0.0.D.D.S.S.S.S.S.0.q.q.8.8.8.8.8.8.8.8.q.q.i.a.a.a.].u.4.t.}. Xf.*.n g 1 < # . . % O / pXHXFXGXJXJXJXJXJXFXFXJXGXJXJXAXHXHX9X. < s k./.P.q.q.8.8.8.q.q.q.q.q.q.q.q.q.q.q.q.q.q.q.0.J.!.&.< # a KXJXHXHXJXJXJXJXDXDXJXJXJXJXJXJXJXJXJXJXJXJXJXJXJXJXJXJXJXJX",
"JXJXJXJXJXJXJXJXJXJXJXJXJXJXJXJXJXJXJXHXHXGXJXJXZXHXHXHXP @ < V {.e.i.0.8.6.F.6.8.8.q.0.0.q.8.8.8.8.8.8.8.8.7.G.(.j.5 # . aXHXSXZXJXJXJXHXHXHXHXJXFXJXJXZXJXGXJXJXGXJXJXHXzX4XW . . . . # # < 1 f x X.:.N.*X$X!.[.)./.P.i.i.q.q.i.i.i.i.i.i.q.q.q.q.8.8.8.6.6.8.8.8.8.8.q.0.0.0.0.D.D.0.u.u.u.0.q.9.9.q.q.8.8.D.S.u.p.p.v.c.c.b.g.|.%X;.} l s 6 5 # @ @ . X Y 3XVXHXHXHXHXHXFXJXJXBXZXJXJXHXJXZXJXJXHXHXcX. # 1 j.g.r.q.8.8.8.6.q.q.q.q.q.q.q.q.q.q.q.q.q.q.q.D.P.g.,.5 # . kXHXHXHXJXJXJXJXDXDXJXJXJXJXJXJXJXJXJXJXJXJXJXJXJXJXJXJXJXJX",
"JXJXJXJXJXJXJXJXJXJXJXJXJXJXJXJXJXJXJXHXHXJXJXJXJXHXHXFX  @ 1 >.).L.L.q.8.8.8.8.8.8.0.8.8.8.8.8.A.7.q.8.8.8.d.'.!.O.< # q GXHXSXJXJXJXJXJXJXJXJXHXHXJXJXJXJXJXJXJXDXJXJXJXHXHXHXcX9X~ ;   . . @ # < 1 < 1 f C %.N.h.W.|..X{.).x.'.P.u.u.u.i.q.6.q.8.8.6.6.6.8.8.8.8.8.8.8.8.A.A.q.0.0.i.L.L.u.u.p.p.p.p.r.H.H./.^.^.E.|.-XB.l.=.C h 5 1 1 < # # @ @ % a 2XsXJXJXHXHXHXHXHXHXJXJXJXJXJXJXJXHXHXHXJXZXHXHXHXp # < V :Xx.u.L.q.8.6.q.q.q.q.q.q.q.q.q.q.q.q.q.q.q.0.K.t.W.l < @ 5XHXHXJXFXJXJXJXDXDXJXJXJXJXJXJXJXJXJXJXJXJXJXJXJXJXJXJXJXJX",
"JXJXJXJXJXJXJXJXJXJXJXJXJXJXJXJXJXJXHXHXJXJXDXDXZXHXHXyX. < 5 h./.0.q.q.8.8.8.8.8.8.8.8.8.8.8.8.8.6.L.q.8.D.w./.&Xc # @ ` GXHXSXJXJXJXJXJXJXJXJXJXJXJXJXJXJXJXJXDXDXDXDXJXGXHXHXHXHXHXVXpX2Xp   . . . . @ # < < 5 8 j n X.-.N.&XE.(.(._.).).).].p.p.i.s.9.q.8.6.D.A.A.D.D.D.L.L.u.p.p.'.].].].x.{..X[.[.[.E.!.R.R.-.X.n j s 5 1 < @ @ . . . . o ~ 5XsXJXJXJXAXxXHXHXHXJXJXJXJXDXDXJXJXJXGXHXHXHXJXJXJXFXHX2X. @ j $Xz.I.9.6.D.D.q.q.q.q.q.q.q.q.q.q.q.8.q.q.q.0.7.G.[.} 1 @ Q HXHXJXJXJXJXJXDXDXJXJXJXJXJXJXJXJXJXJXJXJXJXJXJXJXJXJXJXJX",
"JXJXJXJXJXJXJXJXJXJXJXJXJXJXJXJXDXJXJXHXHXJXDXDXZXHXHX[ . 1 k =Xp.q.8.q.8.8.8.8.q.q.8.8.8.8.8.8.8.8.L.9.8.D.0.`.#X3 # . uXJXGXGXJXJXJXJXJXJXJXJXJXJXJXJXJXJXJXJXDXDXDXDXDXGXSXSXHXHXHXHXHXHXGXGX0X<XT & . @ @ @ # # < < < < 1 5 j n  .O.-.,.h.$XW.E.[.[.{._._.).J.J.J.J.J.^.^.(.(.g.k.k.E.E.k.k.>.:.%.X.V c h 8 < < # # @ @ @ @ .   o > i C.pXDXSXDXGXSXSXHXHXHXJXJXJXDXDXDXDXDXDXDXDXJXGXGXGXHXJXJXJXZXHXaX  @ 7 N.b.].6.6.D.8.q.q.q.q.q.q.q.q.q.q.8.8.q.q.q.0.7.U./.l.5 @ O BXHXGXJXJXFXHXJXDXJXJXJXJXJXJXJXJXJXJXJXJXJXJXJXJXJXJXJXJX",
"JXJXJXJXJXJXJXJXJXJXJXJXJXJXJXJXDXJXHXJXJXJXDXDXJXHXCXt @ 5 ..}.L.q.q.q.q.q.q.q.q.q.8.8.8.8.8.8.A.8.L.i.8.q.u.`.:.< @ * KXJXJXSXJXJXJXJXJXJXJXJXJXJXJXJXJXJXJXJXJXDXDXJXDXGXDXSXSXGXHXHXJXJXJXJXGXGXGXKXdX4X! a   . . . . . . . @ # # < < 1 7 8 c x n V X.%.-.-.-.-.@.@.O.o.o.X. .V V n k g d 6 5 1 < < < # @ @ . . . . . o = > ) 3XpXBXJXJXNXbXSXSXSXSXHXCXCXHXJXDXDXDXDXDXDXDXDXDXJXJXGXGXGXGXJXGXJXJXHXSX> % 1 %.|.v.9.D.D.5.q.q.q.q.q.q.q.q.q.q.q.q.q.q.q.8.7.F.P.k.d #   0XHXZXJXJXGXJXDXDXJXJXJXJXJXJXJXJXJXJXJXJXJXJXJXJXJXJXJXJX",
"JXJXJXJXJXJXJXJXJXJXJXJXJXJXJXJXDXDXHXJXJXJXDXMXJXJXaXo # 5 f.x.L.8.q.q.q.q.q.q.q.q.8.8.8.8.8.8.A.7.0.I.6.6.K..XB 2   Q JXDXJXSXJXJXJXJXJXJXJXJXJXJXJXJXJXJXJXJXHXHXGXGXGXGXGXDXJXJXJXJXJXDXAXAXJXJXJXJXJXJXJXJXGXaX4X_ p : X   o .     . . . . @ @ # # # # # # < < < < < < < < # # # # # # < # # @ @ @ . . . . . : i _ 3XiXBXHXGXJXJXJXDXDXDXMXNXSXSXHXHXCXCXHXJXDXJXDXJXJXJXJXJXGXGXJXGXJXJXJXJXAXJXJXHXHX/   # x -Xt.i.L.D.7.q.q.q.q.q.q.q.q.q.q.q.q.q.q.q.8.A.D.I.b.M #   / JXAXDXJXJXHXGXJXJXJXJXJXJXJXJXJXJXJXJXJXJXJXJXJXJXJXJXJX",
"JXJXJXJXJXJXJXJXJXJXJXJXJXJXJXJXDXDXJXJXJXJXDXMXAXJX7Xo # d =Xr.q.8.8.q.0.0.0.q.q.q.8.8.8.8.8.8.8.7.q.I.q.q.I.T.8 @ X 8XJXAXJXDXJXJXJXJXJXJXJXJXJXJXJXJXJXJXJXJXHXHXHXGXJXJXDXDXDXDXJXJXJXJXJXDXJXJXDXGXJXJXJXJXHXHXHXJXHXHXlXaX7X,XQ u - O X         . . . . . @ . . . . .     o o o o X X X     = u W ` 5XqXpXZXHXJXHXHXHXHXHXJXJXDXAXDXDXDXSXGXGXFXHXHXHXHXHXJXJXJXJXJXHXHXHXHXHXHXJXJXJXJXJXJXGXDXJXSXHXqX  @ 8 %Xx.i.q.0.D.q.q.q.q.q.q.q.q.q.q.q.q.q.q.q.8.8.8.i.c.*.< % - nXDXDXDXJXHXJXJXJXJXJXJXJXJXJXJXJXJXJXJXJXJXJXJXJXJXJXJX",
"JXJXJXJXJXJXJXJXJXJXJXJXJXJXJXJXDXDXHXHXJXJXMXMXNXJXQ % # V .Xp.8.8.8.q.0.i.i.s.q.q.8.8.8.8.8.8.8.8.u.I.9.i.I.$.1 . r lXJXAXDXDXHXHXHXHXGXGXGXGXJXGXJXJXJXGXGXHXHXHXJXJXJXJXDXDXJXJXDXDXGXGXGXGXJXHXHXJXJXJXJXGXJXJXDXGXJXJXJXJXJXJXJXJXJXxXaXpXwX5Xm._ ~ p u q t u u p P W ~ ! _ [ C.4X9XiXaXgXJXJXJXJXJXJXJXJXJXJXJXDXJXJXJXJXDXDXJXJXJXJXJXJXJXJXJXJXGXGXDXJXJXJXJXJXHXHXHXHXHXHXHXJXJXJXJXJXJXDXDXDXZXHXBX- @ 5 ;.XXi.0.D.D.q.q.q.q.q.q.q.q.q.q.q.q.q.q.q.8.8.8.i.v.N.7 .   0XDXDXAXJXFXJXJXJXJXJXJXJXJXJXJXJXJXJXJXJXJXJXJXJXJXJXJX",
"JXJXJXJXJXJXJXJXJXJXJXJXJXJXJXJXDXDXJXJXJXJXDXMXDXGX* @ < >.z.w.q.8.q.q.q.i.i.i.q.q.8.8.8.8.8.8.8.D.i.i.9.I./...1   p HXGXJXJXDXGXHXHXHXGXGXGXGXJXGXJXGXJXGXHXHXJXJXJXJXJXJXJXDXDXJXJXJXJXJXJXJXHXJXJXJXHXHXHXJXGXJXJXJXJXDXDXJXJXJXDXDXJXJXJXJXJXJXJXJXJXJXJXJXJXJXHXHXHXHXHXHXHXJXJXGXSXSXGXGXJXJXJXJXJXJXJXJXJXJXJXJXJXJXDXmXDXJXJXJXJXGXGXJXJXJXJXGXDXDXDXAXJXJXJXJXHXHXHXHXHXHXHXJXJXJXJXJXJXDXDXJXJXHXHXp . # } -Xs.9.L.7.q.q.q.q.q.q.q.q.q.q.q.q.q.q.q.8.8.D.9.v.-Xg . + C.AXJXDXJXZXJXGXJXJXJXJXJXJXJXJXJXJXJXJXJXJXJXJXJXJXJXJX",
"JXJXJXJXJXJXJXJXJXJXJXJXJXJXJXJXDXSXJXJXGXDXJXDXSX0X  # s h.r.8.8.8.q.q.q.q.q.q.q.q.q.8.8.8.8.q.L.L.6.7.I.t.;Xs # . 2XJXJXDXJXVXJXJXJXJXJXJXJXJXJXJXJXJXJXJXJXJXJXJXJXJXJXJXJXJXJXJXJXJXJXJXJXJXJXJXJXJXJXJXJXJXJXJXJXJXJXJXJXJXJXJXJXJXJXJXJXJXJXJXJXJXJXJXJXJXJXJXJXJXJXJXJXJXJXJXJXJXJXJXJXJXJXJXJXJXJXJXJXJXJXJXJXJXJXJXJXJXJXJXJXJXJXJXJXJXJXJXJXJXJXJXJXJXJXJXJXJXJXJXJXJXJXJXJXJXJXJXJXJXJXJXJXJXAXJXnX5X  . f &Xt.I.L.6.q.q.q.q.q.q.q.q.q.q.q.q.q.q.q.q.D.7.i.a.z.o.1 . u HXHXFXJXDXAXJXJXJXJXJXJXJXJXJXJXJXJXJXJXJXJXJXJXJXJXJX",
"JXJXJXJXJXJXJXJXJXJXJXJXJXJXJXJXGXGXJXJXJXJXJXSXHX]   # x E.u.8.8.q.q.q.q.q.q.q.q.q.q.q.q.q.q.q.0.L.6.6.i.(.,.7 @ . pXJXJXJXJXHXJXJXJXJXJXJXJXJXJXJXJXJXJXJXJXJXJXJXJXJXJXJXJXJXJXJXJXJXJXJXJXJXJXJXJXJXJXJXJXJXJXJXJXJXJXJXJXJXJXJXJXJXJXJXJXJXJXJXJXJXJXJXJXJXJXJXJXJXJXJXJXJXJXJXJXJXJXJXJXJXJXJXJXJXJXJXJXJXJXJXJXJXJXJXJXJXJXJXJXJXJXJXJXJXJXJXJXJXJXJXJXJXJXJXJXJXJXJXJXJXJXJXJXJXJXJXJXJXHXHXGXJXAXDXDXpXX   1 N.v.i.q.6.8.q.q.q.q.q.q.q.q.q.q.q.q.q.q.q.D.0.i.I.P.$.5 @ O hXHXFXDXMXDXJXJXJXJXJXJXJXJXJXJXJXJXJXJXJXJXJXJXJXJXJX",
"JXJXJXJXJXJXJXJXJXJXJXJXJXJXJXJXGXSXJXJXJXJXJXZXHXu . < X.|.u.8.8.q.q.q.q.q.q.q.q.q.q.q.q.q.q.q.0.D.8.8.e..XX.< . u AXJXDXJXHXJXJXJXJXJXJXJXJXJXJXJXJXJXJXJXJXJXJXJXJXJXJXJXJXJXJXJXJXJXJXJXJXJXJXJXJXJXJXJXJXJXJXJXJXJXJXJXJXJXJXJXJXJXJXJXJXJXJXJXJXJXJXJXJXJXJXJXJXJXJXJXJXJXJXJXJXJXJXJXJXJXJXJXJXJXJXJXJXJXJXJXJXJXJXJXJXJXJXJXJXJXJXJXJXJXJXJXJXJXJXJXJXJXJXJXJXJXJXJXJXJXJXJXJXJXJXJXJXJXHXHXGXJXGXAXJXZXy + # %.{.i.q.8.8.q.q.q.q.q.q.q.q.q.q.q.q.q.q.q.D.0.q.i.P.k.s #   7XHXGXAXMXJXDXJXJXJXJXJXJXJXJXJXJXJXJXJXJXJXJXJXJXJXJX",
"JXJXJXJXJXJXJXJXJXJXJXJXJXJXJXJXGXSXJXJXGXJXJXGXgX  . 1 >.{.0.6.8.q.q.q.q.q.q.q.q.q.q.q.q.q.q.q.7.q.q.q.e. Xx # . ` JXGXDXJXJXGXJXJXJXJXJXJXJXJXJXJXJXJXJXJXJXJXJXJXJXJXJXJXJXJXJXJXJXJXJXJXJXJXJXJXJXJXJXJXJXJXJXJXJXJXJXJXJXJXJXJXJXJXJXJXJXJXJXJXJXJXJXJXJXJXJXJXJXJXJXJXJXJXJXJXJXJXJXJXJXJXJXJXJXJXJXJXJXJXJXJXJXJXJXJXJXJXJXJXJXJXJXJXJXJXJXJXJXJXJXJXJXJXJXJXJXJXJXJXJXJXJXJXJXJXJXJXJXJXHXHXJXJXJXmXDXJX[ O # m b.a.L.7.8.q.q.q.q.q.q.q.q.q.q.q.q.q.q.q.0.5.8.q.p..XV #   Q FXJXJXDXJXDXJXJXJXJXJXJXJXJXJXJXJXJXJXJXJXJXJXJXJXJX",
"JXJXJXJXJXJXJXJXJXJXJXJXJXJXJXJXJXHXJXJXGXJXJXGXwX  @ f *Xz.q.8.8.q.q.q.q.q.q.q.q.q.q.q.q.q.q.8.8.8.8.I.z.h.s @   yXJXGXJXDXJXGXJXJXJXJXJXJXJXJXJXJXJXJXJXJXJXJXJXJXJXJXJXJXJXJXJXJXJXJXJXJXJXJXJXJXJXJXJXJXJXJXJXJXJXJXJXJXJXJXJXJXJXJXJXJXJXJXJXJXJXJXJXJXJXJXJXJXJXJXJXJXJXJXJXJXJXJXJXJXJXJXJXJXJXJXJXJXJXJXJXJXJXJXJXJXJXJXJXJXJXJXJXJXJXJXJXJXJXJXJXJXJXJXJXJXJXJXJXJXJXJXJXJXJXJXJXJXJXJXSXJXFXJXJXAXDXJXyX  @ s f.'.L.8.8.q.q.q.q.q.q.q.q.q.q.q.q.q.q.q.D.8.D.q.p.[.>.< @ > cXHXJXGXAXJXJXJXJXJXJXJXJXJXJXJXJXJXJXJXJXJXJXJXJXJX",
"JXJXJXJXJXJXJXJXJXJXJXJXJXJXJXJXSXHXJXJXGXJXJXDX~ . # B :Xt.q.8.8.q.q.q.q.q.q.q.q.q.q.q.q.q.q.8.8.6.q.I.(.@.1 . = FXFXJXJXAXJXJXJXJXJXJXJXJXJXJXJXJXJXJXJXJXJXJXJXJXJXJXJXJXJXJXJXJXJXJXJXJXJXJXJXJXJXJXJXJXJXJXJXJXJXJXJXJXJXJXJXJXJXJXJXJXJXJXJXJXJXJXJXJXJXJXJXJXJXJXJXJXJXJXJXJXJXJXJXJXJXJXJXJXJXJXJXJXJXJXJXJXJXJXJXJXJXJXJXJXJXJXJXJXJXJXJXJXJXJXJXJXJXJXJXJXJXJXJXJXJXJXJXJXJXJXJXJXJXJXDXJXFXGXJXJXJXHXCX= @ 5 ;.c.0.A.q.q.q.q.q.q.q.q.q.q.q.q.q.q.q.q.q.8.A.8.p.c.&X8 @   0XHXGXGXJXJXJXJXJXJXJXJXJXJXJXJXJXJXJXJXJXJXJXJXJXJX",
"JXJXJXJXJXJXJXJXJXJXJXJXJXJXJXJXZXZXJXJXJXJXJXvX& @ < %.=Xr.q.8.8.q.q.q.q.q.q.q.q.q.q.q.q.q.q.8.8.6.0.'.!.n < . ~ HXFXJXGXDXAXJXJXJXJXJXJXJXJXJXJXJXJXJXJXJXJXJXJXJXJXJXJXJXJXJXJXJXJXJXJXJXJXJXJXJXJXJXJXJXJXJXJXJXJXJXJXJXJXJXJXJXJXJXJXJXJXJXJXJXJXJXJXJXJXJXJXJXJXJXJXJXJXJXJXJXJXJXJXJXJXJXJXJXJXJXJXJXJXJXJXJXJXJXJXJXJXJXJXJXJXJXJXJXJXJXJXJXJXJXJXJXJXJXJXJXJXJXJXJXJXJXJXJXJXJXJXJXJXJXDXDXGXJXGXGXJXHXHXQ . 1 } b.e.S.q.q.q.q.q.q.q.q.q.q.q.q.q.q.q.q.7.D.8.8.a.c.Q.n # . { HXHXHXJXJXJXJXJXJXJXJXJXJXJXJXJXJXJXJXJXJXJXJXJXJX",
"JXJXJXJXJXJXJXJXJXJXJXJXJXJXJXJXJXJXJXJXHXJXxXaX. @ 5 #Xg.'.6.6.8.q.q.q.q.q.q.q.q.q.q.q.q.q.q.8.8.6.i._.R.f # . 7XHXHXHXGXJXvXJXJXJXJXJXJXJXJXJXJXJXJXJXJXJXJXJXJXJXJXJXJXJXJXJXJXJXJXJXJXJXJXJXJXJXJXJXJXJXJXJXJXJXJXJXJXJXJXJXJXJXJXJXJXJXJXJXJXJXJXJXJXJXJXJXJXJXJXJXJXJXJXJXJXJXJXJXJXJXJXJXJXJXJXJXJXJXJXJXJXJXJXJXJXJXJXJXJXJXJXJXJXJXJXJXJXJXJXJXJXJXJXJXJXJXJXJXJXJXJXJXJXJXJXJXJXJXJXJXMXDXJXJXJXGXJXHXHX5X@ # l Q./.4.q.q.q.q.q.q.q.q.q.q.q.q.q.q.q.q.8.D.8.8.I.].g.O.5 @ & JXHXHXJXGXJXJXJXJXJXJXJXJXJXJXJXJXJXJXJXJXJXJXJXJX",
"JXJXJXJXJXJXJXJXJXJXJXJXJXJXJXJXJXVXJXHXHXGXJX' @ < x &X(.I.D.6.8.q.q.q.q.q.q.q.q.q.q.q.q.q.q.8.8.6.p.E.>.1 . . FXHXHXHXJXJXJXDXJXJXJXJXJXJXJXJXJXJXJXJXJXJXJXJXJXJXJXJXJXJXJXJXJXJXJXJXJXJXJXJXJXJXJXJXJXJXJXJXJXJXJXJXJXJXJXJXJXJXJXJXJXJXJXJXJXJXJXJXJXJXJXJXJXJXJXJXJXJXJXJXJXJXJXJXJXJXJXJXJXJXJXJXJXJXJXJXJXJXJXJXJXJXJXJXJXJXJXJXJXJXJXJXJXJXJXJXJXJXJXJXJXJXJXJXJXJXJXJXJXJXJXJXJXJXJXJXDXDXJXJXJXJXJXHXHXzX. # 5 j.2.U.0.q.q.q.q.q.q.q.q.q.q.q.q.q.q.q.q.8.8.8.i.x.^.W.5 # . pXJXHXGXJXJXJXJXJXJXJXJXJXJXJXJXJXJXJXJXJXJXJXJXJX",
"JXJXJXJXJXJXJXJXJXJXJXJXJXJXJXJXJXGXJXHXHXJXJXA @ 1 } |.x.i.q.6.8.q.q.q.q.q.q.q.q.q.q.q.q.q.q.8.6.D.r.%XG < @ p HXHXHXHXJXJXJXDXJXJXJXJXJXJXJXJXJXJXJXJXJXJXJXJXJXJXJXJXJXJXJXJXJXJXJXJXJXJXJXJXJXJXJXJXJXJXJXJXJXJXJXJXJXJXJXJXJXJXJXJXJXJXJXJXJXJXJXJXJXJXJXJXJXJXJXJXJXJXJXJXJXJXJXJXJXJXJXJXJXJXJXJXJXJXJXJXJXJXJXJXJXJXJXJXJXJXJXJXJXJXJXJXJXJXJXJXJXJXJXJXJXJXJXJXJXJXJXJXJXJXJXJXJXJXJXJXDXDXJXJXJXJXJXJXJXKXa @ < +.|.H.0.q.q.q.q.q.q.q.q.q.q.q.q.q.q.q.8.8.8.8.i.p.H.E.l < . ] HXFXJXGXJXJXJXJXJXJXJXJXJXJXJXJXJXJXJXJXJXJXJXJX",
"JXJXJXJXJXJXJXJXJXJXJXJXJXJXJXJXJXJXJXZXHXHXxX. # 6 ;.[.e.0.8.8.8.8.8.8.8.8.8.8.8.8.8.8.8.8.8.8.6.L.g.*X0 @ @ 2XGXHXHXHXJXJXJXJXJXJXJXJXJXJXJXJXJXJXJXJXJXJXJXJXJXJXJXJXJXJXJXJXJXJXJXJXJXJXJXJXJXJXJXJXJXJXJXJXJXJXJXJXJXJXJXJXJXJXJXJXJXJXJXJXJXJXJXJXJXJXJXJXJXJXJXJXJXJXJXJXJXJXJXJXJXJXJXJXJXJXJXJXJXJXJXJXJXJXJXJXJXJXJXJXJXJXJXJXJXJXJXJXJXJXJXJXJXJXJXJXJXJXJXJXJXJXJXJXJXJXJXJXJXJXJXJXDXDXJXJXJXJXHXJXJXJX] . # c ;Xt.0.8.8.8.8.8.8.8.q.q.q.q.q.q.q.q.8.8.8.8.9.i.p.(. .1 . u HXCXJXAXJXJXJXJXJXJXJXJXJXJXJXJXJXJXJXJXJXJXJXJX",
"JXJXJXJXJXJXJXJXJXJXJXJXJXJXJXJXJXJXJXHXHXHX9X. # g $X^.K.8.8.8.8.q.q.q.q.q.q.q.q.q.q.q.q.q.q.8.6.I.g.#X< . . sXJXJXJXJXJXJXJXJXJXJXJXJXJXJXJXJXJXJXJXJXJXJXJXJXJXJXJXJXJXJXJXJXJXJXJXJXJXJXJXJXJXJXJXJXJXJXJXJXJXJXJXJXJXJXJXJXJXJXJXJXJXJXJXJXJXJXJXJXJXJXJXJXJXJXJXJXJXJXJXJXJXJXJXJXJXJXJXJXJXJXJXJXJXJXJXJXJXJXJXJXJXJXJXJXJXJXJXJXJXJXJXJXJXJXJXJXJXJXJXJXJXJXJXJXJXJXJXJXJXJXJXJXJXJXJXJXDXDXJXJXJXHXHXGXAXJXyX  @ 5 R.t.K.q.q.q.q.q.q.q.q.q.q.q.q.q.q.8.8.8.8.q.q.q.u./.f.5 @ + cXHXJXJXJXJXJXJXJXJXJXJXJXJXJXJXJXJXJXJXJXJXJXJX",
"JXJXJXJXJXJXJXJXJXJXJXJXJXJXJXJXJXAXJXGXHXJX~ # < m ;Xt.S.D.8.8.q.q.q.q.q.q.q.q.q.q.q.q.q.q.q.q.q.I.Q.&.# . q JXJXJXJXJXJXJXJXDXJXJXJXJXJXJXJXJXJXJXJXJXJXJXJXJXJXJXJXJXJXJXJXJXJXJXJXJXJXJXJXJXJXJXJXJXJXJXJXJXJXJXJXJXJXJXJXJXJXJXJXJXJXJXJXJXJXJXJXJXJXJXJXJXJXJXJXJXJXJXJXJXJXJXJXJXJXJXJXJXJXJXJXJXJXJXJXJXJXJXJXJXJXJXJXJXJXJXJXJXJXJXJXJXJXJXJXJXJXJXJXJXJXJXJXJXJXJXJXJXJXJXJXJXJXJXJXJXDXDXJXJXJXHXHXDXMXDXBXr . < @.}.i.q.q.q.q.q.q.q.q.q.q.q.q.q.q.8.8.8.q.q.8.q.i.x.Q.s #   4XHXFXJXJXJXJXJXJXJXJXJXJXJXJXJXJXJXJXJXJXJXJXJX",
"JXJXJXJXJXJXJXJXJXJXJXJXJXJXJXJXJXAXJXSXHXGX> @ 5 %. Xe.D.A.8.8.q.q.q.q.q.q.q.q.q.q.q.q.q.q.q.q.8.'.%Xh . + ` JXJXJXJXJXJXJXJXJXJXJXJXJXJXJXJXJXJXJXJXJXJXJXJXJXJXJXJXJXJXJXJXJXJXJXJXJXJXJXJXJXJXJXJXJXJXJXJXJXJXJXJXJXJXJXJXJXJXJXJXJXJXJXJXJXJXJXJXJXJXJXJXJXJXJXJXJXJXJXJXJXJXJXJXJXJXJXJXJXJXJXJXJXJXJXJXJXJXJXJXJXJXJXJXJXJXJXJXJXJXJXJXJXJXJXJXJXJXJXJXJXJXJXJXJXJXJXJXJXJXJXJXJXJXJXJXJXJXJXDXJXJXHXGXDXMXDXHXQ   < M oXK.q.q.q.q.q.q.q.q.q.q.q.q.q.q.8.8.q.q.q.8.8.9.p..Xn <   R HXJXJXJXJXJXJXJXJXJXJXJXJXJXJXJXJXJXJXJXJXJXJX",
"JXJXJXJXJXJXJXJXJXJXJXJXJXJXJXJXGXAXJXGXHXiXo @ 8 N.E.G.F.6.8.q.q.q.q.q.q.q.q.q.q.q.q.q.q.q.q.q.9.'.j.5 . X uXAXDXDXDXJXJXHXJXJXJXJXJXJXJXJXJXJXJXJXJXJXJXJXJXJXJXJXJXJXJXJXJXJXJXJXJXJXJXJXJXJXJXJXJXJXJXJXJXJXJXJXJXJXJXJXJXJXJXJXJXJXJXJXJXJXJXJXJXJXJXJXJXJXJXJXJXJXJXJXJXJXJXJXJXJXJXJXJXJXJXJXJXJXJXJXJXJXJXJXJXJXJXJXJXJXJXJXJXJXJXJXJXJXJXJXJXJXJXJXJXJXJXJXJXJXJXJXJXJXJXJXJXJXJXJXJXJXJXJXDXJXJXHXGXDXMXMXHX8XX < d [.u.q.q.q.q.q.q.q.q.q.q.q.q.q.q.8.8.q.i.q.8.6.9.p._.-.3   - zXJXJXJXJXJXJXJXJXJXJXJXJXJXJXJXJXJXJXJXJXJXJX",
"JXJXJXJXJXJXJXJXJXJXJXJXJXJXJXJXDXDXAXHXHX1Xo # g :Xt.U.D.6.6.q.9.q.q.8.8.8.q.q.q.q.8.8.8.q.9.q.I.c.*.1 .   JXJXDXDXDXDXJXJXJXJXJXJXJXJXJXJXJXJXJXJXJXJXJXJXJXJXJXJXJXJXJXJXJXJXJXJXJXJXJXJXJXJXJXJXJXJXJXJXJXJXJXJXJXJXJXJXJXJXJXJXJXJXJXJXJXJXJXJXJXJXJXJXJXJXJXJXJXJXJXJXJXJXJXJXJXJXJXJXJXJXJXJXJXJXJXJXJXJXJXJXJXJXJXJXJXJXJXJXJXJXJXJXJXJXJXJXJXJXJXJXJXJXJXJXJXJXJXJXJXJXJXJXJXJXJXJXJXJXJXJXJXJXJXHXGXDXMXmXHXBXX # 5 l./.0.q.q.8.8.q.q.q.q.q.8.8.q.q.q.q.q.i.q.8.8.9.s./.R.1 . + iXZXJXJXJXJXJXJXJXJXJXJXJXJXJXJXJXJXJXJXJXJXJX",
"JXJXJXJXJXJXJXJXJXJXJXJXJXJXJXJXJXDXJXHXCXp . < ..x.u.0.L.w.L.q.i.9.q.8.8.8.8.q.q.A.A.A.8.q.i.a.].E.m 1 . ! JXHXJXJXJXJXJXJXJXHXJXJXJXJXJXJXJXJXJXJXJXJXJXJXJXJXJXJXJXJXJXJXJXJXJXJXJXJXJXJXJXJXJXJXJXJXJXJXJXJXJXJXJXJXJXJXJXJXJXJXJXJXJXJXJXJXJXJXJXJXJXJXJXJXJXJXJXJXJXJXJXJXJXJXJXJXJXJXJXJXJXJXJXJXJXJXJXJXJXJXJXJXJXJXJXJXJXJXJXJXJXJXJXJXJXJXJXJXJXJXJXJXJXJXJXJXJXJXJXJXJXJXJXJXJXJXJXJXJXJXJXJXJXJXJXJXJXAXJXDXa . # X.g.I.0.8.8.6.8.7.D.D.8.8.8.8.q.i.q.q.8.8.0.0.i.i.P.(.j $   ) JXJXJXJXJXJXJXJXJXJXJXJXJXJXJXJXJXJXJXJXJXJX",
"JXJXJXJXJXJXJXJXJXJXJXJXJXJXJXJXDXmXGXHXlX- . < $.I.q.q.I.u.q.6.i.i.q.8.8.8.q.q.q.A.A.A.8.q.i.v.[.&Xs # @ 9XFXJXJXJXJXJXJXJXHXHXJXJXJXJXJXJXJXJXJXJXJXJXJXJXJXJXJXJXJXJXJXJXJXJXJXJXJXJXJXJXJXJXJXJXJXJXJXJXJXJXJXJXJXJXJXJXJXJXJXJXJXJXJXJXJXJXJXJXJXJXJXJXJXJXJXJXJXJXJXJXJXJXJXJXJXJXJXJXJXJXJXJXJXJXJXJXJXJXJXJXJXJXJXJXJXJXJXJXJXJXJXJXJXJXJXJXJXJXJXJXJXJXJXJXJXJXJXJXJXJXJXJXJXJXJXJXJXJXJXJXJXJXJXJXJXJXJXDXJXDXm.. @ j &XH.I.D.6.6.8.7.K.D.8.8.8.8.L.i.q.q.8.8.q.u.0.i.i.).O.<   u AXJXJXJXJXJXJXJXJXJXJXJXJXJXJXJXJXJXJXJXJXJX",
"JXJXJXJXJXJXJXJXJXJXJXJXJXJXJXJXDXDXZXHXqXX @ 6 g.].6.9.I.u.q.6.i.i.q.8.8.8.q.q.q.D.A.A.A.q.i.v.k.,.1 # $ vXCXHXHXJXJXJXJXJXHXHXJXJXJXJXJXJXJXJXJXJXJXJXJXJXJXJXJXJXJXJXJXJXJXJXJXJXJXJXJXJXJXJXJXJXJXJXJXJXJXJXJXJXJXJXJXJXJXJXJXJXJXJXJXJXJXJXJXJXJXJXJXJXJXJXJXJXJXJXJXJXJXJXJXJXJXJXJXJXJXJXJXJXJXJXJXJXJXJXJXJXJXJXJXJXJXJXJXJXJXJXJXJXJXJXJXJXJXJXJXJXJXJXJXJXJXJXJXJXJXJXJXJXJXJXJXJXJXJXJXJXJXJXJXJXHXJXJXJXDXDXtX. @ < R.t.I.D.6.6.D.0.L.D.8.8.8.8.q.i.q.q.8.8.q.q.0.q.0.r.#X7     sXJXJXJXJXJXJXJXJXJXJXJXJXJXJXJXJXJXJXJXJXJX",
"JXJXJXJXJXJXJXJXJXJXJXJXJXJXJXJXDXJXGXHX)   $ b (.I.5.6.I.w.8.6.9.9.8.8.8.8.9.9.q.q.A.A.A.8.i.v.%XV 1 # S JXHXHXHXJXJXJXJXJXHXHXJXJXJXJXJXJXJXJXJXJXJXJXJXJXJXJXJXJXJXJXJXJXJXJXJXJXJXJXJXJXJXJXJXJXJXJXJXJXJXJXJXJXJXJXJXJXJXJXJXJXJXJXJXJXJXJXJXJXJXJXJXJXJXJXJXJXJXJXJXJXJXJXJXJXJXJXJXJXJXJXJXJXJXJXJXJXJXJXJXJXJXJXJXJXJXJXJXJXJXJXJXJXJXJXJXJXJXJXJXJXJXJXJXJXJXJXJXJXJXJXJXJXJXJXJXJXJXJXJXJXJXJXJXJXHXHXJXJXJXDXmX9 . < @.(.p.0.6.6.D.0.D.D.8.8.8.8.q.i.q.q.8.8.0.0.q.q.q.t.&Xh .   5XJXJXJXJXJXJXJXJXJXJXJXJXJXJXJXJXJXJXJXJXJX",
"JXJXJXJXJXJXJXJXJXJXJXJXJXJXJXJXDXJXJXFXr + # %.).i.5.q.L.7.8.8.9.q.8.8.8.q.9.i.q.q.A.A.A.8.i.v.*Xs 1 @ @XJXHXHXHXJXJXJXJXJXJXJXJXJXJXJXJXJXJXJXJXJXJXJXJXJXJXJXJXJXJXJXJXJXJXJXJXJXJXJXJXJXJXJXJXJXJXJXJXJXJXJXJXJXJXJXJXJXJXJXJXJXJXJXJXJXJXJXJXJXJXJXJXJXJXJXJXJXJXJXJXJXJXJXJXJXJXJXJXJXJXJXJXJXJXJXJXJXJXJXJXJXJXJXJXJXJXJXJXJXJXJXJXJXJXJXJXJXJXJXJXJXJXJXJXJXJXJXJXJXJXJXJXJXJXJXJXJXJXJXJXJXJXJXJXJXHXHXJXGXJXAXJX~ . < n  Xr.5.D.6.D.0.0.0.8.8.8.8.q.i.q.q.8.8.8.q.8.8.D.u.W.G @ + p JXJXJXJXJXJXJXJXJXJXJXJXJXJXJXJXJXJXJXJXJX",
"JXJXJXJXJXJXJXJXJXJXJXJXJXJXJXJXJXDXJXaXX @ < j./.q.q.D.L.0.8.8.9.q.8.8.8.9.i.i.9.q.8.A.A.A.i.).n.1 # @ fXGXHXHXHXJXDXDXJXJXJXJXJXJXJXJXJXJXJXJXJXJXJXJXJXJXJXJXJXJXJXJXJXJXJXJXJXJXJXJXJXJXJXJXJXJXJXJXJXJXJXJXJXJXJXJXJXJXJXJXJXJXJXJXJXJXJXJXJXJXJXJXJXJXJXJXJXJXJXJXJXJXJXJXJXJXJXJXJXJXJXJXJXJXJXJXJXJXJXJXJXJXJXJXJXJXJXJXJXJXJXJXJXJXJXJXJXJXJXJXJXJXJXJXJXJXJXJXJXJXJXJXJXJXJXJXJXJXJXJXJXJXJXJXJXJXHXHXJXZXJXAXJX9X. @ s Q.).4.L.6.q.0.i.0.q.8.6.8.q.i.0.0.q.8.8.8.8.8.8.I.E.,.# . . xXJXJXJXJXJXJXJXJXJXJXJXJXJXJXJXJXJXJXJXJX",
"JXJXJXJXJXJXJXJXJXJXJXJXJXJXJXJXJXDXJX2X. @ c $X/.0.q.D.0.0.8.8.q.q.8.8.q.9.i.i.9.q.8.A.A.A.i.[.X.< @ a JXZXFXHXGXJXDXDXJXJXJXJXJXJXJXJXJXJXJXJXJXJXJXJXJXJXJXJXJXJXJXJXJXJXJXJXJXJXJXJXJXJXJXJXJXJXJXJXJXJXJXJXJXJXJXJXJXJXJXJXJXJXJXJXJXJXJXJXJXJXJXJXJXJXJXJXJXJXJXJXJXJXJXJXJXJXJXJXJXJXJXJXJXJXJXJXJXJXJXJXJXJXJXJXJXJXJXJXJXJXJXJXJXJXJXJXJXJXJXJXJXJXJXJXJXJXJXJXJXJXJXJXJXJXJXJXJXJXJXJXJXDXJXJXJXJXJXJXHXZXHXJXJXcX> . 5 *.{.p.9.8.8.q.0.0.q.8.6.8.q.q.0.0.q.q.8.8.8.6.6.I.[.#Xf @ . 9XJXJXJXJXJXJXJXJXJXJXJXJXJXJXJXJXJXJXJXJX",
"JXJXJXJXJXJXJXJXJXJXJXJXJXJXJXJXJXJXJXY . # X.E.r.5.q.8.7.D.8.8.q.q.8.8.q.9.i.i.i.q.8.A.A.S.P.|.c # @ ' JXZXHXSXGXJXDXDXJXJXJXJXJXJXJXJXJXJXJXJXJXJXJXJXJXJXJXJXJXJXJXJXJXJXJXJXJXJXJXJXJXJXJXJXJXJXJXJXJXJXJXJXJXJXJXJXJXJXJXJXJXJXJXJXJXJXJXJXJXJXJXJXJXJXJXJXJXJXJXJXJXJXJXJXJXJXJXJXJXJXJXJXJXJXJXJXJXJXJXJXJXJXJXJXJXJXJXJXJXJXJXJXJXJXJXJXJXJXJXJXJXJXJXJXJXJXJXJXJXJXJXJXJXJXJXJXJXJXJXJXJXDXJXJXJXJXJXJXFXHXJXJXZXJXu . 1 V =X'.5.q.6.D.q.0.8.8.8.8.q.q.0.0.0.q.8.8.6.6.6.i.c.$XB # % W JXJXJXJXJXJXJXJXJXJXJXJXJXJXJXJXJXJXJXJX",
"JXJXJXJXJXJXJXJXJXJXJXJXJXJXJXJXJXGXKX. @ 1 >.[.p.i.q.D.D.A.8.8.q.q.q.q.q.9.i.y.i.6.A.A.Z.K./.k.1 @ . pXJXJXHXZXJXJXDXJXJXJXJXJXJXJXJXJXJXJXJXJXJXJXJXJXJXJXJXJXJXJXJXJXJXJXJXJXJXJXJXJXJXJXJXJXJXJXJXJXJXJXJXJXJXJXJXJXJXJXJXJXJXJXJXJXJXJXJXJXJXJXJXJXJXJXJXJXJXJXJXJXJXJXJXJXJXJXJXJXJXJXJXJXJXJXJXJXJXJXJXJXJXJXJXJXJXJXJXJXJXJXJXJXJXJXJXJXJXJXJXJXJXJXJXJXJXJXJXJXJXJXJXJXJXJXJXJXJXJXJXJXJXDXJXJXJXJXHXHXJXJXZXJXZXJX5X  < s :Xz.s.q.6.q.i.i.q.8.8.8.q.q.0.D.q.q.8.8.8.8.8.D.'.k.%.5 @ O JXZXJXJXGXJXJXJXJXJXJXJXJXJXJXJXJXJXJXJX",
"JXJXJXJXJXJXJXJXJXJXJXJXJXJXJXJXJXJX0X. < s k./.a.i.D.q.A.A.8.8.q.q.q.q.q.q.i.y.9.6.A.A.0.G.(.*.<   q cXJXZXGXHXJXJXJXJXJXJXJXJXJXJXJXJXJXJXJXJXJXJXJXJXJXJXJXJXJXJXJXJXJXJXJXJXJXJXJXJXJXJXJXJXJXJXJXJXJXJXJXJXJXJXJXJXJXJXJXJXJXJXJXJXJXJXJXJXJXJXJXJXJXJXJXJXJXJXJXJXJXJXJXJXJXJXJXJXJXJXJXJXJXJXJXJXJXJXJXJXJXJXJXJXJXJXJXJXJXJXJXJXJXJXJXJXJXJXJXJXJXJXJXJXJXJXJXJXJXJXJXJXJXJXJXJXJXJXJXJXJXJXJXJXJXJXJXHXJXJXHXJXJXJXpX  @ 1 N.b.I.6.8.D.i.i.q.8.8.8.q.q.q.0.L.q.A.8.8.8.8.q.u.{.j.6 @ . eXJXJXJXGXJXJXJXJXJXJXJXJXJXJXJXJXJXJXJX",
"JXJXJXJXJXJXJXJXJXJXJXJXJXJXJXJXJXJX_ . 3 m {.p.i.i.q.D.A.8.8.8.q.q.q.q.0.q.i.9.q.6.A.8.G./.E.n $   ! JXJXGXJXJXJXJXJXJXJXJXJXJXJXJXJXJXJXJXJXJXJXJXJXJXJXJXJXJXJXJXJXJXJXJXJXJXJXJXJXJXJXJXJXJXJXJXJXJXJXJXJXJXJXJXJXJXJXJXJXJXJXJXJXJXJXJXJXJXJXJXJXJXJXJXJXJXJXJXJXJXJXJXJXJXJXJXJXJXJXJXJXJXJXJXJXJXJXJXJXJXJXJXJXJXJXJXJXJXJXJXJXJXJXJXJXJXJXJXJXJXJXJXJXJXJXJXJXJXJXJXJXJXJXJXJXJXJXJXJXJXJXJXJXJXJXJXJXJXJXJXJXGXJXJXGXq . < X.|.].5.q.D.i.i.q.8.8.8.8.q.q.q.L.q.8.8.8.8.6.L.w.'.-Xk # . _ JXGXJXJXGXJXJXJXJXJXJXJXJXJXJXJXJXJXJX",
"JXJXJXJXJXJXJXJXJXJXJXJXJXJXJXJXJXJXu . 5 ..XXi.i.9.i.q.8.8.8.8.q.q.8.D.0.0.9.9.q.6.A.7.H.[.h.s .   qXJXGXJXJXAXJXJXJXJXJXJXJXJXJXJXJXJXJXJXJXJXJXJXJXJXJXJXJXJXJXJXJXJXJXJXJXJXJXJXJXJXJXJXJXJXJXJXJXJXJXJXJXJXJXJXJXJXJXJXJXJXJXJXJXJXJXJXJXJXJXJXJXJXJXJXJXJXJXJXJXJXJXJXJXJXJXJXJXJXJXJXJXJXJXJXJXJXJXJXJXJXJXJXJXJXJXJXJXJXJXJXJXJXJXJXJXJXJXJXJXJXJXJXJXJXJXJXJXJXJXJXJXJXJXJXJXJXJXJXJXJXJXJXJXJXJXJXJXJXJXJXJXZXJXZXJX!   $ k Q.].9.q.7.i.0.q.8.8.8.8.q.q.q.i.q.8.8.8.8.5.L.0.e.{.o.< . e JXGXJXJXGXJXJXJXJXJXJXJXJXJXJXJXJXJXJX",
"JXJXJXJXJXJXJXJXJXJXJXJXJXJXJXJXJXsX  . 5 f.p.q.q.q.0.q.8.8.8.8.q.q.8.8.0.0.9.q.8.8.A.7./.!.>.1 . - cXGXDXJXJXGXJXJXJXJXJXJXJXJXJXJXJXJXJXJXJXJXJXJXJXJXJXJXJXJXJXJXJXJXJXJXJXJXJXJXJXJXJXJXJXJXJXJXJXJXJXJXJXJXJXJXJXJXJXJXJXJXJXJXJXJXJXJXJXJXJXJXJXJXJXJXJXJXJXJXJXJXJXJXJXJXJXJXJXJXJXJXJXJXJXJXJXJXJXJXJXJXJXJXJXJXJXJXJXJXJXJXJXJXJXJXJXJXJXJXJXJXJXJXJXJXJXJXJXJXJXJXJXJXJXJXJXJXJXJXJXJXJXJXJXJXJXJXJXJXDXGXJXGXJXGXDXqX  @ 6 h.x.I.q.8.q.0.q.q.8.8.8.8.8.q.0.0.8.8.8.8.7.L.0.w.x.f.1 . . sXGXJXJXJXJXJXJXJXJXJXJXJXJXJXJXJXJXJX",
"JXJXJXJXJXJXJXJXJXJXJXJXJXJXJXJXJX4X  @ h |.s.q.q.q.0.q.8.8.8.q.q.q.8.8.D.0.q.q.6.8.8.0.`.W.X.< . R JXDXJXAXDXJXJXJXJXJXJXJXJXJXJXJXJXJXJXJXJXJXJXJXJXJXJXJXJXJXJXJXJXJXJXJXJXJXJXJXJXJXJXJXJXJXJXJXJXJXJXJXJXJXJXJXJXJXJXJXJXJXJXJXJXJXJXJXJXJXJXJXJXJXJXJXJXJXJXJXJXJXJXJXJXJXJXJXJXJXJXJXJXJXJXJXJXJXJXJXJXJXJXJXJXJXJXJXJXJXJXJXJXJXJXJXJXJXJXJXJXJXJXJXJXJXJXJXJXJXJXJXJXJXJXJXJXJXJXJXJXJXJXJXJXJXJXJXJXJXJXGXJXJXJXJXZXFX*   1 -.z.I.q.q.i.D.0.q.8.8.8.8.8.8.0.0.q.8.8.8.L.w.8.L.P.|.f @   5XJXJXJXJXJXJXJXJXJXJXJXJXJXJXJXJXJXJX",
"JXJXJXJXJXJXJXJXJXJXJXJXJXJXJXJXDXE   @ G |.i.6.q.q.i.0.8.8.8.0.q.q.8.A.A.D.q.8.6.A.8.S._.h.g < . 5XJXJXJXAXJXJXJXJXJXJXJXJXDXDXJXJXJXJXJXJXJXJXJXJXJXJXJXJXJXJXJXJXJXJXJXJXJXJXJXJXJXJXJXJXJXJXJXJXJXJXJXJXJXJXJXJXJXJXJXJXJXJXJXJXJXJXJXJXJXJXJXJXJXJXJXJXJXJXJXJXJXJXJXJXJXJXJXJXJXJXJXJXJXJXJXJXJXJXJXJXJXJXJXJXJXJXJXJXJXJXJXJXJXJXJXJXJXJXJXJXJXJXJXJXJXJXJXJXJXJXJXJXJXJXJXJXJXJXJXJXJXJXJXJXJXJXJXJXJXJXJXDXJXJXJXJXDXJXR   1 M c.s.q.D.D.D.D.D.8.8.8.8.8.8.0.0.q.8.8.0.L.0.8.D.I.{.G @ . i JXJXGXJXJXJXJXJXJXJXJXJXJXJXJXJXJXJX",
"JXJXJXJXJXJXJXJXJXJXJXJXJXJXJXJXFXO . # -.c.I.6.q.q.0.0.8.8.8.q.q.q.q.0.D.D.q.8.6.A.8.G..X,.1 #   aXGXJXDXAXJXZXJXJXJXJXJXJXDXDXJXJXJXJXJXJXJXJXJXJXJXJXJXJXJXJXJXJXJXJXJXJXJXJXJXJXJXJXJXJXJXJXJXJXJXJXJXJXJXJXJXJXJXJXJXJXJXJXJXJXJXJXJXJXJXJXJXJXJXJXJXJXJXJXJXJXJXJXJXJXJXJXJXJXJXJXJXJXJXJXJXJXJXJXJXJXJXJXJXJXJXJXJXJXJXJXJXJXJXJXJXJXJXJXJXJXJXJXJXJXJXJXJXJXJXJXJXJXJXJXJXJXJXJXJXJXJXJXJXJXJXJXJXJXJXJXJXJXJXGXJXGXJXFX1X  < d {.u.q.8.L.i.D.D.A.8.8.8.8.8.q.i.q.q.8.q.7.D.8.5.s.).>.< .   JXHXGXJXGXJXJXJXJXJXJXJXJXJXJXJXJXJX",
"JXJXJXJXJXJXJXJXJXJXJXZXJXJXZXHXyX* # 5 E.P.q.8.q.i.0.q.8.8.q.q.q.q.q.0.0.0.8.8.6.A.D.t.;XG # @ u JXSXSXHXGXZXJXJXJXJXJXGXDXSXSXJXJXJXJXJXJXJXJXJXJXJXJXJXJXJXJXJXJXJXJXJXJXJXJXJXJXJXJXJXJXJXJXJXJXJXJXJXJXJXJXJXJXJXJXJXJXJXJXJXJXJXJXJXJXJXJXJXJXJXJXJXJXJXJXJXJXJXJXJXJXJXJXJXJXJXJXJXJXJXJXJXJXJXJXJXJXJXJXJXJXJXJXJXJXJXJXJXJXJXJXJXJXJXJXJXJXJXJXJXJXJXJXJXJXJXJXJXJXJXJXJXJXJXJXJXJXJXJXDXDXJXJXJXHXHXJXJXJXJXJXGXJXGXJXpXO @ 5 ;.z.L.D.i.q.0.8.8.8.q.9.q.q.9.i.i.q.q.8.F.5.6.D.p.).%Xd # . 9XVXJXGXDXDXDXDXJXHXHXHXJXJXJXJXJXJX",
"JXJXJXJXJXJXJXJXJXGXGXGXJXJXZXHX,XX < z /.I.q.q.q.D.q.q.8.8.q.q.8.q.q.i.i.0.8.8.8.8.D.^.$Xc # . m.JXGXJXVXJXZXJXJXJXJXJXGXDXSXSXJXJXJXJXJXJXJXJXJXJXJXJXJXJXJXJXJXJXJXJXJXJXJXJXJXJXJXJXJXJXJXJXJXJXJXJXJXJXJXJXJXJXJXJXJXJXJXJXJXJXJXJXJXJXJXJXJXJXJXJXJXJXJXJXJXJXJXJXJXJXJXJXJXJXJXJXJXJXJXJXJXJXJXJXJXJXJXJXJXJXJXJXJXJXJXJXJXJXJXJXJXJXJXJXJXJXJXJXJXJXJXJXJXJXJXJXJXJXJXJXJXJXJXJXJXJXJXJXDXDXJXJXHXHXHXHXJXJXJXGXJXJXJXJXJX> 4 <  .oX4.8.q.i.q.8.8.8.9.9.q.q.9.i.i.i.q.8.A.6.8.D.p.x..XM 1 . ! JXHXJXJXDXMXDXJXHXHXHXJXJXJXJXJXJX",
"JXJXJXJXJXJXJXJXJXGXJXJXJXGXJXHXy   1 O./.i.q.q.q.D.q.q.8.8.q.q.8.q.q.0.0.0.8.6.8.8.i.).$X6 < @ 6XAXJXSXGXSXJXJXJXJXJXJXJXGXDXDXJXJXJXJXJXJXJXJXJXJXJXJXJXJXJXJXJXJXJXJXJXJXJXJXJXJXJXJXJXJXJXJXJXJXJXJXJXJXJXJXJXJXJXJXJXJXJXJXJXJXJXJXJXJXJXJXJXJXJXJXJXJXJXJXJXJXJXJXJXJXJXJXJXJXJXJXJXJXJXJXJXJXJXJXJXJXJXJXJXJXJXJXJXJXJXJXJXJXJXJXJXJXJXJXJXJXJXJXJXJXJXJXJXJXJXJXJXJXJXJXJXJXJXJXJXJXJXJXJXDXJXJXJXHXHXHXJXGXZXJXJXAXZXJXHXW @ 8 V 2.].D.q.9.q.8.8.8.q.q.q.8.9.i.i.i.q.8.6.8.8.D.p.x.XX@.1 . ; GXHXJXJXDXDXDXGXHXHXHXJXJXJXJXJXJX",
"JXJXJXJXJXJXJXJXJXJXJXJXJXGXJXsXX   7 j.c.w.q.7.q.0.q.q.8.q.q.q.8.8.q.0.0.0.8.6.6.8.w.).%Xk 1 # ^ DXAXJXnXDXDXDXJXJXJXJXJXJXGXGXJXJXJXJXJXJXJXJXJXJXJXJXJXJXJXJXJXJXJXJXJXJXJXJXJXJXJXJXJXJXJXJXJXJXJXJXJXJXJXJXJXJXJXJXJXJXJXJXJXJXJXJXJXJXJXJXJXJXJXJXJXJXJXJXJXJXJXJXJXJXJXJXJXJXJXJXJXJXJXJXJXJXJXJXJXJXJXJXJXJXJXJXJXJXJXJXJXJXJXJXJXJXJXJXJXJXJXJXJXJXJXJXJXJXJXJXJXJXJXJXJXJXJXJXJXJXJXJXJXJXJXJXJXJXHXHXZXJXJXnXAXJXJXZXhX= # 1  .oXd.F.q.q.8.8.8.8.q.q.8.8.q.i.i.i.q.8.6.A.8.8.u.r.XXh.5 @ . pXHXHXJXDXDXDXJXHXHXHXJXJXJXJXJXJX",
"JXJXJXJXJXJXJXJXGXJXJXJXJXJXJX4X  . f $Xx.q.q.q.q.0.D.q.q.q.q.q.8.8.q.0.0.0.8.8.6.q.w.x.-X%.5 # $ qXDXDXAXDXDXDXJXJXJXJXJXJXJXJXJXJXJXJXJXJXJXJXJXJXJXJXJXJXJXJXJXJXJXJXJXJXJXJXJXJXJXJXJXJXJXJXJXJXJXJXJXJXJXJXJXJXJXJXJXJXJXJXJXJXJXJXJXJXJXJXJXJXJXJXJXJXJXJXJXJXJXJXJXJXJXJXJXJXJXJXJXJXJXJXJXJXJXJXJXJXJXJXJXJXJXJXJXJXJXJXJXJXJXJXJXJXJXJXJXJXJXJXJXJXJXJXJXJXJXJXJXJXJXJXJXJXJXJXJXJXJXJXJXJXJXJXJXJXJXJXGXJXDXDXDXDXGXSX` . # 5 ;.).L.8.8.8.8.8.8.8.0.0.8.8.q.q.i.i.q.q.8.A.6.A.L.p.'.|.c # @ ` HXHXJXDXDXDXGXHXHXJXJXJXJXJXJXJX",
"JXJXJXJXJXJXJXJXGXJXJXGXJXJXZX~ . @ n Q.'.9.q.D.q.0.q.q.8.q.q.q.8.8.q.0.0.0.8.8.6.L.w.r.-XN.k < @ A mXmXJXnXJXDXJXJXJXJXJXJXJXJXJXJXJXJXJXJXJXJXJXJXJXJXJXJXJXJXJXJXJXJXJXJXJXJXJXJXJXJXJXJXJXJXJXJXJXJXJXJXJXJXJXJXJXJXJXJXJXJXJXJXJXJXJXJXJXJXJXJXJXJXJXJXJXJXJXJXJXJXJXJXJXJXJXJXJXJXJXJXJXJXJXJXJXJXJXJXJXJXJXJXJXJXJXJXJXJXJXJXJXJXJXJXJXJXJXJXJXJXJXJXJXJXJXJXJXJXJXJXJXJXJXJXJXJXJXJXJXJXJXHXJXJXJXJXJXDXJXSXnXDXDXDXSXpX+ . 1 l j.x.L.8.6.6.8.8.8.8.0.q.8.8.8.q.i.i.i.q.8.D.6.A.0.K.e.|.&.# @ u HXHXJXDXDXDXGXHXHXJXJXJXJXJXJXJX",
"JXJXJXJXJXJXJXJXJXJXJXJXJXJXcX> . < -.E.P.q.D.q.q.0.q.q.8.8.q.q.8.8.q.0.0.q.8.8.6.q.9.a.b.%X%.s # @ ' vXJXJXZXJXJXJXJXJXJXJXJXJXJXJXJXJXJXJXJXJXJXJXJXJXJXJXJXJXJXJXJXJXJXJXJXJXJXJXJXJXJXJXJXJXJXJXJXJXJXJXJXJXJXJXJXJXJXJXJXJXJXJXJXJXJXJXJXJXJXJXJXJXJXJXJXJXJXJXJXJXJXJXJXJXJXJXJXJXJXJXJXJXJXJXJXJXJXJXJXJXJXJXJXJXJXJXJXJXJXJXJXJXJXJXJXJXJXJXJXJXJXJXJXJXJXJXJXJXJXJXJXJXJXJXJXJXJXJXJXJXHXHXHXJXJXDXDXDXnXJXGXSXbXSXcXE   @ 1 X.E.oX0.6.6.6.6.8.8.8.0.0.8.8.8.q.i.i.i.q.q.8.6.A.7.L.4.).n.1 @ o dXHXJXJXDXDXHXHXHXJXJXJXJXJXJXJX",
"JXJXJXJXJXJXJXJXJXGXGXJXJXZXsX  @ 1 *X(.p.7.q.7.q.q.q.8.8.q.q.q.8.8.q.0.q.q.8.6.8.6.6.I.r.b.%Xn < @ . eXJXZXHXSXGXGXJXJXJXJXJXJXJXJXJXJXJXJXJXJXJXJXJXJXJXJXJXJXJXJXJXJXJXJXJXJXJXJXJXJXJXJXJXJXJXJXJXJXJXJXJXJXJXJXJXJXJXJXJXJXJXJXJXJXJXJXJXJXJXJXJXJXJXJXJXJXJXJXJXJXJXJXJXJXJXJXJXJXJXJXJXJXJXJXJXJXJXJXJXJXJXJXJXJXJXJXJXJXJXJXJXJXJXJXJXJXJXJXJXJXJXJXJXJXJXJXJXJXJXJXJXJXJXJXJXJXJXJXJXJXHXHXHXJXDXDXDXDXJXZXCXHXHXVX9X  . 3 5 *Xb.e.5.D.6.8.8.8.8.0.0.0.8.8.8.q.q.i.i.i.q.8.6.D.7.D.7./.$Xh @ . 4XHXJXGXJXDXHXHXHXJXJXJXJXJXJXJX",
"JXJXJXJXJXJXJXJXZXJXJXZXJXJX' . # x %Xz.I.8.8.q.q.q.q.8.8.q.q.q.q.q.i.i.i.q.8.8.8.8.8.q.K.H.z.h.5 1 @ q aXJXHXHXSXHXDXJXJXJXFXJXJXJXJXJXJXJXJXJXJXJXJXJXJXJXJXJXJXJXJXJXJXJXJXJXJXJXJXJXJXJXJXJXJXJXJXJXJXJXJXJXJXJXJXJXJXJXJXJXJXJXJXJXJXJXJXJXJXJXJXJXJXJXJXJXJXJXJXJXJXJXJXJXJXJXJXJXJXJXJXJXJXJXJXJXJXJXJXJXJXJXJXJXJXJXJXJXJXJXJXJXJXJXJXJXJXJXJXJXJXJXJXJXJXJXJXJXJXJXJXJXJXJXJXJXJXJXJXJXHXHXAXAXDXDXAXJXZXHXFXHXHXpXX . @ 7 X.&X_.4.L.6.8.8.8.D.q.0.0.8.8.8.A.D.D.i.i.i.q.q.q.8.8.A.A.G.Q.V 1 . E HXJXJXJXJXJXHXHXJXJXJXJXJXJXJX",
"JXJXJXJXJXJXJXJXJXGXJXJXJXGXp . 1  . Xt.i.8.q.q.q.q.8.8.8.q.q.i.q.q.i.i.q.q.8.8.8.8.6.8.8.S.G.E.%.5 1 @ A GXFXHXHXSXbXGXDXAXJXZXJXJXJXJXJXJXJXJXJXJXJXJXJXJXJXJXJXJXJXJXJXJXJXJXJXJXJXJXJXJXJXJXJXJXJXJXJXJXJXJXJXJXJXJXJXJXJXJXJXJXJXJXJXJXJXJXJXJXJXJXJXJXJXJXJXJXJXJXJXJXJXJXJXJXJXJXJXJXJXJXJXJXJXJXJXJXJXJXJXJXJXJXJXJXJXJXJXJXJXJXJXJXJXJXJXJXJXJXJXJXJXJXJXJXJXJXJXJXJXJXJXJXJXJXJXJXJXJXHXHXJXDXDXDXJXZXHXHXHXGXKXu = @ < g N.;Xt.I.D.6.8.8.8.q.q.0.q.8.8.8.A.A.D.D.q.q.q.9.q.8.8.8.A.K.E.-.5 @ q BXJXJXJXJXJXHXHXJXJXJXJXJXJXJX",
"JXJXJXJXJXJXJXJXJXZXJXJXDXzXo @ 8 ;.XXe.6.8.D.7.q.q.q.8.8.8.q.i.i.i.i.i.q.q.8.8.8.8.6.6.8.Z.S./.>XB 5 # @ E GXHXVXHXNXGXbXHXHXHXJXJXJXJXJXJXJXJXJXJXJXJXJXJXJXJXJXJXJXJXJXJXJXJXJXJXJXJXJXJXJXJXJXJXJXJXJXJXJXJXJXJXJXJXJXJXJXJXJXJXJXJXJXJXJXJXJXJXJXJXJXJXJXJXJXJXJXJXJXJXJXJXJXJXJXJXJXJXJXJXJXJXJXJXJXJXJXJXJXJXJXJXJXJXJXJXJXJXJXJXJXJXJXJXJXJXJXJXJXJXJXJXJXJXJXJXJXJXJXJXJXJXJXJXJXJXJXJXHXZXJXDXDXDXJXJXJXHXHXFXQ . . < 5 -. X/.u.9.8.8.8.8.8.q.i.i.8.8.8.8.8.A.0.0.q.q.q.9.q.q.8.A.A.S.z.%Xs # . qXGXJXJXJXJXHXHXJXJXJXJXJXJXJX",
"HXHXJXJXJXJXJXJXJXGXJXGXDX9X  @ g g.).a.6.8.D.7.q.q.8.8.6.8.q.i.i.i.i.i.q.q.8.8.8.6.6.8.8.A.A.G.[.*Xm 1 < . ! GXHXHXGXxXGXZXHXJXJXJXJXJXJXJXJXJXJXJXJXJXJXJXJXJXJXJXJXJXJXJXJXJXJXJXJXJXJXJXJXJXJXJXJXJXJXJXJXJXJXJXJXJXJXJXJXJXJXJXJXJXJXJXJXJXJXJXJXJXJXJXJXJXJXJXJXJXJXJXJXJXJXJXJXJXJXJXJXJXJXJXJXJXJXJXJXJXJXJXJXJXJXJXJXJXJXJXJXJXJXJXJXJXJXJXJXJXJXJXJXJXJXJXJXJXJXJXJXJXJXJXJXJXJXJXJXJXHXGXJXDXmXmXDXJXHXCXHX[ . $ # 5 } ;X^.4.L.q.6.6.8.8.q.q.i.i.8.8.8.8.8.A.q.D.q.q.q.q.9.q.8.8.A.D.P.{.n 1 . ( GXJXJXJXJXJXHXJXJXJXJXJXJXJX",
"HXHXJXJXJXJXJXJXJXJXGXDXJX~ + @ M [.r.I.8.6.8.0.q.q.8.8.8.8.q.i.q.q.q.q.q.q.q.8.8.8.8.8.A.A.8.7.t.oXh.z 1 # @ _ DXDXSXJXxXJXGXFXJXJXJXJXJXJXJXJXJXJXJXJXJXJXJXJXJXJXJXJXJXJXJXJXJXJXJXJXJXJXJXJXJXJXJXJXJXJXJXJXJXJXJXJXJXJXJXJXJXJXJXJXJXJXJXJXJXJXJXJXJXJXJXJXJXJXJXJXJXJXJXJXJXJXJXJXJXJXJXJXJXJXJXJXJXJXJXJXJXJXJXJXJXJXJXJXJXJXJXJXJXJXJXJXJXJXJXJXJXJXJXJXJXJXJXJXJXJXJXJXJXJXJXJXJXJXJXJXZXJXJXvXDXJXGXBXHXHX3Xo @ # < k %X2.U.7.5.L.9.6.8.8.0.i.i.i.8.8.8.q.8.8.8.A.q.q.q.9.9.9.q.8.8.D.I.2.@.1 @ : ZXJXJXJXJXGXHXHXJXJXJXJXJXJX",
"HXHXJXJXJXJXJXJXJXJXAXJXAX=   # *.XXe.L.6.6.8.D.q.q.8.6.6.8.q.i.q.q.q.q.q.q.q.q.q.q.q.q.q.8.8.7.8.K.2.&Xl < # . W JXnXJXJXZXFXJXJXJXJXJXJXJXJXJXJXJXJXJXJXJXJXJXJXJXJXJXJXJXJXJXJXJXJXJXJXJXJXJXJXJXJXJXJXJXJXJXJXJXJXJXJXJXJXJXJXJXJXJXJXJXJXJXJXJXJXJXJXJXJXJXJXJXJXJXJXJXJXJXJXJXJXJXJXJXJXJXJXJXJXJXJXJXJXJXJXJXJXJXJXJXJXJXJXJXJXJXJXJXJXJXJXJXJXJXJXJXJXJXJXJXJXJXJXJXJXJXJXJXJXJXJXJXJXJXHXJXDXDXDXDXGXHXCX3XX . @ < j >..X4.7.A.6.8.9.q.A.A.D.i.a.i.8.8.8.q.q.8.A.A.A.q.q.q.9.9.q.q.8.q.L.t.W.6 @   pXGXJXJXJXGXHXHXJXJXJXHXJXGX",
"JXJXHXHXJXJXJXJXJXJXDXJX0X    3 h.XXu.q.6.6.8.D.0.q.8.6.6.8.i.i.q.q.q.q.q.q.q.q.i.q.9.q.q.q.q.6.A.5.U.g.#Xc # # @ p JXZXxXJXJXJXJXJXJXJXJXJXJXJXJXJXJXJXJXJXJXJXJXJXJXJXJXJXJXJXJXJXJXJXJXJXJXJXJXJXJXJXJXJXJXJXJXJXJXJXJXJXJXJXJXJXJXJXJXJXJXJXJXJXJXJXJXJXJXJXJXJXJXJXJXJXJXJXJXJXJXJXJXJXJXJXJXJXJXJXJXJXJXJXJXJXJXJXJXJXJXJXJXJXJXJXJXJXJXJXJXJXJXJXJXJXJXJXJXJXJXJXJXJXJXJXJXJXJXJXJXJXJXJXJXZXJXJXAXAXGXBX7XX O . 2 5 ,.&X2.U.5.6.F.6.6.i.A.A.D.i.a.i.6.6.q.9.q.8.8.A.A.8.q.q.9.9.q.q.q.q.8.p.=Xx @   ] JXJXDXJXGXHXHXJXJXJXJXJXJX",
"JXJXJXJXJXJXJXJXGXGXJXZXm.& . h !.'.w.q.8.6.q.7.0.q.8.8.8.8.q.0.q.q.q.q.q.q.i.i.L.q.9.9.9.9.q.8.8.A.F.].f.#Xc # # @ e cXJXFXHXJXHXHXHXHXJXJXJXJXJXJXJXJXJXJXJXJXJXJXJXJXJXJXJXJXJXJXJXJXJXJXJXJXJXJXJXJXJXJXJXJXJXJXJXJXJXJXJXJXJXJXJXJXJXJXJXJXJXJXJXJXJXJXJXJXJXJXJXJXJXJXJXJXJXJXJXJXJXJXJXJXJXJXJXJXJXJXJXJXJXJXJXJXJXJXJXJXJXJXJXJXJXJXJXJXJXJXJXJXJXJXJXJXJXJXJXJXJXJXJXJXJXJXJXJXJXJXJXJXJXFXJXDXvXJXZX] X   . 2 1 -.!.^.p.7.A.6.6.D.6.q.8.A.0.i.a.i.8.8.q.9.q.q.8.A.8.8.q.q.q.q.q.q.q.q.6.I.[.X.< @ a JXJXDXJXJXHXHXJXJXJXJXJXJX",
"HXHXJXJXJXJXJXJXGXSXHXJXa $ # X./.i.q.q.8.8.q.q.q.q.8.8.8.q.q.q.q.q.q.q.q.q.q.q.q.q.q.q.q.q.q.8.8.A.8.4.H.oX;.n 1 < @ t yXHXHXHXHXCXHXHXZXJXJXDXDXJXJXJXHXHXHXHXJXJXJXJXJXJXDXDXJXJXJXJXJXJXJXJXJXJXJXJXJXJXJXJXJXJXJXJXJXJXJXJXJXJXJXJXJXJXJXJXJXJXJXJXJXJXJXJXJXJXJXJXJXJXJXJXJXJXJXJXJXJXJXJXJXJXJXJXJXJXJXJXJXJXJXJXJXJXJXJXJXJXJXJXJXJXJXJXJXJXJXJXJXJXJXJXHXHXHXHXHXHXJXJXJXJXGXJXHXZXHXJXJXJXAXAXJXbX! X *   @ f o.(.U.5.q.q.8.8.8.8.q.q.q.q.q.q.q.q.8.8.q.q.q.q.8.8.8.8.q.q.q.q.q.q.q.q.w.].x.l.5 @   lXGXDXDXmXGXJXJXGXJXJXJXJX",
"HXHXDXDXJXJXJXJXSXSXHXhXw # 1 ;.H.q.q.q.q.q.q.q.q.q.q.q.q.q.q.q.q.q.q.q.q.q.q.q.q.q.q.q.q.q.q.8.6.8.8.7.Z.].}.h.n j < .   2XVXHXCXHXCXHXJXZXJXAXJXJXJXHXHXHXHXHXJXJXJXJXJXJXJXDXJXJXJXJXJXJXJXJXJXJXJXJXJXJXJXJXJXJXJXJXJXJXJXJXJXJXJXJXJXJXJXJXJXJXJXJXJXJXJXJXJXJXJXJXJXJXJXJXJXJXJXJXJXJXJXJXJXJXJXJXJXJXJXJXJXJXJXJXJXJXJXJXJXJXJXJXJXJXJXJXJXJXJXJXJXJXJXJXHXHXHXHXHXHXHXJXZXGXJXHXGXHXJXJXJXbXJXJXgXu   o . # s %.|.'.5.A.8.q.q.q.q.q.q.q.q.q.q.q.q.q.q.q.q.q.q.q.q.q.q.q.q.q.q.q.q.q.q.q.i.'.p.g.g #   8XHXAXAXMXJXJXJXJXJXJXJXJX",
"HXHXDXDXJXJXJXHXSXSXHX8X@ < f W.H.q.q.q.q.q.q.q.q.q.q.q.q.q.q.q.q.q.q.q.q.q.q.q.q.q.q.q.q.q.q.q.D.D.F.F.Z.4.r.}.&Xo.5 # 9   J gXJXmXJXJXAXHXHXHXHXHXHXHXHXJXJXJXJXJXJXJXJXJXJXJXJXJXJXJXJXJXJXJXJXJXJXJXJXJXJXJXJXJXJXJXJXJXJXJXJXJXJXJXJXJXJXJXJXJXJXJXJXJXJXJXJXJXJXJXJXJXJXJXJXJXJXJXJXJXJXJXJXJXJXJXJXJXJXJXJXJXJXJXJXJXJXJXJXJXJXJXJXJXJXJXJXJXJXJXJXJXJXJXDXDXDXJXJXHXHXHXHXVXHXJXZXAXJXnXDXSXVXqX    = @ < l *.=X).p.L.7.q.q.q.q.q.q.q.q.q.q.q.q.q.q.q.q.q.q.q.q.q.q.q.q.q.q.q.q.q.q.q.q.i.s.p.}.M <   R JXJXAXDXJXHXGXJXJXJXJXJX",
"HXHXJXDXDXJXJXHXSXSXHX! @ < N !.P.q.q.q.q.q.q.q.q.q.q.q.q.q.q.q.q.q.q.q.q.q.q.q.q.q.q.q.q.q.q.q.0.7.8.F.F.8.w.r.z. X-.f 1 @ @ & 6XDXmXJXJXcXHXHXHXHXHXHXJXJXJXJXJXJXJXJXJXJXJXJXJXJXJXJXJXJXJXJXJXJXJXJXJXJXJXJXJXJXJXJXJXJXJXJXJXJXJXJXJXJXJXJXJXJXJXJXJXJXJXJXJXJXJXJXJXJXJXJXJXJXJXJXJXJXJXJXJXJXJXJXJXJXJXJXJXJXJXJXJXJXJXJXJXJXJXJXJXJXJXJXJXJXJXJXJXJXJXJXDXDXDXDXJXJXJXHXVXHXHXZXJXJXnXJXDXSX! X X   @ < k ;.}.r.p.p.e.I.q.q.q.q.q.q.q.q.q.q.q.q.q.q.q.q.q.q.q.q.q.q.q.q.q.q.q.q.q.q.q.q.0.u.i.).*.< . * ZXJXAXJXJXHXHXJXJXJXJXJX",
"HXHXJXJXJXJXJXHXSXSXHXq # 1 O.E.K.q.q.q.q.q.q.q.q.q.q.q.q.q.q.q.q.q.q.q.q.q.q.q.q.q.q.q.q.q.q.0.D.7.5.7.8.D.q.q.u.r.[.h.x 5 # @ . ~ dXJXDXJXJXGXGXGXHXHXJXJXJXJXJXJXJXJXJXJXJXJXJXJXJXJXJXJXJXJXJXJXJXJXJXJXJXJXJXJXJXJXJXJXJXJXJXJXJXJXJXJXJXJXJXJXJXJXJXJXJXJXJXJXJXJXJXJXJXJXJXJXJXJXJXJXJXJXJXJXJXJXJXJXJXJXJXJXJXJXJXJXJXJXJXJXJXJXJXJXJXJXJXJXJXJXJXJXJXJXDXDXDXDXJXJXJXJXJXVXZXJXGXGXJXGXqX; O   @ # 5 z g.3.L.F.5.u.].r.0.q.q.q.q.q.q.q.q.q.q.q.q.q.q.q.q.q.q.q.q.q.q.q.q.q.q.q.q.q.q.q.0.0.I.x.$X5 @ X qXJXAXDXGXHXJXHXJXJXJXJX",
"HXHXJXJXJXJXJXHXSXGXdX. < 5 ,.[.K.q.q.q.q.q.q.q.q.q.q.q.q.q.q.q.8.8.8.8.8.8.8.8.8.8.8.8.8.8.8.0.L.L.L.8.6.6.6.6.A.L.G.}.$XX.s 7 @   = 5XJXJXnXmXDXDXJXJXJXJXJXJXJXJXJXJXJXJXJXJXJXJXJXJXJXJXJXJXJXJXJXJXJXJXJXJXJXJXJXJXJXJXJXJXJXJXJXJXJXJXJXJXJXJXJXJXJXJXJXJXJXJXJXJXJXJXJXJXJXJXJXJXJXJXJXJXJXJXJXJXJXJXJXJXJXJXJXJXJXJXJXJXJXJXJXJXJXJXJXJXJXJXJXJXJXJXJXJXJXJXJXJXJXJXJXJXJXDXJXJXFXJXaX!   +   . # f } E.'.L.5.7.F.i.t.].0.8.8.8.8.8.8.8.8.8.8.8.8.8.8.8.8.8.8.8.8.8.8.8.8.8.8.8.8.8.8.8.q.D.L.t.;Xx #   ` GXDXDXGXJXHXGXJXJXJXJX",
"HXHXJXJXJXJXJXJXSXGXm.@ < k $X(.K.q.q.q.q.q.q.q.q.q.q.q.q.q.q.q.q.q.q.q.q.q.q.q.q.q.q.q.q.q.q.0.d.7.q.q.q.8.6.8.6.7.D.4.oX%X:.j # . & . q eXDXmXDXDXDXJXJXJXJXJXJXJXHXJXHXJXHXHXJXJXJXJXJXJXJXJXJXJXJXJXJXJXJXJXJXJXJXJXJXJXJXJXJXJXJXJXJXJXJXJXJXJXJXJXJXJXJXJXJXJXJXJXJXJXJXJXJXJXJXJXJXJXJXJXJXJXJXJXJXJXJXJXJXJXJXJXJXJXJXJXJXJXJXJXJXJXJXJXJXJXJXJXJXJXJXJXHXHXJXJXJXJXJXJXAXJXvXJXGX3X- X ;   $ 1 d @..X/.0.7.A.A.5.7.I.s.q.q.q.q.q.q.q.q.q.q.q.q.q.q.q.q.q.q.q.q.q.q.q.q.q.q.q.q.q.q.q.8.8.D.q.p.|.%.< . u KXJXJXJXGXSXHXJXJXJXJX",
"GXGXJXJXJXJXJXJXSXSXA 2 1  . Xt.L.q.q.q.q.q.q.q.q.q.q.q.q.q.q.q.q.q.q.q.q.q.q.q.q.q.q.q.q.q.q.q.D.0.7.q.9.6.6.A.6.A.A.D.t.XX-X*X&.# @ 2 @ . A eXJXJXJXJXJXJXJXJXJXJXJXJXJXJXHXHXJXJXJXJXJXJXJXJXJXJXJXJXJXJXJXJXJXJXJXJXJXJXJXJXJXJXJXJXJXJXJXJXJXJXJXJXJXJXJXJXJXJXJXJXJXJXJXJXJXJXJXJXJXJXJXJXJXJXJXJXJXJXJXJXJXJXJXJXJXJXJXJXJXJXJXJXJXJXJXJXJXJXJXJXJXJXJXJXHXHXHXHXJXJXJXJXAXJXJX9X:   *   . 3 < n %X{.p.i.D.8.7.8.D.8.8.q.q.q.q.q.q.q.q.q.q.q.q.q.q.q.q.q.q.q.q.q.q.q.q.q.q.q.q.q.q.q.q.8.7.8.6.].c.j.6 @ . kXGXJXJXDXSXHXJXJXJXJX",
"DXDXJXJXJXJXJXGXGXnX. @ 6 >.g.P.0.q.q.q.q.q.q.q.q.q.q.q.q.q.q.q.q.q.q.q.q.q.q.q.q.q.q.q.q.q.q.8.A.A.q.i.i.i.9.8.A.A.A.A.L.p.v.{.&X<.V 8 # # @ . I yXJXFXJXJXnXDXJXJXJXJXHXVXZXHXJXHXGXJXJXJXJXDXJXJXJXJXJXJXJXJXJXJXJXJXJXJXJXJXJXJXJXJXJXJXJXJXJXJXJXJXJXJXJXJXJXJXJXJXJXJXJXJXJXJXJXJXJXJXJXJXJXJXJXJXJXJXJXJXJXJXJXJXJXJXJXJXGXJXJXJXJXGXGXJXJXJXGXJXJXJXJXJXFXJXHXHXHXHXHXHXJXwXu . & . . @ 1 x *.Q.).4.5.D.D.D.i.0.q.8.8.6.8.q.q.q.q.q.q.q.q.q.q.q.q.q.q.q.q.q.q.q.q.q.q.q.q.q.q.q.q.q.q.8.8.7.D.i.).Q.k # . <XJXJXJXDXGXHXJXJXJXJX",
"DXDXJXJXJXJXJXGXZX0X. # s h.).u.q.q.q.q.q.q.q.q.q.q.q.q.q.q.q.q.q.q.q.q.q.q.q.q.q.q.q.q.q.q.q.8.8.8.q.i.i.i.i.D.A.A.A.A.q.i.a.a.J.}.E.@.m 5 # @ o * U qXFXnXDXDXnXAXGXGXJXJXJXZXHXJXJXJXZXZXDXJXJXJXJXJXJXJXJXJXJXJXJXJXJXJXJXJXJXJXJXJXJXJXJXJXJXJXJXJXJXJXJXJXJXJXJXJXJXJXJXJXJXJXJXJXJXJXJXJXJXJXJXJXJXJXJXJXJXJXJXJXJXJXJXJXJXJXGXGXGXJXJXJXJXJXJXJXJXJXJXJXJXFXJXHXHXHXlX7Xy ;   . @ # # 6 o.l..X^.e.F.F.5.D.q.i.i.q.8.8.8.8.q.q.8.q.q.q.q.q.q.q.q.q.q.q.q.q.q.q.q.q.q.q.q.q.q.q.q.q.q.q.8.A.8.A.5.p..X| 1 @ p FXJXDXDXGXSXJXJXJXJX",
"MXDXJXJXJXJXDXDXHX_ . < n E.'.0.q.q.q.q.q.q.q.q.q.q.q.q.q.q.q.q.q.q.8.8.q.q.q.q.q.q.q.q.q.q.q.8.8.8.q.q.i.L.K.K.S.S.A.A.8.q.9.9.7.D.I.XXE.=.m 1 # @ .   a 4XzXSXJXJXDXJXJXVXZXJXHXHXHXJXJXJXJXGXJXJXJXJXJXJXJXJXJXJXJXJXJXJXJXJXJXJXJXJXJXJXJXJXJXJXJXJXJXJXJXJXJXJXJXJXJXJXJXJXJXJXJXJXJXJXJXJXJXJXJXJXJXJXJXJXJXJXJXJXJXJXJXJXZXJXJXJXJXGXAXZXGXJXJXGXGXGXJXJXmXDXAXFXBX3Xy X *   . @ < s M h.b.XX].P.Y.S.S.7.0.9.9.q.q.8.A.A.8.q.q.q.q.q.q.q.q.q.q.q.q.q.q.q.q.q.q.q.q.q.q.q.q.q.q.q.q.q.q.8.A.8.D.5.s.XX;.6 @   hXJXDXDXJXGXJXJXJXJX",
"NXDXJXJXJXJXDXJXJXq @ 1 @.(.u.D.q.q.q.q.q.q.q.q.q.q.q.q.q.q.q.q.q.q.q.8.q.q.q.q.q.q.q.q.q.q.q.8.8.8.8.q.0.L.K.K.K.D.0.q.8.8.8.6.8.6.5.u.].{.h.:.k 5 # .     , _ eXvXJXJXDXJXJXZXJXJXJXGXGXGXDXJXJXJXJXJXJXJXJXJXJXJXJXJXJXJXJXJXJXJXJXJXJXJXJXJXJXJXJXJXJXJXJXJXJXJXJXJXJXJXJXJXJXJXJXJXJXJXJXJXJXJXJXJXJXJXJXJXJXJXJXJXJXJXJXJXJXJXJXJXJXJXJXJXJXJXJXJXJXJXJXDXDXmXeX^ X X X * . @ < 5 M l.k.).].5.d.L.U.4.4.U.0.q.q.q.8.8.A.D.8.q.q.q.q.q.q.q.q.q.q.q.q.q.q.q.q.q.q.q.q.q.q.q.q.q.q.q.q.q.q.q.8.7.D.q.9.].k.s @ X 9XGXDXDXJXHXJXJXJXJX",
"NXDXJXJXJXJXDXDXsX  # 5 R.z.5.D.8.q.q.q.q.q.q.q.q.q.q.q.q.q.q.q.q.q.q.8.q.q.q.q.q.q.q.q.q.q.q.q.8.8.8.q.q.q.0.0.i.i.i.q.q.8.8.8.8.8.8.6.5.i.].XXk.;.m 8 3 .     . a m.aXJXJXAXJXHXJXJXJXJXJXJXJXJXJXJXJXJXJXJXJXJXJXJXJXJXJXJXJXJXJXJXJXJXJXJXJXJXJXJXJXJXJXJXJXJXJXJXJXJXJXJXJXJXJXJXJXJXJXJXJXJXJXJXJXJXJXJXJXJXJXJXJXJXJXJXJXJXJXGXGXGXJXGXZXGXZXZXGXJXGXZXcX' e . . @ @ @ @ # 8 m ;.=X).x.s.8.8.q.0.K.L.L.0.8.8.6.6.8.8.D.D.q.q.q.q.q.q.q.q.q.q.q.q.q.q.q.q.q.q.q.q.q.q.q.q.q.q.q.q.q.q.q.q.D.7.D.D.8.u.{.M @ O Q JXDXmXJXHXJXJXJXJX",
"NXDXJXJXJXJXDXDX3X  < s &X/.8.6.8.q.q.q.q.q.q.q.q.q.q.q.q.q.q.q.q.q.q.q.q.q.q.q.q.q.q.q.q.q.q.q.q.q.q.8.8.8.8.q.q.q.i.i.q.q.A.A.7.q.q.D.D.D.7.d.e.z.Q.,.b 5 3 # @ @ @ @ a @XaXJXZXJXJXGXZXGXJXJXJXJXJXJXJXJXJXJXJXJXJXJXJXJXJXJXJXJXJXJXJXJXJXJXJXJXJXJXJXJXJXJXJXJXJXJXJXJXJXJXJXJXJXJXJXJXJXJXJXJXJXJXJXJXJXJXJXJXJXJXJXJXJXJXZXJXJXJXGXJXJXJXJXJXJXJXsX5Xi     & @ . # < 1 s V j.=X}.x.e.].i.6.A.D.8.7.L.L.7.8.8.8.8.8.8.D.D.q.q.q.q.q.q.q.q.q.q.q.q.q.q.q.q.q.q.q.q.q.q.q.q.q.q.q.q.q.q.q.q.L.0.0.D.6.5.}.-.<   + GXDXvXJXGXJXJXJXJX",
"MXDXJXJXJXJXDXDXi . < C W.P.8.6.8.q.q.q.q.q.q.q.q.q.q.q.q.q.q.q.q.q.q.q.q.q.q.q.q.q.q.q.q.q.q.q.i.i.q.8.8.8.6.6.q.9.i.i.q.D.Z.Z.w.i.i.q.7.7.A.F.U.3.].(.k.$X..d 1 . . @ @   + u 2X0XGXJXJXZXAXJXJXJXJXJXJXJXJXJXJXJXJXJXJXJXJXJXJXJXJXJXJXJXJXJXJXJXJXJXJXJXJXJXJXJXJXJXJXJXJXJXJXJXJXJXJXJXJXJXJXJXJXJXJXJXJXJXJXJXJXJXJXJXJXJXZXJXJXGXGXJXJXJXJXpX] a O       -     2 < g o.l.{.'.e.w.i.w.w.0.A.7.7.q.q.6.6.q.8.8.8.A.A.8.q.q.q.q.q.q.q.q.q.q.q.q.q.q.q.q.q.q.q.q.q.q.q.q.q.q.q.q.q.q.q.q.q.q.0.L.7.8.6.8.x.#X0     0XDXmXJXGXJXJXJXJX",
"MXDXJXJXJXDXDXDX= @ 1 :.g.0.8.6.8.q.q.q.q.q.q.q.q.q.q.q.q.q.q.q.q.q.q.q.q.q.q.q.q.q.q.q.q.q.q.q.i.i.q.8.8.8.6.6.8.9.i.i.q.D.Z.S.I.i.9.q.D.A.A.7.7.F.w.P.].x.{.-X:.C 7 # # @ . .     ; W 4XhXJXJXJXJXJXJXJXJXJXJXJXJXJXJXJXJXJXJXJXJXJXJXJXJXJXJXJXJXJXJXJXJXJXJXJXJXJXJXJXJXJXJXJXJXJXJXJXJXJXJXJXJXJXJXJXJXJXJXJXJXJXJXJXJXJXJXJXJXGXJXJXcX9X_ > O       .     @ @ 3 B :.W.(.].u.q.L.6.q.I.w.0.S.Z.8.D.q.8.6.8.8.8.A.A.A.8.q.8.q.q.q.q.q.q.q.q.q.q.q.q.q.q.q.q.q.q.q.q.q.q.q.q.q.q.q.q.q.q.q.q.w.L.0.q.6.q.t.&Xh $ . ` DXDXnXJXJXJXJXJX",
"NXDXAXJXAXJXHX0XX # 6 !.Y.7.i.i.q.q.q.q.q.q.q.q.q.q.q.q.8.q.q.q.q.q.q.q.q.q.q.q.q.q.q.q.q.q.q.q.q.q.q.8.8.8.8.8.q.q.q.q.q.0.8.0.q.9.q.q.8.8.8.8.8.8.q.q.i.i.i.x..X;Xh.o.m 6 1 # @ @ . X X X y R 3XpXZXJXJXHXHXHXJXJXGXGXJXJXJXJXJXJXJXHXHXGXGXGXJXJXJXJXJXJXJXJXJXJXJXJXJXJXJXJXJXJXJXJXHXHXJXJXJXJXDXDXJXJXJXJXJXJXAXAXJXJXJXAXDXzXqX' u       + .   . @ # # < M #.f.[._./.p.w.q.q.8.q.q.q.q.q.D.8.8.q.q.q.q.q.8.8.8.8.q.q.q.q.q.q.q.q.q.q.q.q.q.q.q.q.8.q.q.q.q.q.q.q.q.q.q.q.q.q.q.q.q.q.q.q.7.8.8.8.8.9.r.E.+.< @ = JXDXDXDXJXJXJXJX",
"JXJXAXDXDXAXHX) X # m ^.Z.A.i.a.q.q.q.q.q.q.q.q.q.q.q.q.8.8.q.q.q.q.q.q.q.q.q.q.q.q.q.q.q.q.q.q.q.q.q.q.q.q.q.q.q.q.q.8.q.q.q.q.q.q.q.q.q.q.q.q.q.q.q.q.q.q.q.q.4.r.).}.|.f...m 6 < # @ .   X X   . & u ! 4XaXFXHXHXJXJXJXJXDXAXGXGXGXGXHXJXJXJXJXJXJXJXJXJXJXJXJXJXJXJXJXJXJXJXZXGXJXJXHXJXJXJXJXDXAXDXJXJXDXAXZXGXJXJXZXpX2X_ : =     . . . . . # < < 1 h &.*X2.r.P.K.u.0.q.D.8.8.8.q.q.q.i.q.q.q.q.q.q.q.q.q.q.q.q.q.q.q.q.q.q.q.q.q.q.q.q.q.q.q.q.q.8.8.q.q.q.q.q.q.q.q.q.q.q.q.q.q.q.8.q.q.7.8.8.8.q.9.p.T.,.1 @ = aXAXDXmXJXJXJXJX",
"JXDXDXAXJXZXHXr . < +.`.F.A.i.a.q.q.q.q.q.q.q.q.q.q.q.q.q.q.q.q.8.q.q.q.q.8.8.q.q.q.q.q.q.q.q.q.q.q.q.q.q.q.q.q.q.q.q.q.q.q.q.q.q.q.q.q.q.q.q.q.q.q.q.q.q.q.q.q.i.i.u.p.].XX.Xj.j.O.m f 5 < # # . . @ . .       p W [ 4X0XsXZXJXJXJXJXJXJXJXJXJXJXJXJXJXJXGXGXGXJXJXJXJXJXJXHXGXJXJXJXJXJXJXGXZXSXHXHXHXHXHXVXcXqX2XQ t * X X X X X     . @ @ # 5 s n *.%X;X[.2.].].I.u.u.0.q.q.q.q.8.8.q.q.i.q.q.q.q.q.q.q.q.q.q.q.q.q.q.q.q.q.q.q.q.q.q.q.q.q.q.q.q.q.q.q.q.q.q.q.q.q.q.q.q.q.q.q.q.q.q.q.q.q.8.8.q.q.q.9.u.`.&Xf @ @ 2XGXJXDXJXJXJXJX",
"SXGXJXDXJXAXhXO . 1 ,.J.F.8.9.i.q.q.q.q.q.q.q.q.q.q.q.q.q.q.q.q.8.8.8.q.q.q.q.q.q.q.q.q.q.q.q.q.q.q.q.q.q.q.q.q.q.q.q.q.q.q.q.q.q.q.q.q.q.q.q.q.q.q.q.q.q.q.q.8.8.q.q.5.d.4.'.XXoX XQ.h.;. .z d 1 # # # # @ @ %           X , : W ! ' 5X9XpXsXxXAXGXJXJXJXJXJXJXGXGXJXJXJXJXJXJXJXJXJXJXJXJXDXZXpXqX3X` E u O   + . . . . @ @ . . . @ @ # 0 B +.,.W. X{.r.4.7.D.4.e.u.u.i.q.q.6.q.q.q.8.q.q.i.q.q.q.q.q.q.q.q.q.q.q.q.q.q.q.q.q.q.q.q.q.q.q.q.q.q.q.q.q.q.q.q.q.q.q.q.q.q.q.q.q.q.q.q.q.q.q.q.q.A.0.q.q.q.q.L./.Q.V < . p JXJXJXJXJXJXJX",
"JXJXJXDXJXJX5X. @ g $XJ.A.8.9.i.q.q.q.q.q.q.q.q.q.q.q.q.q.8.8.8.q.q.q.q.q.q.q.q.q.q.q.q.q.q.q.q.q.q.q.q.q.q.q.q.q.q.q.q.q.q.q.q.8.q.q.q.q.q.q.q.q.q.q.q.q.q.q.8.6.6.8.8.q.D.q.w.d.4.r.).).).).|.<.X.c f 8 1 # # < # @ . . . . . . . . . . . . . & & e a W ~ { ` ] ] 2X2X5X5X5X5Xm.' ^ W a q @   X X       . . @ @ @ # # # # # < 7 h C %.,.#XW.E.[.x.p.i.q.A.A.A.D.u.u.0.0.q.q.D.q.8.q.8.q.q.q.q.q.q.q.q.q.q.q.q.q.q.q.q.q.q.q.q.q.q.q.q.q.q.q.q.q.q.q.q.q.8.8.8.q.q.q.q.q.q.q.q.q.q.q.q.q.q.q.q.D.D.q.9.8.q.q.H.!.<.7 @ % cXJXZXJXJXJXJX",
"JXGXJXJXJXGXE . # C  Xe.A.8.9.9.q.q.q.q.q.q.q.q.q.8.8.q.q.q.q.8.q.q.q.q.q.q.q.q.q.q.q.q.q.q.q.q.q.q.q.q.q.q.q.q.q.q.q.q.q.q.q.q.8.q.q.q.q.q.8.8.q.q.q.q.q.q.q.8.A.6.6.6.6.A.D.q.L.L.i.i.i.i.u.r.oX&XW.R.,.%.H N 5 1 < < < < # # @ @ @ @ . . . . . . . . . . . .     . . . . . . . . . . . . @ . . . @ @ @ @ # # < 1 6 g x V %.<.$X~.k.E.(._.'.p.p.a.I.q.6.7.6.5.D.L.L.L.q.8.8.q.8.8.q.8.q.q.i.q.q.q.q.q.q.q.q.q.q.q.q.q.q.q.q.q.q.q.q.q.q.q.q.q.q.8.8.q.q.q.q.8.q.q.q.q.q.q.q.q.q.q.q.q.q.q.q.q.0.0.q.q.8.8.8.K._.R.f # @ qXFXHXJXJXJXJX",
"HXSXGXHXJXzX> @ 1 :.[.e.A.8.i.9.q.q.q.q.q.q.q.q.q.q.q.q.q.q.q.q.q.q.8.8.q.q.q.q.q.q.q.q.8.q.q.q.q.q.q.q.q.8.q.q.q.q.q.q.q.q.8.8.8.q.q.q.q.q.8.8.q.q.q.q.q.q.q.8.6.7.8.8.7.5.7.8.q.8.6.6.q.q.D.L.4.r.].]._.(.[.=X;X$X,.*.X.M k f 3 < $ $ $ $ # # @ @ @ . . . . . . . . . . . . . @ @ @ @ @ @ @ # < 1 5 5 s k V X.*.;.f.k.g.g.T.^.H.P.L.i.0.5.0.9.9.9.9.0.D.F.A.Z.7.5.q.D.q.6.6.6.8.8.q.q.q.q.q.q.q.q.q.q.q.q.q.q.q.q.q.q.q.q.q.q.q.q.q.q.q.q.q.q.q.q.q.q.q.q.q.q.q.q.q.q.q.q.q.q.q.q.q.q.8.q.q.0.7.7.q.9.8.6.8.7.J.!.n < @ ! HXHXHXJXJXJX",
"HXHXHXHXZXuX. # s N.^.S.8.8.L.9.q.q.q.q.q.q.q.q.q.q.q.q.q.q.q.q.q.q.q.8.q.q.q.q.q.q.q.q.8.q.q.q.q.q.q.q.q.q.q.q.q.q.q.q.q.q.8.q.q.q.q.q.q.q.q.q.q.q.q.q.q.q.q.q.0.8.8.D.q.0.0.q.8.q.D.q.q.q.q.q.q.q.0.0.u.K.p.r.c.z.c.k.E.|.Q.$X*X+Xn.1.&.G C B c c h f 0 8 8 8 3 7 7 7 0 0 f f h c c B C G &.%.:.>.B.$X$Xk.k.[.c.(.).'.P.K.K.0.7.6.8.8.6.6.6.6.6.q.q.D.Z.Z.Z.Z.D.8.6.8.8.8.8.8.8.8.q.q.q.q.q.q.q.q.q.q.q.q.q.q.q.q.q.q.q.q.q.q.q.q.q.q.q.q.q.q.q.q.q.q.q.q.q.q.q.q.q.q.q.q.q.q.q.q.q.q.q.q.q.q.7.7.0.q.8.6.6.8.e.}.*.5 @ % HXHXHXJXJXJX",
"HXHXHXHXHX' @ < M k.].4.A.A.6.i.q.q.q.q.q.q.q.q.q.q.q.q.q.q.q.q.q.q.q.q.q.q.q.q.q.q.q.q.q.q.q.q.q.q.q.q.q.q.q.q.q.q.q.8.8.q.q.q.q.q.q.q.q.q.q.q.q.q.q.q.q.q.q.q.0.D.D.D.D.D.D.D.D.D.L.L.D.D.D.q.8.8.8.8.8.8.q.q.i.i.p.p.p.x.v.'.).).).).).).).{.[.[.[.[.[.[.[.[.E.E.E.E.|.|.[.[.[.[.b.b.b.(.(.)././././.H.P.P.P.u.u.i.i.i.i.9.q.q.q.8.8.8.8.6.6.8.8.q.q.8.A.Z.A.8.8.8.8.q.8.8.8.8.8.8.q.q.q.q.q.q.q.q.q.q.q.q.q.q.q.q.q.q.q.q.q.8.8.q.q.q.q.8.q.q.q.q.q.q.q.q.q.q.q.q.8.8.q.q.q.q.q.q.q.q.q.q.q.A.D.q.q.q.8.8.A.K.^.B.5 # . pXHXHXJXJXJX",
"JXHXHXSXHXp @ 5 o.g.U.5.8.A.6.q.q.q.q.q.q.q.q.q.q.q.q.8.q.q.q.q.q.q.q.q.q.q.q.q.q.q.q.8.q.q.q.q.q.q.q.q.q.q.q.q.q.q.q.8.q.q.q.q.q.q.q.q.q.q.q.q.q.q.8.8.q.q.q.q.D.D.D.D.0.D.D.D.D.D.L.L.D.L.L.0.8.8.8.8.8.8.8.8.8.q.q.q.i.i.i.i.i.q.9.q.i.i.i.i.i.i.i.i.i.a.p.p.p.p.p.p.p.p.a.i.i.i.i.s.i.i.i.q.0.D.D.D.D.q.q.q.q.q.q.q.q.q.q.9.q.0.0.8.8.8.8.8.8.8.q.q.8.A.A.A.8.8.8.8.8.8.8.8.8.8.q.q.q.q.q.q.q.q.q.q.q.q.q.8.q.q.q.q.q.q.q.q.8.q.q.q.q.8.8.q.q.q.q.8.q.q.q.q.q.q.q.8.q.q.q.q.q.q.q.q.q.q.q.8.A.A.i.i.q.8.8.8.7.H.Q.m < . ] HXJXJXGXGX",
"JXJXHXVXzX. # 6 l./.K.7.8.q.8.8.q.q.q.q.q.q.q.q.q.q.q.8.8.8.q.q.q.q.q.q.q.q.q.q.q.q.q.q.q.q.q.q.q.q.q.q.q.q.q.q.q.q.q.q.q.q.q.q.8.8.q.q.q.q.q.q.q.q.8.q.q.q.q.8.8.8.8.8.8.q.q.q.0.0.0.0.0.L.L.0.q.8.8.8.8.8.8.8.8.q.q.q.q.q.i.i.q.q.9.q.q.q.q.q.q.q.q.i.i.i.i.i.i.i.i.i.i.i.i.i.q.q.9.9.9.q.q.q.8.8.8.8.8.8.8.8.8.8.8.8.8.8.q.q.i.i.0.0.8.8.8.8.q.q.q.q.q.A.A.A.q.q.8.q.q.q.q.q.8.q.q.q.q.q.q.q.q.q.q.q.q.q.q.q.q.q.q.q.q.q.q.q.q.q.q.q.q.q.q.q.q.q.q.8.8.8.q.q.q.q.q.q.q.q.q.q.q.q.q.q.q.q.q.8.8.q.i.i.q.8.8.8.8.K.{.%.1 @ u HXJXJXGXGX",
"JXJXHXCXwX. 1 d |.p.D.8.8.q.q.8.q.q.q.q.q.q.q.q.q.q.8.8.8.q.q.q.q.q.q.q.q.q.q.q.q.q.q.q.q.q.q.q.q.q.q.q.q.q.q.q.q.q.q.q.q.q.q.q.8.q.q.q.8.8.8.q.q.q.q.q.q.q.q.8.8.8.8.8.8.8.8.8.q.q.q.q.q.q.0.0.D.D.0.q.q.q.q.8.8.8.q.q.q.q.q.q.q.q.q.q.q.q.q.q.q.q.9.9.q.0.q.q.q.q.q.q.q.q.q.9.q.q.q.q.q.q.q.q.8.8.q.q.8.8.8.8.8.8.8.8.8.8.8.q.i.i.0.0.0.8.8.0.q.q.i.0.i.D.D.D.q.q.q.q.q.8.q.q.q.q.q.q.q.q.q.q.q.q.q.q.q.8.q.q.q.q.q.q.q.q.q.q.q.q.q.q.q.q.q.q.q.q.8.8.8.q.q.q.q.q.q.q.q.q.q.q.q.q.q.q.q.q.q.8.8.8.i.i.i.q.8.8.A.L.).j.5 @   sXJXGXJXJX",
"JXGXSXHXW @ 1 M {.u.8.A.q.q.q.q.q.q.q.q.q.q.q.q.q.q.q.q.q.q.q.q.q.q.q.q.q.q.q.q.q.q.q.q.q.q.q.q.q.q.q.q.q.q.q.q.8.8.8.q.q.q.q.q.q.q.q.q.8.8.q.q.q.q.q.q.q.q.8.8.8.6.8.8.8.8.8.8.8.8.8.q.q.q.q.0.0.S.0.0.0.0.q.q.q.q.q.q.0.0.0.0.q.q.q.8.8.q.q.q.q.q.q.q.q.q.q.q.q.q.q.q.q.8.8.8.8.8.8.8.8.8.8.q.i.i.i.i.i.q.q.q.q.8.8.8.8.A.8.8.q.9.q.8.8.8.8.A.0.i.i.i.i.i.u.0.q.q.q.q.q.q.q.q.q.q.q.q.q.q.q.q.q.q.q.q.q.q.q.q.q.q.q.q.q.q.q.q.q.q.q.q.q.q.q.q.q.q.q.q.q.q.q.q.q.8.8.q.8.8.q.q.q.q.q.q.q.q.q.8.8.8.q.i.i.q.8.A.A.D.c.B.l # . 5XJXGXJXJX",
"JXZXSXCX; @ 1 =.).0.8.A.q.q.q.q.q.q.q.q.q.q.q.q.q.q.q.q.q.q.q.q.q.q.q.q.q.q.q.q.q.q.q.q.q.q.q.q.q.q.q.q.q.q.q.q.q.q.8.q.q.q.q.q.q.q.q.q.q.8.q.q.q.q.q.q.q.q.8.8.8.8.8.8.q.q.q.q.q.q.q.q.q.q.q.q.0.0.0.0.0.q.q.q.8.8.q.0.0.0.0.0.q.q.q.q.q.8.q.8.8.8.8.8.8.8.8.8.8.8.8.8.8.8.8.8.8.8.8.8.8.8.8.q.i.i.i.i.i.i.q.q.q.q.8.8.8.8.8.8.q.q.8.8.8.8.8.A.0.0.i.i.i.i.i.9.q.q.q.q.q.q.q.q.q.q.q.q.q.q.q.q.q.q.q.q.q.q.8.q.q.q.q.q.q.q.q.q.q.q.q.q.q.q.q.q.q.q.q.q.q.q.q.q.q.q.8.q.q.8.8.q.q.q.q.q.q.q.q.8.8.8.q.i.i.0.A.A.8.8.r.=XC < @ p JXJXGXGX",
"JXDXSXrX+ . s B.v.q.8.8.i.i.q.q.q.q.q.q.q.q.q.q.q.q.8.q.q.q.q.q.q.q.q.q.q.q.q.q.q.q.q.q.q.q.q.q.8.8.q.q.q.q.q.q.q.q.q.q.q.q.q.q.q.q.q.q.q.q.q.q.q.q.q.8.q.q.q.q.q.q.q.q.q.q.q.q.q.q.q.q.q.q.q.q.q.q.q.8.8.8.8.8.8.8.8.8.0.0.0.0.q.q.q.q.q.q.q.q.q.q.q.q.q.q.q.8.8.8.8.8.8.8.8.8.8.q.8.8.8.8.q.q.D.D.q.q.q.q.q.q.q.q.q.q.9.9.9.9.9.9.q.8.8.8.8.8.8.q.9.9.9.9.q.q.q.q.q.q.i.q.i.q.q.q.q.q.q.q.8.8.q.q.q.q.8.8.q.q.q.q.q.8.q.q.q.q.8.8.q.q.q.q.q.q.q.q.8.q.q.q.q.q.q.q.q.q.q.q.q.q.q.q.q.q.q.q.q.8.8.8.q.i.i.i.A.A.6.8.p.-X:.1 @ + fXJXJXZX",
"JXJXGX] % @ m V.'.D.6.8.i.i.8.8.q.q.q.q.8.8.8.q.q.q.8.8.q.q.q.q.q.q.q.q.q.q.q.q.q.q.q.q.q.q.q.q.q.q.q.q.q.q.q.q.q.q.q.q.q.q.q.q.q.q.q.q.q.q.q.q.q.q.8.8.q.q.q.q.q.i.i.i.i.i.q.q.q.q.q.q.q.q.q.q.q.q.8.8.8.8.8.8.8.8.8.8.q.q.0.0.q.q.q.q.q.q.q.q.q.q.q.q.q.q.q.q.8.8.8.8.8.8.8.8.8.q.q.q.q.q.q.D.A.A.8.8.8.q.q.q.q.q.9.9.9.9.i.i.9.9.q.8.8.8.8.8.8.8.q.q.q.6.6.8.q.q.q.q.i.q.i.q.q.q.q.q.q.q.q.q.q.q.q.q.8.q.q.q.q.q.q.8.8.q.q.q.q.8.q.q.8.8.8.q.q.q.8.8.q.q.q.q.q.q.q.q.q.q.q.q.q.q.q.q.q.q.q.8.8.8.q.i.i.L.A.A.6.8.u.{.N.8 @ . 9XZXJXZX",
"SXZXJXa # 1 ..c.K.8.q.i.y.i.8.8.8.q.q.q.q.q.q.q.q.q.q.q.q.q.q.q.q.q.q.q.q.q.q.q.q.q.q.q.q.q.q.q.q.q.q.q.q.q.q.q.q.q.q.q.q.q.q.q.q.q.q.q.q.q.q.q.q.q.q.q.q.q.q.q.q.q.q.q.q.q.q.q.q.q.q.q.q.q.q.q.q.q.q.8.8.8.8.8.8.8.8.q.q.q.q.q.q.q.q.q.q.q.q.q.q.q.q.q.q.q.q.q.8.8.q.8.q.8.q.q.q.q.q.q.q.q.q.q.8.8.q.q.q.q.q.q.q.q.q.q.q.q.q.q.q.q.q.q.8.8.8.8.8.q.q.q.q.q.8.q.q.q.q.q.q.q.q.q.q.q.q.q.q.q.q.q.q.q.q.q.q.q.q.q.q.q.q.q.q.q.q.q.q.q.q.q.q.q.q.q.q.q.q.q.q.q.q.q.q.q.q.q.q.q.q.q.q.q.q.q.q.q.q.q.8.8.8.S.S.0.0.8.6.D.0.x.%XB # . ~ JXGXJX",
"NXSXkXw < 6 l./.S.8.q.i.y.i.q.8.8.q.q.q.q.q.q.q.q.q.q.q.q.q.q.q.q.q.q.q.q.q.q.q.q.q.q.q.q.q.q.q.q.q.q.q.q.q.q.q.q.q.q.q.q.q.q.q.q.q.q.q.q.q.q.q.q.q.q.q.q.q.q.q.q.q.q.q.q.q.q.q.q.q.q.q.q.q.q.q.q.q.q.8.q.8.q.8.q.A.q.8.q.8.q.q.q.q.q.q.q.q.q.q.q.q.q.q.q.q.q.q.q.8.q.8.q.8.q.8.q.8.q.8.q.8.q.8.q.8.q.8.q.8.q.8.q.A.q.8.q.8.q.q.q.8.q.D.q.A.q.8.q.8.q.8.q.A.q.q.q.q.q.q.q.q.q.q.q.q.q.q.q.q.q.q.q.8.q.q.q.q.q.q.q.q.q.q.q.q.q.q.q.q.q.q.q.q.q.q.q.q.q.q.q.q.q.q.q.8.q.8.q.8.q.8.q.8.q.8.q.8.q.q.q.q.8.Z.S.S.q.9.6.6.q.P.E.%.1 # q ZXJXJX",
"CXHX9Xo # s &XJ.S.A.i.i.a.a.q.A.A.A.D.A.D.D.D.A.D.D.D.D.D.D.D.D.D.D.D.D.D.D.D.D.D.D.D.D.D.D.D.D.D.A.D.D.D.D.D.D.D.D.D.D.D.D.D.D.S.Z.S.Z.S.Z.S.Z.D.D.S.A.D.A.D.A.S.D.D.D.D.A.D.A.D.D.D.D.D.D.D.D.D.A.D.A.D.A.A.A.A.A.A.A.A.A.D.A.D.D.D.D.D.D.D.D.D.A.D.A.D.D.D.D.A.Z.Z.Z.Z.Z.Z.Z.A.A.A.A.A.A.A.A.A.A.A.A.A.A.A.A.A.A.A.A.A.A.A.A.Z.A.D.A.A.A.A.A.Z.A.A.A.A.A.A.A.Z.D.D.D.D.A.D.A.D.D.D.D.D.D.D.D.S.Z.S.Z.S.Z.7.Z.D.D.D.D.D.D.D.D.D.A.D.D.D.D.D.D.D.D.D.D.D.D.D.D.A.A.A.A.A.A.A.A.A.A.A.A.A.A.A.A.q.8.8.A.Z.D.q.q.q.6.q.I.g.j.5 # . pXJXGX",
"CXHX! % < B W.J.S.A.q.i.a.i.0.A.A.A.A.A.A.A.A.A.A.A.A.A.A.A.A.A.A.A.A.A.A.A.A.A.A.A.A.A.A.A.A.A.A.A.A.A.A.A.A.A.A.A.A.A.A.A.A.A.A.A.A.A.A.A.8.A.A.A.A.A.A.A.A.A.A.A.A.A.A.A.A.A.A.A.A.A.A.A.A.A.A.A.A.A.A.A.A.A.A.A.A.A.A.A.A.A.A.A.A.A.A.A.A.A.A.A.A.A.A.A.A.A.A.A.A.A.A.A.A.A.A.A.A.A.A.A.A.A.A.A.A.A.A.A.A.A.A.A.A.A.A.A.A.A.A.A.A.A.A.A.A.A.A.A.A.A.A.A.A.A.A.A.A.A.A.A.A.A.A.A.A.A.A.A.A.A.A.A.A.A.A.A.8.A.A.A.A.A.A.A.A.A.A.A.A.A.A.A.A.A.A.A.A.A.A.A.A.A.A.A.A.A.A.A.A.A.A.A.A.A.A.A.A.8.8.8.8.8.8.8.8.8.q.6.8.L.2.$Xk # . ] JXGX",
"bXCX: @ 1 :.E.H.Z.A.8.9.i.0.A.A.8.6.8.8.8.8.8.8.8.8.8.8.8.8.8.8.8.8.8.8.8.8.8.8.8.8.6.8.8.8.8.8.8.8.8.8.8.8.8.8.8.8.8.8.8.8.8.8.8.8.8.6.8.8.8.8.8.8.8.8.8.8.8.8.8.8.8.8.8.8.8.8.8.8.8.8.8.8.8.8.8.8.8.8.8.8.8.8.8.8.8.8.8.8.8.8.8.8.8.8.8.8.8.8.8.8.6.8.8.8.8.8.8.8.8.8.8.8.8.8.8.8.8.8.8.8.8.8.8.8.8.8.8.8.8.8.8.8.8.8.8.8.8.8.8.8.8.8.8.8.8.8.8.8.8.8.8.8.8.8.8.8.8.8.8.8.8.8.8.8.8.8.8.8.8.8.8.8.6.8.8.6.8.8.8.8.6.8.8.8.8.8.8.8.8.8.8.8.8.8.8.8.8.8.8.8.8.8.8.8.8.8.8.8.8.8.8.8.8.8.8.8.8.6.6.6.8.8.8.8.6.6.6.6.6.8.'.|.o.1 @ a ZXGX",
"NXdX. @ 5 #XT.K.A.8.8.8.9.q.A.A.8.8.8.8.8.8.8.8.8.8.8.8.8.8.6.8.8.8.8.8.8.8.6.8.8.8.8.8.8.8.8.8.8.8.8.8.8.8.8.8.8.8.8.8.8.8.6.8.8.8.8.8.8.8.8.8.8.8.8.8.8.8.8.8.8.8.8.8.8.8.8.8.8.8.8.8.8.8.8.8.6.6.6.6.8.8.6.6.6.6.6.6.6.6.6.6.8.8.8.8.8.8.6.6.8.8.8.8.8.8.8.8.6.6.6.6.6.6.6.6.6.6.6.6.6.6.6.6.6.6.6.6.6.6.6.6.6.6.6.6.6.6.6.6.6.6.6.6.6.6.6.6.6.8.6.6.6.6.6.6.8.8.8.8.8.8.8.8.8.8.8.8.8.8.8.8.8.8.8.8.8.8.8.8.8.8.8.8.8.8.8.8.8.8.8.8.8.8.8.8.8.8.8.8.8.8.6.8.6.6.6.6.6.6.6.6.6.6.6.6.6.6.6.8.8.8.8.8.8.8.8.8.6.6.6.8.].g.j.5 . O sXJX",
"MX@X@ < k &X^.4.8.8.6.6.q.8.A.A.q.i.i.i.i.i.i.i.i.i.i.i.i.i.i.i.i.i.i.i.i.i.i.i.i.i.i.i.i.i.i.i.i.i.i.i.i.i.i.i.i.i.i.i.i.i.i.i.i.i.i.i.i.i.i.i.i.i.i.i.i.i.i.i.i.i.i.i.i.i.i.i.i.i.i.i.i.i.i.i.i.i.i.i.i.i.i.i.i.i.i.i.i.i.i.i.i.i.i.i.i.i.i.i.i.i.i.i.i.i.i.i.i.i.i.i.i.i.i.i.i.i.i.i.i.i.i.i.i.i.i.i.i.i.i.i.i.i.i.i.i.i.i.i.i.i.i.i.i.i.i.i.i.i.i.i.i.i.i.i.i.i.i.i.i.i.i.i.i.i.i.i.i.i.i.i.i.i.i.i.i.i.i.i.i.i.i.i.i.i.i.i.i.i.i.i.i.i.i.i.i.i.i.i.i.i.i.i.i.i.i.i.i.i.i.i.i.i.i.i.i.i.i.i.i.u.K.S.S.K.u.i.9.q.q.0.J.g.*Xg @ + 5XJX",
"MXa @ 5 | k.).0.8.8.8.q.9.0.S.S.i.i.i.i.i.i.i.i.i.i.i.i.i.i.i.i.i.i.i.i.i.i.i.i.i.i.i.i.i.i.i.i.i.i.i.i.i.i.i.i.i.i.i.i.i.i.i.i.i.i.i.i.i.i.i.i.i.i.i.i.i.i.i.i.i.i.i.i.i.i.i.i.i.i.i.i.i.i.i.i.i.i.i.i.i.i.i.i.i.i.i.i.i.i.i.i.i.i.i.i.i.i.i.i.i.i.i.i.i.i.i.i.i.i.i.i.i.i.i.i.i.i.i.i.i.i.i.i.i.i.i.i.i.i.i.i.i.i.i.i.i.i.i.i.i.i.i.i.i.i.i.i.i.i.i.i.i.i.i.i.i.i.i.i.i.i.i.i.i.i.i.i.i.i.i.i.i.i.i.i.i.i.i.i.i.i.i.i.i.i.i.i.i.i.i.i.i.i.i.i.i.i.i.i.i.i.i.i.i.i.i.i.i.i.i.i.i.i.i.i.i.i.i.a.p.p.K.G.G.K.p.p.s.q.L.K.t.[.:XB #   i GX",
"vX@ # 1 n.#XE.r.p.u.u.p.p.r.J.G.u.u.u.u.u.u.u.u.u.u.u.u.u.u.u.u.u.u.u.u.u.u.u.u.u.u.u.u.u.u.u.u.u.u.u.u.u.u.u.u.u.u.u.u.u.u.u.u.u.u.u.u.u.u.u.u.u.u.u.u.u.u.u.u.u.u.u.u.u.u.u.u.u.u.u.u.u.u.u.u.u.u.u.u.u.u.u.u.u.u.u.u.u.u.u.u.u.u.u.u.u.u.u.u.u.u.u.u.u.u.u.u.u.u.u.u.u.u.u.u.u.u.u.u.u.u.u.u.u.u.u.u.u.u.u.u.u.u.u.u.u.u.u.u.u.K.u.u.u.u.u.u.u.u.u.u.u.u.u.u.u.u.u.u.u.u.u.u.u.u.u.u.u.u.u.u.u.u.u.u.u.u.u.u.u.u.u.u.u.u.u.u.u.u.u.u.u.u.u.u.u.u.u.u.u.u.u.u.u.u.u.u.u.u.u.u.u.u.u.u.u.u.u.u.s.s.0.S.S.0.u.i.s.9.8.7.e.z.g.,.#   + ZX",
"qX  @ 0 n.*X&X X{.{.{..X|. X!.!..X_._._._._._._._._._._._._._._._._._._._._._._._._._._._._._._._._._._._._._._._._._._._._._._._._._._._._._._._._._._._._._._._._._._._._._._._._._._._._._._._._._._._._._._._._._._._._._._._._._._._._._._._._._._._._._._._._._._._._._._._._._._._._._._._._._._._._._._._._._._._._._._._._._._._._._._._._._._._._._._._._._._._._._._._._._._._._._._._._._._._._._._._._._._._._._._._._._._._._._._._._._._._._._._._._._._._._._._._._._._._._._.}.{.{.`.`.`.`.{.{.XX).'./._.|.$X+X2     9X",
"` X . $ v C b x n n n n m b b b N N b N b N b N b N b N b N b N b N b N b N b N b b b N b N b N b N b N b N b N b N b N b N b N b b b N b N b N b N b N b N b N b N b N b N b N b N b N b N b b b b b b b b b b b b b b b b b b b N b N b N b N b b b N b N b b b b b b b b b b b b b b b b b b b b b b b b b b b b b b b b b b b b b b b b b b b b b b b b b b b N b N b N b N b N b N b N b N b N b N b N b N b b b N b N b N b N b N b N b N b N b N b N b b b b b b b b b b N b b b b b b b b b b N N N b b n n n b b N v v @ + O ! ",
"r X X   @ 2 2 < < 1 < < < < # # # # # # # # # # # # # # # # # # # # # # # # # # # # # # # # # # # # # # # # # # # # # # # # # # # # # # # # # # # # # # # # # # # # # # # # # # # # # # # # # # # # # # # # # # # # # # # # # # # # # # # # # # # # # # # # # # # # # # # # # # # # # # # # # # # # # # # # # # # # # # # # # # # # # # # # # # # # # # # # # # # # # # # # # # # # # # # # # # # # # # # # # # # # # # # # # # # # # # # # # # # # # # # # # # # # # # # # # # # # # # # # # # # # @ @ @ @ @ # # # # @ @ # @ @       u ",
"y * X O   % . . @ @ @ @ @ @ . . . @ @ @ @ @ @ @ @ @ @ @ @ @ @ @ @ @ @ @ @ @ @ @ @ @ @ @ @ @ @ @ @ @ @ @ @ @ @ @ @ @ @ @ @ @ @ @ @ @ @ @ @ @ @ @ @ @ @ @ @ @ @ @ @ @ @ @ @ @ @ @ @ @ @ @ @ @ @ @ @ @ @ @ @ @ @ @ @ @ @ @ @ @ @ @ @ @ @ @ @ @ @ @ @ @ @ @ @ @ @ @ @ @ @ @ @ @ @ @ @ @ @ @ @ @ @ @ @ @ @ @ @ @ @ @ @ @ @ @ @ @ @ @ @ @ @ @ @ @ @ @ @ @ @ @ @ @ @ @ @ @ @ @ @ @ @ @ @ @ @ @ @ @ @ @ @ @ @ @ @ @ @ @ @ @ @ @ @ @ @ @ @ @ @ @ @ @ @ @ @ @ @ @ @ @ @ @ @ @ @ @ @ @ @ @ @ @ @ @ @ @ @ . . . . .       .   . . . . . o X O     u ",
"/ * X p F J p J Z Y Y P P i i i Z Z Z Z Z Z Z Z Z Z Z Z Z Z Z Z Z Z Z Z Z Z Z Z Z Z Z Z Z Z Z Z Z Z Z Z Z Z Z Z Z Z Z Z Z Z Z Z Z Z Z Z Z Z Z Z Z Z Z Z Z Z Z Z Z Z Z Z Z Z Z Z Z Z Z Z Z Z Z Z Y Y Y Y Y Y Y Y Y Y Y Y Y Y Y Y Y Z Z Z Z Z Z Z Z Z Z Z Z Z Z Z Y Y Y Y Y Y Y Y Y Y Y Y Y Y Y Y Y Y Y Y Y Y Y Y Y Y Y Y Y Y Y Y Y Y Y Y Y Y Y Y Y Y Y Y Y Y Y Y Y Z Z Z Z Z Z Z Z Z Z Z Z Z Z Z Z Z Z Z Z Z Z Z Z Z Z Z Z Z Z Z Z Z Z Z Z Z Z Z Z Z Z Z Z Z Z Z Y Y Y Y Y Y Y Y Y Y Y Y Y Y Y Y T Y J F D D R I I R J D D J I P p ;   W ",
")     p J J a J P P P P P P R i i i i i i i i i i i i i i i i i i i i i i i i i i i i i i i i i i i i i i i i i i i i i i i i i i i i i i i i i i i i i i i i i i i i i i i i i i i i i i i i i i i i i i i i i i i i i i i i i i i i i i i i i i i i i i i i i i i i i i i i i i i i i i i i i i i i i i i i i i i i i i i i i i i i i i i i i i i i i i i i i i i i i i i i i i i i i i i i i i i i i i i i i i i i i i i i i i i i i i i i i i i i i i i i i i i i i i i i i i i i i i i i i Y Z A p i i P P P Y J A A Z Y Y W ;   ! ",
"!   % p p J p D P P P P P P R D i i i i i i i i i i i i i i i i i i i i i i i i i i i i i i i i i i i i i i i i i i i i i i i i i i i i i i i i i i i i i i i i i i i i i i i i i i i i i i i i i i i i i i i i i i i i i i i i i i i i i i i i i i i i i i i i i i i i i i i i i i i i i i i i i i i i i i i i i i i i i i i i D D D D D D D D i i i i i i i i i i i i i i i i i i i i i i i i i i i i i i i i i i i i i i i i i i i i i i i i i i i i i i i i D D D D D D D D i i i i i i i i Z Z A A i i P P P P Z p i Z Y Y i +   ! ",
"!   + i E p p W P P P P P P D D D D i D i D i D i D i D i D i D i D i D i D i D i D i D i D i D i D i D i D i D i D i D i D i D i D i D i D i D i D i D i D i D i D i D i D i D i D i D i D i D i i i i i i i i i D i D i D i D i D i D i D i D i D i D i D i D i D i D i D i D i D i D i D i D i D i D i D i D i D i D i D i D i i i i i i i i i D i D i D i D i D i D i D i D i D i D i D i D i D i D i D i D i D i D i D i D i D i D i D i D i i i i i i i i i i i i i i i i i D i D i D i i Z Z Z Z D i P P P P i Z Z Z i P E O   ! ",
"! + ; i E i i E E E E E E E E E E E E E E E E E E E E E E E E E E E E E E E E E E E E E E E E E E E E E E E E E E E E E E E E E E E E E E E E E E E E E E E E E E E E E E E E E E E E E E E E E E E E E E E E E E E E E E E E E E E E E E E E E E E E E E E E E E E E E E E E E E E E E E E E E E E E E E E E E E E E E E E E E E E E E E E E E E E E E E E E E E E E E E E E E E E E E E E E E E E E E E E E E E E E E E E E E E E E E E E E E E E E E E E E E E E E E E E E E E E E E E E E E E E E E E E E E E E E E E E E E p O   ! ",
"~   O : : u u : : : : : : : : : : : : : : : : : : : : : : : : : : : : : : : : : : : : : : : : : : : : : : : : : : : : : : : : : : : : : : : : : : : : : : : : : : : : : : : : : : : : : : : : : : : : : : : : : : : : : : : : : : : : : : : : : : : : : : : : : : : : : : : : : : : : : : : : : : : : : : : : : : : : : : : : : : : : : : : : : : : : : : : : : : : : : : : : : : : : : : : : : : : : : : : : : : : : : : : : : : : : : : : : : : : : : : : : : : : : : : : : : : : : : : : : : : : : : : : : : : : : : : : : : : O + ! ",
"`                                                                                                                                                                                                                                                                                                                                                                                                                                                                                                                                     _ ",
"5XO                                                                                                                                                                                                                                                                                                                                                                                                                                                                                                                             O + O 4X"
};
