/* XPM */
static char *_efca51f26ed40038881bfb8f6573e9398xtyruQbZUO1Sl7[] = {
/* columns rows colors chars-per-pixel */
"563 751 209 2 ",
"   c #2B1B0A",
".  c #3B2C1B",
"X  c #352715",
"o  c #3D311E",
"O  c #2E2310",
"+  c #3E3321",
"@  c #3F2F20",
"#  c #1E1200",
"$  c #433424",
"%  c #453926",
"&  c #463B29",
"*  c #4B3C2C",
"=  c #493827",
"-  c #513E30",
";  c #4D3C2C",
":  c #40311E",
">  c #4D412E",
",  c #47402E",
"<  c #51422E",
"1  c #4E4331",
"2  c #534434",
"3  c #554936",
"4  c #594A36",
"5  c #594739",
"6  c #564B39",
"7  c #5B4C3C",
"8  c #584637",
"9  c #5D513E",
"0  c #604F3E",
"q  c #61523E",
"w  c #675A3F",
"e  c #5F4F40",
"r  c #5E5341",
"t  c #5F5846",
"y  c #614E41",
"u  c #635444",
"i  c #685746",
"p  c #655946",
"a  c #695A46",
"s  c #675648",
"d  c #695649",
"f  c #665B49",
"g  c #6B5C4C",
"h  c #705E4E",
"j  c #72574E",
"k  c #6F5F50",
"l  c #715E51",
"z  c #6D614E",
"x  c #6C6247",
"c  c #71624E",
"v  c #766A4D",
"b  c #6E6251",
"n  c #6F6856",
"m  c #736453",
"M  c #786656",
"N  c #756956",
"B  c #796A56",
"V  c #776658",
"C  c #796659",
"Z  c #766A59",
"A  c #7B6C5B",
"S  c #7D715E",
"D  c #7C7155",
"F  c #7F6E60",
"G  c #7E7261",
"H  c #806F5E",
"J  c #80655C",
"K  c #81725E",
"L  c #847559",
"P  c #816E61",
"I  c #837464",
"U  c #887666",
"Y  c #857966",
"T  c #897A66",
"R  c #877668",
"E  c #897669",
"W  c #867A69",
"Q  c #8B7C6C",
"!  c #907E6E",
"~  c #8F7E70",
"^  c #917E71",
"/  c #8D816E",
"(  c #8A8167",
")  c #91826E",
"_  c #92886C",
"`  c #8E8271",
"'  c #938474",
"]  c #988676",
"[  c #958976",
"{  c #998A76",
"}  c #978678",
"|  c #998679",
" . c #968A79",
".. c #9B8C7C",
"X. c #9D917E",
"o. c #9A9077",
"O. c #A08E7E",
"+. c #A08B76",
"@. c #A1927E",
"#. c #A5987C",
"$. c #9F8E80",
"%. c #9E9281",
"&. c #9F9885",
"*. c #A18E81",
"=. c #A39484",
"-. c #A89686",
";. c #A59986",
":. c #A99A86",
">. c #A79688",
",. c #A99689",
"<. c #A69A89",
"1. c #AC9C8C",
"2. c #B09E8E",
"3. c #B1968F",
"4. c #AF9F90",
"5. c #AB9690",
"6. c #B19E91",
"7. c #B39F98",
"8. c #ADA18E",
"9. c #A8A08C",
"0. c #B1A28E",
"q. c #B4A788",
"w. c #AEA291",
"e. c #AFA896",
"r. c #B3A494",
"t. c #B8A696",
"y. c #B5A996",
"u. c #B9A996",
"i. c #B7A698",
"p. c #B9A699",
"a. c #B6AB99",
"s. c #BBAC9C",
"d. c #BCB19E",
"f. c #B8B09D",
"g. c #BFAEA0",
"h. c #BEB3A1",
"j. c #BFB8A6",
"k. c #C0AE9E",
"l. c #C1B19E",
"z. c #C4B99E",
"x. c #C1AEA1",
"c. c #C3B4A3",
"v. c #C8B7A6",
"b. c #C5B9A6",
"n. c #C9B9A6",
"m. c #C7B6A8",
"M. c #C9B6A9",
"N. c #C6BAA9",
"B. c #CBBCAB",
"V. c #D0BFAE",
"C. c #CFBEB0",
"Z. c #CBB7B1",
"A. c #D1BEB1",
"S. c #D2BFB8",
"D. c #CDC1AE",
"F. c #CAC0A8",
"G. c #D1C1AE",
"H. c #D2C6AB",
"J. c #CEC2B1",
"K. c #CFC8B6",
"L. c #D3C3B3",
"P. c #D8C6B6",
"I. c #D5C9B6",
"U. c #D9C9B6",
"Y. c #D7C6B8",
"T. c #D9C6B9",
"R. c #D6CAB9",
"E. c #DBCCBB",
"W. c #DDD1BE",
"Q. c #D8D0BB",
"!. c #E0CEBE",
"~. c #E1D2BE",
"^. c #E2D6BC",
"/. c #DFCEC0",
"(. c #D9C6C0",
"). c #DED2C1",
"_. c #DFD8C5",
"`. c #E1CFC1",
"'. c #E3D4C3",
"]. c #E8D7C6",
"[. c #E5D9C6",
"{. c #E9DAC6",
"}. c #E7D6C8",
"|. c #E9D6C9",
" X c #E6DAC9",
".X c #EBDCCB",
"XX c #F0DFCE",
"oX c #EFDED0",
"OX c #F1DED1",
"+X c #EDE1CE",
"@X c #E7E0CD",
"#X c #F1E2CE",
"$X c #EEE3D1",
"%X c #EFE8D6",
"&X c #F3E4D3",
"*X c #F8E7D7",
"=X c #F5E9D6",
"-X c #F9E9D6",
";X c #F7E6D8",
":X c #F9E6D9",
">X c #F6EAD9",
",X c #FBECDB",
"<X c #FDF1DE",
"1X c #FAF0D7",
"2X c #FFEFE1",
"3X c #FFF3E2",
"4X c #FFF9E6",
"5X c #FFFBEA",
"6X c #FFF7E8",
/* pixels */
"r.c.2.2.t.-.-.t.l.m u i u m ,.2.r.=.p.r.=.c.A.B.M.A.p.=.-.O.Q V ..*.l V k ..i.g.6.i.r.>.>.$.P P V u E -.=.^ ....r.6.=.U x.M.L.c.i.1.r.p.r.1.r.i.i.i.r.w.r.1.1.i.p.r.1.i.p.r.r.r.r.r.i.r.,.i.c.r.,.p.r.2.r.r.r.1.>.R R ~ $.>.Z.S.4.x.4.x.' s d l x.p.E.Y.r.m.1.r.c.-.P ' s.M.x.6.,.U C 7 C I g 7 g I U r.r.-.6.1.U 2 U c.6.p.i.r.r.p.r.i.r.1.r.1.,.1.*.,.1.c.i.-.i.5.x.I ' Q g d ' =.O.t.g 4 B K i g I ' i 7 7 T ..=.Q =.g.i.p.>.r.6.6.r.i.i.r.6.r.,.r.-.=.r.r.M.V.c.r.-.I m i E -.,.r.i.t.i.r.r.1.,.s.m = Q ! V 2.B.I 0 8 ,...' I } r.r.1.} ,.-.O.:.0.r.0.p.s...O.=...0.g i A I ' c.1.=.2.=.r.:.2.1.r.,.1.r.=.2.-.2.t.1.r.*.d u ^ -.O.2.*.' ..k.M.i...,.Q g U k } 6.Q E 6.s.p.,.Q E s.p.p.r.E -.s.6.r.p.,.I U y U p...A -.s.L.i.i.1.r.*.*.=.r.=.C U ' ,.c.s.=...' ,.1.1.@.1.1.,.-.1.i.1.,.-...1.@.@.:.0.:.T i 8 E t.v.L.c.g.c.Y.x.} ^ ..=.,.O.-.*.-.,.-.-.,.-.=...,.=.>.^ ..c.-.d y u B ..E g H -.r.r.1.@.0.:.L u.T L ( L v _ q.#.l.l.0.Q ' ) ) I i d i g 2 7 g i A s.B.1.1.E.1.,.=.,...-.=.1.=.-.-.=.*.=.-.-.=.,.=.-.=.*.-.-...=.O.O.1.,.O.-.=.-.^ ! u u l E t.=.O.,.=.=...t.-.] ..I ' B 7 U U q m M v 2.G.:.@.' K < u ' =.r.:.} { @.@.{ ..@.@...1.-.' } ' A U U } c.",
"c.!.P.c.n.L.L.L.L.! h h H ] v.T.L.'.E.s.x..X:X.XE.E.L.c.M.B.c.p.c.A.$.R R Y.2X|.'.g.,.*.*...$.c.C.=.6.x.x.1.M./.}.6.' 1..XOX|..Xv.C.L.B.E.}.E.B.v.Y.E.E.Y.B.B.E.E.L.C.Y.E.L.L.L.E.L.L.L.Y.'.|.E.P.E.G.T.'.L.B.M.>.i.T.(.(.(.(.x.^ A.`.}.p.~ P I ,.Y.3X}.T./.C.Y.L.6...s.E.E.`.`.p.1.*.V P p.1.Q r.1.=.B.B.B.E.L.I m 1.'.L.E.E.L.A.L.B.L.L.B.L.A.B.T.T.'.'..XY.x.B.A.m.^ 1.*.A U s.`.P.E.@.) r.L...c I ].}.Q 7 I ^ ,.p.E.&X.X`.L.L.L.A.A.L.L.Y.P.M.B.A.B.A.B.M.Y.B.B.v.i.I m I r.r.t.,.=.1.L.Y.M.}.L.L.,...T..XE.,XY.U h g =.-.A U U ..!.v.M.B.B.G.V.L.L.L.L.s...t.v.V.!.T q q i ' L.G.G.G.c.L.V.M.B.L.M.B.L.B.L.L.A.B.L.T.1.d 5 B P C *.x.A.P..X,X'.M.1.Q ^ -...| ....x.E.c.s.B.1.M.,X}.B.B.M.&X|.A.x.M.s.,.p.....E.E.1...} s.r...r.c.s.M.B.p...P Q Q *.x.B.M.s.r.v.v.v.p.B.v.c.M.M.M.c.v.M.c.G.B.l.n.G.u.Q h i O.&X|.B.x.r.s.:XL.r.r.p.c.B.k.c.c.M.M.c.c.c.c.x.Z.Z.x.c.r.,.r.=.2 0 i I ..O.] c.E.-.1.k.c.L.l.+.:.@.z.#.L q.z.F.^.#X{.H.2.u.s.r...A B U l E F m I ' p.M.U B.Y.} *.B.c.p.p.s.v.c.c.v.c.c.c.M.v.c.B.c.c.c.x.v.v.s.k.k.p.x.k.x.B.x.c.r.^ M h C ,.x.r.r.B.c.c.k.B.c.=.A =.L.s.L.}.! u a h +.L.U.l.u.0.H 7 { l.r.s.c.i.p.l.s.p.l.c.p.s.p.c.p.=.U A ] -.s.L.",
"..2.c.c.n.V.v.V.B.| u u U t.B.P.B.B.M.E..XT.L.'.B.s.L.x.M.E.E.A.`.&X.XA.p.B.T.s.>.' ,.p.=.^ =.T.L.6.s.M.B.v.`.OXOXM.1.B..XOXB.r.=.v.B.g.v.C.v.s.B.L.C.m.M.B.M.B.L.M.c.m.M.m.v.m.L.c.v.B.Y.E.Y.v.0.0...' } } ....} *.p.4.E k 5.A.I i.Y.oXC.| V ^ g.'.E.5.B.B.B.L.p.-.,.A.E.L.`.E.E.v.-.P m r.s.s.r.^ E c.M.M.s.I 7 7 =.`.B.L.T.`.E.E.A.B.c.p.c.B.A.T.L.L.L.E.M.s.C.p.I P c.s.Q U B.&X}.].~.L.E.'.].-...c.-.I =.Y.,.s.Y.`..X'.B.m.M.M.M.v.v.M.B.A.c.M.r.1.p.s.s.s.M.M.c.1.m m =.Y.p.} g A ..B.M.c.p.p.M.M.p.B..X&X].' H V H p.p.=.=.r.i.c.L.s.k.v.0.L.].v.c.P.r.' ..c.s.@.4 g ! ] ..c.s.l.n.c.n.l.M.B.L.v.x.v.x.c.V.B.c.V.x.E d h M C l O.A..X.XXX`.L.B.*.m m F Q i.M.B.L.L.A.`.}.E.'.E.c.c.L.L.E..XM.,.x.p.i.L.E..XOX'.A.s...Q 2 u ..r.r.x.L.,.V V A m ' p.c.L.M.k.L.L.Y.L.'.Y.v.c.c.M.v.M.M.s.s.c.l.n.s.Q q q h ..'.L.1.' | 6.T.B.p.r.6.r.k.r.r.s.s.k.s.s.s.s.p.1.s.x.x.t...h = 7 i y g B I H r.E 0 ..B.n.l._ c c w L w L F.H.H.{.U.G.B.r.s.c.l.Q g =.M.,.,.P l l ^ *.| g s.^ 7 =.'.s.p.i.p.s.s.p.s.s.s.s.k.s.t.s.t.p.p.t.s.k.t.s.k.p.p.s.c.B.s.t.,.g g y h -.*.*...r.O...O.! A u u L..X`.OXp.-.] 2.u.U.~.n.k.-.@.A A i.=.A ..c.p.u.u.r.r.l.c.p.v.r.1.} V i g A *.c.M.",
"] :.v.B.V.B.l.V.A...l E 1.E.T.v.A.T.L..X&X`.}.|.c.r.E.c.M.OX&XE./.'.oXA.p.6.c.6.,...6.M.L.E.`.}.Y.L.|..X:X:X2X&X|.|.}.|.`.E.i.Q 4.L.E.B.L.B.v.C.M.L.C.M.B.Y.L.L.Y.B.m.M.B.B.B.B.Y.L.E./.E.v.1...u c A { -.} ..r.} V k C k e ,./.B.c.s.L.C.$.l | `.}.m.m..XY.B.M.M.v.A.`.T.E..XE.L.A.,.V ' `.C.r.P g U p...^ Q d m l r.}.,.} ,.6.B.B.B.E.E.B.Y.`.E.E.B.v.M.L.B.v.M.r.~ m.&X|.L.'.;X,X!.L.T.P.P.c.B.t.G.0.V 1..XXX.X|.;X'.}..XM.m.A.L.A.B.B.B.L.Y.E.E.1.=.s.B.L.v.L.i.-.=.' =.c.v.M.1.A ' -.P.B.v.L.V.B.n.} A -.c.Q i A r.v.E.M.-.1.E..XL.'.L.'.E.'.E.n.' -.v.Q q ] M.B.1.) c.'.~.V.s.O.:.v.B.v.s.M.B.A.v.k.v.B.M.v.v.p.B.k.E C H H t.A.].*X*XOX|.`.B.p.Q 7 8 ' C.E.E.|.&X'.L.'..XE.'.L.x.s.s.v.B.c.6.-.E.E.A.}.:X&Xp.,.B.OX`.x.m 2 l U | ^ =.' A A m P x.T.M.E.E.'.}.'.XX.X.XM.r.M.B.B.c.c.v.k.B.s.U.n.T a _ -.I ] k.1...| 6.x.B.P.A.x.6.p.c.k.s.x.c.c.x.x.x.c.c.m.x.A.B.p.=.B 2 0 m B B { ! H O.! H =.:.+.1.:.:._ q q c q.G.u.~..X:._ u.G.{.#X#XL.,.T.L.M.p...' =.A.B.1.A.E.r.p.L.E.i.r.i.p.p.p.k.x.x.x.c.c.c.k.x.s.k.k.k.c.v.k.t.s.p.s.s.k.v.t.c.-.g B B ..V.s.r.*.*.C H | B u i *.V.2.c.A.| =.u.V.!.~.l.2.u.0.} c h @.@...s.s.s.p.p.t.r.p.l.p.t.r...h h Q U A =.A.v.",
"p.T.`.v.v.P.P.L.T...] P.!..X`.V.B.B.L.'.L.B.'.L...^ p.| =.E.|.v.s.x.B.6.s.A.`.c.i.1.x.A.E.OX.X`.Y.E.}.E.'.E.E.c.B.M.E.}.T.s.i.i.g.C.m.c.L.L.v.M...g.Y.L.M.v.v.B.L.M.v.v.M.B.B.B.M.C.L.v.,.I u 7 B 0.c.l.n.M.s...m g 7 u m A 6.,.A $.s.A.x...Q B.E.E.v.'.E.B.M.c.M.M.L.E.A.Y.|.T.A.E.M.| i.p.-.M.6.^ ' 1.A m C g m ^ B.B.y 5 A g g g A p.E.T.L.A.B.M.c.s.M.B.M.s.c.r.>.|.|.E.E.T.r.t.v.B.c.B.!.B.=.} s.=.2.;X.XL.E.T.}.B.L.}.M.B.M.B.V.M.M.B.B.B.Y.p.E =.v.c.v.s.s...H ' -.k.B.=.p.T.v.1.' c.v.s.v.c.k.V.-.g g g h c 8 i.E.M.M.r.Y.Y.'.:Xp.B.XX|.L...A g U ' m H ,.s.s.k.v.E.B.v.Y.-.Q ..c.L.M.B.L.L.L.V.x.v.A.M.c.T.E.T.6.m h B j k.!.M.p.2.s.k.B.p.^ U m V c.&XA.B.L.M.p.B.E.L.L.E.A.B.s...' ' g m m 1.c.T..XOX,.g l | r.,.r...U l U 1.A d l A g l ..'.|.A.E.E.'.Y.B.|..X}.c.2.i.s.M.M.n.v.v.T.XXr.K i h ) ..K Q s.Q m Q ' R *.s.c.6.=.r.x.x.p.s.s.s.s.s.p.s.s.M.7.v.x.] Q Q H d ! r.r..XL.t.l.t.s.0.=.-.r.c.B.:.I +.P.'.c.s.!.B.K q ) L.#X.XP.B.s.c.' p.(.x.6.T.'.c.,.E.r.c.,X|.6.r.i.x.x.x.c.s.k.s.s.s.k.k.s.k.s.s.s.t.s.k.r.s.k.s.c.x.k.B.c.k.^ u g A k.P.M.v.t.,.C B =.I l t.1.E k.!.x.t.U J T n.~.l.@.@.s.I m A =.4.s.L.i.-.:.p.c.s.r.r.0.=.-.Q C ....A I E.OXL.",
"c.].A.k.L.T.P.L.c.! 6.,X|.L.T.E.E.L.T.A.1.,.s.,.P A Q P E L.E.p.^ ..x.M.|.}.L.s.m.L.&X;X|.E.Y.E.L.M.L.A.T.c.p.i.r.1.s.M.L.x.c.L.B.E.L.v.B.Y.B.M.i.B.E.Y.L.B.M.C.Y.L.B.B.L.Y.Y.Y.L.Y.B.r...I V A ..U.~.v.n.L.s.I g B m A ' =.M...P 1.M..XB.*.=.}.,X&XE.}.g.m.T.M.' | 1.V.B.c.B.c.L.A.E.B.B.V u M..XB.M.'.B.r.^ A I B.;Xx.5 m *.P y * 8 =.E.E.A.c.B.v.c.x.L.L.L.c.Z.x.x..XL.L.L.1.} ..k.P.p.p.s.,.0.,.1.) Y.,XV.P.A.L.E.s.c./.C.Y.B.L.L.V.V.Y.Y.Y.L...I r.B.s.s.v.,...A m B ..L.B.E.3X*XL.-.s.v.M.L.M.s.M.s...=...g g A c.Y.s.I -.XXM.s.L.,.P U U * = 2 4 u h m { 1.r.,.=.c.'.B.v.r.' ] =.t.c.s.B.B.M.B.L.v.c.L.V.A.L.x.*.h * 5 g C ,.6.*.r.k.M.k.s.s...r.B.Y..XT.r.s.p.Q Q M.T.s.'.v.,.r.p...A l l A g Q i.T.`.x.Q u y d g 7 i g u g ..p.E m C l d A x.].L.L.E.Y.B.s.r.B.L.L.p.i.i.1.t.c.B.B.B.].XXK < h A C I ) ' r.^ m g l V R t.v.r.1.k.M.v.s.c.x.x.x.k.s.s.k.p.M.M.| g P ..H C V.2XB.t.U ' P.v.L.B.L.L.v.v.c.I U T.6XB.,.s.1.B i g _ G.!.G.p.r.c.x.1.6.x.F l B.1.Q ..=.Q v.&XA.Q r.p.s.p.p.c.c.c.x.k.k.c.c.x.M.c.c.x.s.k.k.t.s.t.r.s.p.t.v.c.,.A l h E v.s.1.| 1.t.2.t.L.t.6.r.^ 6.XXXXB.t.-.m +.XX~.@.B h I A g u } c.c.1.A i C ] :.O.' Q Q I A g U r.Q g -.&XT.6.",
"s.E.2.s..X'.T.L.2.-.B.'.L.B.'.].E.|.E...A ....A g l l I Q B.B.=.' ] 1.s.'.E.s.k.E.`.|.`.E.P.v.B.v.c.B.A.E.c.s.s.v.v.1.1.c.E.L.B.B.B.B.B.B.B.B.L.Y.Y.B.v.B.B.M.B.L.B.M.M.B.C.C.B.E.L.i...=.4.s.B.{.{.~.~.n.Q m c g g m -.V.B.E.....' U g.L.M.L.OXOX|.'.E.c.M.B.1...1.s.E.E.B.M.c.s.v.T.B.M.-.U ,.i.B.`..XM.=.Q ,.p.}.B...g A ..-.Q g g 1.T.A.v.x.v.s.x.p.M.M.A.M.i.g.L.|.M.c.A.B.r.-.,.v.p.v.c.B.i.n.G.B.;X'.v.V.L.Y.A.6.p.Y.B.B.v.M.M.v.M.L.P.L.i.E ..M.L.v.c.M.1.t...H U ...X,X}..X].E.s.i.s.n.v.B.B.L.B.k.r...c.2.M.r.r.,.B r.s.M.s.r.T.E - X : 8 h h a m c q I =.,...c.}.M.t.s.-.t.r.c.E.v.B.x.c.A.'.A.x.E.E.B...B u 7 u d m P *.p.M.*X&X'.c.s.p.,.M..X.XE.s.p.1.p.p.s.v.x.x.B.r.,.p.M.c.p.c.`.p.m u P ^ 6.1.} P l g ..=...Q Q r.B.,.E m g 2 ..*.E.E.r.v.E.'.E.L.v.B.c.k.r.1.U A Q i.M.1.A g g 8 8 7 q E -.' ,.s.g.p...s.L.s.s.B.1.-.s.x.x.p.s.p.s.k.s.p.s.s.V.'.-.u y ! ,.U P..Xk.H A B l O.P.s.p.2...r.B.P.1.p.&X'.*...=...7 8 u E B.v.p.p.r.x.M.L.m.g.} $.,.Q P Q ..s.'.'.t...s.c.s.x.p.x.s.s.s.p.s.k.k.s.k.p.s.p.r.p.p.6.s.s.r.p.s.k.v.r.H i l g ' s.1...r.c.v.P.B.t.^ ' =.M.3XT.c.T.B.T.v.].{.@.4 ; 7 q 8 h h ..m.r.-...h K ! I m m B h g i d E 6...} E.c.Q A ",
"=.L.E E V.T.T.p.=.v.T.r.p.P.&X~.T.T.T.x.r.=.P U m A m ..=.L.c...s.s.-.! s.E.r...i.E.&XE.Y.L.c.B.M.A.L.c.B.c.x.p.B.p.m m Q c.r.p.c.$...c.Y.B.B.L.J.L.L.C.L.B.B.E.Y.L.B.M.B.L.L.B.B.s.' A ..v.'.&X~.{.n...c < 0 g I ..-.v.V.i.v.} u ..6.'.|..X:X.XB.B.`.A.A.M.A.x.T.|.E.A.M.c.v.s.B.B.L.r.P Q ..L.T.|.L.i.E g C M.`.M.m l A g A v.A l I x.E.c.s.c.c.c.B.v.L.B.L.M.T.c.c.T.L.s.p.v.v.s.1.v.l.c.1.n.L.s.c.|..Xk.Y.v.C.A.M.i.B..X(.M.M.B.M.v.B.E.!.E.U U v.E.Y.E.v.2.=.i.-.-.B.Y.&XL.v.E.'.B.t.i.k.v.B.M.c.p.v.L.k.@..X,XB.-.2.=.v.1.,.'.c.6.c.V.! 2 2 m ' ' m g K H A ..r.=.s.p.^ Q B.,.r.=.s.|.B.p.B.B.L.!.6.E | ] m d P A g g m | 6.T.OXXX.Xs.r.6.r.1.c.'.;X/.s.g.i.p.c.p.p.M.s.s.c.1.6.x.E.'.L.E.c...I ..r.U Q ^ ,.-.Q C s.'.L.x.B.E.v.' ^ A Q =.p...B.r.A ' r.L.M.Y.L.B.p.c.p.t.c.I 7 g U B ; * $ = u m c ) -.! ,.L.M.c.B.}.Y.6.M.L.1.=.s.x.M.c.p.p.k.v.M.c.v.B.T.L.C g -.6.-.^ '.'.! i C 2.*.L.P.{ :.{ U l.~.Y.'..X.X*.I ~ ~ M.L.! u K V.p.=.1.p.r.v.s.c.c.B.s.c.i.,.A 1.}.'.s.=.i.r.x.p.M.s.s.k.k.x.k.x.c.x.s.s.r.t.p.t.k.x.p.r.s.p.s.k.c.k...l d m g O.B.A.B.P.V.t.L.B.1.] 2.L.].T.].L.s.P.c.P.n.! i 8 4 c i g I g } E.L.s.i.r.p.=.m 2 u h u g m C C Q ' ' r.} 7 m ",
"6...C E ^ 6.U h k.A.V.U B t.XXB.x.p.c.|.;Xs.=.E I ^ *.x.c.p.P m | ..1.v.E.M...U ,.Y.&XE.v.B.M.c.M.v.M.L.L.M.c.M.B.M.U 7 m Q Q M.B.,.Q M.Y.B.L.B.J.C.C.B.B.B.B.B.C.L.C.L.B.L./.M.} I g A v.'..XL.L.V.:.c c u c I { s.L.L.Y.c.V.B.=.E.B..X&X'.Y.G.i.1.c.E.v.M.M.B.T.Y.s.M.M.r.p.s.M.M.c.,.l 7 =.|.|.,Xs.g 5 m ' i.A.p...d l Q } L.*.' r.E.A.x.s.s.B.M.M.M.B.B.B.A.E.>.$..XT.r...B.L.B.V.L.v.n.r.G.c.1...U.,X1.Y.E.T.M.x.c.A.}.(.c.B.G.G.G.].].{.r.V ] G.T.c.v.l.! m g m 7 c.*XE.s.k.v.E.Y.p.s.c.B.V.c.s.c.v.M.L.E.L.i.1.t...c.E.L.|.'.p.5.1.Q m g i h ,.=.g ..Y.r.^ M.E.Y.s.U u P B.E | M./.A.L.r.M.M.L.M.B 7 u C i U =.U l m l ..2.T.T.v.' m i U p.,.Y.&X|.Y.s.p.r.p.x.x.c.c.x.s.c.p.p.M.M.s.i.,.' r.p.c.A.s.,.' ^ ' I } i.1.-.,.B.}.E.r.....L.p.P m ,.,.p.M.1.A.}.v.s.c.s.c.v.k.c.U $ - . * g i q 7 B m C 6.s.s.} M.i.B.v.p.Q ~ .Xc.r.s.x.M.M.s.v.2.M.x.,.r.p.V.P.u 5 c.x.p.=.=.E.`.r.E 5 ' E.|.0.) B.s.r.t.x.'.'.T.Y.U ~ >...g.x.'.c.B.Y.6.=...-.x.s.s.s.1.s.B.M.s.s.A.|.,Xc.6.1.i.s.x.x.x.x.c.c.x.s.p.p.s.k.k.r.r.V.t.t.s.k.k.s.k.B.v.k.B.r.h g u g m E.OXE.c.v.2.*.s.L.V.L.P.s.|.XXV.c.M.v.v.V.O.a h B H C h V g P =.E.v.I ..L.;XY.i.m m m A A V V U ' } ~ U l m C ",
"r.1.E Q ~ ,.' ' r.-.' y q ' s.@.=.6.M.`.T.6.M.'.E.s.p.M.s.1.' m i P =.Y.|.c.I i } T.!.M.v.M.A.L.B.M.B.L.L.M.M.B.`.B.^ A ^ ..Q r.oXi.>.M.E.L.E.L.B.B.B.B.B.B.L.Y.L.L.B.M.B.Y.C.-.A I } s.oX}.E.c.B.n.U K r...' 1.k.k.n.B.B.v.'.'.E.L.;X&Xc.E.P.B.p.v.M.t.c.L.l.|.'.Y.V.T.B.s.M.L.E.M.c.' g C ,..X&X'.=.g A =.c.Y.T.v.| ..c.s.s.E.v.x.`.E.s.r.r.s.B.M.M.B.L.L.L.T.L.R d Y.E.L.6.L.Y.M.B.L.v.B.B.L.O.m T :.Y.p.v.E.M.,.1.L.E.A.A.E.L.V.s.P.L.r...c C n.B.l.n.k.' c g Q ,...B..XP.Y.v.M.E.V.s.k.c.B.M.c.c.M.B.M.B.L.i.s...U ..t...-.OX&XL.p.| A P R I 7 ..r.1.,X}.U p.:XE.*.^ g l ' 1.g =.`.E.m.C.p.B.P.T.s.l i H ' P ] ,.' O.,.Q | O.x.E d y d l m A ..'..XL.B.m.B.s.c.M.M.c.c.c.c.v.v.c.M.x.s.B.B...Q E p.B.c.B.E.M.,...v.T.M.A.E.`.M.1.Q r.L...7 Q p.B.E.T.1.=.v.L.s.s.c.s.k.p.,.U l m A g g u I E g 4 m Y.,X1.A ..`.B.B.L.c.1.C.`.s.,.2.p.s.c.c.k.s.B.c.p.6.t.L.! 8 5 -.k.B.s.s.`.A.6.H m B B.s.i A v.s.s.B.M.M.s.E V s P F F i.E.&X&XE.Y.Y.s.} p.c.s.M.B.x.c.x.p.c.M..X&X.XM.p.i.p.x.x.g.s.s.g.k.k.k.k.k.c.c.x.r.s.2.s.p.t.s.t.v.B.V.T.T.2.I m E B h O..XV.s.,.v.v.v.'..XP.A.B.E.XX'.B.B.M.x.s.v.k.m i B I ] 2...Q ,.E.}.-.V ' B.1.,.1.Q p.,.^ Q } 6.A.'./.B.g.1.4.r.",
"M.`.Z.B.c.A.g.B.x.=.E g u m E H U -.B.P.s.} x..X'.L.'..Xc.,.x.=.C U P r.E.p.Q g ,.,X}.L.T.v.A.C.L.A.A.L.L.B.M.B.E.s.,.s.c.r...M..Xc.'.'.C.i.m.L.B.M.M.C.L.B.M.M.L.M.c.B.Y.Y.s.Q ..v.}.&XoXL.C.M.Y.t.h ..Y.s.s.E.L.v.L.}..X|..Xp.s.P.|.B.l.Y.r.1.v.i.r.Q ' =.=.!..Xc.x.v.c.A.A.M.B.v.M.1...,.i.L.M.,.Q m ..6.A.E.T.B.x.T.-.Q T.OXx.M.OX}.A.A.c.B.L.A.B.A.L.L.L.L.E.~ 2 5.v.E.1.s.P.v.B.B.c.c.L.r.h q I Q r.i.r.r...U Q 2.c.A.L.M.M.U.L.].' $ . 7 m s.r.c.c...M ' ..p.!.'.|.,XT.E.Y.T.'.B.v.c.k.B.M.v.M.B.B.M.v.M.s.1...U ..M.r.s.oXOX'.M.| E *.,.1.E A B.|.*XE.A g.`.1.E i.| 1.B.1.g 1.'.L.c.c.,.P.E.V.=.d g m d 5 ^ k.s.B.V.,.6.*.2.i 0 l h g d ^ s.}.L.v.L.B.c.x.v.M.M.c.v.M.M.c.M.v.v.s.x.L.A.r...A U A r.A.M.B.,.p.&X,X'.`.Y.E.r.g 7 =.s.E | 1.M.'.&X..d r.OXY.v.s.c.c.v.t.O.h g U s.r.U A r.=.d A s.T.>.l Q '..X|.E.s.M..X*XL.x.1.2.s.s.s.M.s.v.M.x.A.r.s.B.i i I 1.c.B.c.P.&X'.s.C m g S.p.8 U k.c.c.c.c.L.Q $ % 8 l k V c.:XE.E.A.T.T.1.p.r.i.p.c.s.r.c.c.T.|.E.|.A.s.x.c.s.c.c.c.x.s.s.x.s.k.x.k.k.x.k.s.6.v.s.x.s.M.V..XT.XX!.T.'.*.7 u C O.2.!.'.t.k.x.c.V.P.|..X!.`.!.!.T.B.x.c.c.s.k.c.c.J T r.t.p.V.M.B.|.E.v.r.} *.v...} I V B.c.*.6.v./.'.A.c.B.E.C.L.L.",
"p.}.(.E.Y.Z.s.M.M.s.r...B a c M U ..x.M.x.-.c.'.'.E.'..XE.v.'.1.U 6.6.M.x.P g d ..L.B.A.Y.M.A.C.Y.L.L.L.A.B.M.M.1.' 1.E.c...*.}.r.-.Y.E.,.Q i.Y.E.L.B.C.Y.L.B.M.B.L.B.L.v.p.B.Y..XoX|.&X.XC.B.L.L...U B.B.s.B.|.v.v.E.'.`.'.T.U B |.E.M.L.c.c.l.i.p.} i ' ..-.E.1.' c.}.P.Y.E.'.Y.s.| Q } ' E A U d m U c.M.E.E.E.M.c.E.=.^ `.T.v.x.T.|.|.E.v.x.L.B.B.B.A.V.A.L./.g.k E p.A.=.r.'.V.P.T.L.V.P.' q ! =.Q U A Q H m C I B l | m.B.M.T.V...; O . g C m ' B...B B s.}.}.&X}.E.Y.c.s.B.E.}.B.B.c.k.B.B.M.M.B.M.v.M.B.v...-.} =.P.Y.]..XE.L.s.| | 4.,.T.v.I 1.c.r.,.} '.}.,.Q B.6.`..X| ..|.&Xc.s.x.c.c.c.-.P y B m 0 U p.E.'.*X.Xc.B.A.p.P j I =.M.E.'..XE.s.s.L.B.p.v.v.v.c.c.v.v.M.x.c.c.v.c.c.c.,.p.B.c.s...E.L.} s.E.&X;XM.1.c.B.M.B.E U s.:X'.i.A.E.:XE.V U A.`.L.p.1.r.i.:.E m m V A L.L...,.1.g ..'..Xc.,.s.&X:XB.B.r.E ,.&XE.k.x.p.t.c.v.x.M.s.s.p.s.A.1.s.=.g h O.c.T.L.B.XX!.P.1.A m ] g.^ A p.E.E.B.i.r.c.E U i.} V C P A.OXi.s.v.s.,.| p.p.p.v.A.s.1.r.1.M.L.B.Y.c.s.s.s.x.x.x.s.s.s.s.x.s.k.x.k.k.k.k.s.s.p.M.k.B.A.I P O.x.*.U ..I 2 2 h v.'.'.k.s.V.c.L.!.T.!.T.L.P.A.k.k.s.t.p.s.k.c.V.2.m O.r.r.v.v.M.Y..X-...C.i.p.B.c.,.E } P.B.A.p.6.,.,.5.r.s.x.r.i.i.",
"5.T.M.m.M.x.i.g.t.c.v.2.H g h B I ^ s.T.|.E.E.`.L.`.Y.A.E.L.|.x.>.L.C.A.i.F E ..=.1.x.B.B.B.C.C.L.L.L.A.A.V.B.M.v.s.A.T...A ..'.}.Y.L.}.-.Q r.c.L.C.C.L.L.L.Y.E.B.Y.B.C.A.L./.'.v.i.r.E.M.} ..v.V.1.M.:XE.M.v..X'.E.`.A.M.T.OXs.M.<X.X~.p.0.'...:.].U 7 l.O.m E u 2 =.|.OX&XOX.Xc.E d u I Q g m U u m ^ Y.L.A.s.,.v.v.A.E.Y.L.v.A.6.r.E.'.B.v.c.B.M.v.M.B.A.Y.E.E.`.$.~ `.`.s.E.T.B.L.T.~.L.B.H m I T U } ..-.) A i l A V U $...' t.V.c = q h ! ) 8 T s.m g C p.Y.V.E.t.1.) ..,.2.v.E.v.B.c.v.Y.B.B.B.M.M.M.B.L.c.s.c.' -.E.E.OXT.m.c.p.4.g.L.A.:XT.M.| U t.2.M.:X}.4.P 5.>.L.*.F c.:X`.c.M.x.B.!.P.,.A 0 A E E L.'.`.v.r.....M.-.*.v.2.6.].|.T.;X'.c.r.s.v.M.M.B.M.c.c.v.v.c.c.s.c.x.v.M.v.p.' C I *.A.c.E.v.,.L.&X|.L.M.s.s.s.c.1.6.M.x.}.A.l 6.E.'.B.P m | r.M.s.i.p.2.E g u h g U v.v.r.c.Q 8 r.L.m.E.|.`.,XE.c.x.=.| 1.|.L.,.x.x.p.c.V.M.M.c.s.c.M.M.,.c.U 0 H L.!.t...=.E.'.2.U l P M.6.C r..X'.s.p.v.L.E.c.A.c.~ C ..r.c.^ l m ~ R } m.C.T.s.r.,...$.*.| p.1.r.p.r.A.x.i.s.s.p.p.p.s.s.x.s.k.x.k.k.c.c.c.c.6.v.r.s.E O   ; 7 = X = 7 u m r.E.T.k.1.P.V.r.M.L.V.L.P.V.M.t.2.p.k.t.t.k.k.r.=.I M { C U t.1.L.L.s...i.L.m.M.x.1.*.s.c.r...*...} ..1.p.g.i.5.,.,.,.",
"7.T.M.M.Y.Z.M.x.t.A.B.2.I H H U -.,.M.M.L.v.x.c.p.E.L.v.L.B.L.c...x.L.|./.g.g.p.L.s.L.E.M.B.A.C.B.A.B.B.A.L.A.v.c.M.c.| 7 C =.M.M.v.i.E.i.r.L.B...p.Y.E.L.L.L.Y.Y.E.v.p.M.Y.m.-.u U =.s.Q 7 g -.c.i.B.L.Z.6.E x.'.s.=.1.M.L.|.Y.!.P.E.r.c C =.7 u I $ B Y.) i g d 7 V Q ,.`.}.r.A * i 7 V ^ V s.6.*...*.B.M.x.r.A i.E.M.p.s.c.M.c...r.E.L.c.B.L.L.B.M.M.B.A.L.T.x.m...~ .XB.1.T.Y.M.v.V.E.M.1.m A B { 0.L.}.E.}.s.' ..c.B.B.r.U E ] s.A u q I T.) q { v.H g K B.-.2.v.1.1.B I U O.i.E.v.B.c.M.L.M.B.B.B.M.M.B.L.B.M.L.' ..}.,X}.i.x.L.A.A.L.T.OX`.c.|.c.! p.}.&XE.m.1.P ~ I r.R | E.T.g.m.T.m.c.M.x...Q ' v.T.!.T.T.c.| h 5 P c.^ ! T.M.c.].v.1.E.x.>.p.M.v.B.B.c.x.x.c.M.M.M.v.c.M.c.M.v.c.c.-...m g Q Q E m E M.|.T.c.s.i.p.M.Y.p.V.B.c.r.V P c.,X'.`.Q A M.'.Y.P.Y.M.i.} ' =.Q u -.B.v.B.V.p.x.s.g.(.&XA.p.C.s.6.B.v.1.s..Xx.6.v.M.s.k.B.B.c.c.x.L.L.s.=.s.m 5 ' ].n.B y i =.T.H m g | A.x.6.x.|.}.}.}.E.p.,.c.M.m m ' ,.m.| s m - A i.5.i.p.r.=...U P } =.,.-.=.x.s.,.c.s.c.s.s.s.s.x.x.c.c.x.c.c.s.p.s.k.k.s.p.t.k.-.$ : 8 * X : 2 ; * i I ....E B B O.O.r.r.s.p.v.V.B.c.1.2.r.s.t.p.v.k.O.M a B T i ! x.r.OX'.*.i.L.g.C.p.p.,.c..XB.1...A $.1.s.c.g.6.4.r.p.p.r.",
"5.Z.m.Z.T.Z.B.6.c.`.L.r.! ' { =.E.B.M...Q Q =.c.M.A.s.x.A.L.6.| 6.B.}.(.i.5.x.Z.m.M.A.L.B.C.(.Y.B.A.B.M.L.T.A.x.,.p.6.U g 1.L.Y.C.E.E.E.L.E.}.B...p.L.Y.L.Y.L.M.E.E.i.} } ..$...g I Q ,.' m C ..'.L.L.Z.T.6.Q 1.s...P =..X'.A.s.' t.'.-.g h ' O.i * < k.p.i h C l u 7 * : 7 A 7 2 * i g C A I A.1.p.1.=.c.L.L.T.1.6.B.x.} -.M.c.p...E.E.i.s.s.M.T.L.B.B.B.B.B.B.L.C.p.p.OXL.s.T.E.E.B.Y.!.v.T V ' p.~.'.P.P.'.;XM.v.'..XL.Y.`.c.G.' a q g i T ~.A B u.~.] C :.G.1.v.Y.M.M.' A A =.r.E.M.B.c.B.v.v.B.B.M.v.v.B.V.B.s.c.] =.].3XB.,.Z.`.C.g.*.} B.1.i.L.T.s.,.OX.XY.A.M.| E m r.c.5.oX/.L.m.x.x.c.s.k.=.O.6.T.A.s.,.E d y 0 u C Q H E A.A.'..Xc.s.L.r.=.c.C.M.B.s.p.s.x.c.v.c.v.B.c.v.c.M.v.c.c.1.r.| V V ..i.*.6.|.'.s.=.*.,.p.p.B.B.B...v.c.l V M.|.r...U M.;Xx.M.P.V.p.1.-.1.v...B B.P.B.L.v.v.B.s.A..XZ.6.i.6.x.r.'..Xx.L.2Xs.c.v.B.v.k.c.M.c.6.s.v.x.2.1.1.y h I ' B h E l | *.7 C P ,.x.A.T.&XOX'.|.Y.p.} ..v.E.1.L.E.c.x.r.r.6.E g.`.^ l C m ' p.r.r.s.6.1.m P 1.A.s.x.c.v.c.c.c.c.c.c.v.c.k.c.c.s.t.t.p.p.x.k.1.B.6.8 7 y g 8 u B g u g h H E m B H U | k.t.s.s.c.c.s.r.=.2.r.t.t.s.M.k.| H B d j I r.c.].'.p...g.c.r.m.>.1.r.E.Y.6.r.p...p.6.5.r.p.g.s.p.p.i.r.",
"i.S.Z.Y.T.A.Y.i.x.`.P.p.' O.,.s.M.M.L.,.' ' 6.T.1.6.6.x.s.v.6.r.M.L.&X}.g.g.x.p.6.T.Z.C.A.M.(.L.L.L.B.M.L.T.B.p.1.s.r.' U p.s.1.}.}.oXM.E.;X&XM.B.Y.B.c.M./.E.B.Y.i.Q ' r.=.Q A A s g r.-.m A s.`.c.B.T.(.6.*.} U I m ~ Y.m.,...h ) 1.I m m ! ..c m ) L.} 0 K =.c.U A 6.' - - 5 = l g r.E.1.r.6.' ,.' U 6.L.M.c.Y.B.v.A.M.M.T.A.,.Q |.M.} x.r.v.A.B.B.A.A.B.M.M.A.B.M.M.E.L.A.T.L.Y.B.Y.E.k.g B c..Xs.u.c.L.|.1.A ^ A.'.i.,.p.1.s...= 8 B I T ) c ' P..X{ ' E...-.V.L.L.V.r.=.s...-.Y.v.M.v.L.c.M.B.M.c.c.c.B.L.c.B.p.-.}.&XL.r.=.Z.L.4...A V B.,.M.E.s.'.L.E.Y.C.Z.s.^ r.x.m.>.=.A.x.`.A.6.=.' =.s.1.....p.*.U ' m y d l C I B i ..V.r.Y.|.B.v.A.s.p.M.c.s.B.s.c.M.B.B.M.s.x.M.c.s.s.M.M.c.i...p.1.P d r.|.B.L.s.A.L.s.' =.B.M.E.x.x.r.x.p.-.U ..' g A -.c.U P 2.v.s.,.-.,.=.=.V =.}.v.p.s.,.m =.g.A.`.`.m.i.r.1.i.c.c.s.L.'.s.s.t.c.B.c.x.B.M.t.v.c.k.c.L.r.g B I g 8 c -.E L.*.g C U *.x.}.&XE.'.T.M.r.p.6.M.m.1.| 1.s.t...A.E.} | x.m * ..1.U 1.M.x.B.T.r.-.A g g 6.s.x.M.r.c.c.c.c.c.c.x.s.r.s.k.s.s.k.c.c.c.B.c.B.' h l I C m m g m ^ ' m O.t.U E 1.,.-.] =.t.x.A.L.c.s.2.t.t.x.x.s.c.k.O.m H j C s.c....Xc.d ..L.c.c.g.s.B.B.E.6.=.r.,.i.r.i.s.g.p.r.r.p.s.p.i.",
"s.L.L.A.L.T.M.*.k.!.P.T.p.=.A.v.M.A.B.L.p.*.r.s.U ..r.c.B.c.,...A Q ' M.m.Q } Y.|.L.E.L.B.m./.B.A.c.A.A.B.Y.v.1.s.s.x.,.=.1...=.|.'.M.B.B.p.Q ' Q L.A...' ....=.1.' | s.B.,.A l l u P B...C C r.'.M.C.A.x.s.*.7 V m u g c.1.} H c A A h i T 0.@.K ) ) 0.@.a ' T.E.B.L.c.I g m u u g ' P.v.! i.Y.s.=.* g Y.E.3XB.p.E.'.XXY.E.'.Y.p.`.OX(...x.Z.L.A.A.B.M.M.B.C.A.T.B.c.v.B.B.v.c.E.'.T.L.B.k.^ 1.'.L.!.M.s.Y.B.h I s.v.B.L.k.6.U ,.T g =.k.Q U ' p.E.Y...g =.E...i.c.V.~.v.s.s.B.T.E.Y.v.L.v.v.v.L.G.B.M.M.B.B.M.M.s.r.-.L.v.=.r.s.M.} E E V 1.}.XXE.Y.B.s.v.L.v.v.i.' l ,.5X|.B.c..XM.M.T.i.r.6.c.t.Q I ! ..' g g g ' r.O.r.B...P =.*.,.E.T./.T.Z.c.g.c.M.M.M.M.A.B.c.x.s.s.c.M.x.c.E.E.B.p.*.,.r.s.' ^ M.' m ,.x.:X'.| I ..c.}.T.-.s.p.B.v.A.B.v.} | B.E.x.i.c.L.v.i.1.=.=.i.V u x.r.P m ,.p.| p.Y.L.L.B.M.,.s.i.r.s.x.} ..B.r.p.c.M.c.s.c.B.c.r.v.B.x.s.B.M.,.i { 1.I A B I .XL.I A m =.|..X}.C.C.Z.M.p.x.1.x.=.g V =.=...F ,.^ 8 E r.s k Z.|.B.B.1.T./.,.g e m l A M.m.i.c.x.x.M.c.c.m.r.x.r.i.p.s.x.x.x.x.x.c.s.s.| m l m U Q 1.,.C ' .XV.k.c.s.r...-.k.r.6.r.V.V.V.V.c.k.0.k.p.p.k.v.M.k.6.M d i ! k.M ^ k.i B M.V.A.t.c.P.L.L.i...=.6.6.6.s.s.p.p.p.p.p.s.p.p.s.",
"r.A.B.B.L.L.v.1.A.`.T..XE.r.s.M.c.v.p.M.v.s.x.} C ' i.M.v.1.....} I $.v.~ Q i.p...Q p.L.Y.M.B.m.L.x.M.L.T.E.c.,.-.c.Y.v.M.B.x.M.E.r...-.| *.| | U r.t...Q A V Q =.| =.*.P g i g g V -.B.| g i ,.L.L.M.p.i.v.6.A m d m I 1...m U h K =.0.=.1.+.K :.' ] ] U c p.!.s..X!.1.,.M.L.{ m V E r.,...i.T.}.0.i I p.i.L.L.&X,X}.|.E.'.v.Q i..X,Xs.^ L.T./.L.L.Z.B.B.Z.A.L.c.M.M.c.B.M...g Q i.x.A.T.M.c.E.p.B.c.-.v.M...0 U B.Y.2.=.' ! -.Y.O.' r.,.V p.|.L.v.-...A c.3X|.M.E.|.G.=.2.M.E.M.M.M.c.B.c.c.c.L.G.B.M.M.B.B.M.c.c.L.=.E ..,.....A C =.=.-.T.|.Y.c.E.B.B.E.=.' v.s.=.u m E.p.p.OXi.1.B.c.s.L.c.r.1.U B U ....m m ' v.'.s.E.].V.`.M.C | m.T.g.C.L.c.s.c.B.m.M.C.M.v.c.x.x.c.M.A.c.p.x.6...' ..x.c.`.p.| c.-.1.M.OX'.6.m A A s.'.c.' 1.i.p.=.v.`.v.Y.|..X`.E.`.}.E.c.,...s.M.c.E } A.1.s.A.v.M.c.M.B.L.E.L.B.s.c.p.p.c.c...=.B.c.c.c.M.c.s.c.M.c.v.v.M.c.v.L.L.c.=.0.L.2.A ..V.'.k.I C ! T.,X|.V.C.Y.Z.r.$.6.r.A.M.r...5.g.' F | V A M.i.$.>.L.T.M.6.'.5X} 8 d d E ..i.T.A.g.A.i.1.s.M.i.p.p.c.s.s.s.k.x.x.x.x.c.s.x.=.g y m m C r.k.s.P.E.A.c.,.' =.s.s.B.`.E.`.!.P.c.n.V.k.r.r.p.k.k.k.x.x.p.6.d 0 ^ -.U d 1.| C O.p.p.t.x.A.M.1.s.r.1.i.g.i.6.s.s.p.p.p.p.p.p.i.i.i.",
"t.P.A.B.T.L.B.c.E.T.A.T.`.k.r.P.v.L.B.L.M.B.T.-.I ..6.p.x.x.x.c.M.v.E.M.I >.L.B.I I c.E.L.c.M.'.M.B.L.A.E..XM.| s.M.s.*.,.s.x.E.p.C u I Q 6.c.p.r.s.r.1.1.6.i.M.i.| Q l 7 m P A A A =.x...U =.c.B.c.s.M.A.s.-.*.Q ^ ..p.L.v.P g m 0.k.L.L.G.p.1.L.V.T.p...g ..B.M.Y.-.I v.E.v.I H Q Q O.-.p.=.r.P.c...Q B g i u }.'.B.B.c.Y.'.B.A.'.'.$.} g.4.C.Y.L.C.B.Z.Z.A.L.A.T.A.c.B.L.1.m P =...1.c.i.c.M.2.v.r.' v.B.-.A 1.B.k.U m 7 7 i.Y.p.c.B.t.g -.'.,.,.-.E.L..XXXc.-.c.}.p.2.'.XXL.s.c.v.c.V.v.v.v.B.B.B.n.M.B.B.M.B.M.B.I 8 I i.:...U Q *.,.r.M.B.L.M..X'.OX:Xc.M.E.i.6.} ..E...1.B.' ,.E.Y.,...s.=.} I E k.'.E.-.r.v.V.p.Q s.M.E.`.|.1.g.C.m.p.;X'.M.i.g.M.M.M.Z.c.c.c.c.c.c.M.A.c.U 7 * 7 E 1.M.A.A.=.} E.Y..X|.v.s.' g U ,.L.M.x.=.s.x.,.E c.`..XE.v.p.x.A.L.v.L.M.c.' Q r.B.i.s.r.U i.1.' c.c.L.=.| B.`.`.B.s.c.x.s.x.p.x.L.c.B.c.c.c.x.c.M.c.B.x.s.v.B.L.Y.A.U.U.G.B.c.G..X.XE.M.c.v.}.E.L.B.M.M.6.| ..c.B.T.OXE.,.i.`.M.'.E.p.B.L.U r.`.M.,.=.C.C...u 8 s ..*...E | B.s.6.Q A ..Y.M.x.g.p.g.c.c.x.k.k.x.c.v.c.s.U 5 d m A ..B.-.!.E.| ^ | h m E 6.v.T..X`.T.V.G.v.G.G.k.k.k.k.k.k.k.k.k.p.r.| ,.k.t.,.*.A.k.v.M.6.`.T.V.s.1.1.x.c.s.r.r.i.s.p.p.p.t.p.t.p.p.t.p.p.",
"r.`.T.L.T.V.M.L.!.V.A.A.T.T.V.'.'.L.Y.B.s.B.E.M.x.c.s.s.s.p.s.B.Y.B.B.1.' Y.}.B.B.c.E.E.L.C.v.L.M.A.E.Y.E.E.r.E 1.,.Q U ..=...1.B.' 7 I ,.s.s.v.B.c.r.r.B.|..XT.p.' V y m } ^ ^ s.x.-.x.E.r.v.A.B.B.B.B.M.c.1.' ..i.x.B.M.r.^ P { ].P.E.:.r.P.V.n.V.:.C { ' +.T.s.-.1.r.;XY.' g r.B.p.B.E..Xr.=.I } ,.r.i.r.r.=.Y.p.-.,.1.k.E.'.E.'.Z.R ~ ~ ~ Z.L.A.B.B.M.B.C.C.Y.C.c.x.c.M.v.x.E.E.x.6.M.s.M.c.v.c.c.1.p.V.V...! M.p.7 = i A 1.! r.v.].*X,.-.'.E.'.Y.,X,X}.s.' A c.;Xi.s.&XXXB.s.c.M.c.L.M.M.B.M.M.B.v.v.M.v.c.v.L.v.U g A 1.s...} | Q U ..s.Y.'.!.T.L.c.v.E.&XOXp.1.=.s.E.s.B.s.^ i.B...| 1.,.' A m H t.E.Y.r.,.s.B.r...c.c.Y.A.}.M.,.Y.g.x..X.XA.i.i.m.A.B.m.v.c.c.v.v.x.c.M.6.g 2 2 - A ,.=.6.^ g U B.c..X`.`.1.m Q =.E.x.6.s.s.x.-.A l p.c.v.v.,.P U =.r.6.P Q c.' C ,.p.' ..1.*.p.....v.p.B.,.Q >.M.E.T.v.v.c.k.c.B.L.B.s.M.x.c.M.c.c.M.M.c.s.s.v.M.B.B.v.n.:.Q c..XB.c.v.O.v.,X&XE.M.c.c.g.i.$.} 6.A.L.C.L.s.>.p.i.i..Xc.I g.,.s Q c.,.=.} U m y g V k ^ F d u U r.s.5.l V P x.p.x.M.i.c.x.x.k.s.s.s.x.c.v.v.A 7 m j A 2.v.!.'.U d u 5 m I ! 1.c.T.|.].!.V.!.L.V.n.k.k.u.p.k.k.k.k.k.k.p.v.T.v.p.T.x.v.L.T.XXP.'.B.v.6.,.M.x.r.6.p.x.s.r.p.p.t.i.i.i.i.t.p.p.p.",
"' B.P.A.L.x.k.V.B.2.B.E.A.P.B.c.c.*.M.L.L.L.,...E.L.A.L.s.| =.L.L.B.'.B.1.'.'.s.E..X2X'.c.m.c.v.E.v.A.E.B.*.C A Q U A ..s.i.-.6.A.s.m E i...A ,.M.x.p.s.L.'.B.....' U u d V A r.2Xs.A..XE.p.c.} *.I ..M.M.s.i.-.*.r.T.V.B.s.] ' T.E.V.P.-.B.'.c.n.E.{ g ' c.k.]...} Y.s.B.p.I g ' c.=.i.s.i.U m B m ] B.}.p.V.P.p.U g K t.B.p...r.|.c.g V I 1.E.V.B.B.M.M.B.B.B.B.M.v.M.M.c.B.T.}.T.B.1.s.k.s.c.M.c.P.M.i.v.Y.=.1.E.Y.Q u i H ..i.V.G.&X'.] A c.;X].c.v.Y.! m m s..X&Xc.}.&XP.B.k.c.M.c.B.v.v.M.v.M.B.M.M.v.c.k.v.B.c.Q i m r.B.-.A U I i ..E..X'.B.s.=.Q ,.P.E.L.B.M.6.r.s.B.M.,.m A 1...U | ' U m h u m V I I m ..E.B.V.L.V..X`.A.*.g c.c.A..XL.M.s.s.c.A.B.c.M.c.c.v.c.s.s.c.v.I m m 7 U r.| U A g V *.1.'.T.s.c.M.B.x.|.p.c.x.v.s.' g A x.s.d l A U P d l ' P l E A =.x.Q 5 P E.V.=.1.v.p.v.s.'.x.^ } ,.v.v.p.c.M.M.v.c.x.x.c.x.M.B.x.s.c.M.c.c.M.M.c.M.M.k.1.M ! '.V.p.P.=.g ] ;X'.B.E.M.1.i.6.,.6.c.v.v.M.L.i.,.M.s.c.i.V g r.1.=.p.x.c.M.^ g d g I Q B P U A *.r.C P ^ s A i U g ' x.p.x.p.s.p.p.p.p.s.s.x.L.I 0 C B U ..A.OX,.d m 2 i B H I | k.L.].OX].k.c.2.-.-.1.s.k.k.s.s.s.k.k.k.s.x.s.M.A.c.=.2.r.B.t.-.-.p.v.s.M.Y.A.B.B.v.x.s.p.t.t.i.i.t.t.t.t.p.p.p.",
"u ,.M.A.A.c.v.A.M.O.x.P.c.s.2...A P B.E.B.6.U ..Y.`.E.M.s.i.c.E.Y.oX.X/.Y.Y.i.1.v.'.'.L.c.Y.E./.E.B.B.M.r.U i V ^ E E 1.v.p.p.c.6.L...1.s.A 7 ..c.,...=.,.=.' A U 1.L.1...*.-.OXc.m M.|.M.A.E.L.`.I A r...d g A r.1.p.g U B.6.s.'.G.v.c.n.L.:.L.!.~.s.l.p.n.c.E.E V =.V U 2.Q 0 V p.-.r.O.I g u m m ..c.Y...p.T.-.I i i -.p.O.' p.&Xv.Q 1.x.E.E.V.B.B.B.B.B.B.B.B.A.A.A.L.L.L.B.A.s.c.i.B.Y.x.c.p.v.L.k.k.v.L.s.M.c.c.B.r.U ..V.V.s.c..X=.g m c.c.} m I -.g E v.M.V.c.E.5X|.p.c.c.n.B.c.B.c.v.M.M.B.V.B.M.M.v.c.B.p.c.,.U =.'.v.' ! B g U M.&X!.!.p.c.=.,.}.E.B.s.A.E.L.6.A ^ E l 7 7 ,.B.^ g m g i I A Q A m g g ..E.p.s.2.M.;X/.s.P l p.M.i.Y.-.i.c.M.M.B.B.m.c.s.s.c.c.s.s.M.E.' d g i I -.' A C d u | '.,Xc.r.s.1.l ,.'.M.s.M.B.M.i.=.,.M.c.6.Q d d l i H p...A i d s.1.i C m s.r.U ..E.L.E.A.'.s.,.s.,.r.p.c.s.c.s.s.x.p.s.x.c.B.M.s.p.c.c.v.M.B.c.s.c.M.k.E Q B.#XO.=.~.] h ! |.B.v.E.s.| 6.,.,.x.E.B.B.L.Y.s...6.M.L...Q s.p.*.-.L.r.L.v.' p.,...B.r.Q r.c.B.Y.|.,.l 2 g i g ' m ^ c.x.x.s.k.k.s.s.s.k.k.c.x.M A *.^ ,.s.P.1.C u d g P g l d P x.].|.L.-.K K M B B C ..l.M.v.c.c.c.s.p.r.s.6.B.V.6.1.s.6.O.B U *.L.L.c.`.C.c.v.M.s.i.s.c.p.p.p.p.p.p.p.p.p.p.p.",
"i -.M.A.V.B.L.A.P.s.M.A.v.v.t...g ' s.s.,...=.L.E.&X|.B.M.T.E.T.&X,Xs.s..X|.p.v.Y.M...c.}.,X;XE.B.T.L.r.,.,.*.=.L.B.L.&XOXE.`.Y.B.&XL.A.1.A U 6...P l V A V l m 2 Q Y.c.r.M.s.M.M.B.L.c.T.s.1.OX;Xs.*.| P m m l ^ x.v.' =.E.B.T.B.!.V.s.r.I g B.1.r...l.n.B.B.L.=.=.s.p.T.,XL.{ } P.E.L.s.=.' ' ,.s.!.L.E.L.M.Y.G.c.1.Q ..I A r.&X,XT.M..X:X.XL.B.B.B.B.B.B.A.A.M.B.M.v.B.L.B.s.c.p.p.M.Y.T.c.s.s.M.B.p.M.B.L.M.L.E.E.2.-.-...v.Y.c.L.&X1.A I i.} g h -.-.7 g Q Q =.p.&X}.] ' s.v.M.V.v.V.v.v.M.B.V.B.M.v.M.M.M.M.s.L.!.Y.L.E.' g ..B A B.&X|.'.E.s.M.c.T.].i.c.B.M.c.A.Q 5 u E Q l Q ' Q c.M.E m V ..} p.t.-.E U 1.B.s.v.s.M.L.v...g U x.M.I E } ..6.v.B.M.c.M.c.p.p.c.c.s.c.B.c.*.l I | A l A ..I V I r.,XE.^ ,.x...U Y.M.r.c.c.M.M.s.p.x.s.c.T.`.s...1.x.s.p.g C ^ -.B...B r.r.B.c.r.,.A.x.' c.=.Q p.'.p.c.M.B.p.s.p.s.M.s.s.c.M.B.c.p.s.M.v.c.c.c.s.p.c.M.c.C 0.P.c.I A ..B i ..E.L.L.s.} ^ ,.=.-.x.E.c.M.M.M.x.,.4.c.p.i.E.E.x.6.1.B.r.Y.T.p.p.L.:X&X....B.r.p.s.T.E.' - u u Q L.M.A.Y.M.M.c.c.c.x.s.s.k.k.c.,.d | r.' x.T.s.1.U m U E d E ..Q ..T.&X'.v.! U K h h g 7 g H ,.2.t.x.c.s.r.r.k.x.k.r.r.x.x.p.l | r.6.A.L.A.A.6.U C Q ,.s.c.p.s.s.s.s.s.s.s.s.s.s.s.",
"Q k.L.V.c.v.A.c.B.L.L.M.A.E.c.] u ' | 1.M.M.v.s.L.`.OX*X.XL.L..X}.E...' Q ' ,.M.Y.B.=.E.oX'.E.B.B.L.M.r.s.Y.E..X|.E.L.`.L.B.T.x.'..XA.s.A A c.E.^ I A ^ *.' A l V U 6.P m c.A.r.L.L.s.L.c.,.L.T.M.L.'..X}.s.Q d I p.' E.&XE.B.B.|.B.@.c.0.I :.' u B.n.s.B.v.n.c.! V.|.|.E.P.c.O.s.|.,XE.L.L.M.B.E.V.B.1.B.&X,.' E.B.B.M.T.' U '.,XOXE.v.Y.'.B.x.B.B.B.M.B.B.V.A.B.M.M.M.B.B.v.s.c.L.B.}.Y.M.A.Y.B.B.P.B.V.M.k...c.'.'.U A } Q E.M.Y.}..X~.r.) ..U 7 V s.,.Q i.p.1.M.Y.,Xr.g Q t.c.v.B.v.V.c.v.M.B.B.B.v.c.M.B.L.L.L.v.v.B.*.Q i A Q U B.,XE.Y.}.v.s.1.L..Xr.] Y.v.B.M.L.C C U c.L.E C 7 C A.|.}.s.i.k.' 1.c.B.s.p.L.M.M.'.].B.O.E A l Q p.c.Q } ..Q ' p.A.M.c.v.c.p.p.x.c.s.c.L.M.*.- I '.i.C E A.r.c.`.L.B.E g A v.I P Y.L.r.1.c.v.s...=.c.x.L.E.,.I *.L.c.*.=.A ' `.,XE.-.-.c.r.T.p.s.c.B.r.P V u u Q -.} B.`.M.p.B.M.s.c.x.c.c.M.M.x.p.c.B.M.x.s.s.c.c.M.M.c.=.B.E.v...B B c } v.E.M.L.| P ,.*.1.p.c.x.' ..,.6.U P ,.A.c.L.L.x.x.M.'.OX`.c.s.M.c.E.}.r.d ' c.E.c.`.L.p.g.v.Q A Q M.`.|.A.p.s.c.x.k.p.r.r.t.p.p.,.l ' ^ C r.s.r.s.=.B.1.g C ..V.c.M.'.T.B.T.B.v.:.M g H B i * j H ] 2.p.p.s.x.s.x.x.p.r.x.p.2.2.r.^ *.B.A.v.r...E Q | ' | 1.p.k.k.k.l.k.k.k.s.s.s.s.",
"6.E.L.s.B.B.c.V.B.B.A.V.L.L.T.' d C O.p.L.B.B.c.}..X.X'.L.M.A.E.E.E.Q I I k ,.M.}.&XoXE.B.M.B.M.M.B.s.x.E.E.L.|.E.v.r.c.r.s.^ ..;XE.1.U g r.E.T...Q =.|.E.B.1.l | s.M.^ ..L.B.M.p.I *.`.E.'.s.,.Y.Y.A..X'.' C =.B.=.A p.p.^ E ..M.i.Q } c.c.!.A.M.s.' s.B.B.B.s.B.L...V ] Y.Q I s.|.].c.1.L.E.'.B.g u i r.-.Q A p.=.p.i.E.v.B..X|.!.v.p.v.B.v.c.c.M.B.M.M.B.B.B.L.B.M.v.M.M.v.x.M.L.L.B.M.A.B.c.V.L.B.c.v.E.Q = 7 ..=.u V g A k.L.T.'.r.E 2.t.g 8 ! p.].].E.*X;X*XE.L.L.-.m B -.Y.L.M.c.M.M.M.V.B.B.v.B.c.B.v.M.B.c.B.P.s.Q =.Q ' 1.0.]..XT.P.V.s.r.v.L.G.1.c.V.B.B.A.r.^ ,.T.|.1.=.m A M.T.Y.'.B.E.|.s.L.V.s.E.s.1.L.&X,XE.2.i.E h V r.].P.L.2.s.r.v.E.k.B.v.s.v.x.i.v.B.c.M.T.A.U 7 ..B.i.Y.M.r.A x.s.=.U 5 u u d 7 U r.s.6.,.-...U E r.-.E 1.B.r.P x.i...B.E.L.'.&XB.M.A.Y.B.s.x.M.p.c.v.p.E *.6.^ ..U =.|.'.c.p.c.M.s.c.M.k.M.v.s.s.v.v.c.c.M.c.x.s.x.v.M.B.r.G.B.B.s.) I O.B.P.Y.s.6.p.1.E -.-.v.i.v.,.I ! ) 7 B p.B.2.r.1.=.v.,.=.v.-.7 =.i.,.E.p.g u Q }.&X'.|.=.Q 1.s.r.' r.].3XP.r.c.c.x.p.r.s.c.v.v.M.M.r.B ! ' I ..M.s.c.M.A.6.6.p.B.1.p.T.'.P.A.v.x.' a h U l.0.,.m 2 * g r.v.r.x.p.s.p.s.c.v.x.r.6.i.i.p.B.B.p.i.i.p.p.=.r.r.U I ..{ ..s.B.G.n.L.p.s.l.p.",
"..!.].L.B.B.V.M.B.B.V.V.E.P.A...d | M.c.i.1.L..X}..X.X|.E.L.A.A.Y.B.Q ' v.L.E.m.'.}./.L.M.M.M.v.M.M.s.v.`.E.L.`.x.*.C l P ' } B.|.x.A.c.p.M.,.,.Q -.2.v.B.A.M.*.p.M.B.' | B.B.B.B.c.B.`.r.,.x.L.T.}.E.T.6.m U s.M.=.=.=.m Q Q *.&X].=.i A v.'.E.c...' G..XT.M.L.P.p.m E M.Y.' I i.P.c...I ..c.v.,.I ' ..i.c.,...p.p.M.M.M.Y.L.T.!.A.-.E ..i.c.G.B.B.B.v.v.M.B.M.M.M.v.c.M.B.M.c.s.B.L.M.s.x.B.Y.v.v.V.E.!.B.U 8 u u 8 * * i g ..!.B.B.m 8 U U B r.1.-.2.1...=.r..XL.c.k...V H ,.L.L.M.v.M.B.M.V.B.G.B.L.M.V.M.B.E.s.s.L.v.A h B r.1.r.].L.V.~.v.B.l.n.V.v.:.l.V.B.s.M.A.1.Q U I P i.A.r.i.'.B.U g V Q V =.B.c.v.1.M.v.;X'.v.Q ,.k.v.B.!.P.} 1.}.v.p.c.L.M.p.c.B.c.x.x.M.M.c.M.B.6.V g ....x.'.,.*.,.B.' g V E g ..U g m ,.r.Q ..| ' Q *.p.' g } E.6...p...x.,X'.Y.p.r.=.,.6.,.r.B.v.c.x.c.c.A.1.r.L.s.p.`.|.}.T.v.p.s.c.s.c.B.c.c.v.c.c.B.B.M.B.B.M.c.c.c.v.v.v.r.c.v.n.1.H E 0.B.B.L.v.p.p.1.} 1.1.c.M.2.V g ' -.} k.L.V.k.r.-.} s.v.' r.} =.2...V r.' 7 A B.XX'.1...Q ' 1.! A B c.}.|.E.s.i.s.x.s.p.k.c.c.c.v.M.1.P *.P m t.B.|.OX'.L.c.P.T.T.x.c.E.M...p.L.-.0 i m 2.0.2.-.:...E O.M.v.i.c.c.s.s.k.c.c.s.p.s.p.s.s.M.B.c.s.r.1...' r.s.,.} A 7 7 K { +.T T 2.O...l.",
"U V.T.T.B.x.P.B.V.A.B.B.E.A.p.Q C *.L.L.v.i.L.|.|.|.|.}.E.L.M.c.M.s.} =.L.}.'.B..X}.Y.B.M.B.v.s.M.c.x.B.E.E.L.B.,.m g l U r.'.|.E.v.s.'.L.r.Y.r.i.|.v...r.r.s.E.p.s.v.,.-.B.A.B.M.;X.XY.r.M..XE.E.L.v.M.,.C m U c.x.T.M.r.c.Q x.1...A 7 d *.} s.Q Q =.2.B.T.E.}.L.c.1.s.}.L.} ' '..Xv.] g V M.E.v.k.s.c.B.Y.r.p..X}.E.c.v.}.L.1.L.v.Q 7 B -.c.V.Y.L.B.v.v.B.B.M.M.M.M.v.M.B.B.v.B.M.c.v.B.B.M.c.L.v.v.Y.B.' m 0 V 7 = 7 g H Q Y.}.s.r.g i V h E E.-.1.-.A E 1.i.}.B.s.p.,.} -.v.L.L.M.v.M.M.v.B.c.M.M.L.v.B.v.B.l.v.].p.g g A u Q 0.c.XXXXT.L.B.G.v.v.B.l.:.k.B.B.r.x.Y.x.| I C A C =.A.E.'.B.=.] I I g ..B.L.V.,.T.'.}.v.B g i.,X.XM...A g O.v.B.V.c.k.E.v.B.s.c.c.B.B.c.c.c.r.g - 8 ' r.E.p.l =.E.p.g =.1.r.x.M.c.c.1.s.=.y V | ,.s.c.p.U g ,.x.x.x.T.OX&XA.c...I E A d l C 6.A.s.x.E.'.Y.&XL.B.k.v.M.`.A.E..XY.c.s.s.x.c.M.c.s.c.v.v.M.M.c.M.v.c.c.c.c.c.c.k.0.t.n.B.+.c ) p.B.c.c.k.s.s.x.s.c.c.c.p.A u ' c.i.c.'.c.:.O.-.-.Q 1.B.c.L.B.s.s.B U p...=.k.].L.c.1.,.i.s.L.-.] s..X&XE.B.p.p.k.p.p.s.x.x.x.c.c.c...u ' U E P.T.OX&XP.x.s.L.L.V.*.*.p.B.-.' ^ 2 i c i ..) ..:.Y..XB.'..XA.x.c.c.s.s.x.c.s.p.s.c.r.v.M.M.s.i.v.B.=.g u ' ..U A i * 7 ; = = = 4 I H T L.",
"U M.k.V.`.v.P.T.L.V.V.A.L.L.6.m u m *.c.'.T.E.E..X}.`.P.B.v.x.s.s.i.i.c.Y.E.'.;X|.'.L.B.B.C.M.c.A.c.M.L.L.L.A.v.-.Q | =.c.;X,Xs.6.r.M.B.T.M.L.L.|.T.-.m U U 1.T.T.B.T.M.x.A.A.B.|.|.E.}.|.E.T.V.B.c.s.s.' V } p.x.M.L.A.OXY...M.C u V =.i.} 7 I B c.-XL.V.'.&XY...O.'.B.v.-.m ..&XB.O.H m B i.1.B.B.p.v.|.L.] p.T.-.) ' E.Y.p.Q ' ..A g O.Y.E.Y.L.L.M.c.v.B.B.B.C.B.B.M.B.B.M.c.M.M.B.A.B.v.M.A.M.M.L.E.M.A h i U p.! i B A O.V.U i h E -.H B Q L.}.p.) -.i.c.;X'.V.c.s.p.t.v.E.L.L.B.M.B.M.c.v.s.v.c.B.k.v.v.B.M.=.r.U 2 u m g ..T.].].].L.L.!.V.c.c.G.n.p.c.B.M.s.c.M.x.p.r.1.,.' I x.}.}.'.}.Y.r.' m U I m H ..E.XXs.-.' 1.&X.X' A I g H c.V.E.M.Q } L.M.L.M.M.c.L.B.c.B.s.^ - 2 ' E.&X,XL.x.M.M.s.| B.B.L.B.x.x.A.x.L.x.Q E I r.Y.s.' C Q A.B.E.,X3X.Xc...' ' m m g 7 l d | v.-.=.A.L.i.'.c...s.M.s.M.E.&X}.L.c.p.p.s.c.c.x.x.M.M.v.M.c.s.s.x.x.s.x.c.c.c.c.r.0.B.V...B :.l.p.6.r.p.s.c.B.L.s.-.A g 7 =.v.r.i.p.1.! Q ..B.E...-.c.v.B.1.m ,.p.....r.Y.B.t.....' =.c.c.s.p..X|.}.E.L.1.-.l.s.p.s.s.s.s.p.s.x.k.] i =.c.B.'..X].'.A.v.v.c.x.v.' c.T.|.r.d u i B C A @.G.P.].,Xp...k.L.x.s.s.g.s.s.k.x.s.p.s.c.c.s.r.v.T.Y.L.c.-.B i A V 7 q i m T 4 2 ; < q q u ..P.",
"U c.| =.E.A.A.A.L.M.L.P.V.E.s.l 8 d ' r./..X;XOX!.E.L.M.c.s.x.c.B.m.Y.E.}.}.E.}.Y.C.B.B.B.C.C.B.T.B.Y.E.L.A.L.M.M.T.r.,.L.T.} i ' p.s.p.E.x.p.B.p.g d m U ,.`.E.|.L.L.B.c.L.'.|..XE.E.E.|.E.v.A.v.s.6...m C ,.s.L.E.A.B.E.6.B.c.A =.B.T.M.A i A P L.&XE.B.M.E.r.A A V.V.M.=.Q B.'.=.I u 0 V 1.s.c.c.L.~.].c.i.E.1.m 0 E |.r.I A i g C :..X,XE.n.v.c.l.s.k.v.B.B.A.A.B.M.M.B.M.c.c.v.B.L.A.A.Y.`.P.'.!.V.r.m V g ..Y.-.=.] h 1.V.! m ' M.E.c.s.s.B.}.=.U -.r.B.|.P.M.k.s.s.c.v.B.B.B.M.M.B.B.c.v.v.B.M.B.c.M.B.Y.'.-.i @ 7 i 0 2.1.B..X'.c.B.'.B.B.c.l.L.G.c.B.v.M.M.B.M.c.i.-.' r.v.*.s.r.s..X.X,X}.p.' 1.Q g m ' '.;Xs.] ].B.c...Q p.B.Q K 2.V.G.-.c s.XXn.p.B.M.s.M.x.s.M.*.d y y x.E.M.M.B.i.p.c.B.L.B...s.i.c.p.c.M.`.B.,.m i ..c.*.l g | `.v.}.Y.s.6.Q V I Q g m I U ' U -.c.r.p.`.c.E -.E A A.v.E.2X&X`.B.s.s.i.i.s.v.c.c.M.A.B.v.M.M.c.x.c.x.x.x.c.c.v.v.l.s.G.c.@.Q k.c.=.-.i.c.c.M.c.r...A g 4 7 O.Q g ] :...=.l.l.L.:.A ' B.c.p.g B 1.' { c.!.:.,.p.0.' 1.G.B.E.E.P.L.0.s.M.M.0.0.n.k.k.x.s.p.r.r.p.p.1.U ..!.OXOXT.E.k.c.v.c.s.1.-.1.i.&X*X'.s.| *.] m ) s.P.5X;X.XG.} m } i.i.s.p.g.s.p.p.s.s.p.p.p.p.1.1.L..XE.B.p.v.v.r.] ....) ! s.@.Q T g h 4 * 4 s.k.",
"^ k.U B x.P.T.P.P.B.L.T.B.E.p.H *.s.E.L.}.&X:X`.B.B.B.M.c.c.M.B.E.E.'.E.E.'.L.c.B.B.B.L.L.B.B.L.T.L.T.E.B.B.L.A.E.}.x.v.E.A.*.U r.6.r.'.L.-.B.s.A l P ' r.A.E.'.E.B.c.M.L.'.&X:X}.|.;XY.E.|.P.L.s.6.Q l g E ^ u ,.Y.L.T.E.I -.,.c.OX&X'.B.| r.,.r.`.L.M.B.B.E.,.I ..v.E.}.L..X,Xv.' H g h Q r.P.n.s.!.v.I A v.'.'.}.M.Y.|.v.=.1.H u C v.-X'.k.s.l.c.c.l.c.n.B.B.B.B.M.v.v.M.M.v.v.B.L.E.E.E.L.L.p.s.,.Q m 0 g m A Q m B.=.} L.B.B.2.v.1...V.Y.'.,X}.Y.'.s.s.,X}.v.k.s.c.v.v.v.M.v.M.v.M.B.B.v.M.B.L.M.L.v.V.V.E.M...7 X 7 H h ,...r.~.'.E.!.U.:.s.s.p.G.n.l.c.l.B.c.c.B.c.*.A g -.s.6.s.U *..XE.'.Y.=.I s.L.v.c.s..X.X,.I 2.Q i { p.B.V.B.n.r.v.1.=.O..X&Xs.{ -.M.r.s.6.1.i.I * i ..'.M.x.x.1.U C | | T.M.g 1.M.M.L.|.|.OXM.M.1.Q ,.v.1.U Q 6.'.B.|.s...1.C g 6.s.*.,.B.A.s.1.M.M.v.L.E.1.g I m ..L.c..XM.Q } 6.6.c.v.x.c.M.M.v.M.B.M.c.M.B.M.v.v.c.s.s.s.x.c.v.c.c.L.s.1.) 2.1.r.t.c.v.v.c.1.! = = g c g m u I ) k.G.P.~.B.c.B $ C @.l.U g c.t.E :.L.].p.c.t.s.0.G.].n.B.c.1.m I v.L.c.s.s.l.s.t.p.p.t.p.s.s.t.E 7 =.E.s.A.x.1...=.p.6.1.,.r.1.k.v.v.M.c.E.|.,.2.~.-X#XE.n.d.1.r.Q ' 1.i.r.1.r.s.i.i.s.x.s.i.r.1.-.1.B.L.s.s.v.x.s.-.} r.n.r.r.2.! c.2.' 0.B c m B...",
"1.s.O...v.L.L.P.L.L.L.L.A.L.1.=..X:X2X.XOX.X`.c.M.M.M.M.M.B.L.T.Y.E.E.L.B.Y.'.Y.Y.L.L.Y.L.M.M.L.L.V.A.A.M.B.L.A.M.p.c.`..X.X;XL.Q 5 1.Y.} Q Q | =.M.B.s.c.s.=.c.}.E.B.L..X&X|.Y.&XE.`.`.`.c.c.L.p.6.Q l m Q ..A Q B.T.'..X=.' 6.|.!.s.M.M.r.c.=.B.}.L.B.B.Y.M...' s.v.P.E.E.3X'.B.t.1.M.P.L.v.c.|.'.E.s.V ' E.|.}.;X}.P.p.=.i.B.-.I ' B.'.G.v.n.v.B.G.B.n.B.B.B.M.M.v.c.c.M.M.M.p.L.`.v.=...r.M.H h i 7 7 g g m A ,.-.E.=.L..X..i.v.v.Q A P.T.|.|.,X&X|.L.s.B.P.s.s.c.M.V.B.M.n.c.M.v.v.B.B.v.M.M.B.v.B.v.B.B.L.i.m ; g H T h I l.c.!.'.#X~.n.=.] -.0.V.l.k.l.k.v.s.s.M.c.*.Q ' p.L.M.r.U M.`.r.,.' V V p.XX,XY.V.}.i.g u g T K =.c.c.i.{ m i n.c.v.B.v...I ) @.} E ' U Q ' u * i B.&XA.L.M.,.,.Q 7 I Y.1.| B.B.E.B.c.,.r.Q ' r.x.A.`.s...r.L.|.c.=.L.x.C $ 7 *.^ A I p.'.L.B.v.c.s.s.-.U g ' ..1.B.L.i.i * A P ,.A.E.M.c.B.M.M.c.B.M.x.c.v.c.c.c.c.s.s.s.x.x.c.l.B.B.0.2.T O.1.M.v.M.M.x.r.' m i i a i K c u ' r.c.].E.B.B.P.s.i g q { = g :.{ c.l.B.B.=.) K B.E.r.-.1.O.K I I } G.L.s.s.k.p.:.6.6.r.p.k.k.6.=.d 5 =.r.g Q ,.O.U h A H I ! 1.=.r.-.1.t.t.M.L.p.n.].~.n.=.8.l.p.' V m ..p.,.-.r.s.i.i.s.c.s.i.r.i.=.' 1.c.x.c.s.v.1.-.,.c.P.G.E.B.n.<XE.n.l.K c r.l.I ",
"6.,.s.E.T.p.=.-.B.E.A.L.!.P.,.V.|.E.E.T.E.B.B.B.B.M.M.c.v.B.Y.E.E.Y.B.L.M.c.B.M.L.B.B.L.C.M.B.Y.A.B.B.B.A.L.L.L.s.i.r.1.M.r.s.' V Q 1.M.*.A P x.OXT.'.|.s.B.B.A.E.Y.s.c.}..XL.p.c.p.p.s.p.=.M.L.M.s.*.' ^ ^ ....Q ,.p.=.| c.r.r.`.OX.X:Xi...r.p.Y.A.M.v.s.L.L.'.v.c.L..X&X.X}.V.p.E.P.;XL.,.r.c.L.'.c.L.B..X'.}.}.i.c.L.i.m 0.'.P.v.L.].~.P.L.l.M.L.P.L.B.n.n.n.M.M.M.c.c.v.M.v.v.M.6.B 8 u ' p.r.I u 7 7 m i A -.s.V.E.i.1.=.i U E.B.r.r.;XE.v.c.M.B.i.1.c.v.c.c.c.v.V.V.v.s.p.v.B.M.n.B.M.c.v.M.B.v.B.v.B.v.M.c.-.V h h V U L.k.' G.#X!.G.G.{ C ' 0.U.n.v.c.c.k.v.M.M.x.6.i.L.M.L.v.6.1.E.1.-.A u B -.E.;X.X=.=.&X' m V ..0.{ 1.n.M.1.U I E V.&XE.].r.B i ..k...| ,.,.i.c.-.,.B.'.Y.A.c.c.6.r.L.,.B.v.s.&XB.Y.'...C m L.x.' s.c.E.'.,.Q x.|.|.Q A E.L.p.} g A U ..1.s.c.*.6.*.s.s.M.p.p.i.M.v.r.p.s.-.=.U A C } M.E.c.x.M.M.M.c.L.A.c.x.x.s.s.v.c.x.x.x.c.c.v.n.V.k...-.I 1.P.c.k.v.B.x.=.B 2 7 I m u ..:.c..Xc.@.P.L.n.B.c.c.@.g A ..A B h I s.p.G.) g O.,.1.=.) H ! T ,.r.=.t.k.v.B.n.L.P.2.t.p.s.s.k.r...I - ! A.r.- 0 ..s.-.y 0 h C P 1.1.2.r.6.2.k.2.H l A I I I I { =.A A m g r.E.c.p.v.s.p.p.g.c.g.p.p.=.=.=.p.m.v.m.g.p.1.c.s.r.B.L.B.].!.v.k.n.@.-.s.'.2.A ",
"P Q c.A.v.E g P | s.c.A.'.x.1.P.L.B.v.M.A.L.B.B.A.B.M.c.M.A.Y.T.Y.L.Y.L.v.B.Y.B.L.L.B.B.B.L.L.L.M.L.L.B.Y.Y.Y.Y.g.i.s...=.I 7 g ..C.B.r.I g s.B.1.,.s.L.Y.'./.c.M.i.} Q v..Xm.i.s.C.c.p.M...c.Y.s.-.U g } E.p.=.F c.m...U R =.E.&X|.E.v.,...p.!.V.| ..M.v.p.B.Y.t.v.Y.}.XX'.v.M.v.M.Y.B.r.' Q -.p.Q } B.&X.X&XB.1.,.B.r.] I s.L.p.}.B.r.v.B.v.v.v.c.i.E.P.B.B.B.M.U.L.c.M.M.M.L.v.U...q V g r.s.M.Q i g V g B } i.~.}.Y.....L...2.v.n.P.-X~.1.1.c.1.c.B.l.0.c.s.s.s.c.v.v.c.k.v.V.M.M.B.M.v.v.s.l.n.G.V.B.v.n.B.P.L.p.I Q 1.0.B.C K ;X&XL.V.E...1.G.Y.B.B.c.n.B.x.M.M.x.L.s.6.s.p.B...B.`.E.`.,.g g Q k.B.Y.-.g V 1.V B c.!.p.-.r.i.i.p.I ! c.'.i.,.' m g 8 Q s.r.c.M.k.E.].v.c.B.Y.v.k.Q -.Q =.v.Y.`.c.'.L.B.s.E -.x.A.'.E.'.i.B.i.=.E U x.E.,.g -.A.`.&Xc.' c.c.=.t.s.' ,.Y.c.B.c.P.v.k.n.p.c.0.c.G.E.].1.B.1.i Q M.c.s.B.x.L.v.v.v.x.k.k.k.s.k.c.c.v.v.k.p.x.s.B.s.1.0.t.c.L.c.i.c.L.c.I V u m ' A E r.T.M...g U V.T.c.r.M.t.r.! ..V.V H =.1.v.c.s.i...p.i.r.p.t...B h -...U 1.B.E.Y.t.L.v.U 1.s.p.] Q ..m m B s.1.c 4 B p.k.r.V | B.k.i.p.r.i.r.t.0.s...q g B I 7 g m m i g B i E Y.Y.k.B.p.c.p.r.l.l.p.s.r.i.p.c.s.c.B.s.B.g.r.p...U ' ^ ' t.1.I m T T I ].!.@.G.",
"^ =.x.B.c.=.E 1.p.=.^ r.`.c.1.A.B.B.M.B.B.M.B.A.Y.T.L.B.L.B.B.B.Y.L.Y.Y.M.B.Y.C.L.L.L.B.B.M.B.B.B.B.M.B.Y.L.B.L.s.r.,.Q =.Q k =.' F M.M.} I Q U p.m.E.}..X|.L.i.Q I Q 1.'..XB.L.Y.'.E.E.B...L.1...F m ..v.Y.|.Y.B.E.B.L.B.c.r.E.&XY.c.i...' 1.M.E.p.c.M.c.B.B.A.s.M.*X].v.c.v.B.v.s.B.V...A -.}.s.g A v.&XL.,...v.B.V.! g V 1.r.i.E.1.V g A I U U A 2 A E.E.k.Y.G.B.n.n.B.B.B.G.E.c.A 7 C A n.'.] g g V m } =.1.E.L.|.Y.E.L.,.r.P.P.v.B.n.' c C r.n.l.2.c.B.k.p.=.c.L.V.v.c.c.M.L.M.M.M.v.v.c.s.n.B.L.G.B.v.c.n.l.G.B.t.v.'.'.'.p.L.,XB.L.L.p.-.] B.E.v.c.B.M.v.B.x.s.M.`.i.=.r.B.B.-.x.E.A.L.=.0 I Q ....] m g B I U @.p.s...=.E.U Q U 7 ' '.-.m h H ' Q 0 I r.r.s.v.M.P.L.s.c.L.v.c.i.V i m O.s.r.x.x.c.=.} I E ' ..L.&XM.=.p.v.B.s.=.r.E.p.d -.L.,X`.s.i.i.M.=.I ,.E.&X;XP.v.P.t.G.n.p.B.n.s.u.c.&X.XP.c.c.] c g H B.B.M.L.p.x.c.c.x.c.v.c.x.s.x.k.x.v.x.k.M.v.B.c.s.v.V.B.L.2.B.Y.c.1.B m g g Q h 1.L.v.s.] -.i.}.L.r.-.r.i.B.=.' t.I 1.c.,.v.-.p.p.c.i.p.s.p.k.L.Y.-.U g m p.'.XXM.l.,.0 u A -...u 2 I B V I s.' i Q B.Y.....6.L.B.c.L.M.r.r.k.k.p.s.@.H Q t.s.' ' A A I i * I }.'.c.B.c.c.s.p.0.p.t.r.s.r.6.c.p.,.c.B.g.B.m.g.1.P g i u U U B Q U q q 0.~.,.V.XX",
"2.M.M.A.B.B.r.T.L.k.-.r.A.V.v.T.T.L.L.L.L.L.L.T.B.L.A.B.T.L.B.L.L.C.Y.Y.B.B.L.C.C.L.L.L.C.B.L.L.B.B.M.L.Y.L.B.E.Y...' I F I ' r.' U M.B.Y.Y.r.1.'.r.$.v./.v.=...g U =.p.Y.E.v.M.}.B.E.B.B.m.v.,.~ m R m.'.M.'.C.c.-.} B.E.'.Y.,X|.M.c.M.M.B.'..X`.A.'.A.B.`.M.L.B.M.'.,...,.s.B.v.v.L.M.U m i.L.O.H s.~.}.i.' 1..X}.k.A i T s.L.E.~.r.-.' E A U g 7 = 2 r.L.B.B.P.c.c.B.n.n.D.B.;.=.I Q 1.c.E.y.g u i h ] }.i.} s.E.L.I A 1.c.T r.L.P.B.O.m A U U r.1.@.s.G.k.l.v.E.P.B.B.v.s.c.B.v.v.M.v.B.B.v.n.B.B.B.B.v.c.c.k.B.V.V.B.V.P.L.L.E.B.' i.P.,.1.!.Y.L.c.c.B.c.V.M.v.M.M.M...Q ..| U P 1.'.c.1.U 1.s.=.Q U U m m Q =.v...m B B k.v.B r.B Q c.M.s.Q ..s.L.1.g Q c.c.v.B.'.T.c.s.c.v.v.E.p.m = ! B.x.=.s.E.c...E C ....p.|.s.E l ..=.r.p.c.|..Xx...B.&X|.i...' } x.M.s.T..X;XB.A A @.! r.B.B.n.s.l.P..X<XG.0.O.' B.B.c.g B s.c.Y.L.v.v.c.c.c.v.c.k.c.c.k.k.x.k.k.v.c.c.p.p.v.M.p.1.i.M.s.p.L.r.U m ! A U E.!.'.*XB...c.|.V.v.v.k.s.c.,.r.|.v.!.L.s.1.} w.c.L.s.p.s.:.L.}.M.i.Y.B.s.L.;XB.c.B.Q i g u u 7 7 = = * V g Q g V M.E.-.i l =.c.p.c.M.r.r.i.l.p.s.l...K C ,.c.i.s.-.1.c.! Q v.|.|.!.T.L.c.i.t.i.k.t.2.i.1.....A Q B.A.x.Z.M.s.=.m d P } ,.i.B.!.c.C +.P.{ } '.n.",
"s.!.L.B.L.L.c.'.'.E.A.B.B.B.B.P.Y.M.c.B.L.L.B.B.L.E.Y.A.E.L.B.Y.Y.C.C.L.L.B.B.B.B.L.L.L.L.L.L.Y.L.L.B.L.Y.C.B.E.s.k g V Q *.c.E.r.c.M.B.E.M.Y.}.L.m k s.s.V A s.Q 7 8 ..E.E.v.Y.E.v.v.r.E.B.' V V V ..r.s.B.M.B.E...A 1.v.E./.|.'.L.L.'.}..XOXE.c.B.E.L.Y.Y.v.Y.s.s.t.m =.2.1.Y.B.B.Y.v.h 7 1.2.A 2.-X].E.L.Y.;X}.v.I m } v.p.1...Y.L.v.' ..I g 8 = i u g U -.v.B.s.B.P.B.n.c.1.i =.l.~.E.].G.A i g m M.,XE.I t.V.B.}.Q V { -.,.c.~.L.v.l.c.t.m g h I l.B.n.u.v.B.L.v.v.L.B.c.M.v.c.v.M.M.G.L.M.c.v.v.n.n.n.c.c.n.v.k.n.r.=.n.E.E m h u Q !.L.E.|.c.c.p.c.M.i.M.v.v.A.A.B.| A A A y i -.E.1.V 7 r.k.s.1.V A ' ' s.G.c.V u g u -.'.].s.E p.U ! i.V.M.M.B.c.,.1.r.M.L.L.E.M.1.-.' A Q ,.! g h B.'.I E 1.!.Y.M.c.M.s.s.L.p.g u y g C ..M..X&XY.p.i.r.i...E U 5 $ g c.}.,X|.Y.=.g m k.s.s.l.n...U v.l..X'.r.r.i.E c.M.V.i.u 5 V v.L.c.c.c.x.c.c.x.p.c.v.x.s.k.k.s.c.v.v.s.s.v.v.i.=.t.s.k.B.Y.-.Q ! r...B.&XE.Y.1.A A B.|.B.p.i.s.c.v.p.c.XXE..XT.T.L.B.M.m.i.c.r.y.p.v.M.s.M.}.'.E..X}.1.1.-.A =.U g g 8 7 i A l u i H m ,.'.,.m m Q *.1.r.M.v.1.i.p.s.0.s.r.T H M ..E.M.s.M.s.r.-.V.;X'.T.B.-.-.-.:.0.r.s.r.=.=.} P m 7 ' A.C.B.M.M.x.1.A g 6.T.c.Y.}.i.p.' p.=.Q B.M.V ",
"V..X`.B.'.T.L.`.XXT.P.|.].A.M.L.T.A.B.Y.E.Y.L.Y.M.L.L.A.Y.L.B.A.Y.L.B.B.L.C.B.B.L.L.L.L.B.M.B.B.C.B.v.M.Y.Y.B.B.} m 7 A B.v.i.E./.B.B.}.c.Q B.}.p.i Q '.v.U =.'.;XM.,.m.}.E.L.Y.Y.E.$.1.B.$.' s V i.M.L.M.'.B.'.|.r.i.c.i.-.B.'.T.E.E.T.E.'.L.,...c.M.L.Y.v.M.B.=.1.s...v.s.i.E.B.v.B.M.m 7 p.E.V.XXXXL.}.|.'.B.Y.p.i u ' c.1.,.! k.B.Y.-.t.i.=.h 0 A ' g * 7 c.P.c.n.B.l.B.n...I B..X&Xl.0.@.S I =.' P.'...g 1.E.'.L.r.1.Q =.&X'.].P.E.#X&XG.U E l.~.XXT.!.L.V.B.E.E.Y.Y.L.M.B.B.M.B.B.M.B.M.s.c.c.c.v.n.n.c.c.c.c.p.c.k.s.'.#Xs.....' Q c.t.c.=.=.v.c.c.L.s.s.M.M.B.1.Q y m ' m g g | r.*.m l 2.v.L.E.r.t.B.v.B.Y.B.c.s.O.,.].L...u Q M.I I B.M.c.p.v.B.Y.L.t.L.'.L.B.k.2...g 8 7 7 0 g ' k.' m *.r.M.c.c.s.A.,.s.M.=.,.r...Q 6.L.,X,XE.A.M.s.s...Q U g l ' =.}.;XL.1...T ) ' 1.s.p.p.c.+.! B.n.G.v.l.@.' ) k.V.!.Y...u 7 *.B.s.k.k.k.c.v.c.k.s.x.k.s.c.c.x.v.v.c.c.c.v.M.v.p.s.p.v.M...h i I 1.L.L.r.p.} 7 h r.P.p.i.s.t.B.M.v.v.p.c.B..Xc.1.p.L.E.B.i.c.8.w.k.s.M.B.L.c.r.v.s...O...=.c.|.L.I ' A 7 m k.r.A =.i.1.E.|.] Q L.B.B.M.p.c.M.s.r.s.k.r.t.' H @.u..Xc.B.c.Q =.L.i.].'.E.r.} A u Q 2.0.,.:...Q ! I l u m 1.x.g.M.6.p.p.} l U x.Y.p.M.T.1.r.r.B.@.L.&X-.i ",
"L.OX|.A..XT.E.T.A.A.T.|.|.E.L.L.T.L.L.E.Y.B.L.E.L.T.E.E.T.L.B.B.C.Y.L.B.L.L.B.L.L.L.C.C.B.B.B.B.C.v.s.B.'.E.B.v.' m g ..E.s.' Q ,.} =.r.c.s.E.&XY.4.B.oXC.c.Y.Y.Y.2X,XY.s.v.Y.c.c.i.$.>.' A Q m ..|.v.'.B.c.c.Y.s.=.B.E.M.=.E.,XY.E.Y.M.B.L.s...} B.M.B.L.M.P.v.s.i.Y.Y.Y.s.v.M.B.M.B.M...=.].*X&X'.c.B.,X&X].L.=...m ..L.M.] 2.B.G.E.;Xc.v.'.|.=.Q 1.L...U ] c.L.n.G.P.L.P.l.K p.#X'.s.T K m i B A A L.r.g U M.B.|.U m ..s.;XB.n.T..X-X#Xn.r.L.t.L.s.1.c.L.v.V.P.E.L.i.i.V.P.v.V.B.L.V.B.V.B.c.v.v.v.n.n.n.c.l.l.B.c.k.c.n.n.t.B.P.}.].E.L.2.c.r.,.c.v.M.L.v.c.B.E.v.m $ = C ^ g ....*.=.r.=.,.c.E.p.v.B.v.s.s.M.1.1.Y.Y.p.E.E.Q i V A s.'.-.i.M.B.V.!.M.M.L.B.E.'.Y.M.B.M.2.U g 7 8 u g H U 0 ' c.M.c.s.M.c.L.' | s.r.r.r.c.c.L.B.v.6.^ Q ^ U ..v.`.E.M.Y.|.B.p.p.A y 0 g { ] C ) 2.l.n.B.n.n.E.U.1...m i ..'.E.v.U v.,.l A x.k.x.c.c.c.c.c.k.s.c.k.s.c.c.x.x.k.s.s.s.p.c.c.i.r.1.i.1.I h u u } L.s.r.1.B U O.i.,.I ,.l.s.v.s.k.c.s.x.Y.E.Q H Q =.v.s.n.p.y.h.B.E.}.B.M.i.....A m g I ,.s.t.I g ..B.c.=.i.} A r...' c.s.g U |.'.B.M.r.O.=.1.s.c.s.r.1.) { n.!.c.s.r.s.L.c.M.Y.|.i.Q A m g I r.B.c.2.=.} ! ..Q P 7 F M.B.p.c.i.x.,.k V p.M.r.-.s.p.-.I Q -.1.E.c.K U ",
"s.E.T.L.!.L.B.x.1.B.T.A.L.L.A.A.|.E.L.T.T.L.Y.`.|.E.!.P.s.r.p.1.s.Y.E.B.B.C.C.Y.L.B.B.B.L.L.L.L.B.m.B.E.Y.r...=.I 7 I v.'.c.1.U g I Q I c.|.'.|.E.}.}.B.r.c.E.Y.E.'.E.L.v.p.4.Q } Q 1.' s g i m i.p.g ..-.=.i.B.v.=.i.B.~.'.;X|.E.!.M.p.v.c.1.=.p.Y.B.L.Y.L.P.M.Y.B.Y.!.B.i.M.v.L.L.L.v.v.'.&X}.}.B.M.Y.;X'.B.v.1.O.i U '..Xi.s.B..X;Xc.h Q s...U } B.'.r.M.XXM.0.p.U.{.L.s.' 4 l.].p.A m C u q I i.P.B.A g ..,.Q 2.} u = -.B.,.c.P.].T.P.2.Q G.'.! * m c.B.l.L.=.U V g V ,.Y.P.L.L.L.B.M.L.Y.M.v.n.n.n.n.v.c.c.c.B.n.s.k.t.' I i.E.'.&X;XE.i.p.Y.i.i.B.L.L.V.B.L.c...i g U E 7 | E.E.M.v.c.s.p.c.P.i.c.s.1.r.c.v.v.V.B.2.] s.=.A m h s.!.i.M.}.Y.V.M.Y.i.i.s.r.E.L.v.c.B.c.=...H m A A g g I =.`..X'.Y.M.M.c.M.E.M.E.E.-.-.E.`.M.c.1.} U m g m r.|..XL.A.L.A.1.A 1.Q g m B U B t.l.n.B.B.B.V.l.s.B.O.U { 0.s.l.1.m U .XB.1.M.B.k.c.v.c.k.s.s.s.x.v.k.s.x.c.k.k.M.c.c.c.s.k.p.=.Q =.1.' h B V Q B.M.r.,.B g c.1.1.i.v.L.r.s.v.B.c.c.p.p.B.s.A O.i.r.p.,.p.r.s.L.&X].}.L.M.Q 7 i m K h ,.L.v.1.m u ] E.,.g U A Q s...' s.-.m =..XP.s.i.,.U g U M.l.r.r.@.' p.G.l.L.s.C Q s.,.E.E.=.I 0 m i g c.|.P.B.p.r.1.,.1...R m *.M.p.1.r.s.x.Q k =.c.,.=.-.V.' m 7 0 m 0.~.T i I ",
"r.E.T..X'.E.M.t.v.V.B.L.T.A.V.!.M.1.} ..,.,.-.-.r...*...A U | Q ,.L.E.B.M.M.B.Y.Y.C.M.M.B.B.B.M.B.C.E.'.i.i * g A g } E.3X}.E.v.1.v.E.L.L.E.}.L.Y.L.1.} 4.B.L.Y.E.'.L.M.M.c.,.i Q =.' g 7 V } v.E.} u ..L.E.M.B.c.s.c.s.s.}.,X}.L.Y.s.i.L.B.t.s.E.B.M.L.Y.B.M.B.s.E.B.Y.M.r.v.E.Y.B.M.M.L.P.L.!.s.:.v.c.|.#Xl.=.=.E.-.m k.;XT.B.*X}.M.Q i ..p.i 7 r.!.M.c.s.P.v.s.p.d.8.T m m g s.B.[ z A i u { c.Y.v.I i U s.E.v..XQ m A s.v.' 2.E.!.1.k.t.I p.s.=.{ c m ..p.Q m = = 8 2 B k.].Y.L.B.v.c.M.B.c.l.c.n.n.v.c.c.c.l.k.n.c.B.t.' 2.B.V.v.Y.!.P.B.r.=.i.B.]..X;X,XE.v.E g g C g A I p.OX|.L.E.s.p.1.1.O.' c.v.v.Y.c.c.L.B.B.!.v.r.I u Q r.Y.s...E.c...p.M.V.....t.p.&XY.M.c.M.1.U =.i.=.r.' A g ..].}.B.B.L.B.A.E.L.L.'.T.OX.X&X.XM.p.'.M.| ..,.i.A.'.M.s.v.s.M.L...' `.A.Q =.B.c.i.k.L.V.T.'.v.0.l.G.) :.{.~.p.-...O.V -.1.E.&X&XE.t.k.c.x.s.s.k.k.s.c.s.t.k.c.c.c.M.s.k.c.c.c.r.Q } =.Q g q A A r.s.-.r.,.E ..Y.=.t.r.M.=.B s.k.i.6.c.r.O.s.c.Q 2.r.s.i.i.i.v.w.s.}.Y.B.i.1.A g ] t.-.B.].L.B...] Q } L.s...k.=.p.s.s.i.2.Q ' L.].B.x.r.' h * u i.t.0.s.' I s.n.:.v.1.2 A ,.I c...7 7 U U I c.}.E.l.k.p.l.c.s.r.} 5 ..L.| y V E ~ V $ F C.' m p.A.s.s.} U m =.V.l.K i i ",
"x.`..X'.V.x.v.c.B.T.B.P.E.V.c...^ g ' ,.^ P m V u l V i m } Q g I r.Y.Y.B.m.M.L.L.Y.B.c.m.B.B.L.L.B.Y.B.7 X 2 Q U g E.oXE..XE.4.Q 1.;X'.p.p.L.Y.c.1.Q u U B.Y.Y.L.E.L.v.E.L.' g g ..Q =.r.v.E.&XE.c.0.s.D.s.@.@.{ E.L.G.=.E.U.c.l.B.n.k.c.B.G.P.P.L.c.l.B.G.B.n.c.M.L.V.M.v.B.L.E.s.E.L.P.p.' =.' A ' 1..X!.,.=.M.E.0.V ' L.2.p.V.-.Q V ..E.].H A ..,.B.O.B i.1.;.r.p./ q I c 2 s.c.c q c g A :.M..X}.] A s.v.Y.E.B.U g m p.i...s.0.=.c.L.s.A I ' p.E.L.T.k.) 7 u * V m $ g A ..r.v.v.s.c.c.s.c.V.n.c.c.n.n.c.s.c.n.c.G.r.s.n.l.B.c.M.M.v.k.p.p...c.}.T.s.r.} i 5 2 g l U U 6.|.&X.XE.'.Y.v.L.L.L.=.' v.c.k.v.B.Y.}.T.M.L.!.M.-.A -.B.V.r.p.V.r.m Q }.r.Q s.i.v.}.T.L.M.s.U I U ' } r.r.s.i.M.E.i.=.-.c.E.`.E.T.Y.L.L.E.E.v.s.M.E.&X}.T.OXT.B.A.s.c.c.p.c.c.x.L.x.E.T.| s.Y.,X,Xr.1.B.:.I h I B.].n..X~.+.@.s.r.1.s.M.U p.}.'.A.t.k.k.6.2.s.c.c.k.c.v.c.v.x.s.c.s.M.k.k.n.c.1.Q ' } Q h B m -.I u i ,.V.T.E.5XV.O.2.v.s.1.t.v.c.s.k.1.-.s.p.2.s.i.p.i.s.p.c...m r.M.v.i.s.r.,.i.A Q ;XB.B.k.v.i.} ,.B.....M.s.Y.L.p.r.M.c.c.'.L.i.x.1.U i i i 7 0 ] { A ] c.n.l.c.i.-.' ,.' i.s.' O.c.'..XXX}.Y.V.n.l.s.1.s.s.V d Y.B.A I k 5 8 * s } 6.A g 4.A.-.,.,.1.s.c.l.s.t.g g ",
"B.OX|.B.s.k.V.V.M.V.A.!.T.t.-.=.' A ' r...U A C | ,.,.p.L.E.x.A u ..B.L.M.M.B.L.M.M.B.Y.E.L.M.B.B.M.C.4.2 7 Q i.V g C.&X'.E.r.I ..c./.} A v.|.i.Q A V A ..s.c.E.'.B.B.v.i.Q ' v.c.p.' ,.v.s.E.B.} S =.M.l.d.n.r.c.G.:.=.K T I ' ..P.n.c.E.V.v.P.B.B.v.c.G.L.B.B.M.L.E.E.L.M.M.B.Y.M.L.L.M.] A g g Q g ,.&XL.i.s.L.v.Q A -.t.A U ..B 7 A .X&Xi.E ....s.E.-.g A =.1.s.d.{ a 2 > c G.{ N C 7 u I r.B.&XE.i.c.E.i.s.B.Q ' 1.' i...} !.@.m =.-.:.H { L..X#XE.~.t.T c A A I g g A A 0 1.v.v.c.v.v.c.v.n.v.c.n.B.B.n.c.c.n.c.B.s.c.V.k.E.Y.M.v.M.M.v.p.t.r.=.m = . . . 2 y g m ..1.L.&X&XT.L.L.E.`.E.x.=.v.M.B.v.E.}.|.}.Y.v.c.v.L.Y.Y.r.B.Y.E.E.P.Y.v...2..Xk...p.c.].'.B.E.M...g m m m V E.,X=.} Q B.B.6.p.c.M.L.|.`.B.c.v.v.1.' *.c.Y.B.L.L.s.r.M.s.p.x.c.p.p.x.i.1.1.B.x.=.s.L.p.} c E v.1.I I 0.U.k.n.#X' u 1.=.I A I t.c.|.T.v.M.2.s.x.s.s.c.x.r.p.k.x.k.k.p.t.k.c.B.c.M.k.p.Q B ' Q H i g m -...g g } Y.3XB.1.I A ..c.c.'.3XE.p.s.x.t.6.x.k.p.v.p.c.c.s.s.c...s s.V.M.M.L.c.=.=.V I Y.V.L.i.1.=...=.Y.r.m ..P.].P.M.E.l.,.v.v.r.r.1.,.' ' ] ..] ' M 7 C r.G.n.v.M.v.c.s.Y.c.E.~.&XXX|.T.V.L.B.s.1.r.i.l.s.c.s.U 1.|.} Q x.i.c.E k R l C m C p.g.=.=...1.p.p.k.B.:.g h ",
"B.&XT.1.,.s.B.V.M.L.E.L.L.c.| E U g u g C Q | A 6.x.p.T.E.B.s.V k =.B.L.B.B.L.B.L.B.c.s.c.L.Y.Y.C.g.L.,.= * Q i.F g =.B.L.r.U 7 ' }.m.V ~ v.-.} A g g I 1.i.1.c.i.4.C.s.' g $..Xv.}.i.R V A E.v.U i C 0.L.'..X.XL.G.1.8.) i 2 i C l.L.n.P.G.l.E.s.n.M.B.L.G.B.B.B.L.P.Y.B.v.v.M.B.B.c.Y.c.B m u g } V 1.L.s.-.-.M.c.Q g Q L.T.E.}.1.H } '.1.8 m Q V E r.-.A B -.1.s.s./ i * C E.n.m z m M 0.1.s.' M...m ..B.v.E.s.v.,.2.V.i.7 -.O...C K U c 0 s.#X].n.p.'.V.p.v.M.V.*.I ' U =.Q s.B.L.B.B.M.v.B.l.c.v.B.V.V.M.v.v.v.n.v.v.B.P.p...s.t.p.s.s.M.c.v.-.m = $ * 8 7 g l g ^ B.L.|.|.B.1.A.A.B.v.p.*.r.M.s.V..X&XT.L.M.r.1.i.r.i.c.c.i.'.]..X.XE.Y.'.v.B.|.].].}.M.B..X|.E.1.U g i g i ! P.=.0 7 I V.E.1.x.T.|..X.Xp.x.c.M.s.| U =.c.r.r.M.B.=.r.A.1.s.,.r.c.x.r.1.1.2.x.6.x.c.c.H 7 < 1.E.c.B.k.k.G.+.2.c.I C ' g i A 0 } c.L.c.T.L.r.2.r.s.s.t.s.M.x.c.c.s.t.t.x.M.c.v.t.r.} ..m A U g g i E ..s.p.V A r.B.s.B m u ..i.L.B.&X,Xi.1.t.c.s.p.c.k.s.v.i.d.v.s.c.M.>.g 1.V.B.L.c.r.} =.r.L.'.s.=.Q Q H Q A s.].1.=.L.M.E ' -.I g ..i.r.' Q 1.6.M.L.E..X,XL.r.r.l.v.l.s.s.c.k.n.L.v.v.n.L.G.M.i.1.p.s.1.0.p.0.0.r.,.-...M.E.l ..`.}.oX..^ R g ~ P E L.s.1.B.k.B.c.L.~.].@.A U ",
"c.OXP.1.r.c.B.V.A.P.E.V.A.p.C u d m U A l A U ^ c.r.,.M.A.v.A.r.4.s.C.Y.L.L.L.B.Y.B.M.B.L.Y.Y.L.r.-.Y.M.Q Q 1.i.V } c.m.=.A m i U p.1.Q A } I m g I ..r.Y.L.r...' } v.1.R A 4.E.B.E.p.r.v.c.E.p.Q m / D.#X].P.L.n.r.) T K m c p i ' E.L.c.L.v.L.p.v.B.V.L.V.n.B.B.B.B.M.v.c.M.V.L.M.k.T.M.U Q ] ..=.L.E.c.L.p.i.M.L.r.I A T.5X|.v...,.B.'.,.u A ' r.-.p...i U ,.l.r.p.K i ,..Xc.Q X.s.p.G.{.=.:.p.v.A i =.L.k.t.T.-.U M.t.m g -.{ r.:.u m q E ].~.n.p.l.{.L.v.L.'.|.B.M.v.O.c.L.B.Y.Y.B.c.s.c.M.k.l.c.v.n.n.v.c.v.c.B.c.V.G.P.1.' p.-.1.=.-.v.L.Y.s.A = 2 g m g A A l 6.E.B.'.&X1.A x.Y.B.x.s.M.E.T.E.;X,XY.c.B.i.r.k.s.i.c.v.,.1.E.&X.XE.V.'.,X|..XE.M.B.B.Y.&X}.,X2.V U A g m Q v.t.0 7 H B.|.c.r.E.OX&XT.Y.x.s.c.c.-.U A A m A A C V u I 6.r.M.s.B.L.*.I ..,.*.c.s.p.-.r.I i T c.k.=.n.v.l.l.n.V.{ I T i 4 g g m } s.`.}..XM.t.p.x.v.x.p.s.v.s.s.x.k.s.c.B.V.c.2...l y U I =.A 7 g B r.c.v.s.r.,.v.c...u i g 1.B.s.i..X.Xr.r.p.c.x.s.c.s.s.c.p.p.v.p.v.v.i.U ' v.M.B.r.1.Q ..M.~.i.E g m C i B U B.B.Q 1.c.g 2 i B =.-.-.p.=.' ..A.M.L.V.L.].P.V.G.n.t.l.L.G.s.v.p.v.k.p.,.,.-.,.r.2.1.i.t.,.2.l.s.t.1.Q A Q c.p.C =.`.}.r.A } *.=.s.*...M.1.r.Y.c.!.T..X'.P.B.s.V.",
"s.].P.c.A.L.L.P.L.M.P.E.B.' 8 7 u m =.*.' Q E i.c.Q P 1.T.|..X|.Y.M.M.C.M.B.E.E.E.M.B./.E.B.v.c.7 Q '.L.=.m.}./.v.'.|.L.' g g g A s.E.E.c.v.,.U U ,.M.Y.E.E.C.s.Q F } I V } B.E.L.s.U } E.;Xr.m I C r.E.s.0.r.Q d.=.{ ..1.c.n.) c ' l.B.n.L.G.v.t.v.B.B.G.V.B.V.V.V.B.B.M.M.B.L.Y.v.v.Y.Y.i.=.c.s.-.XX!.v.v.1.s.B.L.1.Q I c.'.B.' V 1..X*XL.' ..r.Y.B.L.s.) O.r.B.y.Y m d.P.0.u m r.s.r.G.P.1.L.P.1.V Q 2.M.V.E.s.c.Q r.L.=...E.].B.L...O.r.].'.L.c.L.E.P.i.s.M.L.L.L.P.s.s.P..XY.L.B.k.r.1.p.c.v.c.c.c.c.c.c.c.c.c.n.c.B.B.G.=...p.1.v.s.p.B.L.P.'.c.' V g i g m A P s.M.r.'.5Xr.g -.c.B.L.B.'.E.}.;X,X!.s.c.p.l.c.M.s.p.Y.E.p.t.v.Y.M.1.s.!.B.1.V.c.k.B.M.L.E.&X.XQ E s.i.i.1.p.M.t.p...v.E.c.M.p.s.c.c.*.1.L.p.r.,.*.*.*.Q g d 7 y i 8 u | 1.} i.M.,.u d ,.1.i.i.p.c.i.O...t.n.0.t.l.B.T.#XB.s.P.U 2 u u g h h ' ..,.}..XE.A.p.c.x.r.6.x.v.s.t.t.k.c.k.v.B.v.Q I ' A ..c.s.c.U H ' -.c.c.p.p.M.v.c.v.v.K 7 A c.,XL.M.&XE.s.r.s.c.c.k.c.c.k.s.c.s.v.s.c.s.s.=.} V.B.L.c.B...Q E.c.V A I Q U A g B M.s.E s.E.s.-.U B ,.M.M.L.s.s.A.;XE.L.n.M.L.c.@.1.n.c.k.v.c.v.v.p.c.p.s.1.r.k.t.p.s.i.r.p.t.r.c.s.=.Q g g { B.-.A 1./.c.C A r.,XoXs.c.M.i.r.r.-.Q L.U.n.=.@.u.u.n.",
"t.P.V.M.L.A.A.L.L.v.A.T.L.r.P u m | p.1.c.E.M.L.1.Q Q r.E.'.M.B.B.s.c.B.v.B.E.'.m.Y.}.E.B.E.B.=.X u ,.' V h..X2XY.r.c.;XM.U m m -.Y.L.B.L.L.c.v.M.M.B.L.v.M.E.M.B.M.s.Q I v.'.C.E.p.b 7 ~ E.i...I C T ' { 8.1.K Q { p.L.L.P.P.;.=.c.] -.V.B.!.V.u.v.n.B.G.G.V.G.B.V.L.L.B.B.B.M.B.v.M.v.E.E.-.v.Y.r.1.c.&XL.s.B.V.'.=.g A =...1.m u A p.Y.k...M.v.c.L.E..XE.i.c.c.n.Q ) ~.0.g S 2 { Q g g K M C 1...1.L.v.M.v.B.1.P.Y.c.'.,X'.'.].'.&X].T.XX].V.G.k.L.U.B.s.L.L.Y.L.v.:...!..X].!.G.n.c.r.i.v.V.G.B.n.v.n.n.n.v.l.l.c.v.v.v.B.=...r.i.Y.p.p.M.L.E..X.XE.,.A m Q m P ' c.c.A.}.E...l =.v.B.E.x.c.P.M.L.E.L.c.v.-.c.p.p.i.i.v.B.s.i.t.B.c.' -.c.Q Q i.1.1.M.E.}.'.&X2.A M.'.B.!.L.,.2.B.P.'.|.B.B.Y.6.U U U g A s.E.x.=...=.Q g i U E =.Q g C =.m 5 g g u - A x.s.c.,.r.x.k...t.'.=.] s.E.|.T.G.p.G.L.=.g i c C ) E Q p.'.E.B.c.p.s.r.r.k.M.B.B.B.V.c.v.x.r.k.B.v.h g E U s.B.i.....t.M.v.c.t.s.B.t.c.B.k.p.-.' ] L.}.-.V.,Xk.i.p.p.k.x.s.s.c.c.s.c.p.s.s.s.s.c.s.2.'.E.B.v.Y.i.:.v.c.,.Y.E.T.1.H ,..X}...i.|.B.k.c.r.B.Y.E.Y.1...L.|.|.Y.v.V.P.L.=.! =.c.l.s.n.V.v.c.i.t.r.c.r.s.c.t.p.s.i.r.p.s.c.l.r.T 0 7 I k.v.| V p.M.Q F ,.B.}.B.' =.c.i.p.c.p.i.Y.n.:.I ' H A H ",
"r.V.B.M.B.B.A.B.V.A.A.L.T.].c.m U A.T.B.L.L.M.i.-.M.T.}..XL.s.p.v.p.c.C.B.B.v.>.I s.}.L.v.`.c.g 2 8 i 7 g B.C.L.1.g I g.~ A ,.E.B.c.M.E.Y.M.Y.g.E.v.M.E.B.M.L...~ -.=.' } .X.Xv.s.A - u I >.s.s.Q S c ) B.G.8...{ l.P.~.G.B.G.B.B.G.+.@.v.V.E.U.l.n.n.n.G.L.V.B.B.B.B.B.B.M.v.c.M.B.M.v.E.B.U s.v...q Q P.V.B.Y.Y.E.-.g A =.m 7 u u m 1.s.=.! v.|.}.,X-X.XE.i.v.c.B.P.L.@.=.s.@.) G.l.T K s.L.Y.|.M.B.V.c.V.2.} v.s.B.Y.E.'.E.B.B.&X#XL.B.P.c.L.c.c.P.U.E.L.G.s.B.L.c.-.p.].'.E.E.B.v.M.s.c.Y.E.L.B.c.c.n.B.B.n.v.v.c.B.k.c.n.r.t.s.s.c.Q =.v.!.|.Y.c.1.Q m A ' ^ ' ,.M.c.|.L.Q g g ,.|.'.'.6.1.B.M.B.L.L.p.v.v.s.s.s.s.k.c.c.s.p.c.'.E.=.1.c.I m r.v.s.s.M.'.XXc.g g v.i...r.B.c.B.Y.1.c.} B Q M.1.Q | C 7 y ..M.p...} ..P A =.L.L.B.Q } r.A.P 5 2 $ 2 u E c.r.=.1.,.U H ..p.r.T ' :...1.Q a K -.{ E K h m 1.E.p.-.P.'.s.p.s.p.t.p.M.T.L.r.=.-.r.r.c.k.2.s.V.v.M.p.1...r.-...E ..k.s.s.c.k.v.c.t.s.B.1.-.E.E.-.i.' 2 -.&XM.c.c.s.k.c.s.i.s.c.s.s.p.p.s.p.v.m.c.c.'.Y.s.s.B.n.L.P.V.s.L.B.].'.B..X'...} Y.v...c.E.|.,XE.p.r.' Q L.|.c.s.-.p.M.c.c.B.P.B.s.B.!.P.V.v.k.i.p.v.i.k.c.s.c.c.s.p.s.p.k.p.c...i m ..v.,.A V r.r.E 6.s.6.^ P C m ^ r.r.r.s.M.0.U c u T -...Q ",
"s.P.T.L.A.L.T.B.A.L.A.T.P.!.L.U | p.A ^ =.C I m Q }.;X,X&XA.B.v.B.c.m.L.C.B.=.7 * b ..=.} =.' 8 2 A } m i p.} F A i ' -.g Q r.1.M.'.v.i.E.B.B.L.v.s.B.'.v.B.'.=.I U Q i.h..XM.r.~ i u V m V ..i 0.Q =.~.~.d.p.c.l.#XE.B.G.G.n.G.G.1.B.c.l.!.V.L.v.B.n.n.L.L.B.v.G.G.B.M.M.M.M.M.L.T.B.L.Y...4 r.'.s.U } O.p.B.L.Y...A g E !.t.m 7 q A L.}.E.!.,X]..X'.'.'.P.E.B.B.c.c.~.i.=.=.' =.l.=.' c.&XB.c.E V } i.c.E.i.t.E.E.c.V.Y.M.|.L.G.E.~.1.0.v.V.k.p.V.P.v.L.B.B.n.M.v.i.i.E.v.v.}.L.s.s.v.s.c.Y.E.B.v.l.c.n.B.B.v.B.V.v.G.s.c.B.c.r.r.c.B...B.'.'.B.i.=.Q g m U Q ,...p.v.,.A.s.l u d ..;X|.L.Q Q v.Y.B.s.L.k.v.v.t.v.M.c.v.M.M.v.v.M.T.L.,.s.L...H r.v.s.s.v.L.L.1.g E s...Q ...XXX&XY.&XB.] Q ' E.r...c.=.^ g l Q *.Q l d 2 d 1.L.k.Q u c.c.t.U 8 m g g g } L.c.6...Q C i g ! 1.B.c.G.@.Q m 7 g @.L.n.v.) I G.s.m i.E.k.B.c.P Q v.`.T.O.g 0 y 7 y B 1.c.p.x.B.s.r.i.r.i.,.Q A I I =.U ..c.M.s.' ..c.V.1.i.E.v.1.:.r.O.i.M.t.s.s.k.v.B.c.i.p.v.c.s.c.p.s.r.M.c.i.c.B.p.1.M.Y.L.E.E.i.r.E.Y.E.P.L.t.A A v.s...s.c.L.E.r.Q m B -.,.M.|.i.x.=.t.L.V.L.n.r.=.0.L.E.c.B.c.c.r.p.c.2.t.p.s.c.s.p.c.n.c.v.r.v.O.i U k.E.=.g I 6.p.x.`.,.5.i.=.$.' *.A.B.V.t.v.-.U m g 1.&X~.c.",
"r.P.V.V.B.L.B.V.A.L.M.V.L.E.-.y ..O.i g ' m g } E..X|.;Xp.O.P.i.v.V.M.B.Y.v.s.m 7 8 7 i i 7 8 7 g I g ~ i.$.A i i k i.}.L.g.1.Q 1.i.k ' p.g.B.B.B.'.p.} B.E.Y.g.p.L.c.,.B.v.1.-.-.g u U g ....' { I c.8.Q 0.C ' P.P.W.L.B.L.c...g ' c.n.T.L.B.L.v.v.M.V.Y.n.c.n.c.G.n.B.G.B.B.v.B.L.c.k.p.q q -.].@.A s.r.t...@.:.c g g A ) s.r.g { Y.,XE.L.*XL.P.U.L.U.E.B.u.r.B.B.v.G.-X=.K ' ..c.k.B.XX'.....{ K 1.s.L.2.) 0.r.G.L.V.'.#XE.B.s.B.M.p.s.L.B.s.s.M.L.L.L.c.1.p.i.1.,.r.p.c.B.L.c.c.m.M.c.c.M.M.c.n.c.n.B.n.n.G.G.B.B.n.c.n.B.n.' B.L.v.Y.|.s.i.i.c.r.Q g A U ..1.' n.v.s.;XM.g i g v.}..Xr.V Q s.c.p.p.v.L.L.s.M.c.v.v.s.M.B.c.c.s.E.E.=.l.Y.r.i.c.s.s.M.c.p.M...8 } }.E.=.c.E.c.$...$.Q M.C.}.s.g U .X|.P.M.r.C - l A 7 U | c.v.c.1.Q ,.c.] h K { ) U g p.L.c.1.} Q g g g g V i.,XE.p.|.v...{ t.|.&X}.v.c.E.,.I 1.s.p.,.A g g Q ..A g 7 u l E *.p.p...i.c.v.r.,.I ..-...g 7 m 7 i i ..'.B.c.r.v.E.P.1.k.L.O.} L.v.! M.1...v.s.s.c.v.s.p.p.c.v.k.s.t.i.s.c.s.s.l.! 1.n.~.n.s.B.s.] -.&XE.L.l.c.=.g Q M.r.E ..1.n.r.} 0 7 A r.M.E.E.c.s.1.s.s.c.v.r.=.,.v.E.V.p.y.p.p.s.d.l.s.r.s.l.s.r.s.s.s.s.c.r.n.1.g =.Y.B.*.| ,.c.x.x.i.P } r.g.~ *.p.L.*...V.'.i.0.r.L.'.G.n.l.",
"6.P.V.A.V.L.V.V.L.L.B.A.V.E.1.g m E.v.=.s.-.=.Y.,X.XE.E.-.Q c.v.M.L.M.B.Y.V.Y...7 g g m i B g 7 g V } c.B.Q g I m k s.3X.Xp.s.E.i.A 7 ..r.=.m.Y.|.r.I -.}.p...-.M.Y.L.Y.&Xi.I I A g m I ..-.E.L.1.s.L.s.8.L.1.-.'.E.L.L.B.c.1.S I =.E.E.L.V.E.M.M.B.L.V.B.B.B.B.B.L.n.B.L.B.G.G.G.c.l.V.@.i C 1.XXp.) l.G.s.C u c i u c K +.2.r.E.#Xn.n.V.s.G.U.U.U.U.P.L.l.] M =.E.v.V.#Xp.~.E.p.!.c.L.U.0.U { =.@.P.!.P.c.0...=.s.p.L..X~.P.n.B.P.B.s.c.D.M.p.B.M.B.B.B.s.1.r.,.-.=.1.s.s.v.B.L.v.v.v.d.c.v.v.n.M.v.n.B.n.d.c.B.n.n.n.c.B.D.n...p.0.s.Y.l.' ' 1.E.s.=.I g g m m ,.L.M.E.&Xr.r.L.c.E.E.D.X.} v.B...m Q p.L.v.c.p.E.L.c.v.c.s.B.c.M.Y.v.Q 1.B.p.s.M.c.i.p.i.i.s.V R L.;X.X}.}.p.* = * 8 s C.|.,Xi.,.c.T.&XT.|.T.1.u 7 7 E | s.L.s.B.B.1.' @.c B 2.0.l.0.p.V.u.:.=.Q m m B U ' } M.E.} ' s.Q -.E.T.E.v.U U B.Y.i.i.s.L...= 2 8 7 g i 5 u C ..| -.M.r.*.*.x.v.c.x.r.} =.-.-.Q I Q A U ..p.}.s.=.E.E.'.,XE.k.r.E I '.1.I ..I } O.1.c.c.k.i.r.r.s.k.p.p.p.s.c.M.v.p.I m 2.B.s.1.t.1.' T O.'.P.B.0.2.p.Q p.L.A m -.1.Y.p.=.' -.1.p.t.T.L.p.p.i.v.c.c.i.1.2.s.B.L.M.s.p.p.p.p.s.l.d.p.p.d.s.y.s.s.u.s.c.r.s.1.m 1.L.c.R A | p.p.p.i.>.$.x.*.E M.s.A d ..c.,.V 1.P.~.P.s.v.B.",
"2.P.V.L.V.L.B.B.B.L.P.P.v.T.k.U m i.x.v.v.,.c.&X&X.X.X.XM.1.v.L.B.L.B.v.B.B.E.1.7 g A ..m A V V A F r.c.c.} } i.p.Y.|.Y.i.s.'.;XY.,...p.}.c.p.m.1.} ' c.}.p.r.B.Y.Y.c.p.E.=.u 7 m r m =.M.-.L.M.E.G.s.L.&X&XP.E.E.~.G.B.n.s.:.m Q k.XX&XT.k.P.v.M.v.B.L.V.B.V.M.n.B.l.n.V.c.v.n.L.V.n.c.M A 0.v.~.@.U c.!.' 0 K i i A p.r.k.G.*X~.].:.u.G.0.B.E.E.v.s.s.t.@.I i ) B.V.~..X0.P.n.n.P.=.0.0.B u m ..r.|.#X'.].P.Q s.].n.l.L.E..XB.M.Y.B.v.L.B.p.r.v.s.M.E.L.c.p.i...I m Q i.v.s.s.Y.v.c.v.m.M.B.v.B.M.c.n.G.n.l.l.n.c.c.c.c.B.L.n.p.v.i.v.M.} } s.E.s...U ..=.g Q ..Q r.E.v.' m M.3X}.Y.M.p.' ..M.h.=.g i ..'.v.c.Y.B.M.v.s.c.M.B.M.M.M.i.U ..c.M.c.v.c.i.i.s.c.s.L.E..XY.s.s.c.=.g A V m Q E.C.i.M.B.M.B.| } c.=.U U I g Q U ,...) 1.r.s.0.c.' 2.-.=.L.r.l.c.:.E A A g ..,.p.c.1.c.=.8 Q E.B.E.B.-.B...A K ,.'.c.p.v..XQ   8 u m E F l m ' M.s.p.=.6.i.x.c.x.p.s...} ..=.r.i.B.B.,.r.c.v..XE.' v.L...i.2.Q 1.B.p.'.Y.Q 7 A r.' ..,.r.t.p.p.p.p.p.p.i.s.c.c.M.c.,.m U 1.0...I U c { 1.s.~.n.s.=.:.....p.i.i } L.v.p.:.1.p.v.=.-.M.|.Y.i.t.s.v.c.s.i.r.t.M.Y.V.c.s.p.p.p.s.s.l.d.p.y.d.s.p.s.s.p.p.r.t.c.:.7 @.'.&X1.*.p.c.s.g.s.Z.'.g.s.Z.p.A 2 U ,.-.1.-.r.B.V.:.@.t.v.",
"6.P.V.V.B.A.V.V.!.L.L.T.V.'.t.y H m g -.c.i.E.,XE.'.'.E.P.L.M.B.B.B.B.v.M.M.L.,.8 m ..i.g 7 7 i V ..}.}.m.} M.;X3X3X|.L.M.B.Y.E.,XY.E.E..XM.r.}...L.;X;X'.B.}.&XL.c.' m Q g 7 V u V } M.-...v.E.L.p.@.L.,Xn.:.n.B.].E.P.U.U.L.:.,.~.E.c.p.' p.E.G.c.v.L.L.B.B.B.V.V.v.L.P.n.v.B.B..XL.' q ] V.n.0.B c =.E.2.m q H I ) ..T v..X'.-X~.1.l.@.A n.B.n.=.) ' ! K K K I =.E.!.~.s.) C K r.r.l.p.) O.c..X#X&X.X'..XG.A ..0.r.P.&X~.G.n.s.M.c.k.M.v.p.p.Y.s.p.B.v.i.r.=...Q I @.M.L.n.M.v.i.i.c.v.M.n.c.B.n.c.c.B.n.c.n.n.s.s.l.c.n.B.B.M.E.v.s.i.A -.E.Y.p.-...-.i.Q =.r.Q c.E.i.=.,.v.E.c.;.s.v.,.r.v.1.i.U 2 g v.s.L.M.i.c.B.c.v.B.c.c.c.M.L.1.' ..i.v.s.s.c.c.M.B.c.x.r.r.s.p.4.g.E.'.'.L.M.L.}.-.V ..,.1.M.g l s.s.r.| Q ' -.-.L.&X1.c.r.M.~.*X'.XXn.-.B.s.s.l.u.I I A Q i.s.M.M.r.v.=.2 -.5XM.1.L.'.E.c.1.v.}.E.E.B.v.p.7 7 ' V i A Q Q Q } p.6...1.6.,.x.c.M.i.r.{ -...@.=.,.v.r.E.L.Y.E.}.E.=.M.1.B A ' 1.|.,X'.E.' y m h ..i.-...-.r.p.k.c.k.p.c.p.k.c.p.c.s...I 2.' I ..T B m 0.G.G.l.{ Q E -.i.i.-.,.Q r.s.k.1.1.r.c.}.Y.Y..X.XL.i.r.t.k.s.s.v.i.r.v.Y.V.k.i.i.p.s.d.l.l.s.r.y.d.s.p.s.s.p.s.c.l.c.1.i ,.T.'.c.r.B.c.g.B.B.oXL...x.x.Q Q ..=.V.-.s.v.{ } 1.) ! { @.",
"r.T.V.V.B.L.L.T.P.T.XXXXc.A.r.i g =...2.}.}.E.E.E.k.] U 0.B.c.v.B.M.B.v.V.L.Y.1.8 Q B.V.} Q } Q ' $.p.M.4.m s.L.Q =.r.Y.}.M.g.s.c.p..X}.1.,...p.s.'.,X.Xs.r.B.Y.p.1.=.=.r.A g } } =.-.,.i i.E.Y.0.c.'..X~.:.Y :.L.].~.'.].{.].L.M.;XE.p.2.' i.s.r.c.V.B.v.M.L.V.G.V.c.G.P.B.B.L.l.&Xn.C { V.'.B.O.i g ] L.V.s.' a C I ) 1.'..XL.~.n.-.k.U a G.U.v.0.@.) H c m B C ' ~.V.P.~...m c 2.E.~.].].XX<X-X#XV.G..X*X'.B.@.) ..1.s.0.@.c.v.v.p.r.i.s.c.D.L.i...=...' =.=...c.E.}.E.s.p.E.M.p.p.v.M.M.M.v.B.B.c.l.c.l.l.B.G.p.y.c.c.s.c.G.c.L.r.,.c.r.E.}..Xc.U E.E.,.s.s.,.i.Y.p.L.E.'.}.E.v.=.d.L.s.c.c.M.M.r.....r.I ..i.E.'.B.D.B.M.L.M.v.B.Y.B.r.i.Y.B.c.s.c.c.v.c.s.i.s.s.c.c.i.r.v.Y.B.c.M.v.r.F g ..' ^ 1.p.| B.c.A A i.c.1...-.-.T L.G.~..XG.n.s.0.s.V.E.c.2.l.r.p...i.p.p.s.c.s.c.i.p.v.=.i g ..B.v.c.v.}.Y.{ Q } Q g O u ' ..A C ' Q ..^ | ,.=.r.} ^ c.B.v.1.r.1.r.......1.p...-...p.;X}.s.=.y.r.r.,.t.}.'.i.p.s.I 0 B =.'.!.-.r.i.t.i.t.s.c.c.M.s.k.c.t.c.s.....s.K i I m i C l.P.c...B g C +.v...I r.,.-.] r.v.}..XP.&X*X|.E.B.c.t.i.p.s.c.c.p.,.-.p.B.M.s.r.s.d.d.s.d.d.s.y.p.l.s.y.u.s.s.l.c.c.c.=.i -.P.'...U ,.s.M.C.B.;Xr.} A.Y.L.p.c..XP.v.L.L.1.:.r.:.K c i ",
"t.T.L.L.V.P.T.'.|.!.'.v.P ' ' 2 m E.'.s.c.E..XE.!.=.g m i.L.c.B.Y.M.L.M.L.P.Y.2.7 I v.E.B.M.Y.M.E.M...=.=.A 1.Q k Q I R $.r.i...Q Q c.L.-.$.A ..|.'.}.'.1.4.L.Y.i.s.B.E..XM.=./ -.s.Y.s.V i.E.E.' r.#XW.c.0.=.d..X].{..X.XP.B.L.!.&X,XP.i.i.c.A g i.T.L.B.L.L.M.B.n.s.c.V.B.L.P.T.'.O.c c.E.B.0.' i B ..l.n.'.~.:.c.v.P.XXP.p.v.B.G.@.+.K 4 T ) ) { Q m m A A A { r.E.'.~.P.s.1.l.G.'.G.'.*X.XT.'.'.c.B.'.B.=.c.E.L.P.O.A C I B.M.M.v.s.p.c.M.M.=.r.1.-.A i Q ,.r.E..XY.r.Q ' v.W.B.v.M.M.M.B.B.B.B.c.c.v.c.M.U.P.c.l.B.n.l.B.P.v.c.....B.|.3X;X.X' 8 M.|.v.c.-.,.1.v.v.}.v.i.B.B.M.1.s.c.s.s.s.B.M.B.}..XB.i = g 1.Y.B.L.'.E.c.L.B.B.c.v.s.v.L.v.c.c.c.c.c.s.s.g.L.v.s.p.s.i.c.B.v.v.c.=.I m V ,.Q Q c.E.E.|.1.5 7 -.1.Y..XE.P B !.'.E.L.] U c ' ].{.XXL.k.B.G.p.=.v.c.M.c.s.s.i.v.'.s.g V A i 2 V A ,.L.1.m . X = u 8 g U p.....=...,.I g m A A m U r.v.M.s.p.s...m m I =.-.' g } v.|.,.V U U V Q c.|.'.v.k.v.1.! ! 2..XL.B r.c.c.c.k.s.s.k.c.v.s.k.c.k.c.p.=.0.r.Q m u q u B L.B.:.T C h B ' ' h A p.p.P.|..X.X&X.XT.'.B.c.p.1.r.s.s.c.s.k.p.] ..-.p.c.k.p.p.l.l.d.p.p.s.d.d.p.l.s.p.u.s.s.c.r.k.V.=.i ' v.Y.| m ..v.g...Q 6.s >.|.p.p.6.c.B.i.=.V.&Xp.1.s.2.:.! B ",
"t.T.L.V.M.V.L.T.t.C 7 5 2 O.=.; = r.T.L.B.~.#Xn.Y.i.' -.E.'.L.L.Y.B.Y.B.L.Y.V.,.i A =.B.M.M.v.v.i.E.B.c...V Q g s.E.L.1.m 7 } s.r.I Q -.4.=.$.&X|.'.'.Y.} >.L.c.B.M.B.s.L.E.B.' r.c.c.Y.B.E.L.p.@.=.E.D.s.l.L.U.B.L..X'.P.n.0.B.}.'.&Xv...-.s.U g i.E.V.Y.P.M.v.V.G.l.v.L.L.T.E.~.2.c A r.p...A C E @.-.c.T.L.1.c.].~.B.2.B.n.c.v.L.T a h 7 g m h K A U t.n.c.n.L.~.!..XP.1.r.B.U.'.'.B.n.n.~.E.n.n.c.B.G.-.g O.L.T.&X].k.Q Q P.B.M.Y.E.B.D.M.,.-.L.Y.M.=.A ..1.v.L.r.U A A Q p.E.c.p.s.s.s.c.c.l.c.c.c.D.D.D.P.L.B.B.D.n.n.L.P.Y.i.) ..v.E.E.Y.v.v.v.E.'.;XB...=.,.Y.&XE.M.1.} -.i.,.p.s.M.M.B.i.s.p.M.Y.M.Q 8 7 7 g i u ..Y.E.c.M.L.v.c.=.Q V ..c.M.c.v.M.v.v.s.m.g.v.c.g.i.v.M.B.v.=.m s m g ' ' r.E...,.r.P m P x.}.OXB.B.6.r.'.p.T C i 7 c 2.t.1.p.-.1.s.1.1.-.i.v.B.c.i.r.M.M.=.1.M.s.} ,.} g g g ,.L.I g 7 g i V Q ..=.I p.v.}.A.....C m ^ Q | =.p.B.B.6.r.A 8 7 i A g i ..E.'.-.7 2 } ..B ..'.,XB.p.c...' -.|.XXk.Q A s.v.B.V.M.c.k.s.s.c.s.s.v.v.p.,...0.1.' E Q @...r.!.r.I B C m I =.A m I =.t.|.;XP.!.r.,.c.'.B.v.M.,.i.v.s.M.c.s.,.' O.r.s.l.s.s.k.d.l.d.p.p.s.l.l.p.l.l.s.s.d.d.c.c.s.n...C ! -.' C u Q c.s.=.r.L.Q ^ 4.=.$...s.m.1.I r.E.I T s.0.l.0.:.",
"t.T.A.B.x.c.x.v.| 5 $ = = ..=.= A v.-.Q v..X].E.L.E.M.v.Y.L.L.Y.B.v.E.Y.E.T.L.1.A =.r.G.B..XE.Y.p.Y.'.}.r.A U ..B.'.E./.c.-.r...s.r.M.R V r..X$X'.Y.E.E...r.E.c.v.v.Y.B.B.L.B...r.E.r.v.M.M.=.I Q ..D.r./ { p.{ p { L.y.;.0.@.l.E.T..Xv.=...1.r.2.L.B.v.E.L.k.Y.c.V.c.v.G.G.L.B.=.i 8 @.s.B.s.' c -.B.P.!.G.B.T.Y.v.v.Y.E n.L.@.l.B.T i B A I B A A B =.'.T.r.k.XX-X~.B.2.{ 2.P.L.L.B.L.P.l.'.L.n.l.c.B.c.-.c -.G.P.n.s.l.l.B.!.Y.B.E.E.B.L.M...s.E.B.Y.E.L.E.L.L.v.Q i A } 1.Y.E.c.p.c.v.v.M.v.d.l.s.c.D.B.c.v.n.B.G.B.l.n.L.G.M.} V ,.Y.'.p.p.s.}.Y.}.E.B.Y.E.}.E.E.;Xv.v.i.,.s.M.s.c.c.Y.M.M.c.B.M.s.r.=.' V z g 7 * $ . u -.M.c.B.v.v...' U V p.Y.v.M.L.v.c.c.M.c.B.c.c.i.v.c.C.s.I i ' g.-.^ O.B.L.B.c.Y.x.Q c.B.}.1.l V U M.T.=.c u T B t.s.7 A 0.c m V.&X&X}.p.v.v.c.c.v.s.-.i.,XE.Y.E.s.'.r.V 7 g A V m =.i.g u A ..A Q ,.s.&X1.U L.x.v.r.c.OXOXL.,.1.,.A 7 g } ,.s.....v.s.Q 7 A 1.L.r...T.P.i.s.v.2.E U I Q r...u Q L.Y.E.Y.v.p.t.s.k.k.s.s.v.v.1.' Q 0.0.I K s.~.s.L.].-.C m A K =.V.B.s.-.i.|.&XB.p.O.] 1.s.B.M.E.T.1.i.c.i.n.v.c.-.-.r.s.c.c.v.c.c.r.s.l.l.l.l.d.s.y.l.l.s.l.d.d.c.n.p.s.m 8 A p.c.x.p.B.`.c.g.}.&XB.x.>.} Q ..g.B.L.M.L.G...k.E.G.E.~.].",
"s.L.B.M.v.s.c.P.' . 5 I 7 P =.2 Q B.U 7 Q ..r.s.B.Y.V.B.v.r.r.B..XE.v.&XL.M.t.....s.Y.&XXX*X|.}.Y.'.6X}.E.v.Y.E.Y.v.E.L.E.E.v.' =.p./.m...M.}.}.'.|.L.v.i.v.v.Y.L.L.B.c.v.B.M.p.s.Y.Y.B.c.L.s.i.s.s.{ g A ' T ' ..:.y.=.' g A ..i.Y.c.L.k.,.i.M.XX!.p.s.v.L.v.L.c.G.G.B.L.c.P.n...c i ' r.n.c.K g 0.#X<X].L.P.].~.L.V.s.{ c.c.I c.k.] u i ..t.0.@.M ) r.c.c.P.P.L.V.v.l.0.0.G.~.'.T.B.L.G.c.v.c.k.l.s.v.G.p.1.n.G.B.l...0.~.L.~.'.E.Y.L.M.B.B.c.c.v.L.E.E.'.'.L.B.c...V Q v.E.}.L.-.'.v.p.L.v.c.u.n.c.s.l.c.n.B.B.B.s.p.B.c.G.L.L.U S v.B.1.,.1.=...=.v.'.c.c..XE.r.'.E.i.s.r.p.B.B.d.s.M.B.M.v.c.B.M.B.=.U ,...} } A u u V 2 8 -.v.v.i.v.-.' U g ,.Y.p.c.s.i.M.c.c.L.c.s.p.1.s.M.c.r.m 7 ,.B.1.V.A.v.*.Q s.B.P ' v.B.-.u g U P s.E.A V E s.E.B.U 7 I V A ,.B.B.i.) =.v.L.Y.B.B.p.&X3X.X|.E.c.M.E.s...i.Q u 2 c.,X}.-.A m I M.v.`.E.|...' B.v.L.`.|.L...C 8 u i u u ..M.Y.v.r.L.U.L.} i.L.' V I r.=.t.1.i.1...Q 1.-...l...A =.*X,XY.Y.B.i.t.s.p.c.p.=.P.M.g g E r.r.0.s.p.r.V.'.s.K C h H 1.!.'.E.E.|.;X&XM.=.-.=.=.p.k.L.v.t.} I 1.c.r.c.i.r.-.1.c.i.i.M.M.v.s.s.c.r.8.p.s.p.c.s.p.p.p.r.p.d.s.c.r.1.' l.c.'.&X`.'.E.L.L.E./.E.B.Y.c.| Q U r.A.}.'.c.V.!.!.'.V.U.G.v.",
"s.P.L.A.A.v.L.!.c.,.L..Xc.k.s.P } A g A H U =.-.M.c.s.k.c.r...} s.P.|.].@.@.=.,.M.T.E.L.M.p.=...A m.|.v.L.Y.;X}.M.E.M.B.Y.$.m -.L.=.i.B.r.E.&X|..X|.B.m.c.B.v.L.B.B.M.B.L.L.B.v.L.L.L.v.M.Y.Y.L.L.n.n.l.l.c.p.c.1.r.G.r.' i 2 u =.E.L.M.p.s.v.s.v.B.p.l.v.L.M.Y.V.~.E.L.E.G.L.s.:.E :.L.E.n...B Q ].<XY.s.p.c.'.E.Y.L.c.:.v.n.' B.Y.G.l.c.L.E.V.u.0.c.~.].,X*X'.1...:.k.c.G.E.T.V.n.s.c.B.v.B.n.k.l.c.G.L.k.p.V.l.P.s.:.p.n.V.L.'.Y.M.v.c.v.M.v.s.B.E.Y.Y.'.}.E.Y.E.Y.E.'.'..X|.r.V ..c.L.c.p.L.c.B.n.d.c.B.n.n.s.s.l.c.D.G.E.l.I g / c.p.1.,.A g 7 =.Y.M.v.M.B.A i 1.v.r.p.i.c.v.B.B.L.B.s.p.v.v.L.B.r.} =.r...I ' -...A 7 g ,.1.=.i.M.p.U U A V ' B.v.r.B.c.p.c.m.v.v.c.s.h.c.s.1.I g k ' E.i.p.c.| A Q =.L.,.I s.A.c.' | s.L.E.r.' ,.c.}.P.-.m ..,.O.i.V.B.-.{ g g c.E...L.L.E.;X.XL.M.s.1.1.i.' Q E.p.7 i }.'.L.-.U p.Y.}.&X}.|.T.B.B.B.`.|.E.:Xx.7 P | g 7 7 m g g m g ' E.}.L.|.'.=.g U v.].s.t.1.=.I V E }.L.Y.XXk.r.Y.&Xn.r.c.v.p.s.k.s.p.i.v.i.H * i s.0.s.p.B.~..XXXU.-.A m U L.].n.s.=.-.p.c.c.t.1.c.t.r.k.s.v.i.=.A u r.} E ,...2...s.V.v.v.Y.Y.B.s.1.r.s.c.B.n.s.s.l.l.l.c.c.n.n.l.l.s.v.k.L.v.V.G.B.L.L.B.A.T.T.L.`.B.c.x.M.L.|.,X'.c.r.=.0.n.c.L.l.s.r.",
"6.L.L.B.V.B.A.P.6.M..XXX!.!..X].2.u m 2.v.L.Y.B.c.s.s.c.p.r.-.} Q ..s.i.m C A ,.V.M.,.E ' U A U Q .X}.w.C.B.L.=...Y.Y.E.s.Q m r.Q 7 Q E.L..X;X'.'.L.p.c.B.L.B.L.v.c.c.M.B.M.v.v.s.s.L.v.l.r.L.E.#XL.G.n.s.B.E..X'.'.&X1.K m q g c.E.B.L.v.p.c.v.-.s.s.v.v.Y.L.E.~.E.n.c.G.B.L.B.1.t.'.G.t.O.m I E.-XP.t.s...U 0.G.G.P.l.r.k.c.=.v.G.P.E.P.P.T.E.~..X]..X].XXv...I m 1.B.n.L.L.L.B.l.r.k.n.v.B.M.k.k.n.L.G.l.k.B.L.|.1.=.u.r.G.G.Y.L.v.s.h.v.M.v.s.L.L.v.M.Y.L.M.E.|.E.;X.XL.U.y.S A U ..v.M.M.v.n.D.n.c.B.D.n.v.n.l.B.n.c.c.n.) 7 7 Q c.p.M.B.Q i i v.'.i.c.v.v.Q g ,.M.c.v.p.c.M.M.c.p.c.v.c.c.M.D.L.,...c.s...} =.v.c...m ,.}.r.=.1.i.-.I A u ..c.v.d.p.L.s.c.h.M.s.m.s.i.v.i.r.} i g g Q m.p...v.M.B.x.=.}.r.Q s.c.M.c.c.p.6.Q U E..X!.L.p.1.1.B.} c..Xi.r.'.E...m s.s.U Y.E.&X|.L.s.p.p.r.-.=.I m p.}.Y.Y.E.p.1.....}.E...c.T.E.r.s.B.B.'.T.E.|.^ ^ ;XOXc.E A m g ' U M p..XM.p.r.Q } ,.c.v.=.H m B A h B ,.v.1.1.r.U =.E.V.1.=.i.k.p.k.s.s.p.v.B.A $ g ..V.c.B.c.G.E.!.G.0.] h ' 0.E.'.t.' -.1.c.c.t.r.1.c.c.s.k.s.k.r...m g I g ..p.=.-...1.v.v.v.B.M.v.p.c.l.d.u.r.s.l.s.8.r.y.s.c.n.n.d.s.p.l.l.s.t.t.i.s.c.c.x.x.m.c.g.x.c.s.1.B..XE.`.s.p.:.H ' c.k.c.l.l.l.",
"2.L.L.v.v.v.B.M.6.B.L.v.c.L..X,X.Xc.r.k.E.'.M.k.V.M.B.v.i.p.s.r.r.} A h u ' i.T.M.s.} i g i A ' s.;Xm...'.}.L.r.s.'.Y.c.1.=.1.B.c.$.1.C.m.}..XL.B.p.,.s.L.Y.C.Y.M.M.B.J.L.B.B.M.s.s.Y.'.E.c.E.|.&X.X#X'.'.&X.X}.~.G.B...g u A =.&XE.c.Y.B.r.s.E.s.L.Y.E.Y.}.E.L.k.! h ' B.T.B.s.l.P.~.1.2.k.Q A 0.r.1.k.l.H 7 ) c.B.P.c.v.c.B.k.G.G.B.v.c.n.L.~.{..XP.G.B.1.I i B h s.T.c.B.n.B.V.c.r.s.n.M.G.n.c.s.v.L.B.l.c.v.B.L.! ] c.c.E.P.v.M.M.v.M.B.M.v.c.v.i.r.n.B.s.i.s.B.s.c.M.B.M.} A s.1.-.c.Y.}.v.n.B.c.c.B.B.n.n.n.l.c.d.l.d.c.{ Q A } v.M.c.s.' U i.'.E.p.p.i.L.' I r.B.c.M.c.v.B.L.s...,.B.B.c.B.M.v.p.p.v.c.-.} r.M.v.r.1.E.E.1.p.%.Q I g m V c.E.,.r.c.s.c.p.s.v.c.M.p.p.g.r.i.' m m g ,.p.M.x.M.L.B.Q Q '.,.M.&XL.p.s.B.c.x.k.M.}.1.Q I m ] v.M.c.'...=.Y.1.B.=.} c.-.B..X.X.XL.c.s.s.v.c.8.Q ' =.i.}.,X'.' } Q ..i.|...8 ..L.A.x.r.r.p.L.|.E.r.I p.E.r.T.A.M.s.i.r.-.M..Xv.1.-.' } r.' s.v.u i g E ..1.1.M.t.-...Q i Q B.v.V.p.s.s.p.k.s.s.v.k.s.r...-.v.G.B.V.n.B.c.0.r.0...T l.v.B.L.l.1.i.s.B.v.i.i.i.s.k.p.s.s.k.t...g B 2 A M.s.p.r.0...p.c.c.s.s.v.c.n.l.c.c.c.U.G.r.s.l.l.s.l.l.y.0.v.s.t.k.1.p.s.k.i.p.p.p.p.s.i.6.1.5...l s.A.=.r.1.i.Q I 1.n.L.t.s.s.l.",
"t.T.P.M.B.B.V.B.k.B.P.B.x.v.B.s...L.P.P.}.T.v.t.p.i.p.t.r.s.c.2...-.I i g -.V.v.v.s.i...=...i.v.Y.E.,.} E.L.p.E..X|.g.4.v.-.,.m..X'.v.p.1.v.L.L.v.i.r.c.E.L.B.L.B.L.L.M.M.L.L.M.B.n.c.}..X.X&X&X]..X'.P..X].s.1.=.) / 1.Q g @.~.*XE.v.c.v.c.L.P.L.E.E.T.Y.~.c...g i I r.B.U.P.P.E.c.' K s.'.1.B ! @.v.'.T.t.:.p.k.v.L.c.n.c.B.B.Y.Y.L.M.v.V.L.L.B.v.c.v.B.U Q =.B m c.!.n.G.n.v.B.c.0.s.n.B.G.n.c.k.v.V.B.B.B.n.v.c...:.G.G.c.p.p.M.M.v.B.B.v.v.s.p.1.p.Y.B.s.s.s.v.M.v.B.Y.i.U / s.i.Y.B...r.M.c.B.n.c.n.n.v.n.l.c.d.s.B.c.c.0.' ,.i.s.i.} I g i.;X'.L.v.s.i.M.U Q v.B.s.c.v.M.L.E.v.' ' s.n.v.M.M.i.c.c.p.s.-.V r.B.B.r.Y..Xs.M.c...I m m =.L.B.=...r.c.c.L.i.c.v.M.c.r.m.s.v.1.I m m A -.c.E.L.M.M.v...s.p.u 1.A.6.1.A.&X;X,X|.c.E * . * = g s.,X2Xc.7 =.M.V Q m Q ,....X&X}.E.c.p.c.s.v.v.r.A U E.|..XB.=.A ..=.r.B.B.A U E..XB.6.x.x.p.L.}.-.A M..X'.A.M.B.T.Y.v.1.v.}.M.1.,.Q =.B.Y...p.} g H ' M.'.,X.X.XY.!.E.c.,.p.|.;X.XL.v.p.p.v.c.v.k.s.c.c.r.i.B.B.B.B.c.l.r.=.:.:.' -.c.s.'..Xn.n.v.c.M.s.0.p.s.s.s.s.s.c.k.p.' i 7 A v.}.t.k.t.-.-.i.i.i.i.s.M.c.p.l.c.r.0.B.U.s.r.c.l.u.s.l.p.p.c.s.t.n.t.v.c.s.i.p.s.s.g.x.x.s.} y d l L.B.1.6.=.Q g ..B.c.l.s.l.l.v.",
"t.P.V.v.B.B.A.V.x.k.B.V.k.c.x...I s.'.;X&X!.L.i.-.1.r.1.=...} U ' B.P.V.i.,.p.,.=.Q 1.L.}.;X,XE.Y.E.v.i.B.=.R M.'.B.i.-...I 4.c.C.c...i.'..XB.i.s.i.s.m.E.B.B.L.M.B.M.c.v.L.L.M.B.M.-.l.B.E.'.}.'.n.' m Q T p z c A m ..Q } E.,XXXY.M.c.M.M.L.M.M.B.v.L.G.P.:.h K g K =.0.P.G.r.L.=.U { c.P.c.p.'.E.XX.Xv.c.E.~.G.P.P.n.c.k.v.c.v.B.B.v.M.V.M.s.p.2.s.v.B.A -.E.I ! L.'.c.v.n.B.L.B.u.l.B.B.B.l.p.s.c.v.B.B.B.n.V.B.c.c.G.B.2.:.i.B.B.c.v.M.v.B.d.p.s.L.E.M.s.M.v.v.Y.Y.Y.i.A m A U ..|.s.7 m p.n.B.n.c.n.n.c.v.c.B.c.s.G.d.p.1.g c.M...A g u 7 } c.=.i.p.B.L.s.i.i.B.B.c.B.M.c.E.c.-.A Q p.c.B.v.L.i.p.s.r.c.,.Q i.M.L.s.'.|.v.1.Q g g 7 ' E.E.r.Q i.,.-.-.r.L.B.L.c.1...p.-.s.$.V g A -.Q L.E.}.}.A.c.M.|.} d i.M.r.M.Y.p.Q I 1.g = i m V u u p.,Xc.A i A i } i.} 1.c.M.E..XB.v.p.p.s.p.c.v.s.Q } .X'.J.c.,.r.L.E.v.s.=.A M.,XT.B.=.i.6.6.E.6.A g ..s.E.L.x.c.B.r.v.Y.'.E.p.c.A ..E.Y.L.1.1.v.&X}.'.,X&X].|.].}.,X&XP.B.s.E.&XT.v.s.r.s.v.c.v.s.c.c.A g =.i.c.l.n.l.s.k.l.t.{ ) 1.B.G.&X#XG.r.c.s.B.v.p.c.k.i.k.c.c.M.c.v...m ' P.L.s.-.O.=...r.r.,.,.1.p.M.p.p.M.s.K < q ) 1...p.l.s.l.l.l.n.l.s.i.v.s.c.t.r.x.x.x.x.x.c.x.x.^ 7 $.g.`.B.s.^ g u } k.B.c.2.c.k.s.s.",
"r.V.M.c.B.B.V.V.P.B.V.B.s.v.V.s.r.i.B.L.Y.T.P.T.c.c.i.-.] ! Q } M.E..X.XL.=.' ..I i ' M.p.G.E.=.i.'.E.L.Y.i.-.c.M.s.1...m I Y.E.B.Y.L.&X}.M.v.Y.r.i.c.m.E.M.M.C.L.L.M.v.B.Y.Y.B.v.Y.-.-.s.s.L.E.B.1.S 9 g A g g i S m A A s.+X~.}.v.M.B.L.c.M.n.B.v.c.Y.P.!.1.g A q A E 7 c H H s.=.B.L.B.'.'.&X*XXX#XG.Q T c.'.&X#X].T.v.B.V.B.M.B.B.M.M.B.M.c.c.s.c.v.B.! p.L.=.s.~.!.k.s.B.B.G.B.s.c.B.n.n.s.1.c.v.c.B.n.l.v.v.c.n.B.B.B.n.l.r.B.B.c.v.v.v.Y.v.s.M.E.Y.v.c.c.i.s.p.L.L.Q i m i V -.L.} g U s.B.B.c.l.n.n.c.c.s.d.s.p.n.n.n.:.g 1.,.A 7 7 g g g A u I Q s.L.M.B.s.s.s.p.v.c.i.v.=.Q m ..Y.B.B.M.B.p.i.s.s.c.p.p.1.p.B.E..X'.M.,.' U ....L..Xv.=.s.Y.i.Q m Q M.v.L.=.Q A ' A Q ' I A -.M.1.Y.E.s.B.M.c.L.B.m A p.E.E.`.i.C y P c.C g *.L.r.U Q E.B.=.^ P *.=.r.E.B.E.E.}.E..Xc.p.s.c.s.p.c.B.M.-.v.,XM.,.p.c.L.|.|.s.1.-...E.E.p.A.x.-.A ..T.| d m l ,.B.Q ..1.B.v.Y.E.L.Y.v.-.' M.E.Y.}.i.-.<X,XE.Y.E.p.=.G.'.!.'.P.k.p.=.r.s.c.p.p.r.s.v.s.c.M.p.=.A g H ] s.0.n.B.G.L.P.L.p.r.c.'.&X.XB.c.......c.B.s.c.c.p.s.c.s.v.c.B.1.Q !.'...h I A Q ..=.-.:.,.-.r.M.s.p.p...p X O $ p { c.L.n.c.s.r.l.c.c.s.k.s.k.p.k.c.c.x.c.x.g.s.p.s.p.|.oXB.2.-.A m E L.!.v.v.l.v.L.G.n.",
"t.L.B.B.L.V.A.L.V.A.T.L.M.V.T.T.B.M.E.c.M.M.1.Y.M.i.' E 1.B.'.,XXXP.Y.B.L.s.I g I g -.c.g V =.U p.&XL.s.g.s.s.=.i.B.-.1.i.s.B.Y.'.v.r.'.}.Y.B.c.i.p.B.M.E.m.M.M.L.v.c.v.M.B.M.M.v.Y.-...M.c.L.B.-.{ Q m A :.1.' ' ' ..0.r..X&XP.L.s.B.B.L.M.L.V.Y.v.c.L.B.L.=.g A 7 ' t.q = 2 i k.O.c.{ ' .XXX].P.T.E.v.2.l.~.]..X].E.P.s.G.L.B.B.B.B.B.M.v.v.c.V.V.c.B.E.v.P.M.B.P.L.B.l.c.L.n.k.k.r.s.v.v.n.s.1.B.L.B.G.v.s.c.B.n.n.B.v.c.n.r.1.L.Y.v.v.v.v.Y.v.p.v.Y.Y.L.B.c.M.E.s.E.E.U u g 7 A i.1.g ' i.M.B.n.s.s.n.n.c.c.n.l.c.s.s.M.L...g i u g g V Q } 1.r.I V g ..-.M.p.s.M.v.,.......} } =.' p.&XE.c.M.s.p.p.v.v.s.m.1.Q 1.M.&X.XL.p.s.c.v.;X&X'.v.i.c.;X.X;X..g -...1.M.I V k V 7 e g m U s.v.'.v.B.1.-.p.x.M.6.U *.1.T.E.'.s...-.A.r.} =.1.&Xs...'.|.6.A A A p.`.M.c.v.p.Q U s.B.1.i.v.M.c.p.c.M.M.M.M.E.|.'.L.v.B.Y.v.,.p.'.}.&XB.`.6.,.A u ,.s.A m 7 g 1.L.} U | -.s.1.v.'.p.' A Q }.E.Y.E.M.E..XE.M.E.B...A c.B.r.,.2.1.p.1.c.i.s.s.v.s.c.v.p.k.s.B.Q g u i =.t.r.V.T.E.v.0.p.k.n.].E.T.E...) ' =.=.v.B.i.i.l.c.s.s.i.s.p.M.r.' 1.' Q i H I i i m Q ....E ' p.s.M.{ 7 3 c i < & z ;.c.l.l.p.r.c.p.d.p.i.s.p.i.c.s.s.x.c.m.c.g.s.s.C.s.c.1.....x.Y.Y.E.XXL.n.E.l.E.G.n.",
"i.L.B.Y.B.L.L.L.G.B.B.L.L.V.B.B.B.B.B.B.B.B.M.v.1.=.p...} E.,X,X].L.Y.L.L.t.K U =.=.1...g ! Q m s.`.1.' x...P m ,.|.s.,.} 6..X.XE.Q Q B.v.m.v.C.g.v.B.C.B.m.M.C.L.C.B.B.C.L.B.M.M.L.v.M.Y.'.s.1.' i.=.A ,.L.B.L.M.c.-.v.&X'.L.E.T.p.v.Y.B.B.M.v.v.v.c.B.P.L.2.B V g r.;XM...-.=.r.1.s.s.M.'.c...T c..X!..X]..X#X.XL.c.B.G.B.B.L.M.M.A.B.M.B.M.B.B.B.M.E.B.*.6.L.L.v.v.Y.L.s.k.L.v.c.k.c.v.v.v.v.B.L.B.v.n.l.p.l.l.B.c.v.v.l.l.r.=.M.}.v.M.L.U.B.M.r.i.Y.L.M.B.i.B.C.M.Y.v.p . g Q } ].X.m T S 0.G.p.B.c.s.Y.B.v.v.v.s.s.s.Y.E.I 8 i m g Q p.M.v.M.Y.r.i.-.g 7 i.B.n.L.X...,.1.s.r.c.} V M.;Xc.c.M.1.s.c.c.v.i.s.1.A c.B.Y.B.M.c.k.B.~.P.B.r.t.@.0.B.s.k.K T M.-.' ,.c m i g g g 2.,.1.E..XB.v.c.' ,.s.s.c.M.=.p.' s.|.s.} Q M.=.g I I s.T.1.p.}.!.-.V u A -.l.M.s.s.,...1.B.B.i.s.k.v.v.c.c.c.v.p.c.}.!.c.s.p.p.p.-.v..X&XY.E.v.B.i.m u B Q H 1...u H '.Y.A = U ) ' { ;.{ g m X.r.E.Y.B.L.Y.E.).B.J.C.s.M.s.M.G $.=.r.s.s.r.i.s.c.c.c.v.s.s.M.p.M.c.A * u ..p...c.~.E.l.0.1.u.s.r.v.V.G.l.) t.v.L.!.L.s.2.t.k.s.s.l.p.t.c.E.B u i M c.! u i u K n.l.U q 0 K p.c.~...7 u u m V i 7 ..v.s.r.i.p.p.s.p.p.i.s.s.s.s.s.i.p.s.g.g.g.c.g.g.p.E I | B.E.L.s.].T.k.k.2.c.L.v.-.",
"i.Y.L.Y.B.L.L.Y.G.B.V.L.L.B.B.V.c.B.L.B.c.v.L.E.t.s.}.E.L..X!.B.c.E.B.v.v.I g c.v...1.Q u ..M.,.B.s.A g Q A l g ..3X&Xx...p.|..X,.=.-.=...p.C.L.M.M.B.L.L.L.L.L.B.C.C.J.L.Y.L.B.M.E.L.L.}./.Y.L.,...m A E.|..X|.E.Y.B.}.+XP.L.E.E.s.v.L.v.M.M.B.M.M.c.M.L.L.c...g } E.E.@.c..X|.s.1.d.E.|.}.r.A g ..c.:.) r.].~.s.c.V.P.L.B.v.c.M.M.A.M.M.L.M.B.c.B.M.L.x...1.B.B.B.B.M.c.c.v.c.Y.L.B.M.M.B.V.L.n.V.v.l.v.c.l.n.k.n.n.B.B.l.s.:.1.c.Q ' M.M.v.L.;...L..XL.c.v.Y.m.M.B.B.s...-.E.-X'.~.@.) Y T G.B.c.c.c.v.B.B.B.s.M.s.p.s.E.M.g * m ' =.s.Y.B.c.c.B.v.B.Y.1.u $ r.v.i.-.i.r.c.s.i.=.I } Y.E.p.v.v.c.B.B.B.L.v.r.I g v.}.|.L.,...H ) p.v.c.2.c.B.s.n.1.) C A E I ..H i H V A B ! '.|..X,X.Xv.c.c.r.i.r.i.s.p.U =.B.L.c.Q i V s.-.U U A 1.T.2.' p.v...Q ..s.Y.Y.B.l.s.L.&XXXB.i.s.s.c.c.c.k.s.s.c.s.c.V.s.r.s.k.k.c.L.E.P.B.p.i.,.-.,.U u 2 2.Y.M.-.Q ....m i u 7 i 9 A S S m 2 =.Q =.c.Y..XE.i.m.B.J.B.E.E.L.J.h.s.i.s.c.c.s.i.i.v.c.v.v.c.c.v.M.Y.i.u i A Q ' Q P.~.V.u.0.0.s.u.l.l.u.p.p.@.v.V.B.B.c.t.t.l.l.p.l.s.k.l.B.L.c 4 0 H @.T g m +.s.V.P.v.Q C -.l.p.' m 8 V U A Q ..i.s.c.s.s.i.1.r.i.i.y.i.s.s.s.s.c.s.s.s.s.s.s.s.r.m.,.U | r.x.r.O.s.k.k.t.B m B.l.0.! ",
"i.Y.L.Y.B.G.L.Y.L.L.L.Y.L.B.B.L.M.L.Y.B.v.v.V.P.P.Y.}.E.L.E.v.v.E.M.v.v...Q t.B.Y.v.v.} E ,.E.'.|.B.*.Q m u g ' L.:XT.i...,.s.Y.E.m.=.Q r.C.L.M.C.B.B.L.L.L.L.L.B.C.C.B.B.C.B.M.v.Y.L.B.E.i.s.m.p.,.' p..X}.v.E.'.M.B.E.Y.M.B.L.Y.s.v.G.M.M.M.B.V.B.c.v.B.L.Y.s...c.E...i s.|.L.M.i.c.}.E.n.s.=.r...1.r.Q r.P.p.1.c.P.L.B.V.G.V.B.M.A.M.M.L.B.A.c.M.M.A.v.r.x.E.E.c.s.B.L.V.V.B.B.M.v.c.k.c.v.M.c.c.k.k.v.v.l.c.l.n.c.v.n.v.v.p.m V I 7 A ..B.1.I V c.L.p.v.v.B.s.v.L.E.Y.E.|.&XB.G.E.P.~.n.U.<XB.v.i.c.n.s.v.B.B.v.i.s.M.'.' = A V } M.M...-.E.B.c.B.E.'.B.=.g =.M...g Q 1.E.E.Y.L.v.v.r...1.s.v.M.v.v.v.B.L.p.v.i.}.;X|.v.A 7 g g ..n.P.c.P..Xl.l.n...K h B :.i.I A V m =.s.P..X&X|.'.B.c.Y.'.i.s.p.c.B.1.g Q B.r.Q Q U } v.v.L.B.v.v.B...B p.-.,.c.'.;X.XE.Y.V.Y.'.|.Y.i.2.s.x.c.c.c.k.s.s.c.v.M.c.-.,.c.c.c.Y.].Y.v.M.M.=.I A u m i.s.V.r.Q ..=.s...g i B U I ) K c g ' i.~.-.,.L.E.E.B.>.M.M.E.E.Y.E.E.v.E.B.c.s.c.v.c.s.p.s.s.v.p.c.B.M.E.c.A 2 i A Q ..p.].E.s.r.p.u.l.t.s.k.r.t.s.0.n.c.c.l.p.p.k.c.c.s.l.i.l.l.G.p.u 8 B U g 7 T P.P.1.:.G.].-...~.c.c = * g m i ' E.'.B.L.B.v.y.,.i.B.p.p.p.p.s.s.s.s.c.g.s.s.s.s.s.s.c.E.| g C ..2.r.O.r.*.] B B k.!.V.V.t.",
"i.L.B.L.B.L.L.L.V.L.Y.Y.L.B.V.Y.Y.Y.L.V.L.L.B.v.B.M.B.M.V.M.t.v.P.B.i.Q ' P.|.p.L.!.'.B.L.L.!.;X,XB.' } ..=...s.&Xp.E U U 6.A.&X|.|.Y.B.&XL.c.M.B.M.M.B.B.B.B.C.B.C.B.M.M.B.C.B.Y.E.v.1.1.Q V I Q Q -.,.M.-.g Q I V i.].}.E.L.L.B.s.M.L.B.M.v.M.L.B.c.v.v.B.Y.c.i.M.Y.1.Q '..XL.Y.B.L.'.M.y.B.s.r.I ' c.0.B.v.! ) 0.B.B.n.n.n.c.B.M.V.M.M.L.B.B.B.M.c.B.L.A.A.Y.P.s.s.V.B.v.M.B.c.v.B.M.v.c.v.v.s.s.s.l.n.v.s.t.c.n.l.l.c.n.V.c.i m E.Q . Q 1.V I i U I A i.M.p...i.L.Y.Y.E.L.s.B.d.L.P.D.G..XB.v.-.,.c.c.s.M.M.s.B.M.M.c.L.V 8 V ..c.Y.M.r.i.s.p.=.s.c.r.U ,.M.i.-.m $ ..'.E.v.M.i.-...A I i.r.M.v.i.c.c.s.B.c.Y.c.c.M.L.L.Y u C T l.E.].P.B.s.I T p...C A 0.'.=...t.0.2.v.M.v.L.E.Y.B.v.v.M.c.' r.c.v.L.=.i ' p.s.r.M.p.i.v.v.c.c.v.Y.!.V.M.E.r.L.}.&X].Y.L.L.B.'..XY.k.s.s.i.c.c.c.c.c.c.v.v.v.B.v.1.i.v.c.v.s.s.r.s.s.i.g X 2 u g ' r...Q -.t.r.M.k.1.E ..B.n.s.=.@.y.U.P.' U 1.'.E.C.v.4.v.M.L.E.i.C.r...B.c.i.i.s.v.c.g.g.p.s.v.i.L.}.i.i.=.$ i g Q M.}.,X].V.r.t.s.s.c.s.r.c.c.c.k.t.c.k.l.l.l.l.k.s.l.c.c.r.l.s.M...q i i ..1.B A n.r.1.P.G.l.! ..#X~.K 7 u A Q ,.L.E.I A ..r.i.c.v.p.r.g.g.s.g.h.s.s.p.g.s.s.g.s.s.s.c.B.c.g 8 8 U 1.x.v.r.r.6.U t.*X@.@.k.l.",
"i.L.B.L.B.Y.L.B.L.L.Y.Y.L.B.V.Y.L.V.B.B.L.E.L.v.v.c.c.v.Y.M.s.V.B.L.B.Q -.,XL...M.r.r.E.}.&X|.P.L.=.0 g *.s.*.s.*.g 7 u u p.T.s.p.}.'.Y..XC.M.L.B.B.B.C.C.B.C.Y.B.L.C.M.B.Y.E.Y.Y.C.} g U 1.A g m ..c.,.v.g g A Q U B.|.L.M.v.Y.B.c.B.L.B.B.c.M.V.B.v.v.M.B.L.s...r.E.}.E.;X.X}.L.L.B.Y.M.s.i.I 0 g T @.Q ..T 7 $ m 2.G.L.B.c.c.B.M.V.v.M.G.M.M.M.M.v.v.L.L.v.v.L.B.P.L.k.s.M.c.c.M.B.B.v.c.v.M.k.s.s.c.n.n.l.r.u.n.v.B.B.B.B.c.u } '.p.i 1.U U g i U 1.s.Y.L.....v.E.L.M.s.s.B.W.l.L.c.l.B.y.c 0.A -.v.s.B.B.v.y.M.c.i.s.E.Q A i.E.|.E.B.M.p.I B.s.Y.B.s.A -.E.i.I 7 g p.c...Q =.A i A A ..E.Y.c.v.s.v.v.c.M.i.Q U A I =.L.-.Q I r.*X#X{.'.B.2.C ..c.l.B.B.P.l.' 2.v.L.E.V.M.P.E.E.L.c.v.B.c.r.m =.p.s.M.' u Q s.E.Y.}.c.i.c.c.B.B.c.B.v.B.}.c.c.}.!.B.c.c.B.M.L.E.'.Y.c.i.p.c.c.v.v.v.v.v.v.v.c.M.M.p.k.v.s.M.Y.1.=.} 7 2 = 8 i B m g Q 7 Q Y.'.p.c.p.s.p.v.k.p.u.].c.c.@.c i } M..X}.C.g.s.g.M.r.p.i.B.~ s g.s.i.p.c.v.c.s.c.c.s.v.M.}.B.V g m = m V p.Y..X&XP.k.0.k.k.p.c.k.s.n.v.k.t.s.n.n.c.c.k.c.k.s.k.v.v.t.v.s.v.Q i A C =.B.l.s.P.k.G.].L.v.P.'.&XE.U V Q m V s.1.U g U c.'.B.i.r.p.c.c.c.c.c.c.c.g.s.s.s.s.c.g.s.s.c.B.} 7 E ' p.s.t.k.1.2.c.B.!.V.U { s.l.",
"r.L.B.Y.L.Y.L.L.L.L.L.L.L.B.V.Y.B.B.B.M.B.V.L.L.Y.B.s.s.B.v.v.P.Y.L.E.-.r.B.I V v.=.g ..'.,XE.c.1.=.A ' v.B.s.E.' d g C A L.'...R ,.-.p.'.E.E.L.B.B.B.L.C.B.C.Y.C.Y.L.M.M.L.Y.L.J.v.i X I }.i.A V i.' M.B.Q Q Q ) ..E.'.E.}.B.Y.Y.M.M.v.M.B.v.L.B.M.v.B.B.V.L.s.:.r.B.}.|.E.Y.B.B.B.M.M.M.M.r.U ] t.c.p...Q K I c ' l.U.L.c.B.E.V.M.V.v.M.G.v.v.c.M.L.B.B.B.c.M.P.i.p.L.B.B.L.M.v.v.v.c.p.p.c.v.n.s.k.c.c.B.B.c.t.n.B.L.L.L.E.L.V ,.L.,.Q Q V g I g U D.&X}.E.p.L.}.E.B.M.s.c.'.B.i.s.=.p.1.Q _ 1.U s.L.v.Y.v.p.v.i.,.r.p.p.U ,.L.c.v.}.L.s.'.'.B.M.M.r.M.i.p.s.p.' 7 V ' A 1.1.Q A m I { c.}.Y.p.M.v.s.v.Y.L.-.2 u i m } B.c.p.!.G.&X].L.p.:.2.:.c.1.B.-Xl.' T 1.E.}.'.|..X}..X.X'.Y.s.s.M.v.v.V =.s.n.L.Q 7 V v.r.=.Y.c.1.c.L.c.B.c.v.r.s.Y.Q ..P.P.M.v.M.E.L.E.E.T.M.r.,.i.M.v.v.v.c.c.c.c.c.s.c.M.k.s.c.s.B.t.-.c.i.i = 2 B I 0 B 1.M.A ..s.=.I 1.k.r.E..Xr.v.~.U.' r.=.{ n.|.;X.X'.B.p.c.v.s.i.4.v.c.=.g i.M.v.m.B.m.s.p.s.s.p.M.Y.v.A . 7 = m g m c.' s.E.n.r.2.l.s.r.c.k.s.c.s.k.s.B.B.n.c.s.t.p.c.c.k.s.s.p.c.s.c.Q m Q A s.E.&X].E.]..XP.!.L.G.c.c.l.I U p.-.I Y A ..E.E..X|.L.c.p.i.p.s.s.s.g.c.c.c.h.s.s.g.c.g.s.s.c.M.^ Q S.A.T.r...,.=.2.s.P.!.s.1.@.r.2.",
"2.L.Y.E.L.Y.Y.Y.L.L.L.L.L.V.V.L.B.L.Y.B.M.B.B.V.B.B.c.v.L.B.M.M.B.'.M.U =.' = V s.s.m H '.;Xn.s.U m g *.E.T.Y.A.c.Q g A ' Y.E.-.e I } Y.|.L.B.m.B.M.M.B.C.B.B.L.B.Y.Y.B.m.B.B.v.E.C.u 8 i..XL.' -.n.m M.E.|.s.r.L.L.E.} ..Y.v.L.E.B.v.c.M.B.v.L.M.B.v.V.V.L.Y.v.i.r.i.Y.;XL.E.B.B.L.Y.L.Y.B.p.s.XX*X#X'.~.B.G.'.].].'.P.c.s.v.P.B.M.B.M.B.L.M.v.v.M.P.L.A.A.c.L.E.} ' v.L.M.B.v.B.B.M.c.k.c.v.B.V.l.c.n.v.V.L.B.0.v.G.L.L.V.P.L.u M s...Q ' 1.V A g =.|.;XM.-.r.|.E.B.M.v.s.s.c.{ @.c.c.s.M < K M.s.Y.Y.M.M.l.s.s.s.v.c.-.V g i.i.p.B.E.1.1.&X.XM.v.v.r.Y.}.|.L.E.,.C Q X.1..Xc.m m C Q s.Y.s.,.c.c.v.p.v.E.r.A $ u U ,.v.}.|.|.p.) :.-.2.1.0.B.v.c.} l.~.=.! v.L.L.s.} U k.v.P.|.T.T.B.v.v.r.i...i.M.L.L.I 7 V L.....E.M...r.c.k.L.L.Y.E.E.1.= E L.E.L.Y.L.T.L.v.L.L.v.s.s.k.s.v.c.v.c.c.c.k.s.c.c.M.s.p.v.v.c.] ..l.] g g h I h A ..c.i.,.M.-.-.-.M.L.2.i.1.' G.l.u 4 r.].~.s..XE.E.E.B.c.s.g.p.m.s.v.p.c...s.B.M.M.B.M.s.p.s.p.s.M.L.,.7 $ V 7 I V A r.U r.}.B.r.0.c.s.r.c.s.p.k.s.v.c.G.l.s.t.p.p.s.k.c.k.s.i.p.s.p.c...Q ..{ v.E.].P.l.G.u.0.c.l.O.T ' ' m ,.}.E.i.-.c.L.v.U r.Y.Y.s.-.-.i.s.s.s.s.g.c.c.g.g.s.c.c.g.p.s.c.p.>.s.T.s.s.| ..c.c.L.L.L.V.t.-.1.p.1.",
"1.Y.E.'.L.L.P.T.Y.V.B.A.L.V.V.L.M.V.L.Y.Y.Y.L.B.L.L.v.v.B.L.E.L.T.L.B.' u A ' } ..2.} E v.M.c.=.Q d u *.L.c.T.c.E.B.,.i.v.`.v.E I } } B.L.J.L.c.C.M.m.B.L.Y.L.C.c.C.Y.C.B.Y.L.M.B.v.g } 3X.X&Xm.B.'.B.1.c.B.c.'.M.E.Y.u g c.c.E.T.B.M.v.V.L.v.B.B.B.M.B.B.B.E.L.' } ..v.&Xp.B.c.p.s.L.E.E.s.' ,.G.E.U.s.V.U.].~.].E.V.v.B.G.L.L.B.M.B.M.B.Y.M.M.L.M.V.M.B.B.s.v.}.r.r.B.v.c.B.v.c.c.c.c.c.c.v.M.B.c.n.V.n.V.L.v.=.c.L.E.G.l.s.0.i 7 ..i.m p...U ' ..}.;XB.} A s.E.c.B.Y.c.s.M.l.:.{ s.B.:.u g { E.;X}.L.M.s.c.B.v.Y.L.1.=.Q m A } -.i.-.g / }.v.v.v.'.}.}.E..X.X.Xr.M..XE.c.r.g g I ,.L.|.s.' c.B.p.c.c.B.M.A . V Q M.;X,X}.B.c.m ) p.E E 0.r.=.=.0.r.E.P.p.1.V.s.} =.-.} L.s.E.'.M.v.c.v.B.c.M.c.c.v.v.i.u 7 Q c.c.E.;Xp.} p.s.V.&X,X]..X.Xk.' s.}.B.c.L.M.B.t.i.-.=.1.s.v.v.v.c.c.c.v.v.v.c.k.M.v.B.c.p.V.M.i.I =.p.h i A m g m 1.s.v.O.-.=.7 } s.i.,.r.c.r.L.s.:.0.y.=.'.P.E.}.L.E.M.x.B.p.c.c.s.c.c.v.c.c.E.v.c.g.v.v.c.s.c.v.M.c.B.s.I i m A 7 m U ..p.s.E.L.p.0.c.s.s.M.s.s.l.c.n.s.c.r.p.1.p.v.c.s.s.s.s.p.k.p.p.v.i.-.p.=.=.!.'.G.r.p.n.0...@.' Q T m B 1.E...g ' L.i.U g -.B.M.p.r.i.c.c.c.s.s.s.g.g.s.s.s.c.c.x.s.s.c.i.s.L.x.1.s.,.M.&X|.P.L.L.c.0.u.r.c.k.",
"=.1.B..X&X'.E.L.B.Y.T.E.V.M.B.Y.L.L.L.V.V.L.L.L.M.E.v.M.E.L.Y.L.E.E.V.B 7 g -...M.r.=.c.c.v.1.U l C V | T.E.x.}.'.x.B.T.L.OXM.i.r.s.Y.&X&XE.B.B.M.B.Y.L.L.L.M.L.Y.L.L.B.v.B.Y.Y.E.C.m '.,XE.E.Y.E.'.;X}.B.I A p.B.M..X-.} =.s.c.P.L.p.M.L.L.s.G.L.c.M.}.'.M.|.B.A V 1.M.,.} c.y.=.@.i.,.s...2 ..B.E.L.0.r.n.p.0.V.L.G.c.t.-.=.0.L.#X~.~.}.L.V.B.v.V.v.k.c.c.c.G.E.,.1.M.c.M.s.M.s.v.c.c.c.k.V.P.P.n.Y..X&X|.Y.s.-.E.,Xc.h U } ,.7 7 ,.B.A i.B.=...M.}.'...g ' E.Y.Y.M.g.v.B.M.B.B.s.n.E.r.= u n.'.E.Y.B.E.c.E.B.v.L.v.-.U A m 7 m =.c.} A ..&X|.}.s.L..Xv.c.v.M.r.' ,.s...m u g Q ,.E.;XE.w.w.B.v.E.s.c.v.... A ,.E.p.}.Y.s.=.Q A I I U ) ' { ..:.2.B.~.L.v.B.p.A V m E c.B.c.Y.L.B.L.v.s.s.k.L.B.c.p.c.1.7 g ..c.}.}.Y.B.s.s.Y.,X|.E.!.k.V.E.Y.M.' ' v.p.p.i.r.-.-.r.c.v.c.c.v.s.c.v.c.s.s.c.c.c.B.B.c.p.v.v.r.m -.I g m ..=.' -.p.p.p.p.i.p.s.,.u V B =.E.&XQ 2 @.n.0.p.XXv.0.k.L.V.v.M.v.s.x.B.s.x.M.s.c.L.s.c.c.x.x.x.x.s.s.i.M.c.c.M.s.=.7 A Q } ..c.r.r.Y.V.c.i.k.s.p.c.s.s.c.c.s.s.c.s.i.p.s.c.v.c.x.s.s.x.c.x.s.x.s...M.,.L.XX'.c.i.r.1.-.-...Q ..} Q Q -.' m i c.=.1.r...s.'.E.v.i.1.c.c.p.s.M.c.p.p.p.p.s.x.x.k.k.x.c.r.x.x.s.p.t.r.p.B.!.E.M.k.s.k.c.l.l.l.",
"V V m ..l.v.G.Y.M.B.L.L.V.B.V.L.L.Y.L.B.B.B.L.B.Y.L.P.M.L.E.v.E.Y.E.i.; * 7 g m p.c.E r.Y.Y.c.{ C 7 u x..XE.'.T.U A i.Y..Xc.*.x.-.v.}.oX'.L.L.E.s.B.Y.C.C.L.B.L.L.L.Y.L.m.M.B.M.m.L.A v.L.g.B.v.v.L.E.E.E.=.g g ' Y.Y...p.p...c.c.B.L.B.t.B.Y.V.L.L.B.P.&X;X&X=.7 Q L.E.s.1.v.1.A Q r.Q V g 7 ' 2.t.V.=.1.l.:.K l.B.n.c.0.h < B -.P.XXl.s.G.B.c.B.G.B.c.n.B.G.P.t.A A i.M.M.p.M.M.L.V.v.p.L.;X|.c...I Q } =.s.T.E.*XP.7 = 8 A u = ..B.v.M.c.1.U =.A c.,XU 7 1..XY.B.i.r.v.L.B.M.P.s.d.8.A : i u.M.'.M.r...,.L.}.M.v.1.U V b g U A c.B.p.v.E.&Xv.L.|.|.L.U i m ....I ..' 7 7 m V } -.E.L.M.Y.p.B.B.B.L.c.Q m g c.M.i.-.1.1.Q g m K 4 g r.s.U B @.k.t.~.G.c.v.=.k.} i U p.p.c.M.M.L.n.n.c.c.v.s.c.c.M.s.=.} g V =.L.}.}.Y.v.s.c.Y.&XP.B.Y.2.1.t.v...A H =.s.r.s.,.t.v.L.L.v.s.c.M.k.v.M.c.k.k.c.c.l.c.v.k.s.c.v.i.h g i V U r.t.s.6.M.B.M.v.k.s.p.t.k.-.1.v.,X|.0 i Q ].,X~.1.M I M.B.s.i.c.v.s.x.s.s.x.m.v.c.v.m.c.c.v.v.c.x.c.c.c.v.v.M.s.v.1.V 1.E.'.'.Y.1.E.|.B.L.c.p.i.i.c.s.s.s.s.s.s.p.p.s.s.x.c.c.x.g.s.s.c.c.s.p.r.6...B.B.E.].E.c.r.1.1.' =.r.t.c.1.U B V ' r.v.s.U =.v.v.M.Y.s.,.M.L.i.c.c.x.c.6.p.s.x.s.s.p.i.r.p.s.x.s.p.p.x.x.r.1.r.c.B.v.s.k.k.k.k.s.s.s.",
"U V 2 7 7 A M.E.B.B.B.V.L.Y.L.L.L.L.V.M.M.B.V.B.L.B.P.V.L.E.L.E.}.-.i = g I U i.B.-.r.v.v..XL.1.^ C p.M.r.E.;X'.| ..v.B.'.Y.p.r...s.Y.L.g.s.B.E.L.L.B.B.L.L.L.L.M.B.L.C.m.M.C.B.Y.M.g =.M.g.Y.L.L.c.r.p.L...m A =.M...A } E.s.-.2.1.M.E.s.v.Y.c.M..XXXL.1.I A 7 . r.;XE.M.s.i.' V Q Q i u 2 = ..T ] B.=.p.B.c.' ..n.V.B.c.I ; i h E =.C g K s.G.n.v.n.c.l.B.L.V.2.T B i.V.M.c.B.P.B.Y.].E.E.'.c.8 * * ; $ . H T.}.:Xs.* m A ..i 7 i.-...L...-.c.}.,.M.c.= A }.L.M.i.,.p.Y.M.s.M.,.=.1.c * * C 1.c.s...Q U Q ,.B.v.v.r.Q I g 7 ..-.Y...} L.=.I A p.L.,...I u u V I g Q ..Q m g A v.i...-.p.s.v.h.B.p.s.} m =.B.E.,.,.,.A Q I Q ..i 0 ) n.0.A U r.s.l.k.l.c.p.=.r.L...s.'.c.c.L.v.c.c.B.v.c.M.v.B.L.v...U ..I I -.}..X|.E.M.v.B.E.B.c.v.B.2.1.c.P.s.,.=.r.l.1.s.r.M.E.}.Y.v.c.c.v.c.v.v.c.s.k.c.c.c.s.c.c.c.v.v.k.p.A A H ! L.B.B.1.k.s.,.1.s.M.B.V.c.U l.E.s.L.0.I p..Xv.r.Q ] B.'.E.B.c.c.s.p.x.M.M.s.s.L.Y.c.x.c.c.x.x.c.c.c.x.s.s.c.M.r.M.,.I E.&X.X|.E.v.E.s.2.B.v.t.s.s.c.p.p.i.p.c.s.t.p.c.s.s.x.s.s.p.p.p.x.p.i.i.6.r.*.B.P.v.i.r.i.1.-.-.=.1.s.v.B.p.I m A 1.M.s.V I r.c.s.x.v...g I :.c.c.s.i.c.s.c.p.6.x.s.p.r.6.6.i.p.s.r.r.x.s.=...6.v.x.t.r.k.k.t.t.k.k.k.",
"t.i.Q I 7 8 r.E.L.G.V.L.L.Y.L.L.V.V.V.B.B.V.L.B.M.L.v.L.E.E.E.r.' g h H A Q I =.c.' k.Y.,.L.E.L.^ } `...A A.|.E.x.Q ,..X}.|.E.E.B.L.B.v.c.M.Y./.E.Y.B.E.E.B.B.Y.M.M.B.B.c.m.L.L.B.s.U 1.s.' s.E.c.s.r.c.B...Q ,.M.M.B.;Xv.L.M.i.Y...,.'.'.L.Y.Y.E.E.r.H 7 $ = = 8 Y.|.r.r.s.r.....=.} U Q A g } ) 1.G.0.p.p.c.1.r.P.T.L.P.u.Q I i 7 8 g c 2 p.G.L.B.G.B.n.L.P.n.V.V.r.B.B.v.v.M.E.Y.L.B.-.U m 2 8 7 i g i 8 h 1.L.E...8 Q Q ..Q m U u A -...s.|.{..XE.} g Y..X=.-.r.,...B.E.v.,.z m Y u m C g T ' ,...u ..s.L.1.1.,.-.Q I m V c.~.E.7 A Y.g $ I E.'.r.-.G A -.p.Y b V ..v.-.A Q v.v.-.G.E.c.M.,.' A g 8 Q }.}.-.A ..} Q v.s.c.' B O.c.-.u 0 Q -.r.s.1.t.0.t.E.*X|.L.L.M.c.c.k.v.c.c.M.p.1.,.....c.c.I { P.B.Y.'.E.E.E.Y.M.M.L.L.B.P.T.V.t.s.M.v.p.i.M.}.c.p.i.c.B.G.V.v.v.v.c.s.s.c.v.c.s.k.c.c.v.c.v.M.c.c.M.B.i.A v.E.V.XXv.r.M.'.}.B.M.L.c.r.c.r.H ) r.B 1.1.-.L.=.u c H l.5XE.Y.V.L.L.B.M.A.s.s.c.s.c.M.c.c.v.s.r.r.x.M.c.p.i.p.s.M.p.B.} A E.L.L.i.i.p.Q m ,.B.c.i.s.c.s.p.i.p.k.v.c.p.p.s.s.s.s.p.p.p.p.p.s.6.r.s.p.s.,.c.c...I } 1.1.=...:.r.c.B.M.r.m i Q i.s.-.m 1.B.r.i.p...g u 7 7 ..T.c.s.c.c.p.p.i.t.i.i.r.r.r.r.r.p.p.p.s.1.^ ] r.M.c.r.t.k.k.u.s.k.k.k.",
"E =.=.v.1.m -.'.M.B.B.B.B.V.B.B.B.L.L.V.B.L.B.B.B.L.c.V.T.Y.p.V 7 g m m U Y.E.L.Y.T.s.L.' d ..=.A | *.C U ....A E I p.,X|.|.'..X.XE.M.M.L.Y.Y.Y.M.E.L.E.L.c.B.L.B.C.L.B.c.m.B.B.M.c.1.M.c.U -.M.i.D.M.B.B.s.s.M..X3X.X.XL.Y.E.&XL.' A ,.T.E.Y.'.}.c.g . = i i 7 ' }.i.g Q s.M.B.L.p.E.E.i.L.E.,.2.V.c.l.l.0.l.c.L.G.G.P.P.G.c.p.' B i i B B V.v.V.B.G.V.B.~.].L.v.E.v.L.B.B.P.P.L.|.s.V 2 = * = y l V C U E Q =...} m = E =.i.T.i...A V } Y.;X.Xs.v.1...s.}.c.4.-.} A V r.i...Q i < = < ../ 7 I 1.s.p.I 1.B.Y.1.} A A g m ' s.;X,XL.A c.E.U Q c.L.s...Q 7 ' ,X&X.Xv.i.s.B.M.r.1.s.E.;X.XE.B.1...A g 2 2 p.E.,.V I I U s.|.v.=.U 2.l.B.-.c K r.c.l.Q -.c.B.,X!.G.V.n.s.r.v.M.p.M.v.s.s.r.r.r.Q g 7 ..u Q L.L.}.M.p.s.c.v.v.B.B.v.L.E.'.V.c.c.k.2.=...P.'.1.v.v.V.v.p.i.s.c.c.k.s.s.c.v.c.c.c.c.c.M.v.M.B.k.p.v.G.=.u p.Y.i.k.c..X&X.XL.....c.M.B.c.v.c.r.M.1.r.C U H ; B E H p.&XY.M.c.B.A.B.M.v.A.p.A.T.s.r.s.L.r.r.r.p.c.M.c.i.i.v.s.M.v.M.A m i.B.B.,.=.=.I ..B.E.s.1.i.i.p.x.p.c.v.c.s.x.x.s.g.g.g.g.g.g.g.g.x.r.g.g.>.1.| =.=.Q U =.p.6.=.=.6.p.c.i...} g E B.B.M.c.1.s.c.s.p.c.-.A A g * 7 A E t.r.s.1.k.k.1.1.2.6.r.p.s.s.p.g.p.6.*.] =.s.c.c.s.s.l.l.k.v.k.s.s.",
"Q A 1.&Xr.m i.E.v.M.B.L.L.V.L.L.L.L.L.V.B.B.B.M.L.v.L.L.E.Y.E 7 8 g 7 } E.}.-...M.Y.V.E.U 7 Q I Q i.M.=.s.6.^ U 7 p.}.s.Y..X.XL.B.c.s.M.L.L.B.B.C.E.p.1.s.B.E.M.v.B.Y.L.M.M.L.B.L.B.c.B.c.r.L.C.v.B.s.L.M.M.'.|..X3XB.=.s.|.s.Q A m 0 h p.Y.V.B.B.c...Q E U g i s.'.' 8 Q v.L.E.r.I =.,...v.B.=.s.c.0.n.G.l.B.P.l.c.L.P.L.E.E.v.-.t.c.u 7 2.~.v.s.l.n.B.P.XX#XE.'.}.P.!.Y.E.L.B.!.T.} u u u g I d C U Q -.x.B.L.U Q =.Q A.'.'..X,.i.'.M.|.;XE.s.v...A Q p.B...-.p.,.Q A -.U g m 2 p z C n.n...p.,XB.,...' ' U Q A i 7 7 g ' p.v.r...,.'...U E.'.v...m g u p.}.Q ' B -.M.p.v.Y.B.M.L.Y.Y.v.i.1.1.c.s.I g p.r.A g V V ,.E.}.v.I =.p.n.'.].L.P..X&X].B.P.L.{ p.B.B.p.O.2.v.B.B.v.v.c.c.M.c.v.v.=.I = I 2 ..E.M.B.-.-.r.s.M.B.L.B.M.B.G.Y.B.M.s.p.r.' ..'.M.r.M.L.c.s.r.r.s.c.s.s.v.c.v.v.v.c.v.v.v.v.k.v.M.p.r.k.M.s.' L.E.t.r.t.M.U ' ..A Q s.k.c.i.c.L.L.M.M.,.K i u I B.=.:.!.P.B.B.L.B.p.r.s.c.r.u m -.6.1.=.,...1.p.s.s.s.s.p.s.B.c.c.p.1.V m -.M.r.-.=.} ..B.E.E.x.i.s.i.p.s.x.M.v.s.p.x.c.x.s.s.g.g.g.g.s.s.s.p.M.6.A F m F C A ' r.s.r.1.p.c.M.c.=.m A l r.,XE.B.s.y.r.1.s.p.i.M.s.} A i 7 $ 7 E E *.,.x.2.s.p.r.r.t.s.k.x.x.x.6.,.,.6.t.c.v.M.x.s.k.k.k.c.k.k.s.",
"M.2.v.Y.] U c.V.v.M.V.L.L.L.L.L.B.L.V.B.B.B.V.B.Y.M.E.E.!.p.g 7 7 i i k.].] h ..r.p.|.B.g Q ,.} *.s.&Xx.v.M.p.r.g ..,.=.`.}.E.A.i.s.m.C.Y.Y.Y.L.E.L.-.,.m.E.}.B.c.v.L.L.M.B.Y.Y.g.M.L.B.1.m.&X}.v.c.p.'.c.s.'..X3XB.i.s.c.B.Q 7 8 g A U v.P.V.c.M.v.v.'.'.M.....L.E.Q g =.L.v.M.' g A A Q r.,.c.n.=.p.v.c.s.l.v.1.l.G.B.B.P.L.c.0.E.,X{ I ~.~.s.u.n.G.G.E.~.v.:.....=.1.t..X&X'.P.1.m V U m m U Q A A *.B.`.B.,.,.c.E.}.OX|.M.,.-.i.E.E.E.s...r.M...U U ..p.' } B.E.v.U =.Q M u q T Y g X.c.W.=XE.,.' V i A A g i A i m A A ' ' A g ..B.A ' &X.Xr...V m ' E.M.I 8 g 6.L.c.s.s.c.p.s.s.'.'.c.B.Y.|.M.U V =.' g g u U B.{.'.B.Q ..c.!.,X,X#X.X].].&X,X'.'.@.:.c.r.r.} i.B.c.c.c.s.v.B.L.s.i.i...Q E ' g r.'.M.i.=.-.c.B.L.Y.B.v.M.L.E.E.s.r.O.=...H 1.E.E.Y.c.c.2.s.p.p.s.k.c.c.v.c.v.v.c.c.c.v.c.k.s.c.v.s.p.c.c.v.s.L.s...U U h 7 A =.} -.M.s.s.B.}.E.2.1.B.c.:.{ 0.#XV.{ L.#Xv.r.p.M.c.2.6.x.v.A = 0 E 2.s.=.=.,.r.s.p.t.s.k.s.s.v.c.s...I A g ....I Q I m A r.T.Y.c.x.x.s.x.i.x.x.x.s.s.s.s.s.s.s.s.g.g.s.p.r.p.p.M.,.g V k d y d P ..1.r.s.M.c.M.B.r.U Q m 6.L.v.c.1.=.y.i.r.c.,.s.M.r.-.} I | A u d P ,.s.p.M.c.k.s.s.k.k.s.x.g.6.1.t.k.x.v.B.B.k.t.u.k.u.t.s.s.s.",
"..B.=.A 2.L.M.E.M.M.B.L.L.L.B.v.M.B.M.v.v.V.L.L.L.T.L.|.E.U 7 2 g A g ' Q i I } i 2.k.' i ,..X&X&X|..X}.'.M.'.,.A l m M.;X.Xc.x.s.B.Y.L.L.E.E.L.m.M.p.E.|.L.E.Y.M.B.L.B.c.v.L.Y.L.M.B.E.c.|.,XM.v.L.B.L.} =.'.|.E.....E.|.;X-.Q A A } r.E.v.c.k.L.L.M.B.Y.;X}.E.E.E.Q I r.E.M.v.U A c.1...v.B.}.Y.Q P.L.c.v.V.G.@.O.{ 1.B.B.L.&X#XXX!.0.p..X~.s.r.G.L.n.v.1.h : . $ * $ 2 1.s.=.=.A i m m g I ] E m Q c.E.L.i...r.B.p.|.s.B.x.p.c.p.i.L.p.,.I ,.p.} I U Q ..../.&Xp.Q A 1.A u g K ' 8.c.~.E.'.~.i.A Q A A m U I A 1.' ' ..Q 1.M.v.....Y.c.M.|..XE.M.I u U -.Q ' ' E.'.s.B.E.c.L.v.B.,X&XE.L.s.E.v.A 7 ' -.A g m m s.{.Y.-.I } c.]..X'.E.E.E.~..XB.V.L.s.] c.s.V.p.p.B.n.p.c.v.v.B.v.s.-.-.p.1...E.E.p.v.v.p...' ,.B.Y.B.M.p.r.c.c.E.E.=.' U ' Q s.;XE.}.B...,.B.k.k.p.p.c.B.M.s.c.v.v.c.k.c.k.s.s.p.c.M.v.v.v.c.s.c.M.p...g U Q h Q 1.] ..c.s.B.'.P.r.I r.p.M.M.B.V.,X-.1.{.v.r.p.1.1.2.6.s.t...u ^ x.-.E U A ..B.c.s.r.p.v.M.x.s.p.v.c.I u I g m 7 I Q i i g M.E.Y.c.s.i.p.c.i.p.i.p.c.c.s.i.i.s.g.x.x.x.s.i.r.s.p.M.1.A Q I g l d g P *.p.M.B.L.M.x.6.} ,.E p.L.v.c.-.A -.i.i.i.c.v.r.p.Y.M.p.=.m * C U 1.r.B.s.s.s.k.x.x.s.p.s.g.p.p.s.s.k.M.M.M.t.2.s.v.k.r.p.p.p.",
"! =.I ..k.c.E.B.M.v.M.V.L.B.B.L.L.L.L.B.B.L.L.V.L.B.|.B.H 2 = 7 m A ' c.! m ! O.m ..B.s.i.}.,X'.T.B.'.`.s.'.E.M.1...' `.,XE.v.v.M.A.L.B.B.M.r.} ..s.L.!.A.L.`.x.4.B.Y.L.s.m.B.L.M.B.B.B.C.E.E.v.v.V.L.l.! ' i.=.=.i ...X'.Y.r.k.P.v.M.E.'.M.r.c.B.p.p.B.V.r.=.=.L.}.I p.J.d.B.h.w.=.s.h.B.Y.'.v.*.6.s.s.B.M.L.1.-.v.L.'.Y.E.L.E.G.=.{ m P.!.r.r.n.n.B.L.U 8 * = * : 5 i u 7 P A ..Q Q U d V 6.p.6.' I E.E.r.c.p.,Xv.M.v.B O.,.s.B.1.s.c.|.p.I i.c.-.1.$.Q r.E.C.} ~ g A ..A } 1...Q 1.#X&X'.0.8.I B A h -.p.L.L.P.E.c.d.d.n..X&X,XB..X,X&X,XL.A U k g m } L.=...M.M...s.L.p.s.L.v.v.;X|.v.B.B.B.p.g i p.s.' =.M.1.E.' A u Q L.;X.X].P.P.L.T.B.l.s.B.V.2.-.k.l.k.v.s.c.s.k.n.k.c.l.s.r.-.=.1.O.@.B.L.v.p.1...} Q p.B.M.s.k.p.p.L.v.T.L.r.,.r.M.E.|.E..XA.6.Q ..T.v.n.s.u.t.k.L.B.B.s.B.v.s.c.s.k.s.c.B.c.M.t.p.c.M.M.p.s.v.1.=.c.-.r.Y.r.r.v.B.s.1.A m v.|.V.B.1.s.!.3X-.U M.M.v.s.r.1.' E Q g g U r.*.C u y * m M.p.x.M.x.s.M.v.L.r.i.1.C m i m h B { c I T E |.L.B.p.r.s.s.i.s.s.C.p.p.v.g.s.i.s.s.s.s.c.c.s.p.c.r.M.1.V I m I I A ,.L.B.s.r.......' 1.i.} -.L.Y.B.' m u ..L.B..Xi.r.1.s.M.,.m.=.Q V Q 6.s.c.M.c.p.i.p.p.x.c.p.s.p.p.p.s.s.k.c.k.k.k.s.t.t.t.s.2.c.:.",
"..r.p.}.Y.E.&XL.B.M.B.L.L.B.B.L.L.L.L.B.V.L.L.B.M.Y.M.H * $ g g V I M.T.H ..v.} -.c.U B.'.c.T.,.,...P y U &XM.*.`.B.r.E.'.L.B.c.L.M.M.Y.L.p.1.,.x.B.v.A.E.'.T.6.i.Y.Y.L.c.L.L.v.B.B.B.C.B.L.L.m.P.M.E.c...i.c...I * U c.-.=.} ..1.M.E.E.Y.V.v.v.s.c.M.v.v.s.1...M.M.I r.v.c.B.m.-.I A v.L.w.L.L.r.s.1.r.Y.M...1.s.Y.Y.B.s.B.B.L.l.m B A =.{ s.t.O.=.' U u i u 7 m i m A V d ' ..,.,.r.1.E } M.c.E.v.=.E.r.U L.3X|.c.0.E g k.Y.M.B.i.c.C.Y.p.r.Y.M.r.} ..L.E.i.I m i g U } p.&XL.{ 0..XE.s...;.:.A u i } L.B.;X,X&XB..X,X}.#X.XE.}.E.C.'.'.c.-.4.Q s i A B.=.1.c.s.1.A -.Y.|.|.Y.s.E.|.E.v.v.M.v.=.A m =.B.E.v.' ' ..m ..v.'.|.|.]..XT.B.l.L.c.s.s.l.k.1.r.n.c.s.c.r.l.n.v.n.s.l.V.c.s.1.1.) m { |..XL.s.' A A g v.E.v.1.p.c.r.,.M.Y.A.v.A.Y.L.L.M.1.c.s.M.B.L.&X{.p.:.t.0.{ { c.B.V.r.c.k.r.M.t.k.c.M.c.M.s.c.M.s.c.s.c.B.v.M.]..X.X-.i.B.Q i.M.M.-.1.'.*XXX'.M.B.'.B.' Q v.E.v.B.p.-...g m V g i m C 7 y 5 8 | A.c.B.T.Y.`.E.c.r.:.U g i T A C A ' s.1.P.'.n.~.E.s.c.v.r.i.v.s.s.B.c.m.g.p.i.M.p.g.c.g.p.p.s.c.v.M.v.,.i u A Q r.v.,XM.Q ' g 7 8 A =.p.,.=.s.s.v.R g V V ..}.|...k r.B.i.=...p.M.r.' } ,.r.s.c.c.p.r.r.r.p.s.r.s.p.p.p.p.p.s.x.k.k.s.k.k.k.k.u.r.s...",
"L.E.T.*XP.].~.v.M.M.M.B.B.M.B.B.V.L.L.V.V.V.B.M.B.!.r.i * $ U A U =.E.c.H ,.L.c.v.L.-.B.s.A A ! E l - Q T.B.C =.|.x.} i.r.p.Y.`.L.v.B.E.L.s.p.M.'.|.B.B.'.M.x.E.v.Y.Y.'.M.g.m.Y.C.M.B.B.M.m.B.B.Y.p.L.c.r.L.E.L.c.' r.s.B m B A U k.E.L.v.v.c.p.v.G.B.i.i.M.B.s.B.r.Q s.B.B.v.c.=.U I v.M.1.L.}.E.A.M.x.=.} A 1.B.Y.c.-...p.B.P.T g c Q =.m 2.s.=.U I A u g C A m A I A E 1.E.A.p.1.1.1.| p.'.B.r.'.v.p...s.,X'.L.r.r.=.,.E.Y.c.B.g.c.E.m.s.M.v.i.' U r.L.' I A m U =.i.r.}.<X,.A :.'.,.:.d.B./ m C A =.s.B.3X,XE.v.E.}.E.v.>.r.B.'.1.r.v.L.L.|.=.s g A s.A 4.E.v.r.Q i.E.;X'.s.v.;X}.Y.L.s.v.v.Q A m Q s.Y.s.U ..i.v.|.;X}.'.}.'.P.G.v.l.T.l.s.p.k.v.s.t.l.k.l.v.0.l.G.B.v.c.c.v.n.k...=.] U V.,XM.=.1.A g A A L.P.s.-.r.p.1.=.A.T.B.x.c.c.s.c.v.*.p.p.M.E.'.'.-.' ! U :.p.I a V m m C ..c.M.M.s.c.v.s.v.s.c.M.s.c.c.c.c.v.B.Y.L.r.r.r.T g i.&X.X'.,X;XE.L.M.M.k.p.I i V L.'.k.L.c.p.t.I I g B V 5 d g Q U U r.x.,.c..X`.s.Q 8 7 m i g I c.].'.r.E.3X.X].L.B.P.Y.M.E.'.s.r.v.M.g.c.p.i.c.Y.c.p.s.g.g.s.i.i.s.c.r.M.p.p.T I r.s...B.,Xr.I r.i.s.U p.L.M.1.1.s.i.4.g i k g ' .X}.$.A p.p.1.1.s.c.L.M.r.-.-.1.p.B.v.p.r.i.i.s.s.r.s.p.r.p.t.t.s.k.c.c.k.s.u.u.t.0.s.i.' ",
"c.|..X;X,X&Xc.p.v.v.M.B.B.B.V.L.L.L.L.V.V.V.V.B.L.]...m A U s.Q m 1.Y.Y.B.P.E.B.I =.Y.B.-.B I c.1.E 2.E...V ,.p.p.-...x.p.x.E.T.s.B.Y.L.B.B.Y.E.A.i.r.L.'.B.1.^ Y.E.L.}.Y.B.L.L.B.M.L.C.m.M.L.L.P.E.Y.i.,.c.E.].&XE..X'.O.A V B ] v.'.}.E.M.v.c.v.M.B.B.B.L.V.M.Y.r...E.}.E.v.i.A U c.B.E.L.E.}.E.B.6.^ u i Q M.B.L.L.B.v.Y.L.n.] a 4 ' l.u i K m g u u C U g g U Q A m ^ M.'.s.x.,...} Q i.'.V.L.Y.i.,.1.E.'.p.L.p.k.s.B.B.M.L.v.h.g.E.B.B.i.Q A V 1.Y.r.A } u Q C.E.'.}.,XE.} A T G.'.P.s.@.K u c N S T n.,XE.E.|.Y.~.L.=.-.s.Y.E.' } } L..XM...7 A ' s.c.s.i.M.M.i.B.L.i.Q A s..X|.'.L.i.i.r.I I A -.M.L.B.v.s.E.&X|.E.L.Y.E.L.s.s.c.B.!.k.l.l.c.V.c.p.p.p.c.v.t.c.B.c.l.n.n.c.l.c.{ ' I I P.L.I h U g H ..c.'.B.t.r.r.-.,.c.E.A.t.6.c.v.s.s.B.*.s.c.x.c.p...U m i I l.c.) B g i m g O.L.c.c.s.c.v.s.v.t.s.c.c.c.c.s.i.s.i...U u H g ..v.=.!..X!.E.!.E.L.v.i.r.r.O.m g L.B.M.B.s.r.O...Q i -.C y i U r.x.v.A.*.7 d ..' g y 5 h g g { l.'.&XL.E.V.Y.E.L.s.B.V.c.Y.Y.B.c.i.i.v.c.c.Y.g.v.c.p.i.c.s.i.p.s.s.s.p.p.B.p.v.8.r.E.E.'.|.Y.i.p.Y.B.1.c.L.i...,.....v.1.p.E.m.1.B.|.,.I A 1.1.E.E.E.'.'.T.M.s.v.L.T.'.c.i.r.p.p.s.s.p.r.r.r.r.t.t.p.k.s.k.k.t.2.1.0.0.-.' m ",
"L.-X,X'.}.c.i.c.B.B.B.B.V.L.L.Y.L.B.B.B.B.B.V.L.T.|.V 7 Q B.'.I ' n.L.T.L.L.'.,.U i.E.T.l.! M.M.} Q L.c.1.s.L.' } ^ U ,.r.A.`.x.p.A.E.L.M.Y.E.E.6.A =.p.' *.*.2 -./.E.Y.s.c.Y.M.c.B.Y.B.m.L.Y.B.r.|.r.Q -.s.Y.E.|.'.&X.Xk.I i A r.Y.].*X.XB.B.V.B.B.B.L.L.B.v.c.p.} A s.v.,...A g I B.i.L.E.|.'.A.s.g 7 U P r.|.#XE.L.B.V.L.E.G.{ A K T ' i g g g u y ' x.E C Y.p.,.} ,.M.`.}.L.}.E.L.A.c.T.,X;X'.s.s.c.B.].k.p.k.v.B.r.v.v.M.M.v.v.v.Y.Y.L.' m A ' v.M.I U Y.r.c.2X&X|.&X&Xv.1.L.c.+X,X&XL.n.d.) z N K @.~.].G.B.B.L.E.p.=.c.c.E.c.I -...p.L.=.m I 1.c.s.v.c.L.v.E.s.v.s.Q 7 7 ..B.|.Y.i.,...Q m m m ..M.B.s.1.}..X.XY.M.L.E.L.c.p.p.k.l.L.k.k.B.l.c.k.l.c.p.s.k.k.v.v.s.k.n.c.c.t.B.-.' K ' L.Q 7 m g i r.v.}.}.B.s.s.i.=.r.E.Y.V.M.v.M.B.B.V.-.H r.M.v.t.} i q i 0 ) :.B g m m H c @.L.B.B.p.k.c.M.c.M.p.p.s.c.s.c.l.c.B.2.V u Q -.,.M.'.P.&XB.M.s.P.E.M.v.r.r.,.O.} ..'.B.v.B.c.i.1.p.E ! L.-.r...r.p.M.L.s.} 7 = - : $ y m i U ' c.XX'.Y.v.V...} i.B.c.E.L.M.Y.c.,.r.M.B.B.Y.>.B.B.E.=.=.p.g.i.i.s.h.s.p.i.c.v.i.p.r.n.U.E.L.s...Q ..=.} Q L.s.....1...' s.s.E.L.-.} v.i.A I I v./.;XM.v.}.|.B.p.6.B.|.T.L.c.r.6.i.i.p.p.i.p.r.r.t.t.r.t.s.2.r.r.0.2.0.0.2...I m ",
"A =.E.'.'.i.M.v.B.L.L.B.B.B.V.B.B.B.M.M.M.B.L.P.&XT.i 8 g 1.2.g } E.'.&X~...i.,.A l.|.,XE.} L.r.g Q B.Q s.1.V r.v.^ u ..B.'.`.x.v.A.Y.L.B.B.L.T.Q ..Y.E.=.V i g >.E.E.}.B.v.E.E.s.M.L.M.c.M.v.r.U 1.g H M.M.P..X|.V.k.1.{ g V ..c.'.}..XE.s.c.v.L.L.B.v.M.L.B.v.c.} V ....A A i g ,.M.=.M.E..X1...V - Q A.i.E.'.E.v.M.B.G.n.v.2.@.1.r.! ' K m T m A Q E C I r.2.' ....s.L.|..X|.Y.Y.L.'.&X:X:X'.r.i.P.P.E.,Xp.-.p.B.V.s.V.M.c.p.B.B.M.B.B.r.V m A =.1.$.I =.}.|.&X,XoX'.Y.M.p.s.'.L.L.X.n.].<XU.d...:.8.U.-XE.D.B.v.L.s.r.i.r.B.M.c.U i.B.M.i.Q u A m =.Y.c.B.B.B.'.1.p.v.r...I ' M.'.1.Q -.-.A I m A i.E.B.s.r.,X;X'.'.Y.L.E.B.c.V.l.u.r.v.c.k.l.s.c.l.k.c.s.c.l.G.B.n.n.v.n.l.c.l.l.E T { n.~.A ; h g ' L.B.E.P.M.c.c.c.c.B.P.B.s.s.c.c.E..X'.V g r.v.i.-.} A K 1.+.1.+.h m i m c T V.XXL.s.c.p.s.v.c.B.s.p.s.v.c.v.c.M.L.-.7 V ..} ] -.E.,XP.Y.L.i.B.c...1.r.i.-.E s.B.E.L.p.r.r.1.p.-.u 1.r.=.p.-.c.A.`.A.1.g V C 7 * y C m U Y.'.E.,XM.1.V.c.=.-.r.p.p.T.Y.Y.B.c...I r.'.E.i.i 8 . u e -.L.s.p.s.h.s.p.p.s.p.p.s.p.8.d.0.s.M.i.p...=.-.A =.v.-.p.L.c.1.@...g.i.U g A -.~ Q R Q E.,X'.B.}.&X.X`.T.s.B.|.E.'.M.p.r.p.p.p.p.r.s.p.t.p.t.r.r.t.r.r.0.r.u.u.:.' ) A T ",
"V =.c.B.p.Q r.c.B.L.L.B.M.B.B.B.B.M.B.B.V.L.Y.E.,Xp.g 7 i ' ..Q l.XX'.}.Y.} c..Xs.XX*XY.E V r.E.B.c..XB.A.B.Q I L.x.1.|.,X.XL.s.A.B.V.A.A.A.A.L.M.E.E.M.c.| A i.M.,.A s.L.g.v.v.v.M.L.B.c.s.1.' ..-.I 1.'.v.c.T.L...U V g g 1.P.L.E.B.E.P.p.c.c.s.B.L.L.Y.E.L.c.c.Q m V m g g V Q B.}.L.E.'.i.7 - : g B.E.c.].T.'.v.n.l.l.s.v.0.) m C @.~.l.2..XB.U I ..A I x.V ..v.B.E.`.&XOX'.B.M.6.x.;X3X'.i.s.s.B.~.'.E.r.1.L.M.c.c.B.s.c.V.L.L.m.B.c.I g m ..B.} 7 g L.}.Y..X'.).L.M.s.c.v.n.c.n.8.G.P.~.~.:.0.l.:.~.+XL.B.c.M.s.$.1.=.R r.i.M.$.r.B.i.Q u 5 A } M.E.L..XB.Y.Y...v.L.v.L.-.=.}.Y.=.} =.>.U V u U E.}.v.B.'.;XE.,.B.L.Y.B.,.V.B.:.s.s.l.B.c.s.l.G.n.k.l.k.n.G.E.v.v.L.B.n.c.B.V.r.I { ' 1.-.A u g h 1.c.c.Y.V.B.B.M.V.!.'.Y.B.! A I ' M.E.r.7 g k.c.-.O.-.=.L.B.1.s.0.) -.1.p.2.'.*X.XY.1.s.p.s.c.s.M.p.s.s.v.M.v.k.v.n...7 } r.H m p.,X].XX&XM...1.t.=.-.2.p.c.k.!.L.s.v.s.s.s.t.p.@.U L.B.L.p.p.A..X'.6.*.=.p.p.| A g m C v.'.'.G.].B.i.v.v.,.2.r.s.B.E.B.v.h.r.I 8 V =...2 2 8 $ 2 m c.Y.g.s.s.c.g.p.p.c.c.v.c.c.r.r.) Q s.1.p.p.E.M.A Q =.I r.Y.c.p.r.=.v.v.c.g.c.p.-.c.i.c.&X.XB.C.L.1.c.M.L.p.s.T.L.'.B.s.p.s.p.p.p.i.s.p.t.p.t.r.r.p.s.s.t.r.0.1.' K m i E ",
"g B.Y.E.p.m ' L.L.Y.Y.L.B.L.Y.L.B.B.V.Y.Y.Y.E.'..X] u * A B.}.Y.;X.X,X.Xv.r.L.:.' ].E.B...=.L.3X;X|.L.}.Y.'.M.g l A.;X;XB.c.B.M.B.B.B.M.A.T.E.L.T.L.T.p.r.L.V.s.Y.1.V r.v.r.B.'.E.L.Y.Y.B.i...U i.Y.Y.L.P.M.s.s.,.m m V u m s.B.Y.c.=.v.E.s.v.v.B.V.B.B.M.M.V.Y.i.I A i g A A ,.Y.Y.&X.XE.M.m u y P 1.'.B.p.c.E.B.v.P.B.c.u.p.' ) U 1.B.G.L.&X-X&Xc.,.P.L.' s.s.L..X.X2X&X|.T.T.B.B...' M.E.r.E O.c.B.|.].E.V.v.s.s.p.c.M.p.c.Y.B.M.s.Y.m.k m g ,.'.v...~ m.p.c.oX}.E.c.M.p.p.B.l.G.s.p.n.{.n.B.l.n.y.@.'.P.n.l.s.v.p.c.4.~ ' ~ =.s.i.s.i.Q A g A A p.c.V 1.c.g M.r.U L.s...c.' =..Xv.i.p...} A m m ,.&X}.s.v.Y..XE...c.i.s.s.' L.2.A s.L.l.n.c.B.n.G.n.n.B.l.s.~.~.p.s.P.n.l.v.B.c.1.c.#XQ i u g Q Q i } ' s.P.T.E.P.Y.Y.'.'.Y.2.A g 2   $ u . * g c.v.p.s.s.1.V.u.r.B.L.G.E.'.t.E.&X&XY.c.B.p.c.c.v.c.B.s.k.c.s.M.v.s.v.B.:.V s...g 1..X3X&X.X.Xv.r.t.s.r.=.p.i.1.k.c.B.E.B.i.=.1.M.p.c.E.Y.'.M.P ' | p...g | M.x.x.B.p.Q ' M.3XY.|.E.c.t.c.c.s.-.s.s.v.v.M.c.M.M...g 7 7 2 = 8 u u m A ..M.c.m.i.r.s.c.c.s.s.s.c.r.i.p.d.=.' s.c.r.p.c.} A =.1.} 1.v.L.L.M.Y./.E.'.=.F g ..'.}..X}.Y.B.B.p.1.=.-.p.,.c.|.E.`.M.p.r.p.p.p.p.i.p.r.t.p.p.p.s.s.t.k.s.2.O.] ! K C m 1.",
"U B.E.v.v.H ..c.B.L.E.B.v.B.v.E.L.v.B.L.Y.B.|.'.=.g 7 7 ' .XL.L.].'.|.~.E.r.-...A B.E.P.E.&X|..X|.E.E.OX,X|.p.E ^ ..6.'.B.L.c.L.B.L.Y.T.L.B.B.A.c.x.p.A.E.s.r.M.B.m.s.g.s.s.L.L.B.Y.E.E.L.p.s.E.E.B.E.E.E.p.=...' 2 u Q ,.1.E..XXXB.s.L.L.k.s.L.L.V.v.k.v.L.Y.v.-.Q A m c.L.p.E.v.L.c.] A ..=.g *.B..X'.E.B.s.L.B.~.B.L.c.0.] A c s.L.V.T.'.~.G.E...2.|.L...^ | c.1.M.:X`.L.B.`.T.p.l 8 ,.v.I A m } E.E.P.B.B.c.t.c.v.k.s.v.M.B.B.L.m.L.M.V g m r.'.&X|.|..Xm.'.&XY.c.v.v.s.s.v.c.B.d.y.P.E.s.l.:.u.G.[.~.D.c.c.c.v.g.1.>.' 1.p.L.c.D.r.Q A M A A ' l.X.:.1.r.{ -.A U B.M.1.n.M.Y.s.Q I p.p.A g A 1.E.3XB.1.'.E.M.v.v.M.c.i.,.=.s.c.:.0.n.V.c.O.r.~.V.E.l.n.B.!.*X=.X 7 2.2.s.B.B.c.t.r.:.q ' { } -.-.' 1.c.c.E..X|.|.Y.E.c.c.c.:.0.n.l.) 8 u * c T L.'.V.k.:.p.U.V.L.~.~.L.'.=.p.].XXP.L.l.i.v.v.s.c.s.c.v.p.p.c.v.v.s.s.v.s.O.E.} I v.,X,Xr.=...v.=.s.p.,.s.t.p.c.r.} ,.Y.B...' !.B.M.P.v.v.1.A u A =.L.=.C | v.x.x.p.x.,X&XE.&X|.T.c.4.r.x.c.s.s.p.p.s.x.x.s.x.v.$.u g m 2 7 g A m Q 1.c.,.>.i.p.s.h.m.c.s.g.p.p.s.s.' Q :...r.-...=.U i U s.B.p.r.i.p.Y.M.L.B.B.C.} g -.|.$X}.}.M.&X=...C.s.p.i.M.c.x.M.c.A.v.6.s.s.r.1.s.6.p.r.2.k.p.c.t.c.c.k.2.2.1.O.) s.t.] v.",
"r.V.=...2.U p.v.B.v.L.}.E.M.M.M.V.L.Y.L.E.'.~.1.u 7 = i V.}.U =.B.E.'.Y.T.'.'.Y.,.r.-.-.Y.|.E.'.'.'.E.B.A.A.p.B.L.E.E.'.s.p.p.B.B.A.L.Y.L.B.B.A.T.B.r.A.c.p.*.r.s.C.E.'.L.c.B.B.g.L.Y.Y.L.c.g.L.E.s.L.E.v...O.s.P...E c.'..X&X&X.X&X.XE.c.t.v.E.P.Y.L.p.P.V.k.v.! A g ] '.r.U s.T.E.r.m g s.E.s.p.'.B.M.E.p.B.!.'.P.G.T.:.I M c 2.G.c.L.,X].B.'.v.I g s.Y.1.6.=.1.s.L.E.M.T.M.c.B.1.A P s...g Q ] ,.L.B.B.M.v.p.c.v.M.v.v.v.M.v.L.Y.Y.i.~ k V I p.&X,X'.L.'.E.2X.XC.i.i.i.p.v.Y.B.n.c.n.L.y.{ u.l.B.U.U.G.l.s.l.s.M.M.r...' B..X.X&XE.0.A u z g m 8.'.L.0.=.+XL.c.Q U v.v.p.c.L.p.Q 8 m -.Q g A 1.|.&XL.c.E.}.v.s.s.c.v.v.c.c.c.B.n.l.p.c.k...A q A O.-X.Xs.s..X~.8 X 4 g @.L.0.l.=.) i ; X B c.t.t.Y.L.s.c.V.|.&X&XP.v.v.p.l.i.U u.n.G.-XP.-.C 2 g s.G.t.2.0.G.E.s.n.t.u.k.n.L.!.#X~.v.k.t.r.c.v.s.v.c.c.v.p.t.c.v.v.c.s.c.r.! } =.L.L.s.,.i 4 Q r...p.s.i.c.s.p.i.,...-.p.s.2.B..XL.c.s.r.i.=.C d P ^ v..XE.6.p.i.M.XX&XE.s.L.E.A.c.i.1.i.c.x.c.s.s.c.B.M.c.c.L.$.} A g =.c.g g g V ..L.Y.s.,.p.g.g.c.g.s.g.c.i.s.s.i./ ' =.Q V V A ..1.1.v.E.E.B.c.v.B.E.p.d.r.s.J.,.6.&X,X&XE.M.Y.s.Q s.p.1.s.r.c.B.s.-.,.B.c.6.,.,.p.s.s.r.6.r.r.t.r.c.s.k.t.s.c.u.K H T U ' B +.",
"1.c.s.c.-.i.-.v.s.-.=.L.'.E.&X}..XP.E.&X'.1.} A u i = A &X!.m r.'.].Y.c.c.'..X].L.k.1.E c.}.L.s.x.Y.'.p.1.| C 1.-.6.c.B.s.p.v.A.A.A.L.Y.L.A.B.L.Y.s...E.B.L.=.6.c.}.;XoXL.s.v.M.m.L.L.M.M.m.M.L.B.:.s.s...Q r.'.'.V.s.Y.B.c.T.'.L.E.E.v.i.i.c.B.B.B.L.c..Xc...i.E I ] c.}.s.1.k.v.v.Y.Y.p.c.2.i.,.^ E ,.i.=.P.E.~.n.L.B.I i i m 0.1.p.~.].n.l.v.{ A 7 2.s.} A.L.|..X.XE.i.=.} ,.A.,.*.B.&X| E c.M.v.Y.c.l.v.v.s.M.v.v.B.B.B.M.M.Y.c.E.4.V ,.v.p.|.,X}.c.s.E.E..XE.m.p.g.c.c.M.Y.B.n.n.B.G.1.) r.l.B.U.L.n.s.s.l.B.B.B.i.,.4.}.;X&XL.' I M i A T y.G.D.d.B.P.,Xl.) =.M.|.}.L.D.d.p.p.Q A A i I r.s..X,XY.E.].s.1.s.s.s.c.c.d.c.M.l.u.c.u.k.r.K c K 8 = ..r.U E ' C X q m I ] 1.c.r.A u ; 7 i m p.E.s.i.1.p.E.E.!.|.|.p.p.p.s.M.i...:.l.v.k.0.=.c g g =.p.1.s.B.].u.0.t.{ -.s.V.#XXXE.c.r.0.r.p.k.p.p.v.v.v.M.s.l.c.c.v.s.s.c.r.Q r.s.r.c ' i.I A } 1.-.t.p.s.s.p.k.1.-.,.,.-.i.V..X'.B.s.i.c.L.L.i.p.s.c.,X2XL.p.M.'.OX;X|.1.6.|.M.s.r.6.6.s.c.s.c.s.s.x.x.p.i.p.s.$.=.A F >.B.i...m F 1.|.'.'.}.g.s.g.s.i.i.p.r.p.p.1.1.Q Q Q M m 7 7 } v.M.Y.E.c.' ..v.v.c.r.p.i.4.p.} r.&XY.M.p.=.c.' Q L.s.p.i.p.s.c.*.A ' s.1.s.x.s.p.r.1.i.1.s.s.p.6.p.x.L.v.t.-.=.M 8 a { ' A ' ",
"! Q ..) I =.' } 1.=.] 2.v.B.E.E.T.T.}.`.,.m i 7 = 7 V 2.].r.m r.T.Y.M.Y.L.Y.v.v.M.E.*XB.E.&XM.=.k.B.v.=.' E E x.6.6.x.c.B.B.L.M.L.V.A.Y.Y.A.B.L.}.,.I x.r.r.U ^ Y.;X,X|.B.s.B.Y.L.L.B.v.c.c.B.Y.'.c.L.M.1.r.Y.|.r.i.s.i.Q A ,.=.M.B.V.M.c.c.v.B.v.E.L.M.}.c.=...m m L.!.v.Y..XE.T.'.Y...m ..' -.-.U -.,.1.p.T.P.G.V.P.:.g a M Q 0.u.~.#Xl.1.k.2.V g h k.1.Q E.`.'.'.T.p.Q 7 7 ' 1.U *.E.|.^ 6.'.'.P.P.c.p.v.M.v.v.c.c.M.B.M.v.M.M.Y.B.=.~ L.E.E.|.&XE.s.i.M.L.E.M.c.c.B.L.M.v.v.c.n.n.c.G.B.0.u.p.c.n.n.s.u.s.l.s.M.L.4.I U L..XM.p.T C B Q =.n.l.0./ K W.,Xs.K i i.,X}.M.c.&Xi.p.E.i.,.r.-.1.-.Y.'.E.L.Y.c.1.v.s.s.s.s.p.i.p.c.c.l.v.k.s.:.A g h u 2 7 4 @ * O = . i g Q 0.v.B.B.' g 0 h I h -.v.Y.B.-.v.E.k.Y.E.L...i.p.s.V.i.=.r.s.r...A C A 0.:.n.B.t.s.k.p.-.0.:.u.l.c.'.].E.k.2.0.r.p.c.s.p.p.v.v.v.M.c.v.v.v.c.s.p.v.s.-.t.-.m i E.}...O.1.i.i.p.i.c.p.k.M.r.-.r.r.1.s.E.&X'.E.M.c.M.M.'.&X&X|.|.&Xs.^ 1.&X:XE.B.E.c.L.E.c.p.r.i.i.s.x.s.r.i.s.s.s.x.v.B.1.I $.V Q p.E.|.=.g A c.,X|.E.E.g.i.r.r.r.p.p.4.,.s.r...g z g g u i I c.}.Y.L.B.r.V U s.r.p.i.....' ..~ 1.'.Y.B.i.,.r.' -.s.p.i.p.v.s.r.E g | x.,.1.r.p.p.s.i.6.s.s.6.k.B.c.t.p.t.O.B i i H H -.@.! ..",
"7 g B h E A s.I 8 h m u m A m Q ..' ..,.I 7 g I m ..B.|.E...U s.P.V.v.E.Y.B.p.p.c.P.&XY.s.T.c.p.p.6.Q A l A i.`.,X'.T.c.B.v.L.M.L.B.B.L.Y.A.A.L.'...| B.s...m A v.'.E.L.M.x.M.L.M.M.B.L.M.c.v.J.E.M.E.}.E.].'.B.Q g i I g I 1.=.L.'.|.P.k.t.v.Y.E.E.i.M.M.v.p.U m u T.A...=.^ U k.T.k.g i s.s.t.V.|.E.-.c.T.P.E.P.~.B.K u c K :.v..X&XU.1.' @...U 7 g 1.-.r.|.L.c.E.B.^ A l g U U d Q 1...g p.E.E.B.v.s.p.M.v.c.v.c.c.M.v.c.v.B.Y.;X-.g ' s.1.M.L.C.g.p.m.B.L.L.v.c.c.m.M.v.v.v.l.n.n.d.D.U.n.l.l.c.l.r.:.1.p.c.v.B.M.} u g c.'.0.0.' u c r.=.=.U.B.l.p.L.1.i 3 m ..-.%.V Q }.=.i.s.} ,.B.v.L.B.&X'.M.v.s.r.s.v.s.s.c.c.l.s.l.v.c.B.k.v.M.r.@.Q M I Q h 2 $ g g i i g U :.{ 1.B.V.-.g i c A h ! s.v.0.V Q =.U 1.Y.s.Q r.p.s.B.r.K M C m C @.1.! I @.P.'.L.!.~.G.l.u.p.L.v.c.'.P.B.2.1.s.s.k.c.s.v.v.B.v.c.c.p.s.c.v.v.s.p.v.v.t.p.,.I ..B.' Q s.i.p.c.c.i.v.s.v.v.i.,.1.t.p.t.i.2.r.i.-.1.-.' s.x.s.s.c.i.s.E.OXE.B.v.Y.`.c.L.B.s.i.p.s.s.g.x.g.i.g.x.g.g.s.6.*.I g V A s.m.g.=.g Q c.,X&XY.i.4.i.r.4.4.1.i.s.c.i.p.' i 7 C c q Q p.E.}.'.E.E.v.r.} ' c.L.'.c.' s 3 g } 1.M.E.c.r.i.r.=.p.r.s.s.r.s.r.1.Q V =.B.E.c.x.s.1.r.c.p.s.B.s.s.A.V.L.L.O.0 u i g -.+.-.v.r.2.",
"V I m V m ] E.Y.=.=.E 7 u m 7 V ! u u -.r.-.k.'.E.&X&X|.|.t.1.v.L.E.Y.V.v.B.v.c.M.L.B...A p.M.v.i.,.A C m A M.|.E.B.B.c.B.c.L.B.L.B.B.Y.Y.A.A.T.v.U ,.B.i.Q U ..L.E.m.c.m.g.c.M.L.M.B.Y.B.v.L.E.Y.c.B.E.Y.'.s.) A m B r...t.i.v.L.'.'.v.i.s.B.Y.E.-.I L.k.1...A m u t.O.p.A.B B A ,.=.7 C v.E.E.XX!.] O.n.L.'.L.U.B.@.i g c _ V.{.XX&X].k.0.t...H h =.B.c.L.}.B.B.T.t.l P *.| E I V Q E g i i.E.Y.c.t.p.k.Y.v.i.k.k.c.v.M.M.L.Y.2Xv.7 @ A c.B.m.s.1.Q U 1.r.c.B.c.c.v.m.M.v.v.v.c.n.B.c.c.n.l.n.l.n.c.r.0.p.c.v.B.B.p.U g I v.U.P.p.{ m I L.1.@.d.s.B.~.} = 9 9 A A s r.' >.c.V r.v.s.v.M.i.s.M.;XY.s.M.M.s.s.-.s.s.c.v.v.c.c.v.t.v.t.c.G.l.p.O.1.@.p.=.T q q m g Q C ..1.H T =.K B 2 m ! =.1.r.'.c.M.s.L.E.-.:.E.s.} i.c.c.B.r.Q u u q c '.-X{ -.c.~.'.!.'.E.v.V.l.G.t.] G.!.n.s.,.0.c.c.c.v.c.M.v.M.c.k.c.p.s.s.v.M.c.s.c.v.t.-.M.Y.E...g 1.r.p.s.M.B.t.c.s.c.s.r.-.-.r.r...A i B A m ' ..' c.M.L.r.6.i.M.B.M.i.p.A.E.c.1.c.M.r.6.i.g.s.s.c.x.m.m.x.g.p.>.F 7 g m i =.L.' ..Q R Y.,X&Xp.i.1.r.r.p.r.>...~ ..s.c.Q 7 2 c C M ) E.|.E.Y.L.L.M.,.-.=.U v.3XE.=.1.Q s u } -.s.'.g.,.r.c.>.s.g.s.v.p.r.r.s.1.' 6.E.}.k.s.r.r.1.s.r.1.A.k.r.B.c.t...g ; u c c H h :.P.n.u.",
"r.=.,.B.1.|.v.L.,XE.p...I B m V g i u ' 2.E.}.L.E.}.L.B.'.v.r.' } s.'.E.Y.Y.P.M.v.T.E...m O.c.r.,.} u 7 m E x.'.s.i.v.L.Y.B.A.B.L.B.A.T.Y.B.A.E.v.A ' ' A A *.c.&X.XB.c.B.c.v.L.E.C.C.C.m.B.E.E.T.E.P.M.s.V.O.g A t.].].T.P.2.v.!.L.c.s.v.L.E.Y.B.! ! k...I m m m B 1.B =.B.B B I M.L.' r.L.'.!.;XO.u 0.p.p.B.s.:.) h 4 c A :.U.P.c.T.'.0.:.p.E V r.;X,X|.Y.v.c.'.T.p.U 6.E.M.*.A P A m U U =.`.Y.v.c.M.v.E.c.p.s.c.c.v.B.L.P.Y.L.g . % } '.E.1.U ..U u g i ..B.s.c.M.M.M.v.c.l.c.c.B.c.s.s.p.n.p.v.m.c.c.M.M.c.r.c.r.A i A s.L.G.0.:.=.Y @.{ n.B.G.'.E.m = S g M Q =.Y.M.L.r.g =.i.p.p.M.'..X&X'.p.i.p.s.v.p.i.v.c.v.n.v.l.s.s.c.B.l.k.c.u.{ C i ' ].!.V.p.Q ) K ..m g 7 :.B.h < 7 0 I -.n.'.].s.1.M.p.s.s...c.].v.i.k.M.B.M...g K A T l.#Xp.) B.P.L.G.U.L.n.k.l.n.B.-.{ ~.E.s.t.1.r.l.c.x.c.v.c.s.c.s.c.v.s.s.k.c.M.c.s.c.c.r.r.'.'.V.} 1.'.s.s.c.v.B.t.s.k.p.p.1.O.=.=.} A u m A A I =.0.-.1.6.s.} r.A.i.' -.s.c.s.r.r.c.s.p.i.r.p.x.g.g.x.x.c.s.s.x.p.*.Q P } A ' L.1.Q E.Y./.oXB.| ' 1.r.1.i.g.4.$.Q i e R Q i g g I 7 S {.E.v.r.n.Y.M.r...-...I v.L.U c s.1.Q V Q =.g.Y.c.p.g.m.4.p.x.r.i.c.p.c.A.M.p.s.E.s.P u l B.M.s.=.E.p.y * U U B ; $ M h g I U g ] l.u.+.",
"1.,.M.Y.i...' ..Q I =.L.2.E -.-.V m B 1.s.L.L.c.s.s.v.v.M.s.M.' U t.|.E.Y.M.Y.L.Y.L.L...u 0 ,.p.s.1.A V =.6.r.L.E.c.s.M.M.M.A.Y.A.B.A.T.L.B.A.E.M.E *.=.} i.E.&X}.'.c.c.B.p.i.c.L.B.L.C.M.L.Y.c.,.Y.E.k.p.}.s.A i t.E.A v.E.L..X.Xv.r.c.L.M.v.M.V.c.E.} 7 g i i h ^ P.O.' O.E r.A.P.'.}.3Xp.1.B.'.2...c.@...I ' B q < 4 C L k.B.G.!.!.V.1.' +...s.,X,XY.A.c.p.B.A.L.x.! s.`.p.d m C u g r.r.} '.L.L.P.E.v.B.c.c.M.M.M.v.B.Y.L.v.u $ 2 i B.E.A g i ' I 7 u 8 U r.c.v.v.c.s.s.s.s.d.l.n.s.p.c.l.l.c.v.c.i.i.c.v.s.M.c.{ u g Q c.B.L.G.G.U.X.....l...B.,Xl.z I X.Q V r.E.Q Q =.-.A ,.n.}.}.|.E.s.1.=.,.M.r.i.L.c.L.M.v.v.M.n.c.c.l.k.k.c.p.l.s.I u C p.'.I C p.) C s.'.' m c 1.r.{ m u i ' G.#XL...A ,.M...=...i r.XXY.L.v.B.v.i.m u a ' U.-X].=.=.:.l.c.B.L.l.s.n.n.V.2.B.E.'.L.r.k.s.l.v.v.c.c.v.v.s.c.s.c.v.p.p.v.v.v.c.s.v.c.r.r.Y.v.v.v.L.B.v.c.v.s.v.i.s.M.s.c.,.....} B d i m H ' ,.p.i.' u ^ A l 6.i.=.-.s.6.p.r.1.s.B.1.s.c.s.g.c.x.g.g.s.c.p.p.s.,.^ ..p.' 1.Y.B.B.}.Y.B.}.'.s.Q ....>.r.s.g.>...' 7 X 8 7 8 m g ' M ...Xv.M.p.p.i.r.i.1.......s.A = I L.M.c.s.s.L.}.B.g.i.s.r.p.c.s.x.g.i.r.c.p.r.p.1.s.r.C = - L.M.r.1.E l . - E i 5 * H I g 2.`.G.t.-.n.l.+.",
"1.B.G.n.B.s.:.=.I : 1.L.:.G.L.v.c.B.U L.'.v.B.v.c.c.r.Q p.c.B.c.' U =.v.B.L.E.L.L.E.B.K i 7 I m I | } c.E.'.'.`.L.B.c.v.B.M.M.Y.M.L.A.E.'.M.|.T.c.V.E.].&X-X#X'.L.m.B.B.M.v.c.L.'.B.M.B.M.L.B.p.r.L.B.s.M.L.M.M.U v.1.V ..'.&X.XP.v.v.c.v.v.d.M.M.Y.s.u 7 8 m g V -.E.~.L.E.!.E.P.}.&X.X1.m ' L.G.c.v.B.L.!.!.n.T m m T ) 1.P.B.~.{.W.s.{ ) :.n..X'.Y.E.M.r.v.M.Y.|.c.' L.C.i.g A 1...r..X;X|.'.Y.G.L.E.c.v.M.v.v.M.v.B.M.B.v.Q $ . 2 Q i.H 7 g { p.=.A h A A ,.s.p.Y.p.s.c.p.c.v.p.s.M.s.i.M.c.c.G.'...:.E.G.B.L.@.I < z =.c.E.L.G.p.8.} 0.M.l.r.d.E.) g p.Q i 1.B.B.-.Q Q g } }.;X3X}.L.B...m :./ g Q G.c.c.d.p.c.v.c.n.l.p.c.n.G.p.l.B.;.7 u Q L...q A C q 8 2.G.m =.r.p.E 1.c.A K M l.*Xr.h ' l.l.n.].1.g 1.#XP.n.r.c.y.M g i B 2.&X&Xc.p.' A A ,.B.M.v.L.B.L.s.c.B.'.!.s.s.v.c.s.v.c.p.c.s.i.s.s.x.c.v.c.c.c.c.c.k.s.k.s.t.t.c.P.i.-.m Q c.i.i.t.s.t.r.1.i.0.{ I U C g E -.-.s.] ,.x.A u m g A A *.6.1.s.i.6.p.v.B.M.s.p.x.x.s.c.v.s.p.s.s.p.i.i.*.g ^ 1.' ~ M.E.!.E.r.A } Y.d.s.i.1.p.s.p.i.4.,.1.} V $.Q i A g u V I M.'.c.s.i.c.M.c.c.i...Q A ....g ..Y.B.L.A.|.].L.A.s.c.p.s.1.6.x.c.s.s.x.c.s.r.i.r.,.c.*.E U x.c.v...- . l A d 2 - ! 6.h ..E.c.^ ! t.V.l.t.",
"c.V.L.l.V.#XB.0.t.1.s.s.r.r.{ ) E H B k.p.s.v.Y.B.M.s.=.B.B.J.M.Q V Q c.Y.Y.L.c.L.E.M.u 7 i g A ^ V m =.x.L.'.`.c.x.x.M.L.B.M.L.L.m.Y./.E.v.A.v.L.E.'.XX*X'.B.c.Y.v.m.v.v.v.v.Y.Y.B.B.B.M.D.G.c.s.E.L.s.B.Y.B.M.Y.B...I i.'.}.E.L.c.c.v.B.L.B.U.E.B.i.2 . A v.,.-.v.|.&X|.'.E.T.E.Y.Y.r.h A v.L.B...l.#X.X~.].Y.} i h ' n.n.' =.#X].;.S i u 1..X.X.XY.B.M.v.B.m.B.E.-.I B.E.M.Q 1..X,X;X,X}.Y.M.1.s.B.1.v.E.L.v.B.M.v.L.Y.Y.c.A i 0 A A g 7 i V i.&X2.m ] p.U m =.B.B.p.M.p.s.M.c.L.v.c.v.s.v.M.B.l.=.4 1.E.B.G.p.m i u c I ' 1.B.M.,.i.g A E.B.c.B.E.-.U L.B.1.v.p.v.L.B.-.U c..X}.B.s.E.|.v.s.B.1.I ..L.B.L.n.B.l.c.n.l.s.c.n.l.B.c.c.c.T q m ) :.u I p.r.' S n.1.=.u.L.l.r.].c.=.C B =.r.) K ;.G.n.p.p.) ;.D.].L.l.c.c...g 9 A A l.&XY.] m A I U 1.c.=.Q } { } m -.L.M.v.c.i.c.k.s.c.c.p.c.s.s.x.c.c.c.v.v.c.l.l.l.s.s.l.l.s.k.v.V.E.E $ ..c...O.Q Q Q ..r.=.) K g h m m K I ..B.M.s.Q g P -.p.,.,.c.Y.A.B.x.s.c.M.M.x.p.i.i.c.p.c.c.r.s.x.-.p.x.,.^ U ,.1.' p.Y.Y.s.Q g 7 g L.B.M.s.s.B.v.p.r.i.w.=.c.4.Q Q 2 A I Q 1.i.'.'.c.Y.Y.L.v.i.r.-.' ..I ..E.Y.'.E.p.s.x.M.v.B.B...Q =.1.B.s.r.s.s.s.p.s.c.x.s.p.6.,.*.Q m Q E Q g h g P d u B d U B =.'.E.=.P U -.P.c.0.",
"s.~.P.n.~.E.Q r.!.*XL.c.c.r.s.B.s.t.L.2.m p.M.M.c.M.Y.c.Y.c.M.Y.} Q 1.L.M.c.L.|.}.v.@.g i V ' c.|.,.r.6...v.&XL.x.c.c.B.L.B.v.B.Y.Y.E.M.T.B.x.M.Y.L.M.L.E.c.0.c.Y.v.v.v.v.v.c.L.B.B.L.L.M.B.L.M.c.E.L.v.B.B.s.i.,.c.L.E.}.E.E.}.B.c.c.c.M.D.M.L.M.B.1.i U p.L.,.r.E.;X.XE.V.M.Y.B.v.1.=...-.c.B.r.P..Xl.1.:.L..XG.V.s.1.P.L.@.G.{.U.m < = * =.E.E.c.1.v.E.v.v.L.Y.E.} k g.Y.E.M.B.|..XE.c.i.r.} A V U i ' B.L.B.M.M.v.B.B.M.i.A g g A A m A m I v.V.u =.E.p.r.Q ....' M.E.Q -.E.B.B.M.L.L.B.L.L.,.I g : 1.s.Q A m u p A @.n.s.B.E.M...V = V s.B.B.&X|.E.Y.|.Y.s.E.M.Y.B.s.....Y.B.s.Q Q c.p.U ..G.G.n.G.L.p.n.c.G.l.n.G.s.s.n.s.G.n.s.M.L.Y g p X.L.:.L.n.s.c.r.t.c.G.E.T.0.E.s.B @.=.n.B...m :.n.c.B.d.c.B.~.L.+XD.s.n.0.A g g I I s.i.I i 7 =.'.c.V..Xv.I 7 = 8 * E r...=.p.s.s.k.p.c.c.s.c.s.x.c.v.v.v.v.v.c.k.k.k.s.s.l.l.l.v.B.v.B.B 8 s.XX| I 2 8 i A =.I i i 7 i m A { 2.s.c.k.c.} ..1.c.T.c.Y.|.`.A.x.s.x.v.v.x.s.s.s.i.p.i.i.r.r.s.x.p.i.r.U U 6.v...U Q c.1.U m g V 1.'.L.s.s.c.s.r.,.-...' ' i.Q 7 m } Q A =.E.}.'.c.Y.L.c.m.B.v.c.s.i.B.8...p.1.c.B.L.M.s.r.1.B.L.^ 2 y 1.s.p.x.,.c.c.x.c.c.s.i.=.Q U Q V u u 8 y g C h l d | t.I m ' L.E.' l U ..r.k.k.c.",
"=.s.r.P.!.O.7 c.3X-X].'.p.1.L.n.O.2.P.I * c.Y.B.v.L.E.v.M.s.B.W.L.,.=.s.Y.E.Y.M.B.} 7 g 7 m p.c.=.' 1.' *.B.E.r.B.B.M.B.A.B.M.A.L.'.Y.B..Xv.r.'.Y.L.k.c.L.c.s.~.v.s.M.B.B.M.c.L.B.L.L.B.M.B.L.B.v.Y.L.v.v.M.s.p.i.M.}.|.E.Y.E.E.B.v.M.v.M.B.v.M.v.B.s.-.B.M.=.V i.&X;XP.B.B.B.B.r.M.B.L.k.} =.V.p.G.r.A 2.V.P.L.V.XXv.l.].V.p.T.u.) 7 m C i ..y.1.U ' B.'.c.s.L.c.E.1...Y.L.L.B.i.i.M.L.p.,.' e 7 g u 7 i Q =.'.L.B.M.v.v.v.r.U m B g B i.B.-.B.=.m H r.} } t.M.p.U I c.=.* Q d.Y.v.E.|.L.Y.E.=.z < m A r.0.T u > A M m ) :.@.P.E.' p g i g 7 i I }.c.r.Y..XE.p.s.i.c.1.s.c.c.v.E.Y.i.1.v...7 g 0.B.L.U.s.:.B.E.d.c.B.n.d.c.n.d.r.r.1.s.=.4 u m { G.L.E.{ ' n.L.-.-.0.{ Q n.T.0.O.l.L.u.=.{ B p.{.p.U.L.U.&Xr.) {.s.d.n.@.c p V A O.B.1.I } 1.;X&XE.!.&X.XY.=.u 7 m A A Q 1.c.v.s.c.p.c.v.s.c.s.c.v.M.c.c.v.c.k.k.l.k.k.s.s.k.l.s.c.T...8 B p.'.1...Q U m 8 g u g M i g ' c.#X3XP.Y.B.B.,.s.r.s.*.=.Y.}.L.v.p.x.s.c.x.p.p.c.c.r.1.s.r.r.c.p.,.p.s.p.| ,.p.=.m A g i...m g g m ,.1.c.c.c.M.s.r.1.r.,.1.g.1.Q i.r.p.p.=.1.L.'.'.v.p.} A %.B.M.v.M.B.c.1.,.s.1.M.'.B.c.1.....r.,.A d m M.p.p.c.i.B.s.c.c.s.r.6.| l I P A =.i.^ l l C ..x.c.T.L.*.O.s.T.c.E B ..6.r.L.T.'.",
") B m B.t.Q ' G.p.@.p.c.] =.r.h u d ' ! ' L.M.v.W.Y.v.i.v.B.Y.Y.c.n.L.Y.v.c.B.Y.r.I 8 u g ' s...M.r.} A c.B.r.c.B.A.B.B.L.A.A.E.A.T.L..X|...1..XM.L.v.v.P.B.l.P.i.i.v.L.L.B.M.Y.Y.Y.B.M.M.B.B.B.B.L.B.c.c.M.L.Y.Y.L.B.c.i.c.Y.Y.B.v.B.B.L.Y.M.B.L.s.B.Y.L.B.B.r.Y.,X'.v.B.L.B.s.i.M.'.E.t.r.Y.E.P.i.i.n.!.V.c.t.u.s.0.L.L.E K c.:.7 u ;...V U ' Q m -.'.E.B.M.s.s.E.p.i.E.B.c.s.1...s.Y.p...I i m Q g m m g A r.M.v.M.B.B.M.1.Q A Q I ] M.L.=.s.Q u I -.i U Y.E.E.E.E.p.Q I v.E.E.Y.E.Y.i.l.r.8 u K n.'.U.s.{ Q ) A u Y @.=...P.}.=.7 c u ' B.=.v.'.i.L.B.} ' -...-.M.c.v.n.'.&X,X.X}.E.Y.i.Q ' d.L.L.~.n.:.;.{ 8.c.v.c.M.s.0.c.I m * i 7 = m { U.D.P.W.l.l.P.U.L.r.{ ) T G.M.0.2.v.P...:.!.P.v...Q r.l.1.d.U @.-X;.=.' c g p T v.|.&X|.T..X}.].P.r.r.B.B.c.r...m A i i ..B.L.p.s.M.s.k.M.c.c.k.c.c.v.c.c.c.k.s.s.s.k.k.k.s.k.l.c.v..XB 7 I E ..i.p.}.V.=.m h K s.2.K C 2..X&Xc.=.p.1.t.s.'.M.B.6.p.`.E.B.B.s.s.s.c.x.i.s.v.s.1.p.p.6.6.s.v.c.p...=...1...I u g A ' V u 7 U 1.i.r.E.Y.p.i.i.p.1.1.s.c.1.A I v.....c.s.r.v.}.E.1.A U Q r.Y.v.p.c.c.1.r.s.E.E.|.E.x.x.1...=.E 7 7 d ^ ..c.s.i.v.r.p.r.i.r.r.i.,.Q ..U m ..c.1.E l d O.P.L.s.-...c.'.`.M...H | B.E.T.v.t.",
"1.r.=.G.c.s.G.G.C E :.=...l.0.h B g E c.|.].s.1.L.B.M.c.M.L.J.c.B.B.B.n.M.L.Y.E.v.Q m i -.Y.c.B.M.E ' L..Xv.6.c.B.L.A.A.L.A.B.L.L.T.(.(.1.U M.L.c.V.n.c.V.v.k.B.c.s.M.B.M.M.v.Y.Y.Y.M.c.M.B.M.B.M.L.L.B.v.M.B.B.s.s.M.B.s.p.M.E.B.M.L.L.L.Y.M.B.B.v.v.M.E.}.;X&X|.;XP.B.B.s.c.s.c.L.M.M.B.L.L.c.G.'.!.B.s.r.u.V.n.-.v.L.1.g q l.n.) ) ..U ' 8.=.A A c.;X'.B.B.v.B.Y.1.1.B.v.v.c.s.' ' ..Q V m A ..} ..' m g r.Q Q -.M.M.c.r...} ,.p.c.L.Y.V.p.-.,.,.B s.,...,X.X&X;X'.i.p.r.s.Y.p.=.A g u 8 * . ' L.&X'.p...Y r.E...' G..X&X&X#X'.L.p.-.A =.c.-.B.|.Y.c.Q Q ..S r.=.i.M.E.|.;X|.'.L.E.'.E.Y.v.l.B.W.E.&X}.s.{ m 0.l.s.n.G...A @.r.s.{ T * * ..&X+XE.&X-X#X~.c.@.~.!.V.E.n.G.'.c.T.]..XT.~.'..X=.:.l.r.p.' Q ..E.&XQ A 9 2 c g { .X5X;X,XB.v.T.}.G.1.,.p.,.@.O.} g m V E r.E.!.i.k.B.s.s.M.v.c.c.x.c.c.x.k.k.k.s.p.s.k.l.k.s.k.l.i.P.-.= Q I u Q r.] 1.} p.B.v.B.@.C i { P.&X].k.i.=.A -.L.L.,.p.A.'..XA.p.r.r.s.s.c.x.s.c.M.x.1.x.1.c.M.s.Y.L.E d } r.1.P m d d ' ..c m Q s.E.c.1.1...r.v.p.p.r.s.i.r.A g g m u } 1.p.M.L.B.} g V M.|.'.L.s.s.v.p.s.c.=.r.G.E.r.r.x.r.1.s.' g ' s.-.d =.} s.p.s.M.i.r.p.p.r.r.,.| r.v.B.A.v.s.| Q Q 6.r.H i ^ T.`.L.r.| Q 1.L.L.v.t.:.",
":.E.B.c.B.n.u.-.s.!.B.0.B.P.s.@.U B ..L.&X'.M.k.v.v.B.Y.B.M.n.c.B.c.i.p.M.Y.Y.E.v.V m m M.}.c.|.Y.Q *..XB.1.x.c.B.L.L.A.L.B.M.A.Y.E.L.5...6.`.c.B.L.B.M.B.B.V.E.L.v.M.M.M.n.c.B.B.L.M.c.B.B.M.B.v.M.L.Y.B.M.v.s.L.M.v.M.M.c.v.L.L.B.L.B.M.B.v.M.M.L.s.s.Y.Y.v.L.!..XY.Y.M.i.M.v.p.E.B.c.s.E B } :.c.T u T L.G.n.=.' 0.1.=.' U s.G.U.p.{ { B..Xs.I ..E..XE.M.c.L.v.B.i.c.L.M.M.p.M.Q V m V m g I p.c.E.1.g ' |.r.Q =.v.s.1...' =.p.c.c.M.p.-.M.B.c.E.P.L.v.Y.B.B.M.1.' Q =.m 7 I =.A 2 2 8 = i } n.[.L.{ C I X.G.P.~.E.L.{.&X&X~.E.v.Y.M.,.,.Q r.p.v.r.Q m } ..Q } } p.|.|.&X&X'.E.B.E.}.'.}.E.E.B.G.0.B.U.L.L.U.l.s.1.:.=.A q M 3 Q d.L.l.:.8.B.:.r.B.{.v.X.I S { A 2.@.I c.Y.'.&X].L.P.n.r.V.c.B.~.B.n.D.B.#X4Xc.m c z g A C =.&XL.} p.p.B.L.c.,.c.L.i.1.Y.B.U U 2.r.r.B.}.}.v.s.B.p.i.v.c.s.s.x.c.c.x.k.c.c.s.p.s.k.c.l.s.s.l.1.M.m $ ..A u 1.s.Q A h v.'.P.M.I 0 B G..XT.P.V.1.Q h r.E.s.r.L.s.E.L.k.r.,.6.c.c.c.x.s.x.c.p.,.,.=.s.M.1...A . A B.`.6.d u m ^ i.L.r.p.s.s...g 7 7 V B.&XY.B.s.1.} A i A g d I 1.s.M.Y.v.1.A g Q .X,XL.p.i.p.d.s.s...A 1.E.L.1.*.6.r.2.x.r.1.'..Xc.p.B.,.x.A Q p.p.p.r.1.6.1...^ s.`.r.} =.`.E.t.p.`.B.B C k..XV.T.c.c.E.|.T.2.1.-.-.",
"r.c.G.B.L.'.G.1.L.E.=.-.~.~.c.s.s.-.L.*X|.B.B.E.'.M.c.B.M.M.J.Y.c.M.G.Y.E.L.Y.}.-.u g A c.L.c.1.c.t...c.M.x.x.c.M.A.B.B.A.A.L.E.Y.A.i.$.T.|.L.B.B.M.M.B.B.c.B.P.L.s.c.M.D.D.v.M.c.B.M.v.B.B.M.L.M.v.v.M.v.B.L.B.c.B.L.M.v.v.L.'.L.B.L.M.v.B.M.B.B.s.v.Y.M.c.M.B.s.M.p.s.p.p.B.i.v.B.v.p.} V I ' Q U i c 0 ' { ) B ....) A m @.L.B.{.r.8.n.B.c.A Q E.,XB.c.B.s.v.M.L.s.M.v.c.L.M.E.=.A i g m m ..Y.,XM.Q Q B.M.,.Y.B.M.i.i.r.....p.E.L.L.p.g ..L.M.M.s.B.}..X1.I Q U V i u 8 m A m g g g i A p.B.E.U.L.@.T @.c.r.s.'.:.M G.&X'.~.E.Y.M.i.Q 1.c.I Q s.1.' c.&Xp.-.s.} =.|.|.|.}.E.E.E.'.E.E.L.B.E.;X{.=.1.s.c.D.~.L.d.' z 9 u z m q / s.1.1...r.U.c.s.:.{.y.m m 0.v.Q I =.K c..X!.c.l.v.n.s.B.l.G.G.B.E.l.+X&X].n.p.A z m z m { ~.M.k.0.E.s.s.r...r.s.L.B.r.2.=.A 1.;Xn.=.E.&XL.p.s.B.i.r.c.s.p.s.x.c.c.c.c.c.c.c.s.s.l.c.l.p.t.u.B.p.-.] A g Q s.L.B.B.c.E.=.A C u u { P.L.B.L.s.1.-.Q 1.Y.B.L.v.T..XL.L.'.M.s.s.v.c.s.i.r.6.=.} ' ^ m u 7 . O 7 c.E.,.m u U ' r.s.v.v.L.,.i.M.Q V ..l.'.B.r.c.,...} m m U A 4.v.Y.'.n.1.p.}.s.Q ..E.L.,.r.s.s.r.s.s...' L.M.=.-.s.B.Y.c.s.p.r.E.c.B.E.1.m 7 u A E 1.p.*...r.1.P g Q r.U g A A.M.C =.P.1.A B.,X6.x.P.*.P | =.1.r.2.@.' ",
"r.P.B.V.G.s.=.L.G.1.' G.~.V.l.r.v.T.V.s.c.B.L.Y.L.Y.L.v.M.B.D.J.B.v.Y.L.L.E..X'.Q 7 g U 1.c.i.I ' ..B.'.M.s.s.,.M.E.L.c.A.L.B.L.m.L.s.A.'.M.M.C.k.L.G.k.c.v.B.Y.M.c.v.B.L.Y.L.M.L.v.M.B.B.B.B.M.M.M.B.B.v.B.L.B.M.M.B.B.B.B.Y.E.L.M.v.v.M.M.B.B.v.v.c.E.v.M.B.m...} r.v.v.c.c.B.B.V.M.i.=.A U g m ) I A B m C q u B I I ] ] @.-X~.G.Y I s.U.s.c ...XE.M.s.c.B.m.Y.B.v.c.n.B.M.n.U.1.g m ) :.:.B.}.M.Q I Q '.c.u g A 1.v.v.v.,.Q v.'...K 2.i.r.v.s.L.i.v.3XB.g H I m u g m U Q m m 7 g ' =.M.|.B.B.Y..XL.E.E.n.r.y.D.d.@.L.E.D.c.1.r.M.1.A ..B.p.p.i...M..X;XY.1.r.s.&X,XE.}.'.v.L.'.L.c.c.Y.v.L.'.c.s.s.p.B.~.~.Y.I g c 9 g M g / E.c.S c u @.].G.n.c.].L.=.X.L.XXP.~.L.E.,XP.@.r.B.v.L.B.E.P.r.{ @.C 0.,XE.s.@.0.A m u A ..P.d.-.T..X'.1.s.1.r.s.M.,.c.' V m c v.*Xc.1..X'.r.p.k.i.-.M.v.M.c.p.c.v.v.c.c.c.c.c.s.c.v.c.s.s.l.v.v.M.p.1.1.,.} L.}.,Xv...B h I 1.T _ !.].B.L.n.c.i...=.p.p.U i ,.T.,X&X.X|.Y.B.x.*.*.r.*.-.i.P d d y 2 $ 1.=.I x.c.=.u u A d ..x.E.E.Y.&X=.p.;X'.d.s.|.L.} 1.} ..Q m 4 A n.@.G.=.l.E.l.r.~.G.n.G.|.E.p.=.1.i.i.s.p.p.X.1.p.i.} 1.v.`.B.M.s.c.x.B.E.B.Q l u 2 i A g =.E.I 7 ,.' 7 g x.E.L.i.*.c.E * A v.1.A B.c.A | A.y 2 l d Q -.2.B 0 ",
"B.-XP.L.L.K s.P.&X#XE.!.v.1.Q K ! E E ! r.Y.P.Y.B.v.M.B.M.s.h.M.L.c.M.E.n.} 1.i.8 7 g } E.E.p.' =.r.L.E.c.x.M.c.A.L.A.L.T.B.M.E.E.B.| ,.B.c.x.p.k.B.v.v.L.P.B.v.L.M.n.M.v.M.B.B.M.Y.E.L.M.B.B.c.M.M.B.M.v.M.M.v.M.B.B.B.M.B.L.E.B.n.n.B.B.B.M.M.B.M.v.L.v.v.B.c.m V O.c.L.E.T.|.!.'.E.s.] ..p.=.! B.].r.r.p.E h u B ' c ! t.{.#X~.~./ ) n.L.l.p.,XE.B.Y.B.Y.v.M.B.B.n.v.n.M.n.c.L.c.=.X.d.G.U.~.Y.} 7 7 r.&X,.i A ' i.c.i...Q =.r.G.Q u =.E.T.M.Y..X2.M..Xv.} ,.M.i.{ ..v.B.,.} Q m m M.&Xv.c.p.D.B.P.G.Y.G.c.v.G.c.B.W.'.n.c.:.U v..XY.,.p.E.M.c.c.v.,X.Xv.r.v.Y.|.,X}.P.E.B.M.B.s.p.c.r.i.r.n.n.E.s.c.G.n.~.) u z c u C m m { ~.&X=.7 9 ) .XE.D.p.n..XG.D.P.L.'.G.P.P.].<XT.1.n.l.k.'.].G.r.Q A g z B.~.d.d.:.p.I u C d.l.s.K V r.L.,.M.r.i.v.B...Q v.' i i g ] 1.] 1.|.|.L.L.v.L.v.r.B.c.M.c.x.x.x.c.v.v.c.s.s.l.c.c.k.s.l.v.k.c.s.s.B.v.-.]..X=.m u u -.c.s.v.n.'.B.p.V.c.:.} =.2.-.=.=...6.E.}.A.M.v.s.x.r.2 2 U Q U ' m d y U x.x.i.Q 6.x.I m d - m p..X|.Y.E.v...U v.&XE.r.-.y...r.-.1.s.:.I c =.Q K =.' s.1.1.{ :.Q Q E.L.r.,.1.1.p.M.c.v.s.} ,.r.1.=.' =.L.A.B.c.L.E.E.E.E.1.m g P A m d 7 d u 5 8 2 C c.&X,X.XE.M.'.x.^ Q v.*.-.2Xs.l C H I ..c.v.x.g u 5 7 ",
":.V.-.E.G.E p.B.'.&X.X~.V.t.A m u 8 C =.B.|.B.p.c.M.Y.L.v.B.L.c.M.L.L.L.,.i A g 2 9 A ..p.v.v.Q M.E.'.A.s.x.B.V.'.A.v.B.L.M.B.L.m.m.,.s.Y.B.B.c.v.B.M.M.B.B.B.L.c.s.v.L.B.M.M.c.L.L.B.c.v.E.'.L.M.n.M.M.v.M.M.c.v.n.M.v.v.n.B.D.B.B.B.J.L.B.M.B.M.v.M.M.v.v.Y.v.u 0 U r.c.s.-...2.,.-.A 7 ! i.,.1.2.I ) s.Q ) ..H ..=.c B H @.Q 1.s.@.n.P.n.v.}.L.M.L.E.B.L.v.M.M.n.n.n.n.n.v.c.c.E.'.d.B.U.'.P.Q 7 i g c.1.u U i.s.c.i.1.} I -.Q U 7 m r.v.v.Y.|.c.' V.|.B.} p.L.p.E.}.n.c.v.L.'.v.Q 1.E.=.r.c.B.n.M.D.G.G.d.n.c.B.n.n.L.d.s.0.s.'.'.E.B.v.Y.L.Y.}.E.&Xc.r.i.Y.&X;XE.M.|.;XB.s.M...-.E.M.r.' Q E.0.c.L.p.B.p.p * A K 2 A Q ;.W.-Xy.) M 0..X.XL.G.B.n.B.p.l.c.c.E.n.V.G.'.&Xn.:.r.r.v.T.B...I h C A @.-Xc.{ 1.:.B.r.Q { G.s.l.@.i r.}.c.r.s.V.l.c.I V -.h g ' Q Q A A 1.}..X'.L.c.c.r.1.B.v.V.v.s.s.s.c.M.v.c.p.p.s.l.l.l.k.l.l.v.c.r.....} I XXL.u 7 m m c.Y.c.r.n.L.l.r.l.l.:...-.=.U } M.Y.B.'.A.i.r.6.r.s.r.2 5 u 7 P U u U s.|.|.A.*.A s.r.| l y A m A B.L.M.p...m Q i.c.v.,.Q ' r.}.M.E.L.B.n.Q U g :.s.n.p.=.A 2 Q p.s.G.p.i.,.i.M.c.r.p.c.-.I ;.-.=.r...s.E.A.M.M.T.Y.M.p.c.r.A E ,.Q m ^ Q 7 7 u A Q 6.|.|.M.=.,.1.L.T.L.'...B T.L.l 2 H 6.'.'.2XOX1.d l m H ",
"K p.B.{.n.s.l.G.L.~.P.L.P.l.C A V y U ,.c.L.c.s.r.p.L.L.v.L.E.n.v.L.Y.i.Q i g * 8 r g Q Q -.M.Q M.|.'.B.c.M.B.B.L.B.B.M.M.B.A.M.c.T.T.'.'.B.c.c.B.V.L.B.c.l.M.P.L.v.v.L.L.Y.E.E.E.E.}.}.Y.M.B.B.M.v.M.B.B.B.L.M.v.v.v.v.v.v.n.M.L.B.B.M.M.M.M.B.c.c.M.v.M.M.E.v.m 7 g I U B i i 8 2 2 = $ U } ..1.2.g H r.K =.K g ! B ) V.v.' m ' z g l.G.G.n.p.i.'.p.p.Y.M.B.B.M.n.n.M.n.c.c.n.L.D.=.m ;..X-XB.i I M.M.|.=.u ..Y.B.v.i.p.s.i.c.,.O.m g -.E.}.'..XU A O.L.'.] k.r.} B.M.-.c.Y.L.v.v.1.,.L.,.c.M.c.n.n.G.G.G.1.0.c.L.G.p.l.s.1.1.Y.E.M.E.Y.r.c.L.'.E.1.=.A } -.p.'.'.M.p.B.L.p.s.s.p.c.v.s.c.I = I U.d.s.B.P.' 3 A ,.G...0.L.,X-Xn.C g Q .X<XG.'.W.'.~.B.r.1.r.D.L.l.c.c.P.E.r.1.p.n.P.r.U q g i g ..p.].r.@.r.v.c.G.r.0.M.r.s.{ ..-.c.E.c.k.M.v.M.} A A = g r.s.c.s.c.}.,X;X.XY.r.s.s.B.p.v.v.s.c.x.c.v.M.v.c.s.p.s.s.k.k.k.s.s.s.c.s...' A 7 B.c.g A ' B ..1.s.r.B.P.P.v.s.l.p.c.1.A i | E.:X:XT.s.r.p.p.s.c.p.g m V 7 Q } A -.L..Xc.6.p.c..Xc.A g A ,.r.r.v.=.I Q ' ,.v.c.y.B.Y.=.-.&XE.E.E.M.B.y.I Q ..{ @.l.p.r.{ p.&X[.'.G.c.M.1.=.c.p.1.M.p.U U i.1.-.B.L.L.E.B.M.x.i.i.r.p.x.c.x.A.L.1.=.T.`.*.A E E.}.E.}.T.c.,.s.c.v.B.| s.1.2.p.l H =.v.3X.XB.!.A.m C U C m ",
"g T k.1.c.T.~.V.B.E.G.c.n.p.B E h l O.r.1.1.r.c.r.=.p.Y.v.p.n.B.M.v.L...A V A V u A V 1.Y.E.|.'.L..X|.L.A.A.M.M.c.B.T.L.M.B.L.B.A.Y.L.Y.T.B.v.x.B.M.M.B.B.B.B.B.Y.L.E..X|.}..X,XE.v.i.p.c.M.L.B.M.v.M.D.B.B.B.M.B.B.B.M.M.M.M.B.M.v.v.v.v.c.v.M.M.M.B.c.m.B.E.s.m g E ..E h 7 0 g g g i i B c Q c.P.{.L.!.L.'.p.c.~.p.s.!.L.B.L.X.a a r.n.L.P.n.&XL.m U L.B.v.v.B.n.n.n.n.v.n.M.l.l.I q ' .X~.1.Q B..XB.-.U ..v.|.B.L.L.c.c.p.-...' m g 1.|.E.p.c.U =.] M.'.] Q &XE.M.Q Q s.r.......B.'.;XM.s.c.c.B.B.L.n.r./ ;.G.r.U.L.s.l.1.=.i.s.p.r.Q A ..,.Y.} A ..I g g X.M.r.,.,.r.p.i.v.v.L.M.c.s.c...Q i p.n.s.L.l.M z N X.D...1.U.{.8.T I M r.&XE..X'.B.s.P.D.r.B.~.E.v.p.l.k.B.V.p.c.B.G.V.' h u C C { c.G.'.8.0.d.l.s.L.B.y.r.y.B.@.s.L.c.O.,.,.v.L.r.} ..p.} m A Q v.]..X'.Y.v.k.r.1.v.i.c.V.E.B.s.v.v.v.c.c.c.k.s.s.k.k.l.l.s.u.p.s.s.i.1.1...h v.V.=.s.!.p.c.c.t.c.G.L.P.G.n.B.B.c.r.U Q L.OX'.'.c.6.i.c.c.v.c.s.=.E =.C g ..c.L.Y.T.v.s.s.E.E...P u ^ ..A.:X} m A ..U } Q -.B.|.M.,.r.,XL.Y.s.r.;.I A 0.s.' r.8.;.G.'.&XP./ 1.d.i.r.r.r.1.p.v.s.,.m ' r.,.p.Y.'.=.,.=.=.=.*.6.r.r.s.i.A.T.p.1.i.=.I g P | .XOX&XM.s.s.1.M.v.1.=.v.| 1.p.k...Q ] A.A...U B B d A ' ! Q ",
"q 8 0 ) B.T.E.n.k.P.v.l.B.c.T K d ' B.'.L.s.s.v.s.i.v.L.M.v.B.J.L.L.E.T 7 A Q ' Q m A Y.-X|.}.}..X&X'.L.Y.T.T.'.'.E.A.B.B.B.B.L.C.B.B.B.A.L.L.A.B.v.B.B.n.V.T.E.'.'.&X&XL.1.-.1.I i * * V r.B.v.B.v.M.B.v.v.n.v.M.B.B.B.B.B.B.M.c.c.M.B.B.n.M.B.M.B.M.c.M.E.E.1.i m 1.T.E.i.Q B m V V V m K ..L.k.B.'..X'.P.3X&XG.c.L.P..Xl.B.B.) ..0.G.|.E.E.&XB.A 7 A M.E.m.M.D.n.c.n.n.n.n.B.U.U.Y * u u.B.B.M.M.-...u 8 ,.}.i.U -.L.B.M.p...i i A ..c.2.V u C ! v.M..XM...I B.,.r.p.c.L.c.1.v.,.E.}.|.L.v.v.n.B.n.c.,.I m 1.l.r.s.1.=.s.=.=...1.-.I A } } A s.U ..|.v.A M s.B.,.r.c.v.M.v.c.c.v.c.B.E.L.=.-.{ S E.L.c.I 7 A { :.@.m 1.B.1.c i C p.#X{.B.'.B.:.X.=.) r.}.].P.v.t.c.l.k.v.s.V.c.c.B.2.Q A C B T ;.L.+X1.1.c.s.s.s.1.{ =.L.&XE.s.].1.u 2 -.!.c.s.....i.,.A m ' E.;XE.p.i.p.s.i.c.c.-.r.'.1.=.L.c.c.c.c.s.s.s.s.c.c.c.l.l.k.s.u.k.c.2.=.....' E.v.' } ..V t.|.G.s.B.!.P.B.L.E.P.M.B.i.M.&X|.M.x.s.r.s.c.c.v.x.c.1.=.L.1.=.1...C ' 6.=.*.r.B.*.U C m ' ,.M.A.' p.r.v...s.r.c.B.c.i.=.U r.L.s...' A m 9 { l.d.G.c.G.#X.X{ i c ..;.r.p.s.p.i.s.c.r.' m -.-.r.E.E.M.V m g l ' r.L.s.p.c.r.c.v.1.p.M.k...*.s.v.&XE.B.M.1.=.| 6.1.=.=.,.=.=.*.=.-.r.t.,.P 0 7 h 7 m P -.B.`.",
"C ! Q V.L.B.c.B.v.E.v.V.L.t.K m =.T..X*X|.Y.'.E.B.E.E.M.v.E.E.J.L.Y.Y.I 7 m Q U M...r.;X}.E.E.L.'.E.L.L.B.x.x.B.`.'.L.M.A.L.B.B.Y.Y.E.Y.B.B.B.M.B.M.L.B.v.P.XX#X.XD.p.-.A 8 * 8 $ u U { =.s.Y.Y.B.M.J.L.v.c.v.M.v.v.M.M.M.M.M.n.c.v.B.L.B.M.M.L.M.B.v.L.E.&XL.U u g 1.}.;X}.M.v.-.=.-.} H U c.T.c..X~.].].E.,XB.! O.B.0.{ h ..L.@.:.n.L.&XD.p.s.A g V } E.}.L.L.B.l.s.c.n.n.n.D.G.n.C < ) B.n.c.E.=.V s.1.I 1.B.p.} r.Y.M.1.Y m H r.M.r.2.-.g 8 i E p.L.;Xc...i.E.A m i.M.M.L.Y.M.s.B.B.M.M.B.M.n.n.y.) U g z @.p.D.@.Q @.;.I Y ' =.1.=.c.Y.-.' l.,.E.}.p.' 1.}.L.M.Y.L.c.s.p.s.i.L.L.s.v.W.} = T L.r.@.,.7 i K ].].c.1.].+Xr.{ / I '.'.d.l.s.s.=.1.=.U B.].B.E.B.s.B.n.s.c.k.n.n.v.L.B.-.{ I E B.'.-X&Xc.0.s.d.s.Q i m s.#XE.v.M.2.V A 7 =.P.c.s.O...-.O.Q ..c.&XT.r.-.2.k.B.s.v.M.B.v.O.$ i L.x.x.s.s.k.s.k.s.l.c.c.c.k.s.s.s.i.M.s.1.Q I U 2.A i H I A v.L.B.n.c.].].G.P.P.P..XY.k.L.L.v.V.B.x.s.c.s.c.M.s.M.s.x.M.} x.p.A 7 P 1.^ ..x.c.l d Q T.E.`.A.M.B.E.E.B.-.c.B.v.r.r.p.-.g A 1.I A m i q > Q G.l.=.s.W.y.K < 4 B ..' M.M.p.r.i.s.p.i.I Q s.p.L.;X'.1.l g V Q p.Y.'.s.r.x.i.i.s.i.p.v.c.L.E.|..X,XE.i.r.Q I Q } U E E ^ =.1.*.u P B.r.6.E y A c.=.E ! r.T..X",
"T l.E.l.L.L.v.=.v.P.v.P.v.' I ..B.,X.X.X&X'.&XE.Y.E.Y.c.c.B.L.B.L.p.1.' V u A I v.L.E..XE.E.B.E.E.P.E.`.s.P 5 - | E.&XE.L.A.M.B.Z.m.B.M.v.A.M.x.V.v.B.L.T.#X*X~.=.V 7 7 7 * * * = u } B.|.|.E.v.L.B.Y.Y.M.v.B.L.v.v.M.M.B.B.B.M.v.v.M.M.v.c.v.B.M.L.B.}.&X,Xs.7 0 A M.;X|.B.v.E.'.'.;X'.i.i..XB.B.E.~.n.n.B.:...i p.v.A i B ) L.L.s.U.n.l.' ' Q A ' g ' oXL.c.v.c.s.p.c.B.B.B.G.G.n.T q 0.n.p.u.-.' ' Y.M.Q ,.s.Y.E.&X}.p.Q p i U B.E.-.1.L.1.' Q 1.L.Y.XXB.V Q ..V g r.'.v.i.B.v.v.p.c.p.,.i.v.l.n.:.u g m C T :.r.' n.B.;./ c -.r.M.c.B.,.A c.L.c.L.} g V y.}.v.y.,...,.c.c.c.B.v.M.L.v.L...u l..XC < $ * C L.+X{.D.l.B.c.1.c.l.U.,XL.d.l.l.r.=.=.n.c.W.E.v.G.L.s.P.L.l.n.v.v.n.s.s.s.0.G.G.E.&X3XL.=.p.p.y.n.n.) p c i.M...r.v.L.G.i.=.m i.Y.L.-.....E Q s.,XE.k.r.c.s.p.M.c.c.p.M.v.7 = I 1.s.p.p.s.c.v.c.s.k.l.l.k.s.p.s.k.p.M.,.] V u u i u i ' =.Y.,Xr.L.L.O.s.L.G.E.G.Y.L.-.2.'.L.s.V.s.x.x.c.p.c.M.p.M.x.r.c...B.E.x.1.M.M...p.s.B.=.U M.|.E.B.M.|.|.'.'.|.E.L.Y.r.Q ,.g U V ,.,.7 m 7 u i ) ' s.L.L.n.n.@.q p C B l.0.i...s.E.v.v.c.} V ..v.M.'.'.v.Q d A i.'.:X'.E.p.p.p.c.s.v.c.,.p.v.'.E.&X,XL.s.6.1.C g A A 8 i g I 1.r.U l | ' p.k.r.-.L.XXL.*.c.T.`.P.",
"E c.E.T.A.1.^ A c.r.E I C * A .X;X}.}.E.Y.r.p.c.M.'.Y.M.B.v.B.Y.Y.{ g V g g 1.L.B.r.1.M.Y.E.Y.].`.A.L.A.*.V u = * *.B.A.'.|.Y.L.C.L.L.L.C.B.B.B.L.B.E.E.~.E.;.c = * g z q 7 < 2 p K z 0.~.W.G.G.B.Y.L.s.c.M.v.B.c.M.M.n.M.M.v.B.B.M.E.c.c.Y.M.B.E.c.} V Q ..g = g c.-X3X.XG.W.'.L.B.n.c.l.P.&X'.}.'.s...U A A =.s.'.v.i.A i ..G.L.L.i.1.,.A g } B.1.r.p.'.c.c.c.s.B.s.c.M.n.Y.G.D.U g c T :.{ Y m g v.Y.} m A c.&X&X;Xp.} i 7 } Y.E.}.0.0.E.r.Q C n.'.-XE.T i g g A -.p.M.i.s.c.B.s.L.s.s.s.U I I U u i m m U m V A g Q U A } i.=.1.n.n.s.=.8.' ' G.G.p.C I s.n.l.p.p...' s.L.s.c.B.B.G.G.p.1.l.-Xv.g = * m v.'.L.s.r.-.-.Q A c.E.E..XY.L.v.v.p...M.L.|.E.c.E.v.v.p.L.i.' B.M.p.s.c.v.p.r.B.'.Y.P.!.! ..t.,.L.E.s.Q A V r.I g ..M.i.'.p.L.p...c.Y...g Q I I E.;Xv.k.p.p.s.c.v.v.c.v.l.M.h A ' k.c.i.c.p.M.k.s.M.v.s.c.c.s.p.i.x.s.B.A V u U r...Q ' i.V.;X1.g i.,.V c.L.L.L.!.v.O.m r.}.c.M.s.c.v.1.i.s.v.k.M.s.r...! ' ..E...i.B.' A V ..Q I c.'.E.E.}.'.'.|.L.p.E.Y.Y.v.c.-.-.p.g -.Y...U } } I u Q K 1.&XL.{.|.c.=.} } :.s.c.s.7 g O.t.v.r.=.I ,.c.E.}.B.,.U i U B.}.&X&Xs.1.s.s.s.p.t.i.r.1.=.M.'.Y.c.c.k.r.=.Q A i 5 m y i ' t.s.! P r.,.t.s.v.M.`.V.6.A.E.'.V.] ",
"1.p.p.s.,.A V A L.M.,.i 7 7 s.,XY.'..XP.E.v.c.s.E.|.B.v.Y.P.Y.Y.L.L.B.s...-.B.L.}.s.r.L.'.'.M.Y.(.(.Y.A.s.r.i.$.l C V m g.A.T.T.L.A.B.M.v.M.B.L.v.L..X}.y.I < . = . 2 i c m g C m c c { :.I 1.D.Y.M.c.c.c.M.B.B.B.D.M.v.M.M.M.B.L.M.E.E.E.s.p.|.p.S m g 8 * = = =.+X&XW.B.n.E.L.L.p.r.l.n.E.#X{.|.'.Y.r.Q Q ' Q c.E.E.&Xc.Q =.B.v.v.B.E.Y.s.i.v.=.c.|.Y.B.1.c.Y.Y.c.i.L.E.L.Y.Y.p.m m q m ' g C I } -.,.U 8 A .X3XY.c.' g V p.}.}.,X.X}.E.B.l...s.].,X.X{ < p c V } p.E.Y.c.v.B.v.B.c.Y.,Xi.7 u * u 7 7 C =.c.M.c.v.i.} u U p.p.Q B.~.G.' m @.s.L.U./ p.X.;.n.s.l.G.B.1.T s.L.n.c.D.n.l.D.n.l.B.n.A u ,.M.r.c.s.p.i...Q s.M.-.M.Y.&X}.p.v.v.v.p.r.Y.}.,XB.=.v.v.n.r.c.p.' U I ..M.c.c.i.r.M.Y.v.c.L.r.=.r.r.r.-.V m } s.v.,.' 1.1.1.r.Y.Y.i.Q Q c.I g A Q c.,Xc.p.p.s.c.c.v.c.c.p.i.G.v.r.m ] Y.B.s.v.i.s.p.p.p.v.s.p.r.s.c.v.r.L.=.i g H c.V.M.r.i.L.Y.v.Q g I =...P.E.P.B.L.v.r...Y.v.} r.r.p.B.p.c.s.s.s.B.v...K B i V Y.=.,.1...v.Q = 8 ,.'.'.E.B.c.1.-.p.r.1.s.r.E.s...=.d.E.v.Y.i...M.E.B.r.-.1.M.E.r.,.E.v.....,.s.M.M.B.v.Q u * u A m U B ,.p.s.M.B.r.I A -.E.&X}.B.p.i.s.s.s.t.i.t.i.r.1.p.s.6.,.6.i.r.r.A 7 g l A U r.'.M...C 1.].v.s.p.r.x.6.1.c.p.1.] 1.-.",
"i.c.s.c.c.s.x.r.B.s.1.m g | '.Y.v.B.s.,.s.k.M.E.]..Xs.2.B.L.v.p.p.s.L.B.M.L.Y.L..Xs.1.c.r.=.=.Y.T.E.M.M.m.c.C.x.' p.| * d 1.B.x.L.B.m.c.v.M.C.L.E.E.'.r.C 4 2 u 7 7 c A A I C c K } :.I m q d.{.B.L.B.E.B.s.L.B.c.M.B.B.M.G.L.L.L.s.B.Y.E.v.E.}.1.m g A V V V m p.E.L.D.D.d.n.L.G.p.c.P.U.{.#XP.E.L.p.=.,.c.M.p.r.|.;X,XE.B.Y.Y.v.v.E.&X&X;X<X,X|.}..X'.'.p.s.M.m.B.B.Y.E.E.'.M.' m u A X.0.l.L.B.}.p.-.U 7 -.,Xs.-.0.Q Q s.M.=.y.P.n.n.G.'.,XE.0.G.E.n.I 7 S / i.B.Y.s.,.Y.B.L.;X|.v.}.L.V 7 g 7 g m C 1.Y.Y.}.&X3X,X|.E.'.1.A ) '.E.n.' I ..c.E.E.p.G.n.G.~.'.'.r.m c p =.p.d.B.D.B.G.c.Q A ;.' g ..,X|.1.c.n.B.L...i ' ,.} v.E.;Xv...s.c.c.p.v.L.Y.E.} g -.M.s.p.B.E.p.V V ,.L.s.p.i.p.B.L.s.v.c.v.i.c.v.I 2 7 g 1.T.B.c.1.O.=.s.E.&X|.1...m V i g I B.&X'.r.r.p.s.c.c.c.c.v.p.s.c.c.s.m A L.E.t.s.p.s.c.B.L.M.c.s.c.v.s.Y.c...U g 2 Q v.' U -.s.k.v.M.A g ' -.v.P.L.L.M.s.k.Y.c.].c...-.r.v.c.p.k.i.p.t.s.r.r.O.B } s.|.'.p.i.Y.Y.U Q E.L...B.B.c.p.-.=.i.r.i.s...v...g ' s.U -.M.p.p.v.,.-.Q M.Y.} r.B.c.c.A g ..M.E.M.1.r.-.1.c.Q = = u V V } -.k.B.s...A m I 1..XXXc.i.r.s.s.p.i.i.p.p.t.s.r.6.1.1.6.,.} d 5 g p.c.1.r.T.c.m 5 y A U Q r.A.k.c.6.r.v.1.| A E ' ",
",.Y.}.T.v.M.Y.M.Y.A.M.B.6.M.E.M.V.L.2.] s.Y.L.E.B.Y.1.=.M.Y.M.c.L.M.L.p.1.r.,.i...A m Q i 7 V v.E.Y.c.A.A.p.s.c.(..X} 8 7 c.L.B.B.M.M.B.L.L.L.L.Y.'.M.I 7 i g g p z S K m m A S I 1.l.T I g ' S -.B.M.B.M.c.Y.L.c.B.L.M.M.E.|.}.L.s.E.|.L.v.}.v.I A m u g A V A ..d.c.U.P.y.n..XG.s.s.1.{ d.U.c.n.c.} Q Y.Y.-...=.E.|.'.L.E.}.}.}.'.}.|..X;X&X~.'.L.L.L.Y.i.s.L.B.L.B.B.'.&Xc.g * 9 u ..1.r.-X<X.X.XE.Y.,.,..X}.Q A / m ,..X=.u i =.G.n.L.&X~.s.) r.0.p.L.D.L.~.E.L.'.-.} Y.s.L.}.L.i.v.=.i A Y ..' A I =...Q -..X}.L.s.1...A ..n.#Xl.' ' ....d.&XE.=.Q n.n.p.u V g 4 m g K I Y Q 0.r...T c p M m V =.i.A A B.}.'.E.i.U Q Q Q L..X'.....c.s.c.s.L.B.B.v.Y g 1.Y.c.c.M.M.r.I 1.E.L.s.p.s.c.B.B.i.M.s.L.s.r.c.,.=.O.=.v.c.v.c.k.} =.p.;XL.v.s.c...7 8 7 =.5X|.s.s.s.s.s.s.s.c.v.v.v.M.c.v.c...-.;Xv...1.v.M.v.v.v.v.s.-.,.v.M.'.-.i u = 7 p.1.u V ! =...-.c.T I r.B.'.Y.E.E.L.k.s.p.2.s.t.i.r.M.B.s.s.c.i.c.c.s.-.-.! I Y.,X'.&XL.M.B.1.-.}.L.Q } M.M.s.s.s.s.B.v.v.v...} A g -.c.c.E.;XE.r.A V s.B.r...g =.v.p.i.Q m } v.E.Y.i.i.M.s.B.1.B V m 8 g A ' v.L.-.B i h Q B.,X'.p.r.p.p.p.t.i.i.s.s.p.s.6.1.r.p.p...g P Q =.E.p.=.x.x.C d ....I B ! Q -.r.s.B.B.v.k.O.C M H ",
"s.E.'.E.T.E.'.E.`.c.,.Y.Y.E.L.B.c.c.} I r.E.L.v.Y.}.v.p.G.L.B.B.c.M.B.p.p.1.U A A A A } I ' U ,.Y.M.c.L.Y.c.x.L.oX1.e R -.c.r.B.B.B.B.L.Y.Y.L.C.M.Y.p.g 7 M M g I C C I I { c.'.-.U g A l.n.s.X.-.|.L.s.B.B.Y.B.n.c.s.r.i.M.B.i.Q V } v.E.Y.E.c.A m m Q c.M...I A =.1.d.n.r.n.~.d...' M i ) =...p...g g 1.} i u Q ....1.=.-.s.}.|..X}.'.|.}.B.s.r.s.v.s.M.c.M.M.L.M.L.E.Y.1.g X 8 7 K A u ..W.~.Y.v.'.}.i.M.|.r.Q m I @.B.E...g ..p.n.{ Q 0.c.D.=.r.@.1.P.E.B.B.B.r.v.B.}.'.B.Y.L.|.E.c.p.r.v.}.E.L.=.-.,.Q } p.'.s.i.,.I U @.E.,X<Xc.7 p m A 0.s.s.Q S n.c.L...=.i.=.T N K / M I I N u q 7 u m Q ..s.c.,.c.E.c.W.L.E.E.E.|.E.&XE.c.' r.M.s.v.d.v.M.B.L.1...c.D.M.s.v.v.1...E.'.L.c.c.M.v.M.v.1.v.s.v.s.r.v.V.c.r.B.E.M.L.M.r.Q Q } s.E.v.E.p.=.1.A g M.,XM.v.s.v.c.s.p.s.c.c.c.r.1.c.i.2.H ,.'.s.} ' =.-.c.B.B.v.p.E Q s.'.E.m 2 0 i M.}.A i ..i.1.v.c.c.k.v.c.|.].Y.}.L.G.k.i.i.B.l.c.M.r.V.,.=.r.s.r.k.c.s.-.! V 2.L.E.M.t.M.E.v.v.E.s.V M Y.Y.L.s.i.p.p.v.c.c.s.-.i g V s.E..XW..X.X}.E.M.'..Xc.=.M.p.g Q -.I I r.B.L.L.B.E.E.P.M.c.v.:.B V B ' ,.G.L.-.U V U :..X'.c.v.p.r.p.s.s.p.s.k.k.s.s.r.r.r.s.v.=.7 p.p.s.B.| 1..XB.O.1.c.1.6.2...l *.x.B.c.c.P.T.p.H E r.",
"p.'.T.c.M.L.A.c.E.p.=.r.B.x.M.M.p...m U ,.r...=.;X*X!.L.L.v.c.l.M.L.E.Y.c.U 7 V Q ..-.M.v..XB.M.Y.c.A.B.B.L.c.B.T...R r.}.L.c.B.C.B.C.C.C.C.C.B.B.L.i.V u z m T Y I m c I y..X#Xv.Y p ..E.P.=.A } }.}.L.E.L.L.L.B.s.p.i.y.s...8 u g g A ,.s.1.,.m 2 Q E.E.c.r.p.' K M 0.U.n.n.n.:.m g g C / Q ) =.A g g ) Q ..-.Q =.U 7 7 =.L.|.'.|.'.E.}.E.M.v.B.c.p.s.B.B.v.v.m.M.L.v...7 . 2 A A A c C v.=Xs...U ..} A Q Q I m g A 2.1.i.v...s.G.;.p q ..D.c.G.c.n.B.v.c.c.r.} 1.i.'..Xs.|.}.&X'.E.r...c.L.M.,.i...p.L.r.s.v.M.c.1.,.r.M.v.E.n.L.l.M / @.0.'.0.M g A n.'.=.d.n.D.i.0.B.U.U.:.q o $ u u 7 A ,.1.i.r.i.L.'.Y.v.B.s.B.M.L.&X'.v.-.,.=.c.s.s.v.s.s.c.v.B.v.p.c.c.M.s.M.E.v.p.E.v.v.s.v.M.v.M.v.1.c.v.s.t.s.B.c.Q -.'.E.E.L.E.p.r...' -..XL...A g W.E.i.'.|.p.c.s.v.c.s.s.c.c.k.s.p.s.L.Y.O.B } B.s.,.] A A 1.t.1.' E g g A V g = * i g ..A m M.Y...-.Y.T.P.v.c.M..X'.'.|.M.v.p.i.s.B.i.c.,.V Q h B ..c.s.v.i.,...' =.M.s.c.P.B.v.M.L.E.L.=.....-.s.M.s.p.p.i.s.c.v.s.=.8 i g ,.B.|.B.E.v.,.1.p.B.M.1...,.p.v.i.g A ' p.L.B.c.v.v.r.i.M..X#Xc...' ,.p.L.;X'...Q ..' ) V.Y.c.M.i.i.p.s.c.c.c.c.c.s.c.s.c.x.x.B.,.7 ..=.,.M.1.B..Xr.P -.U i 1.c.2.s.t.x..XL.L.*XT.B.=.1.'.",
"=.'.L.| A l l C Y.L.L.L.p.-.x.A.p.-.-.E.'.i.U ' ].E.B.L.L.M.B.M.M.Y.Y.E.p.g A '.c.p.r.E.c.M...1.E.r.E.E.L.E.1.1.-.U U ' L.E.T.x.m.B.B.B.B.B.C.C.B.L.c.=.{ / S ) r.r.@.@.r.L.#XP.P.=.1.c.n.n.s.' g Q ,.c.L.Y.Y.Y.B.M.L.Y.Y.E.,.8 2 m Q U A i.v.E.{ 7 g ..' I ' 1.B.' I L..Xc.v.B.1.C a c ' 1.=.d..XM.s.=.r.,.r.} ,.E.p.V A '.,X'.L.L.E.}.Y.v.v.v.v.s.s.v.v.i.s.E.L.m.,.F V g 2 g z B c ;.L.~.W.) A g g i 7 i g m u i i V V r.E.Y.c.E.c.V m p.B.y.d.p.B.L.n.n.B.G.c.p.U =.v.B.|.s.,X-.,.r.=.L.E.U g u u ..c.,...} -.E.Y.'.&XE.i.c.L.'.c.y.G.P.E.U...9 i C s.P.I l.c.G.p.B.D.B.B.s.) ' 1.@.A Y =.{ V =...=.'.|.p.s.v.v.M.1.1.L.v.1.} 1.1.p.p.c.p.v.M.B.c.c.v.s.s.M.L.c.s.M.p.s.M.s.s.p.c.c.c.B.B.r.p.M.B.p.r.c.M.s.B..Xv.B.v.'.'.|.c.,.i.1.I = * u B..XY..XE.p.r.c.c.x.k.c.c.c.c.s.r.v.s.c.I I U 1.=.r.i.O.U ' V 7 H I g B 7 = X 7 m A g m i -.s.m U i.}.;X'.-.i.}.|.!.'.Y.c.M.s.c.t.p.r.c.' i V V g ' p.p.v.1.' H A p.s.c.M.E.|.v.L.'.E.E.Y.E.c.r.p.M.s.s.c.s.s.c.v.v.U 7 V A ..1.v.} ,.p.,.} U } r.Q A U ..}.s.,.s.,.' i.Y.Y.B.=.m ' M.Y.{ m } p.p.M.E.XXs.h A i.1.,.'..Xk.,.1.k.s.c.c.c.c.c.k.p.s.r.x.c.p.c.,.u Q =...1.r.M.r.C E !.c.! -.c.r.s.| 1..X'.`.*Xc.r.2.| x.",
"x.B...U ' U A ..r.=.' c.1.c.c.i.-.v.'.3X,X,XT.L.'.v.p.B.L.V.Y.M.Y.E.c.Y.Y.' U 8.v.' U E.L.c...Y.c.E B.`.E.L.E U A C ' A.|.Y.c.v.g.c.B.C.B.C.C.L.L.B.c.s.E.'.D.L.'.c.r.E.{.L.~..X8.Q L.,XE.L.~.r.Q 8 i ..v.E.L.c.s.c.L.Y.E.&XE...Q 7 U 1.U B.E.B.M.s.p.r.i.r.s..X~.B.n.'.s.Q 0.B.1.{ { ..c.W.B.'.M.p...A v.E.E.i.s.Y.E.E.'.;XM.,.} { B..XB.s.M.v.s.B.L.L.M.v.s.v.C.g.} k A A u A K c Q s.P.r.N K -.=.,.=.} } Q g V A =.-.M.&X=.i.y.B.5XB.0.E.s.G.B.G.n.c.L.B.s.P.}.E.v.s.1.c.L..X1.U ..y.r.B.;X}.s.Q Q p.B.i.1.L.}.|.E.;X'.s.p.M.L.L.Q =.c.E..XB.) @.m C y.@.0.s.p.'.n.L.s.n.c.0.:.=.r.=.m C I 7 g ,.Q m B.'.' I U ..r...1.M.i.r.,.s.1.r.c.M.i.Y.M.B.s.s.v.i.r.M.v.L.v.v.s.M.i.r.c.c.v.s.s.B.B.1.p.i.v.k.c.B.v.V.V.B.i.v.!.'.E.p.i.p.v.Q $ i 2 V c.-.r.|.s.s.p.p.k.k.c.c.c.c.v.M.s.B.p.A g i m g Q ,.p.k.,.-.I U ! ] g g m Q 7 u ' I Q ,.r.s.B A } B.,X&XO.g s.Y.Y.B.n.-.,.c.1.s.,.r.t.,.c c g 0 g I ' Q =.Q m 7 I p.E.E.c.p.O.,.E.L.i.p.r.n.E.}.{.}.s.r.p.i.r.1.,.s.u i } 1.i.1.Q g ..M.c...A Q s.Q V B.L.-.I r.,.-.' c.E.M.M.=...i.,.' A i A 1.r.P.'.c.I 7 Q L.L.T.}.E.r.i.v.,.s.c.l.s.s.k.s.t.c.r.s.c.p.v.s.Q A 1.....M..XM.=.k.!.!.T.p.t.p.c.r.`.|.r.O.v.M.*.' m | ",
"..,.P =.B.,.L.B.=.' g *.E.M.r.=.L.E.&X&XP.B.E.|.L.s.M.P.M.B.E.B.v.E.M.Y.v.I ,.i.m ,.Q ..r.B.B.B.B . -..Xc.i.m A B =.M.E.B.c.v.r.c.B.C.L.L.L.L.L.B.B.B.v.L.'.0.L.r.I =.,Xd.I n.r.c S {..Xn.s.U.=.s.-.U 8 =.E.M.M.L.D.L.Y.Y.L.Y.E.'.'.E.}.Y.v.Y.L.v.}.M.c.p.} p.;X.X'.].'.u q =.1.I C I K D.L.l.p.V A i I L.B.' Q } M.'.E.].E.-.m g Q E.&Xv.c.n.c.c.M.L.v.s.M.s.'.'.M.Q i A g A U C 1.P.c.B.;./ s.E.L.s.E.Y.Y.p.Y.c.p.L.'.,Xs.I Q 1.'.G.i.:.n.X.;.L.l.G.c.c.B.s.B.s.v.c.r.p.M.B.}.-.A i...I ,.1.B.M.s.d.v.c.M.}.,X,X&X.XE.c.s.c.M.c.X.) p.U.P.~.~.'.c.G.n.D..XE.~.'.c.Q c.B.'.B.' u m ' g S v.s.l.n.E...} r.A A 7 u m g V r.L.s.p.M.p.s.B.B.B.L.B.M.v.c.v.M.s.p.v.B.v.c.v.v.c.c.v.M.v.c.p.M.M.v.1.p.v.v.k.k.M.M.c.c.c.v.v.c.c.s.r.B.} -.1.g i Q U g i ' }.c.i.r.s.s.v.s.p.B.p.v.v.V.s.I 7 u I ' 7 =.s.t.p.r.E.v.v.,.I h m h m h u g g Q L.n.' m 1.B.,X3Xc.I V i.L.s.r.s.,.i.,.=.1.=.=.,.U u g A V ' U ..i ..g m m I L.P.v.U m u A p.M.=.Q 1.c.c.Y..XB.-...i.i.,.v.1...g g I M.i.s...' c.L.-.m g -.r.c.c.E.L.B.1.c.c...} M..Xv.=.i.@.} -.m m V 2.B.v.p.Q g u 8 p.|.s.E..XL.2.r.s.i.c.c.k.k.c.c.x.k.s.s.x.x.s.s.x.c.,.Q ^ | B.,XE.x.B.c.E.x.2.c.s.p.T.E.M.-...1.1.*.B B H ",
"p.OXY.=.A A B.T.`.}.A.c.E.=.l ^ }.T.E.L.r.,.c.L.c.M.L.Y.P.P.E.E.E.E.Y.Y.v.Q ;.,.U s.c.Q 7 s.,X' 8 i C h C U B U Y.].k.-.s.c.s.M.M.C.Y.Y.L.L.L.B.Y.B.L.L.E.U.' :.i.g ..B.T i I I g m ......T s.L.v.}.L.g A i.v.L.M.M.B.L.L.L.L.E.E.'.E.E.E.Y.E.M.r.p.Q V g A c..X#XL.c.B.z q m z 7 7 q Q v.G.n.s.A } s.p...i.c.Q i.s.c.c.E.E...g g Q L.E.c.M.M.v.B.M.M.M.B.L.i.L.E.c.U A m I L.B.L..Xl.:.].P.y.l.1.s m E.;X&XE.L.,.c.&XE.,.I g m l.p.' { 0.G.L.c.B.B.L.c.c.B.l.L.p.B.p.U Q p.,.U 1...A V U A g ..p.p.i.s.B.E..X&X.XE.Y.=.} s.c.c.L.r.r.L.'.c.:.1.B.~.'.#X~.E.-X{.E.0.Q l.P.@.=.D.8.{ 1...s.].L.L.P.'.p.Y.p.g 2 g g A m A p.E.E.E.M.M.M.B.B.v.c.c.v.c.s.v.M.c.s.B.B.v.c.c.c.s.s.s.i.p.v.s.v.c.n.s.s.v.M.k.s.c.v.c.c.k.c.c.s.k.c.p.M.,...Q m g I Q g Q c.|.r.r.i.c.v.M.i.M.s.s.c.M.r.U g m A Q Q i Q s.' E =.c.' A A g i i V ..=.Q m A I c.c.U Q s.E.].v.g i A p.s.s.r.p.L.k.-.V I A } I u g V 2.c.1.r.-.g h u i g k.&XE.' 8 g 7 m ' ' I ' s.M.c.c.B...I A A 1.v.,.Q V i 7 I r.i.J.c.Y.&XM.U A } 1.1.s.i.L.E.E.-.' 1...Q s.B.....1...-.r.' Q U 2.i.i.L.-.B V -.E.V.P.'.'.c.,.r.c.s.s.s.c.c.c.s.k.k.c.x.k.s.p.s.x.c.M.r.M.T.'.`.s.x.c.M...| 1.-.t.c.x.V.B.x.c.L.L.c.p.s.s.",
"M.&X'.p.U ..`.'.E.1.L.p.*.} *.c.&XE.Y.M.1.-.k.Y.s.L.B.M.E.Y.v.B.c.p.M.c.p.Q ..Q ,.Y.}.v.....s...' ! ' } A g A v..XXXE.B.M.v.v.p.B.L.Y.L.L.C.B.B.B.M.L.Y.'.U...y.Y.=.;.l.C q / i q C I A T I c.E.B.L.M.} -.s.y.y.v.v.M.B.B.B.B.L.v.L.n.v.B.Y.L.r.E.'.c.-.-.M.;X}.s.=.S I i A S g I =.{ l.c.U.P.B.L.c.1.=.1.M.E.B.L.}.&XY.E.E.} A g ..L.M.s.M.B.M.v.v.M.B.Y.L.Q A Y.$.m g u -..XB.p.8.{ @.:.T :.s.Q m ' E.|.L.r.Q -.M.,.U Q A 7 I l.s.g A l...1.W.d.B.n.d.B.L.B.B.M.}.E.Q 7 i i u i i A g 8 7 m I 1.v.M.M.'.;X&X.XY.s.c.Q Q M.v.B.D.0.p.n.d.Q 9 A G.W.c.n.p.y..X].P.n.s.n.n.' { B.B.c.{.G.n.{ M Q I A A c.E.r.V g Q r.p.M.p.U / p.M.v.p.c.L.L.B.B.v.c.c.v.M.v.c.B.M.c.s.c.c.c.s.c.r.s.M.c.v.c.M.v.s.M.B.k.p.s.c.v.c.k.c.k.s.c.v.c.v.c...Q -.r.r.s.M.Y.Y.E.i.s.p.s.v.c.s.B.r.c.L.L.} u u m B ] r.1.s.M.' ..' I i 7 i g V A =.L.E.p.=.I r.B.L.L.L.&Xp.] H * u m s.s.r.,.i.B.,.I 7 m A U g g T A s.] E p.t...B Q A I B.c...g B v.' B Q A A -.s.1.=.} ..m m ' i U =.A u A ..Q r.c.v.1.M.B.E.L.,...i.1.p.,...M.B...V s Q 1.1.v...g r.E.c.v.p.c.M.M.Y.p.s.s.,.i.t.L.P.!.'.T.B.p.1.p.c.k.s.c.c.c.s.s.s.c.c.x.s.s.s.s.x.x.1.1.E.&X&XE.p.M.x.c.P M B l -.c.V.T.`.!.!.`.T.B.L.L.A.",
"M.Y.B.A.L..X'.B...C ..m m P 6.2XE.M.B.B.i.2.c.L.M.L.B.B.T.B.i.i.,.{ 1.Q I V ' I =.L.Y.E.E.i.1.L.].'.E.k.! } A v.&X.X}.E.M.v.L.c.M.C.L.C.B.C.C.B.M.B.E.E.P.r.K =.c.1.=.y.Q ..E...p ' :.' c g c.n.B.M.'.;X,XE.d.D.v.v.M.M.M.v.v.v.i.c.p.p.M.L.c.=.B.L.1...i.'.}.i.{ Q g I @.l.p.r.d.1.Q p.G.P.0.=.p.M.c.L..Xc.-.Y.E..X|.=.,.v.U g I s.E.c.p.v.n.B.s.B.L.M.Y.Y.V . } 7 7 i Q '.i.A 1.n.].G.;.1.].~.M.E.M.1...I m g r.M.s.,.} ' I } v.X.m :...2 Q 8.r.G.B.n.G.G.D.B.L.B.c.Q u g I Q A 7 r.i.g g I 1.B.E.v.c.'.;X|.'.B.i.p.,.1.B.M.L.s.;.0.8.;.I u { l.y.X.1.L.'.]..XL.E..X.XB.~.P.B.c.P.~.r.G.8.{ :.Q m ' E..X..U =.} p.v.'.p.* O $ 1.=.r.B.L.v.c.s.M.v.c.v.M.c.s.M.M.c.s.v.v.c.c.v.s.s.v.s.M.v.M.c.s.v.M.c.p.s.c.c.c.l.c.c.s.c.M.v.s.M.r.r.|.,X|..XE.s...r.s.M.s.c.c.s.B.c.p.c.T.i.u 2 i i V ..-.,.i.c.B.k.V m B i g B Q ..1.c.p.....1.Y.t.E.,XB.] 8 q E B i A E.!.c.v.P.s.-.] i.M.B.=.V g 7 m r.u U t.c.v.=.r.! ..r.=.! ' i.OXV.v.L.B.,.O.=.} ' I ..A U M.U 2 = 7 g -.B.s.p...v.c.c.v.M.E.L.r.p.i.} =.-.-.A g { Q =.c.M.E.i...E.,XE.L.1.Y.'.].].v.B.2.r.B.L.Y.L.;XL.v.s.p.t.k.c.s.v.v.c.s.p.p.s.c.s.p.s.k.x.s.p.i.1.6.M.B.B.B.r.1.' H h i y ! A.`.].|.|.'.T.A.c.s.c.s.p.",
"r.E.B.c.M.A.r.i.=.Q 1.E m g r.;XB.c.B.Y.v.s.M.M.B.v.B.L.c.-...] ..' 1.U A A } Q ....,.E.L.E.Y.Y.&X'.@.g O.l.p.3XE..XB.p.B.n.c.V.M.C.C.C.B.L.L.C.L.L.B.i.=.A i =...c ..;.} B.'.d.=.0.8.0.=.X.P.L.v.E.&X,X|.M.r.s.v.n.M.M.M.v.v.v.c.v.v.M.Y.L.i.,.M.L.=.} M.E.1.A K c p { B.U.d.B.0.u 7 ;.|.n.T s.Y.E.&X&XB.r.v.|.,X}.1.u ' L.} m i.}.E.i.p.c.v.B.B.Y.L.M.L.E.} V U u 7 V c.&X..Q D.c.B.p.l.s.B.].'.p.' A V g 7 m 1.E.M.=.U =.r.c.U.s.r..Xd.' c.d.p.L.L.D.B.n.B.G.B.E.E...A r.E.E.-.-.r.U I ....E.Y.p.Q Q M..X'.L.v.s.p.M.v.s.v.c.s.8.r.:.;.) g Q { Q p ) .X&XP.E.l.s.n.P.n.E.G.c.n.E.0.I +X,XG.c.L.c.p.M.i.A =.p.s.|.'.Y.1.g 7 * u 3 ' L.L.v.B.M.M.m.c.v.v.h.s.v.B.v.c.v.v.s.p.p.p.p.s.p.v.v.B.M.s.c.v.c.c.v.v.c.c.k.v.c.s.c.v.c.s.s.i.M.;X,XE.L.=.' Q 1.c.c.i.v.c.s.B.t.k.B.s.g 2 u m i A ..Q ' E.~.E.! A }.|.=.H -.s.s.s.c.p.1.t.c.Q 1.}.} I A 7 A A V Q c.L.} r.L.E.,...2.'.E.k.r.p.V.p.E.}.....:.1.s.,.i.-.s.!.L.t.s.M.E.E.E.M.E.' u m A Q Q 1.V V E.B.;.A A u m g ,.1.I c.E.E.,X}.c.r.,.p.v.s.U } M...A 1.' r.v.L.B.p.p.Y.}.B.s...M.v.k.v.c.M.M.L.-.p.}.|.E.k.t.p.k.k.c.c.s.v.c.s.s.k.c.k.s.s.s.s.x.x.s.p.r.M.x.r.*.,.s.r.=.U 7 8 B O.Y.,X|.E.E.E.T.A.v.k.s.s.p.r.",
"} x.r.=.| A Q E.'.r.V.B.-.=.].|.Y.B.Y.E.L.L.B.s.E.Y.L.s.! V I ..} ..r.,.=.1.p.i.Y.i.1.M...,.p.B.E.-.A U V...k.V.@.p.p.l.B.v.v.M.C.L.L.C.B.L.L.C.B.B.v.1.;.I Y l.) a { n.i.c.G.8.M.W.D.P.,X#XW.c.Y.&X&X|.E.L.p.s.c.n.M.M.M.M.B.M.M.B.L.L.E.M.1.r.B.Y.i.i.}.Y.Q 7 K z u A r.E.E.]...2 i ' B.1.) {.,X'.|..XE.'.,X;X|.'.p.Q p.E...Q '.,XL.r.s.M.n.M.Y.B.B.L.B.v.,.M.m.s.' r.|.M...p.s.d.l.A c } p.G.c.g g Q ' -.Q ' p.}.B.s.B.B.c.L.s.U.~.].B.D.'.P.B.y.0.s.B.L.L.D.E.L.c.Y m p.Y.r.u s.,.Q d.}.E.B.|.M.-.1.E..XE.Y.s.v.p.v.c.s.B.c.c.s.s.y.s.0.I A p.r.M @.~.D.M.l.y.0.r.1.n.:.i.D.L.~.0.{ G.@.Q p.L..XB.i.A Q M.B.M.|.B.} u 8 I -.=.m I i.p.s.M.d.c.v.c.c.v.c.h.v.n.d.s.c.c.p.i.i.s.s.M.s.v.s.M.B.s.c.v.v.v.M.v.c.s.k.v.v.s.s.c.s.v.i.i.M.Y.G.i.=.' =.1.s.c.s.s.v.c.c.s.c.v.Y.Q = 7 I ..=.2.c.L.&X'.B.c.] k.5XL.-.,.L.E.v.s.M.B.v.s.B.2.2.E 7 I B 2 g 7 I -...V I s.'.P.s...s.p.Q U Q Q -.M.,XY.v.s.i.M.E.'.'.E.&X].E.v.V.E.'.P.p.v.s.m m ' m V Q =.} p.|.L.c.Q i U A i ,.,.Q ,.r.;X&Xp.Q ..i.c.v.L.1.i.B...=.p.V r.E.Y.....B.~.v.k.,.' k.s.i.t.p.p.s.V.1.M..X}.v.s.t.s.c.s.s.c.s.s.s.s.c.v.v.k.p.x.s.s.s.s.s.s.s.s.r.,.,.r.k.s.r.*.Q d 2..X'..XV.A.L.L.A.M.x.s.s.x.k.s.",
"^ 6.r.p.,.V ..OXL.x.x.L..X|..XOXL.M.L.E.Y.V.r.I k.L.c...A g A =...' ' r.c.B.'.;X&X#XL.,.A ' r.E.B.I i B ' ) ].G.-.2.l.B.s.l.P.B.L.L.L.C.B.L.L.C.v.G.E.L.E.-.I ' K m X.'.L.c.'.p.0.U.].{.~.n.X.I 1.&X;X}.L.M.s.B.v.M.B.M.M.B.B.B.v.M.B.v.L.v.1.s.M.M.s.s.E.Y.1...A 9 q z ' s.P.-XD.{ ;.0.B.Y.L.+X'.L.B.Y.E.'.}.'.L.;X.XG.|..Xs.i.Y.|.M.i.M.M.M.M.B.v.L.L.1.Q Q E.'.E.C.'..Xi.@.1.s.r.l.{ g q @.E.:.g =.c.p.E.r.v.;XL.M.L.i.-.M.n.B.B.,XL.@.s.P.y.L.' { r.G.'.L.n.B.M.L...7 U v.B.-.c.p.p.B.W.,X,X3X,X&X.X.X}.Y.M.s.c.s.s.s.v.B.v.n.d.p.y.s.c.l.l.E.P.B.~.W.B.B.r.Y ..X.) ;.T r.L.G.E.c.s...2 Y #X.Xp.-.B.c.s.c.s.L.M.-.V 7 m -.L.M.} A ' i.B.L.B.c.v.c.c.v.v.c.M.c.s.s.v.v.c.s.s.v.v.M.v.B.c.M.M.p.c.v.v.c.c.v.v.k.c.v.v.s.s.c.s.c.p.p.v.v.s.r.=...,.i.p.s.v.M.M.c.c.s.M.M.1.i g 1.k.L.B.r.i.P.!.}.M.c.1.r.p.r.'.;X&XL.p.c.L.v.p.v.s.E.L.I y u 8 g g A l.E.s.i.E.|..XE..XY.Y.r.m A V i Q v.E...=.t.s.T.}.].}.P.L.s.M.'.}.'.'.V.s.M.p.I ..-.i u m m r..XL.>.} g A ' -.M.L.i.c.E.,X|.1.U Q ,.B.B.c.B.s.v.L.Q ' p.B.B.'.i...p.}.}.r.c.1.-.c.v.v.s.p.i.1.p.M.E.E.v.s.s.s.c.c.p.s.k.s.s.s.s.k.c.c.s.p.k.s.s.s.s.s.x.c.i.i.p.x.x.p.t.r.6.*.| A..XP.L.M.V.A.A.M.x.p.r.r.p.s.s.",
"=.T.&X&X`.,.s.c.U l =.E..X,X:X'.Y.V.E.'.'.B.' = g =.} m m g i I V g V M.|.'.E..Xp.r.c.B.M.s.v.'.B.T q K ) s.E.'.'.|.B.v.P.G.v.v.B.C.C.B.B.L.L.B.B.B.M.c.L.@.m c c p p.P.c.P.E.l.:.A ) r.=.' K g ' ;X;XL.c.L.s.p.M.B.B.M.M.B.B.B.c.M.B.c.B.B.i.M.B.B.P.Y.Y.E.B.c...q Y c.n.;.p.3Xl.=.n.E.c.n.'.'.p.M.E.'.E.E.s.' s.'.c.@.B.|.M.r.r.L.c.v.B.c.M.L.M.B.E.v.U u m E.E.p.B.s.i.p.s.0.8.c.@.T { c A =.g g s.}.E.Y.I v.&XE.c.c.L.c.G.c.G.B.'.Q ) Q C K L.) :.n.D.P.M.D.Y.B.L.} 8 U B.Y.,.1.Y.M.s.B.B.E.M.M.B.D.B.B.B.v.M.p.c.c.c.v.s.s.c.r.{ K c K 0.B...Q n.l.{ 1.8.=./ =.,.p.' I s.n.d.L.c.y.Q C :.c.U 8 ' v.B.r.i.v.E.'.B.' I ,.v.v.,.1...=.v.v.8.r.c.v.c.c.m.v.v.M.M.c.c.M.M.v.s.c.v.p.s.s.Y.L.B.c.i.s.c.k.p.p.k.c.c.c.M.M.k.c.v.k.p.c.c.c.v.c.y.r.p.i.s.c.c.s.c.s.c.s.v.v.v.m ; } ,.Q B B g =.XXP.c.,...B V 1.L.M.|.r.m A 1.c.,...E.3Xc.s.M.r.U g h =.!.M.O.c.3X].M.-.,.M.T.s.1.A g g I s.&X'.i.r.t.M.'.E.L.}.'.P.E.Y.,X|.Y.L.s.B.r.B.,.=.X...p.=.Y.}.v.Q s.s.g ..v.i.,X.XL.Y.p.E.M...1.i.1.v.Y.B.c.v.v.E.M.'.v.s.M.p.' B..Xr.,.r.s.r.k.c.p.i.1.r.s.M.k.k.i.v.s.1.s.s.c.k.p.s.k.t.v.c.s.p.i.i.p.p.p.s.x.x.x.s.s.s.s.c.s.p.p.p.x.s.x.' k.B.k.A.B.k.M.B.M.x.p.p.p.t.t.s.x.",
"s.'.E.x.1.M.L.' A | s.|.&X.XOX'.s.V.B.c.s.Q m ; u ' B g m g A ' A I A r.1.} } ..U ,.v.'.E.E.B.M.L.A Q =.M.M.E.s.B.L.L.L.M.M.L.v.m.C.L.Y.L.B.M.M.v.L.B.L.E.r.c 2 C c r.D.B.'.r.m I m ' p.@.Q } T =.|.E.M.p.c.M.v.Y.L.B.B.M.v.M.J.M.M.M.B.n.c.v.L.B.M.Y.E.Y.Y.v.-.,.=.r.B.p.A ..M.U 1.L...V i.|.}.B.B.c.B.L.l.1.{ 0...z z l.'.l.l.~.L.c.s.M.M.M.D.B.L.E.c.A V c.'.p.1.c...U 1.p.i.p.c...A u V m p.-.i ..Q -.i....X}.L.Y.s.r.B.E.E.c.B.:.) T C c c.#X.X'.2.v.E.L.v.V.Y.s.g 8 m A =.' s.c.B.|.|.B.t.s.v.M.M.B.B.M.B.c.s.c.c.M.M.c.v.c.8.Y M g z =.u A M =.s.;.s.1.8.,.i.p.,.-.s.B.M.v.c.v.c.}.E.s.-.g g i.M.p.c.Y.Y.E.E.s.i ' }.v.p.1.' Q i.s.} } r.B.v.c.M.v.M.B.B.B.p.c.B.c.s.c.i.p.,.r.L.L.p.L.v.i.p.v.s.p.s.p.c.v.s.p.p.h.v.v.c.s.s.c.c.c.s.s.p.s.p.s.c.v.v.v.v.p.s.s.s.r.7 g 7 < p 7 Y Q 0.[.p.Q m g A O.Y.k.p.Q A * B E.=.k.;XE.M.! ' p.Y.k.v.c.M.U m i =.}.L...,.s.,.p.V 7 m g P i..X&XE.v.c.v.Y.B.E.Y.Y.t.r.Y.L.Y.L.c.p.s.s.r.k.s.' Y.c.Y.&X.X..u 1.&Xs.m =.'.,X'.c.1.g i v.p.:.' ;.d.s.d.c.p.p.B.L.M.M.L.v.1...=.E.v.-.r.d.s.p.p.k.s.r.i.c.c.s.s.s.s.p.p.s.s.s.p.p.p.s.c.c.l.l.l.k.k.k.s.s.s.s.s.s.s.s.p.p.p.p.s.s.s.s.k.x.p.A *.M.v.r.*.,.M.6.s.c.r.p.p.i.p.t.t.",
"r.|.x.' -.M.E.B.A.|.E.T..X.XT.x.s.i.=.' I 2 ; ; U H A V m I ..' =.c.c.s.A u V I } r.M.E.}..X'.'.p.g s.'.|.&X}.L.L.B.s.c.M.M.Y.Y.L.Y.Y.Y.L.B.M.B.L.E.M.v.D.p.{ ) m ' l.l.B.~.) g C A c.y.@.r.X.;.U..XB.v.v.y.s.v.B.M.v.M.M.M.M.B.M.M.B.D.M.c.c.B.L.B.B.B.E.E.r.A A m A z u m ..U i } -.Q ..B.E.'.L.L.B.c.D.P.c.;...C 4 i 0.P.G.E.W.L.s.p.v.B.L.E.E.J.v.' u =.'.M.r.M.,.' ..=.r.1.s.} m i g c.p...L.=.,.1.=.' 1.&XM.Y.L...' M.B.,.l.M.l...g i { ~.n.r...=.r.s.l.v.s.1.Q 8 8 I ' ..k.v.M.E.Y.Y.L.B.B.M.M.Y.T.B.c.v.c.s.v.M.x.c.c.s.c.r./ u 7 Q Q I s./ r.B.B.c.8.=.s.B.E.Y.B.L.B.s.v.1...-.p.p.1.s.,.,...r.'.c.p.E.1...} ' =.p.v.M.p.r.i.E.&XB.E.E.M.c.c.v.v.v.M.c.v.s.v.M.c.p.p.1.s...1.r.L.Y.B.L.c.p.c.s.s.c.d.v.v.c.c.m.M.v.v.v.v.c.c.s.s.c.c.c.m.s.i.s.v.M.v.v.l.n.B.n.8.u c m I C Q l.....0.g A I A K s.c.L.].' . 8 ..U =.|.L...Q U } M.s.t.c.Q g V E Q ,.E.B.=.,.1.i.M.,.l g V s.:X,XT.s.c.L.M.M.s.v.v.M.r.1.B.M.B.M.s.p.k.c.i.M.p.m p.Y..X.X|.=.} '.'.} g 1.E.'.i.-.=.7 u W.c.p.X.1.c.v.v.l.s.i.c.v.s.c.v.i.1.'.&X}.r.r.v.s.s.s.p.p.t.t.s.c.v.c.k.k.s.p.s.k.k.s.s.u.s.s.l.c.s.s.s.s.s.s.s.s.k.k.s.s.s.p.p.p.p.s.s.p.p.p.s.s.=.Q ^ ..*.U P 6.r.,.p.s.r.6.p.c.k.k.s.",
"1.|.c...1.s.B.L.T.;XA.p.A.M.p.v.p.1...Q U i g V -.-.t...B Q ..Q v.Y.|.;Xp.Q Q ..' ..} ..B.|.E.s...r.E.1.-.M.i.p.L.'.L.v.M.v.M.B.L.Y.Y.L.B.M.M.B.M.L.v.v.L.P.P.'.p.;.s.L.+X~.@.d.L.G.U.{ { B.0.:.|.}.v.M.Y.p.c.L.v.c.c.v.B.B.B.B.B.M.D.L.B.c.c.M.L.Y.L.M.L.L.p.=.g g i.i.Q -.E.B...=.i.s.B.}.Y.1...@.r.1.=.r.@.) Q g i A 1.P.'.'.L.M.p.p.v.M.L.E.L.B..X... ..|.r.c.s...U g V ....V V i g I =.Q p.v.c.p.c.p.M.L.i.L.|.Y.' Q v.c.' p.B.L.p.' A ..r.:.C q s.P.n.0...) A 0 2 B i.Y.E.v.M.v.Y.L.Y.n.B.B.s.c.Y.A.s.p.s.A.v.M.M.s.x.c.i.M.c...r.U.{.' [ ' z i.U.B.8.;...B.L.Y.L.L.E.E.E.r.,.Q U i g Q L.B..X..Q Y.r...=.p.c.A I c.L.L.i.M.v.M.;X.XM.L.M.M.v.v.v.c.v.v.i.,.r.s.c.v.c.c.s.p.p.v.r.B.L.s.c.r.r.v.M.c.c.s.M.c.s.s.v.v.p.i.p.h.s.s.s.c.v.v.M.B.v.s.c.v.v.c.c.n.s.l.c...g I s.}.p.=.1.K { c.s.t.,.-.r.M.B.;XE.Q A -...g c.|.O.} i.v.-.1.r.v.c.} Q s.c.B.P.'.M.s.s.6.x.s.B.1.p.|.&X|.T.T.Y.B.B.p.p.p.c.p.t.r.1.M.M.M.c.s.s.c.M.1.M.p.V p..X,X|..XY.'.'.} g m =.Y.c.r.v.k.U U E.E.L.y.i.l.l.c.s.r.1.p.c.p.i.-.Q -.}.&XE.r.p.c.p.s.s.s.i.i.s.c.c.v.c.s.s.s.s.k.c.l.l.k.s.s.s.k.k.t.t.p.s.s.s.s.s.s.s.s.s.s.p.p.p.p.p.p.p.i.p.p.s.1.U y m m u E M.r.1.6.1.r.p.p.c.i.t.t.",
"B.x.Q Q 1.M.T.v.`.&XB.r.M.M.B.'.p.L.E.c.s.i.v.L.}.!.s.A B p.L.'.v.;X2XB.Q 1.v.c.{ Q m g s.|.L.' p.E...i A c.i.I =.E.E.M.M.L.L.B.B.B.C.B.m.M.B.B.M.L.M.v.D.L.L.E.U.8.y.B.'.c.{ S 8.-X.Xn.0.=.:...M.Y.v.s.L.i.s.v.v.c.v.M.D.B.B.B.M.M.B.L.B.v.v.B.M.L.L.L.B.s.c.'.s.} M.Y.v.E.,X;X.XE.|.;X;X,XL.' ) C K N u C a A g g Q ..r.'..XB.s.s.p.c.M.B.B.L.s.-.r.V i v.Y.=.' i g i 2 i g g A A u A 1...g M.M.E.B...m r.Y.v.'.'.Y.p.v.}.}.E.0.n.c.s.L.c.G.~.r.H I E.XXG.=.B g i i u U -.] =.M.E.Y.!.E.v...p.A.s.c.A.c.,.-.1.L.T.B.c.x.x.c.p.L.L.M 1.L.d.9.s.9.=.W.E.p.d.L.G.p.c.M.B.B.M.s.p.s.=.m m m Q r.E.p.,XM.i.v.,.B.c.Y.|...=.L.s.p.s.s.v.E.&X..A ..E.M.M.M.c.s.M.v.i.i.s.c.v.v.s.p.c.M.s.,.1.p.-.M.Y.v.p.M.M.s.s.s.M.v.s.c.M.v.s.p.c.s.s.c.c.v.v.c.c.v.v.v.v.c.s.s.s.c.l.c.y.S i g =.1.p.s.n.c.D.D.].L.1.,.L.v.E.L.! 7 H ' V r.}.].M.!.v.} Q ..M.E.'.E.L.B.i.B.}.|.E.p.p.p.M.r.M.c.E.,X.XA.B.Y.x.1.p.1.i.c.c.t.v.E.P.v.B.M.l.s.s.c.n.,.s.v...B.&X|.Y.v.r.p.i.c u U M.,X'..X.Xi.Q Q ..-.1.1.l.G.n.v.c.s.r.r.i.i.c.v.r.v.}.E.L.v.c.1.r.s.s.s.p.p.c.c.k.k.s.p.p.s.s.k.c.c.l.l.k.s.s.s.u.t.p.s.s.k.k.s.s.p.p.p.p.p.s.s.s.i.i.i.i.i.p.s.x.M.Q 2 A Q =.A.M.} -.,.*.r.c.i.s.r.r.t.",
"r...g U c.'.,XOX,X`.6.,.c.L.L.x.Y.B.v.i.P.}.E.v.s.v.v.-.1.L.G.Y.}.;X}.-.Q M.E.Y.}.Y.c.r.Y.E.v.-.B.1.Q ..-.E.E.} ' B.L.c.M.B.L.B.v.m.B.B.B.B.B.B.J.L.B.v.M.B.n.n.n.c.G.G.L.C Y I G.E.{ 8.E.G.B.' L.'.M.p.B.i.c.c.v.M.B.B.B.M.M.V.B.M.B.B.M.v.v.B.v.M.v.D.L.s.p.Y.c.-.v.B.}.,X.XM..X;X}.L.|.&Xv.r.l.{ Q Y K ' i g c m @.0.r.E.].B.p.c.c.M.L.B.M.L.p.A * X U c.Q A g g g g A I ..L.|.1...1.p.v.,.r.B.E.B.B.1.s.E.E.E.M.M.L.'.'.E.&XE.'.'.P.W.c.B.E.) Q G.#XE.y.' c I A U A p.L...p.;X}..X&XB.1.=.M.L.c.s.c.r.} A m -.B.v.s.v.s.c.J.E.p.> / c.=.c.s.E.'.-Xn...G.L.8.s.v.v.c.s.,.Q Q c.=.' 1.v.r.r.-.Q ..V ..i...E.}..XE.,.....-.c.M..XB.G.1.i 8 m 1.v.v.v.s.s.m.M.p.c.s.s.v.M.c.c.B.v.I A i.r.I -.i.B.y.c.c.r.p.s.s.M.s.p.c.v.c.v.B.c.v.v.v.c.c.s.s.v.s.s.s.s.s.s.s.c.B.c.) 2 u p T { ;.i.c.c.B.B.-XXXE.!..XY.s.A 7 8 i g A B.,X;Xt.} B 2 u Q c.t.O.} A A v.}.&X}.M.c.6.p.c.s.x.k.M.L.Y.A.B.c.=.=.L.M.c.s.1.r.L.E.v.s.M.v.s.k.k.s.c.,.p.B.r.c.'.L.M.p.i.s.v.r.c.Y.3XW.'.{.B...I } i...} ' 1.M.v.B.L.v.p.p.p.i.v.B.c.v.}.E.c.c.M.r.i.c.s.s.s.c.s.s.s.p.s.p.s.s.s.s.s.s.s.s.s.s.s.s.s.s.s.s.k.k.k.s.s.p.p.p.p.p.s.s.s.i.i.p.i.i.p.s.x.x...l ,.B.&X'.Q l *.r.=.6.s.i.x.k.c.c.",
"=.-.l I B.`.`.'.}.=.E p.L.L.E.L.P.1.....L.L.=.B g g =.c.c.Y..X&X'.v.c.c.B.'.i.i.E.B.E.}.M...=.v.}.c.B.'.L.'.L.E.B.E.M.v.B.v.v.M.B.B.L.L.C.B.B.B.B.M.v.c.B.P.E.Y.n.G.G.G.+XT 1.'.'.1.c ) G.|..XU.|.E.r.i.Y.c.M.L.M.B.B.B.n.c.M.L.B.M.M.B.M.c.c.M.M.B.B.M.v.c.s.c.c.s.L.L.|.&X&X&XL.Y.c...=.s.s.c.B.B.l.l.l.D.' I T { P.,X#X'.n.8.c.v.v.v.B.M.M.Y.v.i u i V ..A g u V 7 m m I '.5XB.' i.Y.c.E.}.L.E.L.A 1.E.L.|.v.c.p.v.B.M.c.s.M.B.s..X-XW.E.'.E.@.1.-XE.;.K m u g i g Q }.3XY.|.Y.,.s.r...i.B.M.L.n.l.v.c.} u * g ,.i.s.B.v.L.E.c.u . } W.1.r.w.n.W.'.8.' U.s.K B.L.c.r.i.r.,.i.A g A 1.r.I ,.M.1.' i Q s.r.E..X'.p.I A =.c.M.c.=.-.L.' m g i.|.c.s.s.s.s.v.v.s.s.i.i.c.B.B.B.B.-.V i.U.c.-.=...Q ..L.}.B.M.M.v.v.c.s.s.s.p.s.c.v.c.c.c.c.c.v.v.v.i.,.r.s.v.c.h.n.l.s.@.z z C 1.r...y.L.r.y.c.L.p.-.L.s.' g 0 i h A Q s.c.|.M.g 2 g V g -.v.s.' A 7 I }.'.|..Xv.r.-.p.s.v.c.c.v.B.A.v.x.M.M.B.E.P.c.r.-.M.'.G...i.v.c.s.c.c.k.v.r.p.B.,.,.E.Y.L.p.M.c.p.v.|.E.L.G.}.D.p.p.....B.L.c.-.i.B.B.B.M.p.p.c.c.s.v.v.r.i.M.i...,.M.p.s.c.s.s.c.k.p.p.k.s.c.k.s.s.s.s.p.t.p.p.s.s.k.k.l.s.s.s.s.s.s.s.s.s.s.p.p.p.p.p.p.p.s.p.p.p.p.s.x.c.,.C M.;X`.*.l ..p.s.,.i.v.p.x.k.k.c.",
"L.B.U A r.B.i.Q Q g C s.A.c.A.E.,.,.k.i.k.,.U V E Q ..B.'..X|.B.r.s.v.-.=.c.' ..} A ..B.,.A Q c.&X;X}.E..X'.s.'.|.E.c.M.L.M.L.Y.B.C.L.L.B.B.B.B.B.M.c.s.c.B.D.c.r.p.8.=.P.c.y.p.=.C Q c..X-XE.l.s.r.U -.M.c.c.B.L.B.B.M.v.c.M.L.M.v.M.B.M.v.c.M.B.L.L.B.c.v.M.M.c.s.B.}..XM.v.c.B.c.p.Q g U ..=.L.{.c.l.d.G.r.c.P.E.#X&X{.L.n.G.c.M.v.v.M.n.B.E.s.8 A ..' v.v.I } ' V Q ' r.&Xv.i.Q 1.L.B.v.r.,.'.&XQ } E.B.L.-.-.1.B.v.i.v.B.M.L.i.'.'.c.]..X.X#X'.].n.Q p i g A I ' v.|.B.=.Q A g Q A ' r.s.i.B.L.B.E.L.} u i A -.r.M.B.B.E.s.Y . = A ..M ..L.n.L.L.;.r.+XW.y.p.B.B.v.Y.Y.L.E.s.U 7 A A u =.E.i.s.s.1.p.p.B.B.-.Q V ,.E.v.p.L.p.c.s.-.i.v..X}.s.i.p.s.s.c.v.s.v.s.s.c.c.M.c.-.7 u ,.,.} ..=.' u A c.Y.p.i.p.r.r.c.B.M.c.s.s.l.s.s.s.s.c.v.M.B.v.p.r.i.c.v.v.c.c.s.n.G.@.c m r.n.0.r.l.=.p.s...0 7 Q B 0 I c.r.Q Q ..P.M.s.A g m g g m 2.p.k.c.i.p.!.&X'.E.s.] Q =.M.c.M.c.s.r.1.s.v.v.M.L.A.v.k.t.i.p.'.}.B.,.r.v.c.p.v.v.x.M.p.p.M.8.-.E.L.L.v.i.r.l.c.M.s.v.r.l.p.s.n.r.:.n.B.E.E.'..X}.Y.c.s.p.s.s.s.Y.'.Y.r.,.Q A ' c.i.i.s.k.s.s.p.p.s.c.c.c.c.s.p.s.s.p.u.u.p.s.s.s.k.k.s.s.s.p.u.s.s.k.s.s.p.p.p.p.p.p.s.s.s.s.s.s.x.c.E.=.l x.B...l E s.s.p.p.L.T.s.p.p.p.p.",
"A..X.XL.p.s.i.l g ' r.B.E.'.E.x.Q *.s.-.r.r.' B Q c.s.M..X}.B.p.s.r.,.Q ..c.-.Y.c.Q ' B.s.,...=.r.L.M.E.E.r.p.L.E.L.v.M.v.c.B.v.B.B.C.B.M.M.M.B.B.M.B.B.B.L.B.s.=.Q :.@.Q ' =.L.B.=.y..X-X#XD.' Q } A -.n.B.v.v.Y.B.M.v.v.v.B.Y.v.v.M.L.L.M.M.B.Y.c.v.L.B.v.M.c.c.v.M.B.i.' 1.r.v.E.v.' A m g Q E.'.1.p.l.c.8.B.c.W.&X.X].E.c.n.v.B.B.M.B.B.B.E.Q 8 u V ..'.L.Q s.E.B.-.-.v.Y.v.} A =.c.B.L.s.1.E.}...I B.v.r.-...1.M.i...i.B.v.d.s.~.l.@.B.l.E.P.U.L.=Xc.' Q Q i.v.v.|.s.m m 2 g I r.1.E.@.I v.i.M.B.L.c.V * V M.v.s.Y.B.B.B.U p m Q ' X...s.B.p.1.8.X.L.+XD.1.s.E.E.L.E.E.B.Y.'.i.Q p.,...r.v.....v.i.i.M.p.I Q A A 1.s.B.;XE.;X.X' r.v.|.,XE.p.r.p.c.c.c.c.p.p.i.s.s.s.L.c.Q * i U =.-.I Q V V u g u * g A g Q ,.v.m.c.s.c.c.s.s.c.c.c.c.c.s.s.c.v.M.v.c.c.v.d.n.B.0.A p Q l.c.D...S I y.r.I g =.U i h c.Y.=.'.B.M.r.s.r.u 8 B 1.1.,.r.v.s.B.|.'.B.' v.B.] -.s.A.Y.p.p.M.s.r.p.p.p.p.p.c.M.c.s.c.c.r.s.=.=.,.2.c.s.r.c.c.s.c.M.y.M.v.r.E.p.i.c.s.M.v.1.n.v.i.l.y.c.r.A c Q Q B.&X&X'.Y.Y.E.B.v.c.v.v.c.L.Y.d.A U g * g c.v.c.p.c.c.r.r.s.v.c.c.c.k.t.t.s.s.s.l.l.k.s.s.u.u.u.k.s.s.u.s.s.k.l.p.p.p.p.p.p.s.s.p.s.s.x.x.c.c.v.A.E y ' l u g I Q ^ 6.L..X`.s.p.c.k.s.",
"p.'.M.T.M.p.Q C -.B.M.Q =.|.A.' A i.M.1.1.=.H I M.XXT..X.XY.v.B.B.c.i.T V ,.Y.}.'.Y.L.r.B.L.A g I V g -.E.E.|.i.1.B.s.v.c.B.L.B.m.B.B.m.v.m.B.L.L.B.B.B.G.B.P.:.' V ' L.l.U.+XB...1.E..X-X'.E.~.E.M.s.Y.Y.c.M.v.v.L.B.v.B.B.M.Y.B.M.B.L.M.B.B.c.v.M.D.B.n.B.M.s.i.c.v.L.Q g } =.i.L.s.u I c.Q m ' C I { c.B.n.=.n.&X|.E.{.c.G.n.M.v.M.v.M.E.E.'.Q 7 V ' B.c.U A v.B.B.B.D.r.c.c.=.U } L.L.,.Y.E.v.'.r.=.E.L.B.s.p.i.s.v.d.v.B.n.s.D.n.=.1.E.'.Y.y.1..X&X0.) c.L.E.r.-.A 7 u g m =.s.E.3Xc.A 1.E.G.L.G.U.;.p 2 ..'.P.d.l.c.d.:.9 S 0.;.' { c.,X'.s.' A { B.c.1.G p.E.v.Y.L.M.s.s.L.L.M.v.Y.M.r.c.p.v.B.M.c.c.s.v.Y.c.r.i.p.&XY.V i.M.1.s.v.&X'.E.c.s.c.s.p.s.c.s.i.s.p.p.c.E.c.V 7 i 7 p.c...i 7 ' } g 7 * 7 m A i u m ..s.i.v.p.c.m.M.c.s.c.c.s.s.s.c.c.c.c.v.M.c.s.B.s.M g =.B.L.P.@.K c X.n.l.E.L.-.] s.E.'.M.r.r.=.A O.i.] i B i.v.-.M.M.p.c.@.V g r.T.p.=.r.L.v.p.c.c.x.c.p.r.p.s.s.s.x.s.p.s.i.v.B.=.8 A s.1.s.c.s.s.c.c.c.c.c.s.m.1.Q g U s.M.p.c.c.s.s.p.p.s.n.@.N S m ' &X'.s.i.p.i.v.c.h.s.v.r.M.E.Y.i.' Q g m g Q 1.s.k.t.p.k.c.v.c.p.s.c.s.r.p.s.s.s.s.p.t.t.p.s.s.s.p.p.s.s.k.k.k.s.p.p.p.p.s.x.x.x.p.p.p.x.M.c.c.B.v.5 u C d U ..c.B.p.L.;X'.s.r.s.p.p.p.",
",.s.*.c.A.E.c.6.s.' I m E 6...g U |.B.0.r.E B =.L.,X*X&X}.!.'.Y.M.i.r.A u s.,XE.L.}.c.7 I '.s.' } Q 8 g } L.Y.1.c.c.M.B.Y.L.M.B.L.C.B.B.B.B.B.B.L.B.M.Y.G.E.l.Y ' c ;.n.s.c.'.U.E.'.3X&X'.W.E.n.M.E.'.|.'.M.v.s.M.B.B.B.B.M.M.L.Y.B.E.'.Y.c.v.L.L.B.B.B.v.M.M.c.v.Y.L.Y.-.Q =.I Q U I 8 7 I I 1.n./ q ) c.n.n.n.L.r.~.#XG.s.G.c.B.M.m.M.M.L.Y.M.m 2 A -.r.g * I 1.i.Y.M.s.y.v.B.E.M.E..XY.p.M.B.'..XE.E.&XY.B.i.i.i.c.M.c.v.B.M.n.l.L.c.B.+XE.Y.Q C 8.r.) 1.&X.XY.-.} -...Q I Q i.B.'.|.L.v.|.;X.XE.s.1.T z c 0.G.P.'.0.T ) m . > u 9 m X.B.{.W.U.g =.W.c.X.{ I B.}.L.E.Y.v.c.v.i.p.s.v.E.L.s.B.c.B.=.i.L.p.Y.,X,XM.Y.E.c.r.A 7 Q A A Y.|.'.}..Xs.i.p.s.s.c.v.c.c.p.s.c.M.}.i.7 7 8 } }.G.=.m ..L.s.c.Y.p.Q i A p.p...{ c.1.i.B.p.s.s.s.c.M.M.c.s.c.c.c.s.p.s.s.n.s.n.B./ M r.n.G.:.@.n.P.n.c.l.M.B V ,.1.V.XXr.I H g r.k.c.p.,.V c.=.V r.s.-.v.' @.M.}.].L.M.B.L.L.v.c.c.s.c.x.p.s.c.x.x.x.x.p.t.c.c.r.i.,.p.i.p.v.v.s.c.c.c.c.i.c.M.c.U u u Q =.Q c.c.1.v.M.d.u.s.l...Y { @.-XE.c.$.>.i.i.c.c.p.1.i.i.L.E.B.,.A U ..r.c.c.Q r.s.t.s.k.s.c.s.i.i.p.i.r.p.c.k.c.s.s.p.p.u.s.s.s.l.k.s.s.s.s.s.s.p.p.p.s.s.s.s.s.s.s.s.s.c.c.v.A.=.g g m =.B.M.`.v.E.&X'.x.p.x.s.r.r.i.",
"v.M.1.L.E.|.E.M.c.U A A g d g d } }.} I A u Q E.|.'.P.].'.c.A.L.L.c.,.m g -.p.=.1..X'.A A E.L.s.-.Q u Q I ....c.v.i.L.v.Y.L.M.Y.C.B.m.B.L.L.L.B.D.M.M.&XD.c.Q K ' I d.=.8.B.;X].0.c.-X.XD.n.l.X.} M.'.}.'.Y.B.c.B.Y.E.L.c.M.'.&X,X&X|.|.'.B.v.Y.L.v.v.M.M.M.L.B.s.L.L.Y.,.U ,.' i 8 * 8 g u i 1.P.p.I 1.l.B.D.~.G.K n.U.8.r.M.B.L.B.c.L.B.M.Y.s.7 8 g =.v.' g A 1.v.B.A Q c.p.i...I ,.}.Y.i.r.E.,X|.&X|.E.c.v.c.i.p.M.B.v.v.B.B.L.d.D.l.D.n.Y ' p g 8.y.Q { B.8.' L.Y.B.i.J.r.Q } s.E.}.}.}.E.i.D.'.L.r.Y z M =.d.d.W.1.' r.[ M ..=.I u ' E.'.E.1.Q E.L.;.Q S =.E.'.v.L.B.B.B.p.p.s.v.v.D.v.r.s.B.M.p.B.B.B.&XE.-.-..XY.c.M.' A ..i.Y.3XE.p.E.'.p.r.i.s.c.M.M.v.M.c.s.M.E.'.U * m V P..X=.C U Y.E.n.'.}.p...A 1.E.M.c.v.L.s.v.v.s.p.p.p.v.B.M.s.i.p.s.c.s.s.s.s.p.i.l.B.) A n..Xs.Q 1.L.'.0.1.c.-.=.-.=.O.E.;Xr.' p.} B.&Xi.B.E.r.p.A U s.B.M.B.E.Y.,X}.!.E.!.E.6.B.B.M.M.g.s.s.x.c.v.v.c.c.x.p.i.p.p.i.l.t.c.p.c.M.v.s.c.v.c.c.L.c.s.s.A 7 g Q p.r.,.v.M.r.B.r.l.n.l.B c p...@.w.s.i.1.r.g.m.r...} ..-.c.s.,.' A g i.|.'.'.1...p.i.p.k.s.s.s.i.s.k.p.i.s.c.s.s.s.s.s.u.s.s.s.s.c.l.k.s.s.s.s.k.p.p.p.s.x.s.s.p.i.s.p.p.x.c.M.L.1.l A C 1.A.B.c.`.'..X`.c.r.p.s.d.d.c.",
"-.p.p.`.T.T.E.Y.-.A C ' =...P y O.v.V m g ' L.*X|.v.2.L.'.O.1.V.,.=.Q i m ..Q g I n.E.} A r.v.}.E.r.,.Y.,.-.A Q 1.,.M.v.B.B.B.L.B.m.m.B.L.L.C.B.Y.Y.L.M.Q I c ..=.r.B...:.n.E.r.9 ' E.'.B.s.:...i.E.'.E.E.L.M.L.L.M.v.M.Y.&X|.s.r.-.' ..c.Y.L.L.B.c.c.B.B.B.L.L.B.L.B.L.} 7 } r.Q A A I A } r.1.U.B.L..X[.'.L.L.n.:.~.U.M.B.c.B.B.M.s.E.E.L.'.v.2 u I v.v.V g ,.c.'.s.8 U M.c.v.A Q 1.c...} 1.Y.&XE.'.B.i.1.s.L.c.v.B.L.M.v.M.M.c.B.c.s.E.1.7 S =.c.#XD.;.r.M.X.R B.s.n.n.E.y.Q Y.E.'.U.L.E.J.m.n.n.n.B.=.z Y D.U.B.E.c.B.W.d.n.-X'.c.Y X.+X{.n.A Y 8.Y ( T S n.Y.r.' p.Y.B.M.i.s.s.v.c.n.v.p.M.c.c.|.L.=.c.Y.s.....s.Q } M.M.c.s.E.D.Q 7 g i.L.p.r.p.c.v.M.B.v.v.M.c.L.'.s.* 7 m ..&XY.A c c.;X.XL.B.p.} Q A ,.E.B.E.|.}.L.J.s.v.c.c.c.M.B.c.i.i.p.s.c.c.c.c.c.n.M.n.c.@.) s.'.p.p.'.}.P.c.d.B.c.M.c.E.,X|.i.E Q c.'.E...A E.-.0.B.i.v.i.1.V..XB.1.'.'.|.P.M.k.} v.B.c.v.s.p.x.c.c.v.c.c.c.s.s.s.i.s.v.v.-.i.c.c.v.k.p.c.v.c.v.c.,.i.s.g 8 U r.' -.v.c.v.L.M.c.l.s.B.{ ) L.{ u 1.i.4.-.4.s.=.A R ' ' Q Q A g u u 7 I p.-.c.L.%.p.r.p.s.s.s.c.k.v.v.s.p.c.k.p.t.k.s.s.s.s.k.s.s.k.k.s.s.s.s.s.k.s.s.s.s.x.x.s.s.r.s.i.r.s.x.x.x.Q 8 g m p.|.,X}..XL.v.B.v.r.r.c.s.p.p.",
"^ 6.x.E.B.v.E.'..XE.p.x.'.`.r.^ L.M.A m I M.T.Y.v.c.-.r.L.=.=.i...I A i V c.v.A i 1.L.s.1.Y.B.E.E.L.'.i.m 1.M.p.,.-.-.B.B.M.M.v.L.C.C.C.B.B.M.v.v.'.L.I 4 p i C Q n.l.0.s.d.r.C < ;.P.B.c.1.' 8.B.L.M.B.E.Y.v.E.E.Y.E.}.'.L.-.g 8 = X * } v.M.M.B.v.M.L.B.M.M.v.L.L.B.B.Q 2 U p.M.|.r.V I ..p.L.L.s.-X].0.@.p.'.L.P..XL.P.G.c.n.M.B.c.W.E.v.M.,.8 g I s.c.U Q c.Y.E.L.,.p.M.M.Y.v.Y.L.B.V 2 } L.M.Y.Y.c.i.i.p.Y.v.M.M.M.M.M.n.M.c.L.n.D.L...M Y 0.U.U.=.1.d.y.S R h.c.&X&X'.r.=.D.L.E.L.J.B.r.1.d.B.c.c.d.u.D.W.U..X'.W..XU.n.{.M...y.D.W.-XD.r.m 7 I { Y m 1.,Xs.V 7 r.'.s.s.v.c.c.M.v.v.M.v.L.E.L.r.m U B.v.r.} B.E.Q A r..XE.Y.c...u c A ,.E.p.i.s.M.M.v.n.c.v.s.B.E.M.I X g m Q B.i.=.s.}.v.1.i.s.s...I A p.&X&X'.B.'.M.p.B.v.v.v.v.v.v.s.i.c.c.c.c.s.p.s.s.y.s.s.l.L.D.c.E.n.D.W.L.l.P.G.L.r.-.B.3XT.A 7 u m ,.r.2.V 1.|.1.r.L.=.s.'.T.Y..XU A L.'.E.2...=.6.T.L.x.s.i.s.M.M.c.x.x.s.s.s.s.c.c.c.v.B.s.M.c.c.c.s.p.c.v.c.c.v.r.p.v.U Q c.v.Q g ..}.v.c.i.n.l.l.n.X.@.U.=.) s.} A I F k u i V =...Q m u g g A U U } Q -.v.M.v.s.s.s.p.p.c.c.s.s.t.p.c.s.p.p.s.s.s.s.k.k.s.s.s.s.s.s.s.s.s.s.s.s.s.p.p.s.s.s.p.k.p.i.s.p.1.,.V l A A '.,X'.E.B.M.s.p.p.p.p.s.i.r.1.",
"s.Y.L.T.M.s.A.L.Y..XY.B.}.'.'..XE.,.g A ,.M.1.v.s.p.] 2.!.v.1...} V u i } E.E.i.@.c.v.r...v.h.v.-.Q s.v.c.&X,Xc.B.-.Q M.M.c.M.B.C.C.C.C.B.B.B.B.L.Y.1.7 q p u q g L.p.0.d.G.r.g u r.c.8.1.X.K 1.E.Y.E.'.'.s.Q Q ....-...A 8 = = 7 * 2 A ,.s.c.B.v.c.M.L.B.B.B.v.s.L.E.c.m 2 g ,.Y.B.} U ..U Q Y.c.p..Xr.z z =.L.0.y.D.L.L.v.L.B.M.L.M.U.v...I g * u A c.}.'.Y.L.s.-.E.;X}.E.E.i.L.,.-.Y.} * U p.s.'.B.s.d.c.s.U.c.v.c.v.M.M.v.B.D.n.B.W.p./ ' S I Y / ..d.r.=...` Y.$X<X.XL.%.Q E.{.Y.c.m.D.c.r.r.L.D.d.d.d.B.=.s..XW.'..XU.E.W.X.Y n.&X+X'.c.s.X.' y.B.r.r.+X+XA u u -.Y.s.c.c.v.c.B.M.c.c.p.s.s.c.s.B.M.-...=.g L..XB.s.E.,Xr.-.i.s.s.L.-...c.s.p.c.M.v.c.c.c.Y.p.E.Y.' * $ i V U L.r...-.} I ..c.i...Q A A 1.|.Y.B.p.M.s.p.v.s.k.c.c.c.c.s.p.v.v.c.s.p.p.p.s.c.n.B.n.c.1.@.8.d.r.:.1.@.i.0.y.t.V.&X&X=.i m A ' T.v.i.B.c.=.@.P.' 8 ..'.L.r.,.m U Y.Y.s...} =.c.E.L.c.s.p.x.c.v.x.s.s.s.s.s.s.t.s.c.k.v.s.M.c.c.c.s.s.v.c.s.k.M.r.-.,.A Q :.V =.I u p.U 2 i :.B.0.c = C r.' =.v.A 2 2 e e 8 g V r.-.Q m g A A V g ..=.A { r.E.L.v.s.s.t.i.p.s.s.s.p.p.c.s.p.s.s.s.s.s.k.k.s.s.s.s.s.s.s.u.p.t.s.p.p.p.p.p.p.p.i.s.p.s.s.r.,.1.V 5 C r.3X.XM.c.p.c.c.M.L.A.p.,.r.i.i.",
"c.E.B.M.B.x.M.M.c.'.E.E..X|.'.T.1.E } s.Y.T.c.M.v.-.} P.&XL.1.I g i u A p.L.M.E.B.}.L.s.=.c.s.c.p.-.E.3X,X}.}.Y.M.=...v.v.c.B.L.B.B.B.B.B.C.L.Y..XM.A = g i m K I L.;.:.n.L.@.m K { ' =.r...C 0.L.E..X|.E.v...U A m r * * 2 7 g g m } c.B.v.M.L.s.c.M.B.M.B.Y.L.B.E.L.=.= 7 i ,.E.m Q Y.p.-.c.c.B.E.L.0.{ ..0.1.I { n.E.~.G.L.c.M.L.B.v.r.A 2 2 q g ..'.p.V i U U m c.Y.L.}.E.s.s.' =.M.r.{ 1.' L.|.c.p.s.c.v.L.p.v.v.v.B.M.c.B.B.d.n.E.c.=.X.{ u = m r.d.{ r.+X+X.X'.'.E.d./ Q Y.}.B.d.n.n.n.r.n.u.r.l.8.z / ;.n.E.L.U.c.d.D.8.r.c.U.D.B.L.B.L.E.'.E.L..X5X4X1.7 g A -.Y.c.v.p.s.p.M.M.v.v.d.s.v..XL.....s.p.U 1.-...E.&X.XE.A S M.Y.'.E.-.v.E.M.s.h.m.v.c.v.v.Y.B.B.' 7 . u A Q p.,XL.Q i i Q -.=.A i =.B.=.v.Y.1.p.i.p.s.c.i.p.p.s.s.c.c.d.s.s.d.d.s.p.p.s.c.p.l.c.G.) u =.s.8.0.0.l.s.r.:.' Q }.,Xc.K 7 A c.s.B.c.,.s...B.&XL.E U ,.] u m } B =.V.B.p.1.1.1.B.Y.B.c.s.s.c.s.c.s.p.s.c.x.s.s.i.p.k.c.s.=.i.c.p.k.s.k.v.c.s.k.v.i.r.s.V u A u Q i.,.g O . X Q r.p   : c ..;.n.Y.I 8 g $.=.V 7 ..c.} K A Q Q A I m s.Y.-.M.}.,XL.c.p.s.i.i.s.s.s.c.s.s.k.p.t.k.k.s.s.k.k.k.s.u.s.s.s.s.s.u.s.s.s.p.p.p.p.p.p.i.r.i.p.s.p.1.1.s.1.A ,..X:XA.p.r.p.p.x.L.E.s.*.=.-.1.r.",
"6.Y.M.B.E.A.L.M.r.M.x.p.x.L.|.B.v.B.,X'.i.E..X-...Q ..|.B.-.' i i A r.B.B.Y.L.B.M.E.1.A m v.E.Y.E.|.;X;X}.Y.c.1.} ' B.L.L.L.B.v.B.B.m.v.M.B.C.L.c.s.A 7 S M S K { { m 1.+XB.A Y =.m u @.r.Q g 0.}..X;XL.p.s.1...U ..U 7 7 g g i 7 I c.'.E.L.M.s.v.M.B.M.c.B.U.Y.E.c.=.A = Q } '.'.i.s.B.B.Y.M.r.~.4XD.s.{ I r.]...r.B.r.l.c.l.M.c.M.v.p.1.U 7 m g i ' E.B.p.-.=.) A r.=.,.r.=.}.&X=.p.B.p.r.M.i.}..Xi.s.y.s.M.M.p.B.B.M.D.v.c.B.D.D.n.n.E.r.I =.I g 1.'.B.=.B.+XD.B.E.L.c.X.m M B.'.c.M.D.s.c.s.d.c.B.G.d.T u.D.L.l.n.n./ / 0.Y y.n.;.Q p.'.E.W.{.L.'..X.X].W.=.i m Q c.&Xc.s.v.B.v.L.B.v.M.c.s.E.Y.=.7 I -.U c.v.s.1.E.L.B.v.V ' B.1.c.i.-.;X.XL.c.s.v.v.M.B.B.c.'.1.$ * * I 1.Y.{.L.E.E.p.i.,.Q A A I v.L.U L.|.B.p...s.s.1.s.c.s.s.s.c.c.s.p.d.c.c.s.s.p.s.c.c.l.s.'.A . r.s.y.s.r.:.s.d.s.K U Y.r.7 2 I r.B.M.L.} p.&X;X].|.&XT.L.p.c.1.1.v.,.B.B.p.-.=.1.1.`.T.c.s.r.p.v.s.s.p.p.c.v.c.s.s.c.v.n.k.s.,.s.p.r.p.s.k.v.c.s.c.v.../ v.Q 7 m g i.Y.c...V g g u q $ 4 C 7 X.].~.v.' =.L.'.1.g i p.v.U Q r.E.'.B.i.L.E.}.L.E.|.'.v.i.r.t.p.p.l.c.p.s.p.p.s.i.i.c.k.s.s.k.k.k.s.u.s.s.p.p.u.s.k.l.p.s.s.x.x.s.p.p.p.s.s.s.6...-.c.s.V.E.E.L.v.i.p.r.s.s.i.*.I U 1...-.r.",
"p.L.B.B.L.B.M.M.B.L.M.B.p...p.L.Y.L.E.M.x..X}.Q g u ,.E.Q 1.} A 1.L.Y.p.Q v.E.E.L.=.w.A g r.-.A Y.3X|.' } =.Q U Q c.L.B.L.C.v.B.L.C.B.B.C.L.L.L.c.B.K g M K ) s.l.p.' r.n.1.T { ' 7 m ) D.0.S s.-X&Xs.:...l.G.r.:.' d.'.' C u K u T ~.Y.M.E.P.n.c.l.n.n.c.G.E.L.s.' g g C s.'.{.L.E.G.l.L.B.) P.'.E.M.v.s.m Y.E.' .XB.' A ..s.s.r.1.%.` z 3 s m I / R c.'.w.>.i.s.s.c.Q N V z %.%.R M.s.d.X.L.3X&Xs.8.c.c.c.D.D.c.n.c.v.B.B.m.B.B.n.n.D.s.A ' D.M.n.&X-X8.M W..Xd.B.d.y.@.' c c L.B.c.L.B.h.M.s.s.d.c.h.d./ N.J.n.n.n.:.o._ D S y.1.Q Y r.;XY.B.L.s.c.J.c.m.s.R ' c.Y.).Y.s.p.n.c.v.B.D.m.h.d.h.v.E.,.g I p.v.B.v.Y.L.E.i...A g R h.r.i.n.E.).E.r.;.i.D.m.c.D.L.B.G.{ o $ / ~.U.P.c.s.D.n.~..X'.L.1.-.s./.A I '.}.p...=.p.v.p.i.p.s.v.c.v.v.c.s.M.y.v.c.s.s.c.p.v.r.l.r.7 = ..E.v.r.i.r.c.s.r.U I 1.m g A Q M.v.c.=.'.}.M.L.&X].E.E.s.s.L.'.|.B.p.i.B.v.,.,.r.i.v.B.s.r.c.v.s.p.p.c.s.c.s.i.s.p.k.v.s.c.k.i.c.s.s.r.i.c.c.s.s.p.s.=.,...7 m m r.'.p.L.5Xc.g A Q 7 2 i A g Q p.,.I A Y.;X!.Q m -.T.=.Q E.&X.X|.E.'.B.E.E.] s..XY.,.t.s.r.i.c.c.p.s.s.k.c.s.p.s.c.l.s.s.l.l.s.s.s.s.s.s.k.l.l.l.k.p.s.s.i.i.p.s.s.c.s.r.1.=.=.r.c.c.c.c.l.i.s.M.r.s.l.t.1.O.Q B B i A s.",
"i.A.B.B.L.M.M.M.B.M.x.c.p.=.6.B.B.'.i.m Q E.Y.Q V i g Q Q B.s.v.,X,.I U A p.B.L...1.Q 1.r.i.v.r.E.Y.-.7 g V U -...M.E.Y.Y.L.v.v.L.B.B.B.L.L.L.L.B..XT 7 m c A E.p.p.=.s.=.u m :./ g I ' B.G.c.-X'.0.V K { L.P...m K l.p.g 7 I c.I ' p.n.L.].'.M.r.l.G.G.n.L.P.n.} i 8 A { s.B.D.'.'.W.{.L.i...B.Q ' Q { 1.Q M.p.Q ..g g A } -...1...S 9 3 p b m =.' =..XD.p 2 r Q =.W.h.Y r g X.A / n.s.X.} E..XB.=.=.c.m.v.D.D.h.c.c.m.D.B.n.B.n.n.n.D.D.1.s.D...I r.D.;.g X.c.8.r.X.K z 9 4 Q B.n.s.d.L.N.B.s.d.L.m.B.c.f Y n.d.0.z.0.[ v a u.s.Q I { w.E.U.n.y.y.B.J.s.s.n.r.h..X.XU.D.c.c.m.m.n.n.n.v.n.c.h.Y.v.Q m p.|.L.s.M.v.L.E.r.Q A Q ' B.L.n.J.B.8.n.` Q =.d.c.c.c.d.n.G.0.A K p.l.p.s.n.u.d.G.U.n.U.|.M.L.L.E.p.C.3XM.M.B.B.v.p.i.v.c.c.s.p.c.M.v.i.p.L.c.p.i.i.s.c.p.G.L.p.u 8 Q E.s.i.s.c.d.d.v.p.c.'.c.p.T.P.M.c.c.;X!.! ' ! -.'.v.r...Q v.,X}.B.c.Y.r.1.=.Q 1...1.M.B.t.i.v.c.r.s.l.p.s.s.p.c.k.k.k.t.c.c.i.v.M.c.s.c.c.p.p.s.i.v...,.1.Q } s.E.s.7 '.|.Q i g g m A m i A =.1.Q V g r.'.E.} I v.E.V.L.'.L.L.E.Y.i.s.r.-.U M.,XM.-.r.t.i.p.v.v.s.k.s.k.c.s.p.s.c.l.s.p.s.s.s.s.s.l.l.k.s.s.s.s.s.s.s.s.i.i.p.s.k.p.r.1.1.1.r.s.B.l.s.t.t.r.c.L.l.2.s.r.0.=.] c 7 A s.g ",
"r.A.B.M.A.M.M.M.A.B.B.M.M.r.6.E.E.'.c.$.p.'.M.Q Q 1.' A m ' I p.1.A -.v.v..XE.,.Q B.c.E.v.B.}.|.c.A I U V A =.,.} c.Y.L.B.M.m.Y.C.B.B.B.L.L.L.L.W.E.G...7 / c.0.K y.s.p.{ m ..' M / 1.y.P.~.'.<XU...c M A :.p.) z A =.g q C r.E.n.D.y.0.n.W.E.s.n.B.L.L.P.E.c.{ m 4 i 0.L.E.L.P.U.p.;.c.p.r.s.r.I Q A A ,.s.|.'.E.L.1.d.t...' U R Q I u p V A ' s.m S }..X;.` A Q B.D.} =.<.r.m.m.s.d.L.c.n..Xm.s.=.w.D.D.n.B.D.h.n.m.B.J.N.n.B.B.n.M.D.L.c.L.D...g ' Q 9 ..c.S Y I p u 9 < ' s.1.n.L...r.Y.c.n.s.B.s.n.r.r u ;.9.X.r.:.8.[ x :.=.' A I m.E.h.i.s.s.c.c.s.h.c.i.=.Y.L.i.s.m.D.B.m.m.b.h.v.B.B.c.M.s.,.' U.}.M.M.i.D..XM.,.} A V G } B.c.c.h.=...A Q 1.c.d.s.n.B.n.c.c.d.p.c...:.p.p.:.1.B.p.=.1.,.' C.,X;X;X;X&X|.|.'.L.c.r.r.s.i.s.c.p.p.s.s.p.p.v.s.i.-.p.i.,.v.v.} I u V I r.-.r.s.v.p.s.p.r.i.i.E.'.Y.Y.c.s.T.B.U 8 m m A Q ' V g u s.3Xr.Q ' ..1.r.i.} g g I I { t.c.s.p.p.k.c.p.s.k.s.M.v.k.s.r.k.s.r.s.l.i.p.c.c.i.y.h.s.p.>.r.=.Q U v.v.' Q v.U 7 m 1.1.Y.E.r...c.B.' 7 7 Q }.&XB.U C c.B.B.'.E.L.Y.L.p.-.r.O.-.r..X3Xp.1.r.p.p.s.k.k.s.s.s.s.s.p.p.p.s.k.p.p.p.u.p.s.s.l.l.s.s.p.p.u.u.s.s.s.i.r.p.s.s.i.2.1.2.i.s.M.L.l.p.2.r.r.l.B.r.-.0.{ T C A q 2 H V.i ",
"r.A.B.M.A.M.M.M.v.M.A.v.c.*.E p.L.s.L.oXoX}.g.A ~ L.E.s.Q R m ..V A c.v.s.L.-.i i.L.E.E.,.s.'.L.' g I A R p.E.s.M.E.E.J.B.M.v.B.C.B.M.M.B.L.L.L.E.G.L.r.I @.B.n.@.@...c.'.L.&Xy.C l.P.L.E.c.0.p.r.Y g U 1.p.{ g i { l.m c ' s.n.n.B.n.s.W.L.B.l.Y.L.G.L.P.n...g 4 7 I G.'.E.B.Y.n.{ c V Q s.L.0.c.B.s.1.c.E.E.E.E.W.L.E.v.s.i...m V Q V A S V 8.M.J.W.W.h.h.h.Y 1.L.c.D..X).B.v.B.m.D.Y.D.B.L.8.h.y.c.U.J.c.m.D.c.B.B.B.B.n.c.D.L.c.M.D.B.y.D.D.n.y.8.X.' y.1.Y 9 < u a p a ..;.A B.r.A A ..s.Y.c.B.B.m.` z z Y T I I T ;.o.B [ M V s G '.'.s.s.B.B.h.s.c.m.h.r.r.J.B.J.B.<.=.r.c.B.B.b.c.B.B.v.L.v.i.Q p.,.} ..B.M.B...=.A 2 g u >.D.i.Y.L.d.J.=.i.B.D.n.c.D.L.n.r.n.E.l.@.@.p.c.0.s.l.c.1.8.1.-...Y.;X/.&XE.s.E.E.g.1.r.s.s.p.p.s.v.M.c.s.s.c.c.s.v.r.c.E.s.p.~.i.V u 7 g A ..7 m A ' ..p.r.-.' Q M.L.1.O.} 1...V i C h g Q V i u g u -.v.g 7 B g 1.P.E.s.I } h u Q c.M.r.i.v.c.v.s.c.v.c.v.c.k.x.c.v.v.k.k.s.r.i.c.M.s.p.h.c.i.i.,.g 8 2 m 7 7 B...7 i ..}.&X&X|.M.v..X|.,.} c.E.&XY.r.A m 1.M.i.V.M.L.M.1.} 1...' p.'.XXL.=.i.r.p.s.k.s.p.s.s.s.k.s.s.s.s.k.s.p.t.u.s.u.s.s.s.s.s.s.s.s.s.s.p.s.s.t.i.t.p.s.p.i.r.i.s.c.v.M.l.s.0.r.r.s.p.' =.=.H g 4 g g A Y.2.A ",
"r.A.B.M.B.v.v.M.v.M.A.M.p.E 5 A p.p.L.'./.'.v.U i.M.M.r.U 1.s.c.i.-.s.c.M.c.I 7 ,.,.-.c.M.i.E.,.V A k m v.m.r.Y.|.E.B.v.L.L.m.s.C.B.m.v.M.L.L.L.n.L.r.I A ) n.-X.Xn.1.n.s.) r.S ) U.G.c.n.X.z g T c 2 m n.B.{ Q g :.E.p.i.G.L.E.:.X.n.s.'.u.0.L.n.n.G.L.c...M i c c ..'.'.D.l.G.n.8...Q ;.B.L.D.Y.E.Y.v.B.E.v.n.B.L.B.M.s.L.p.U m p s 9 V ` Q s.J.J.m.w.S g ' i.&X'.Y..X%.;.L.L.h.m.m.' 1.D.L.i.y.r.c.L.B.c.c.B.B.J.B.B.B.c.c.D.B.c.n.B.n.s.D.n.X.s.8.B.U.D.s.D.{ N I p ) ;.z u / |.' =.G 3 ;.U.r.B.L.r.m g m ' Q A a T Y 9 Y B.' b I c.,XL.h.c.h.J.J.c.n.n.n.B.J.h.s.L.s.V M ..r.m.J.N.h.c.m.n.M.M.p.I ' A ' =.i.M.B.r.E.l.U 1.1.i.B.E..X.X-XL.Y.L.D.B.L.L.B.c.c.0.n.G.:.A s.y.m { l.s.l.s.B.n.s.'.;XY.,.m.-.A 1.L.v.i.s.g.v.c.c.p.s.c.i.=.-.p.i.s.1.' s.p.L.'.p.C 7 7 g g Q @.u i 4 u g I Q ' p.V.v.s.c.E 7 A t.r.-.p.p.p.s.-.7 A Q B U A i =.Y.1.1.B.r...s.M.=.s.E.Y.t.r.c.s.s.v.c.v.v.s.k.t.p.k.c.s.s.v.c.p.c.p.c.B.c.p.s.c.s.r.I = 7 V g i I r.c.1.=.p.M.E.Y.v.v.M.Y.Y.M.'.,XE.s.1...m g 1.=.-.B.k.p.1.-.-.2.U I i.XXT.1.-.r.r.i.s.c.s.k.c.k.c.c.c.c.c.c.v.s.p.p.k.l.k.s.s.t.s.s.k.k.s.s.s.t.s.s.s.p.p.p.p.s.p.i.p.l.v.c.k.k.p.0.t.t.p.r.E c g 4 7 7 i i H -.i A ",
"r.A.B.B.B.v.v.M.B.A.L.L.x.U 5 g s.E.E.C.E.Y.r...L.B.s...g >.E.Y.h.i.p.L.E.M...Q M.p...V -.1.c.c.V F I =..X>.i ..E.J.m.M.m.v.v.m.L.B.m.v.M.B.L.L.M.D.v...g Q [.~.s.8.y.~.n...s...s.E.B.G.P.s.Q A { { C m 1.X.Y s...8.n.B.D.'.G.E.1.s.-XE.-XE.n.P.n.n.B.D.s.Q g c I m X.}.P.c.s.n.y.s.G.E.,X'.n.W.v.d.M.L.E.|.L.L.s.L.L.c.r.E.}.L.J.c.r...8.B.B.E.c.B.r.` ;.E.;X;X}.).U.Y.R =.E.E.}.B.d.` h.'.B.=.1.r.c.D.B.c.h.c.D.J.B.m.m.c.c.D.h.n.n.s.B.B.B.;.i Q / c.+X&Xs./ G.+XX.A u.;./ r.E.-XB.B.;.I G =.g G A g i g z s.L.s.;.L.8.M 0.L.=.1.s.'.&Xc.y.n.i.B.J.m.c.c.n.D.B.h.y.i.1.=.d.c.r.c.D.n.s.s.c.m.v.M.1.Q U I p.M.r.M.,.A -.i.,.'.c.L.v.).3X).n.i.s.c.h.c.B.B.h.s.l.s.B.p.) i s.' * @.0.' r.d.1.;.M.,X.Xv.....A e R r.r.p.v.p.s.c.s.s.s.1.U g Q p.i.1.} I m 7 E.M.c = 7 z / K =.0.I m q q 4 2 u ' s.B.p.c.E.s.=.s.V.B.s.M.v.c.v.Y.1.L.c.Q B u g r.} I i.B.p.B.T.B.}.,X,XL.r.p.c.r.i.c.c.v.c.t.p.r.k.k.c.r.i.s.p.i.c.p.s.v.d.s.c.B.B.,.g u A ..} c.B.1.L.s.p.1.M.E.E.M.L.M.c.i.' ' =.=.' Q V 7 g -.A -.L.s.,.=.-.-.} B H p.;XL.r.p.i.i.p.s.s.s.s.k.s.s.s.s.s.k.c.k.s.p.s.l.l.k.s.s.p.s.l.l.s.u.s.s.p.k.c.s.s.s.s.p.i.i.i.p.l.v.c.s.p.r.1.r.t.k.l.O.g q q c T I K E Q -.s.",
"r.C.B.B.B.v.M.B.M.L.L.A.=.i u U B.'.E.E.E.p.Q Q 1.Y.E.g...s.E.Y.E.M.1.M.c.M.B.L.v.B.E.,.p.i.' ..s.B.E.Y.}.c.=.-..X'.E.Y.v.s.v.L.L.B.M.M.B.L.L.B.G.L.D.Y.r.' G.l.Q g T ].+XL.P.n.'.E.~..XP.W.n.r.n.n.r...l.{ m X.1.v.E.d.{ @.=.d.T c.<X&X#X~.c.p.G.L.G.B.s.' C K g c =.D.8.0.r.X.{ 0.d.U.#Xs.r.L.c.s.E.|..X}.B.s.Y.'.M...I v.;X3X;X;X.XL.m.m.n.c.L.Y.E.'.&X,X.XW.L.;.` %.,.1.Y.;XE.L.}.$X{.'.U.r.r.s.m.B.D.n.h.c.m.B.n.v.N.c.c.B.c.B.c.y.D.D.c.X./ r.1.n.3XD.7 7 8.{./ N B % Y -X-XD.D.>.w.c.} ..3 $ $ * s M I {.W.c.c.W.r...s.Q { J.B.D.L.c.y.m.c.n.n.h.h.c.c.s.i.>.=.=.=.B..Xm.c.n.n.c.d.h.m.D.Y.c.Q Q U U v.i.P.v.=.=.=.Q U p.d.Y.$X$Xc.w.i.i.} 1.s.h.c.s.s.B.l.c.B.0.Q u @.' =.E.n.@.;.:.) ..,X,Xc.1.=.' U m m A i } M.p.p.c.p.c.p...i 7 Q c.c.1.} A 8 = 1.I X * z M Q A ) =.m m m g g i Q n.!.B.M.B.B.v.c.s.E.1...c.Y.}.B.c.v.E.r.B Q ,.r.B.1.! v.i.r..X'.'.;X|.L.s.s.k.p.i.i.c.k.c.s.i.s.s.v.s.c.c.c.v.t.s.r.p.v.M.n.L.E.Y.Y.=.i V A A ..m.s.p.1...1.=.E.E.M.p.c.i.p.=.i 7 =...g 7 7 m A Q ' s.s.-.Q E U m g V m p.&Xp.p.p.s.s.s.s.s.s.s.p.p.s.p.t.p.s.s.p.s.p.p.s.k.s.p.s.s.k.l.s.p.t.t.p.s.k.c.s.p.p.s.s.r.i.i.t.s.c.s.i.r.0.2.t.t.c.B.0.g i m C ..' =.1.p.v.=.",
"1.B.B.B.A.M.B.A.A.`.E.M.A : d =.E.E.E.E.g.>.~ V =.E.M.r.c.'.'.'.L...V M.L.Y.Y.c.B.B.L.,X.XM.Y.M.Y.c.v.M.L...} E.,XE.m.m.v.M.B.L.C.B.B.C.L.L.L.B.n.L.G.E.d.r.].) u Q 0.B.=.y.E.Y.#Xn.P.P.{ r.n.r.L.Y.L.s.n...K 1.' n.&Xs./ ;.s.n.c.~.|.,XL.r.r.L.l.P.E.B.r.) Y ..g { U.E.=.c.B.' { 1.) T Q u ..B.B.v.Y.L.M.v.B.M.L.Y.r.Q ..|.;XE.L.D.D.E.L.M.L.L.J.L.&X,X{.E.L.J.r.A G b U X.E.L.` ..>.i.I 1.E.s.i.c.m.B.D.B.b.m.c.c.c.c.B.n.c.m.n.B.d.d.U.n.c.y.r.n..XL.r.X.' E.<Xc.{ T I S N .X+X=.A M i.L.3X+XQ 6 g M m A =.<XW.d.Q..X1.r.'.1.L.'.W.{.d.i.c.s.c.n.B.c.d.c.n.d.B./ ` B.L.E.$XU.E.B.c.c.c.B.J.Y.p.p.Q =.I A Y.Y.E.Y.v.Y.s.r.-.=.Y..X'.w.` y.r.d...8.y.h.m.d.i.m.d.d.c.i.{ i / l.G.}.E.n.....p.&X.X'...~ 4.p.r.V ' V * } /.v.p.c.r.,.' z 7 i Q ,.,.i.Q * V m = $ 9 K S T c.E.n.l.p.n.d.' / ) p.E.B.s.i.1.s.s.} ' p.L.E.V.v.V...! P.!.2.i Q E.L.B.L.c.c.k.M.|.&X].'.Y.s.t.v.c.p.c.t.c.k.c.s.t.v.M.1...r.c.M.c.r.s.,.v.E.E.Y.|.$X).M.Q 8 A Q U c.c.r.s.c.Y.c.0.r.} s.1.,...,...A -..Xv.A g g A U U r.c.' A i g m i g I i p..X..c.s.i.s.s.p.s.c.c.k.k.c.s.p.p.s.s.p.s.p.t.p.p.p.p.s.k.k.s.p.r.r.t.s.s.s.s.i.r.i.p.s.i.p.p.i.p.s.i.1.r.t.r.s.p.l.n.2.g m ' T 2.1.L.].k.1.-.",
"r.B.M.M.c.i.c.v.v.|.|.1.u 7 m 1.m.i.s.p.} -.4.i.M.E.M.E.|.Y.E.E.B...V B.L.v.c.Y.L.M.L.B.M.B.v.M.v.i.A A M...p.,X}.Y.B.M.Y.M.Y.B.Y.C.M.m.B.L.B.v.D.E.E.L.d.@.) ..T 1.W.;.I G.-X;X{.,X&XW.Y :.L.P.W.{.U.=.l.B.=.P.U.&Xs.A T G.E.].[.P.G.l.p.s.d.B.B.W.U.d.1.M g 4 1..X=X'.P.s.s.G.E.L.r.) K g ..P.M.E.|.'.c.1.,.=.,.Q A ,.E.&X}.M.c.M.d.B.$X-Xd.L.s.D.$X{.J.c.L.1.Q m V m Q h.r.R m b ..p.w.c.L.r.r.s.c.m.D.m.c.c.B.n.c.n.m.m.B.D.D.m.c.c.L.L.y.} =.n.,.r.y.' y.{.#Xl.z 3 f.:.M L.Q p 1.c.}.'.).c.G u z G S m m.n...m.3X{.).'.'.;X$X&X'.v.h.c.h.s.n.B.m.c.h.c.c.c.c.=.=.L.'.[.{.s.s.s.h.c.d.c.n.d.c.} ..} V -.p.p.c.L.M.E.&XE.' r.Y.&XE.%...v.w.r.r.s.m.c.B.d.h.c.=.p.c.i.s.=.r.c.Y.Y.M.1.@.B.M.|.'.r.g ,.c.p.r.V I Q r.A ' Y.v..X1.g 7 g 7 g i g m u u ..Q m =...g ) G.E.].G.U.l.B..X1...P.G.[.E.} A U =.L.1.1.=.i.M.'.2.U A A M.*XE.V.=.v.}.L.v...-.c.1.-.XX}.B.v.p.s.i.p.c.s.s.s.k.c.c.c.c.c.c.' u ! ! -.v.k.c.v.E.L.1.7 ,.=.V 8 2 g g U B.v.Q p.M.'...' M.-.} ....' A Q g -.E.|.L.M.' I v.r.0.M.L.,.I A g g g A g ..|.Y.-.i.r.r.t.s.l.s.i.i.p.s.p.p.s.k.s.p.s.l.p.r.r.s.l.l.s.s.s.s.p.u.l.l.l.s.s.p.p.p.i.p.k.p.p.p.p.p.p.p.p.r.t.r.s.s.l.c.0.m m ) L.E.B.V.] I P.;X",
"*.s...=.=.p.L.L.Y.r.P 7 = m | 6.L.i.Q R A r.'.g.=.|.}.&Xr.Q '.L.} U Q p.=.-.=.p.v.,.v.B...A U ..-.M.s.1.B.1.L..XY.p.s.v.L.M.C.B.L.B.M.M.B.L.L.B.c.G.B.s.:.Y c C c.G.+XP.B.#X-X].-X].'.G.L.L.W.=.y.:.=.E.#XL.P.L.P.s.I q M B.U.s.B.c.c.y.r.s.l.B.G.U.D.p.=.) p.n.'.:.v.c.{ r.U.U.E.'.n.r.:.1.r.n.E.M.M.B.M.1.' A m U M.;X,X|.M.B.c.B.L.U.U.L.m.L.E.$X}.D.c.>.' M m S u I d.L.c.Y r.i.i.L.}.J.s.J.y.h.m.B.L.B.c.b.B.n.n.m.m.m.m.B.c.c.n.B.L.D.r.{ ' ;.c.{.+XE.L.D.X.( N p [ D.c.B.;.;.d.;.i.8.' I g g g m I ` y.Q 3 } ,XB.B.&X&X;X&X).n.s.c.c.d.h.m.B.m.c.h.c.n.c.B.s.d.'.}.E.Y.y.c.h.c.c.s.h.c.s.1.' Q I ..p.p.c.B.r.M.}.i.,.p.L.$X'.L.s.;.s.r.s.d.d.h.s.J.m.n.c.1.s.c.s.M.s.1.p.1.v.r.r.'.B.U M.E.A =.L.r.c.,.u * =.E.7 2 u ....u 7 i i g V I Q m < m U 7 -.,XB./ { y.;.=.p.' i c.+Xy.G.p.r.~.@.u A ' M.v.c.p.c...' =.U Q E.,X,XL.s.c...Q U U ..,.E.B.r.;X}.i.s.c.p.s.p.s.v.s.c.s.s.k.k.c.c.c.c.| ^ 1.U ' k.c.p.v.L.M.A   . X = $ i m A ..B.B.=.M.-.g -.r.c.r.c.r.A m 8 7 u I E.r.p.p.p.v.1.g ..E.Y.i.1.i.r.r.r.i.L.,X'.1.,.r.t.k.t.r.p.c.c.k.s.k.s.s.s.k.s.s.s.s.p.t.p.k.l.l.k.l.c.l.s.u.s.k.s.s.p.s.k.s.t.i.p.p.p.p.p.s.s.s.p.s.s.p.s.p.s.v.p.c M 2.!.1.=.L.=.B.]..X",
"' B.' A l 1.`.T.`.r.* . 7 i A B.E.-.I I Q v.g.m ..E.i.g u } s.} A m r.E.i.M.M.L.v.M.i.r.M...i / =.L.;X.X'.c.'.'.B...p.B.Y.B.B.L.C.C.B.B.B.L.L.B.B.U.n.y.8.) c m p.p.d.d.d.n.E..X.XL.B.0.D.c.v.Q { c.l.L.D.B.{.0.Y s.r.' T l.n.:.B.n.n.p.r.l.l.n.B.n.n.s.1.X.p.r.' V r.=.C T / y..XL.' S { B.D.L.c.L.L.i.' A m g i ..&X|.B.L.c.E.W.J.L.B.d.i.c.1.y..XL.1.' V p V u g Y c.B.B.;X.X=...'.4XJ.m.U.1.s.c.m.m.B.B.c.n.B.m.m.B.B.N.m.m.n.n.n.v.n.n.s.1.8.s.U.L.=.X.n.L.y.:.u.u.:.I.D.n.'.;.s.d.` z r s i m V ' s.c.B.y.G m h.>.c.'.E.Y.E.D.s.s.n.n.c.n.B.M.n.c.c.n.n.c.c.c.J.}.'.J.m.i.s.s.h.c.h.v.m.h.-.1.{ 7 Q =.=.i.c.s...A A i.E.&X{.m.D.D...=.y.h.d.s.s.r.B.c.c.c.1.c.c.s.L.M.Q Q ..' @.l.E.B.1.E.,.' B.M.c.B.' 7 u Q 1.k e $ = $ $ i A g A I 1.c.-.Q 7 7 ,..X'.Y.:.c K ..C g 4 Q n.E.l.X.T U.#X=.g 2 Q Y.v.,.1.Q A V m K k.*X].V.=...c.s.1.-.i.L.v.c.,.s.&Xk.=.1.s.i.p.p.s.v.c.c.k.k.k.c.c.c.v.v.s.v.L.6.p.v.v.c.L.v.p.7 7 V 2 > 7 g g A r.s.} Q Y.s.A c.c.s.p.v.p...A A V A Q ....1...} 1.r...L.&XE.v.v.n.v.V.M..X&X&XL.i.i.p.s.v.s.p.s.c.c.s.p.v.c.s.c.c.s.s.s.k.k.k.l.l.c.l.l.l.c.l.s.s.s.s.p.p.p.s.s.s.t.i.p.p.p.p.p.s.s.s.p.s.k.p.p.r.p.n.l.C g =.p.i T -X~.&XE.L.",
"m 6.U g 7 U M.B.'.B.g y U P ^ |.c.,.M.r...i.A k r.B.i.U Q -.Q V A I s.L...s.Y.M.}.L.s.B.&XE.r.v.E.}.&XB.=.-.}.E.c.} v.Y.L.C.B.L.L.L.L.B.M.B.B.B.G.P.n.s.c.0.) Q n./ 4 A n.].'.E.L.E.n.c.n.E.}.~.L.&Xd.V { G.l.:.=.&XE.0.r.L.E.#XE.U.G.s.y.c.c.n.B.v.B.c.1...' c 7 ' s.I K I u :.l.) g Y B.{.c.r.B.L.s...Q Q ' } U r.'.B.s.L.B.E.L.D.D.B.B.i.h.' y.E.8./ A m u m U %.D.I.L.&X&Xs.i.$X,XW.L.c.s.m.h.n.c.c.n.m.n.B.B.m.m.B.D.B.n.c.n.B.n.c.c.n.n.c.n.;./ ' Q ..n.c.'.l.s.c.D.n.y.n.d.X.d.l.} i.=.z z z i / s.h.B.'.=.` D.i.w.;.c.'.y.n.m.h.c.m.n.c.B.m.c.h.c.c.c.c.c.n.m.B.h.r.w.r.s.s.h.c.c.m.M.c.,.v.=.2 A r.i.v.v.s...Q 1.-.U L.E.m.B.D.>.i.m.h.i.s.c.i.c.i.d.c.p.M.B.B.Y.Y.V g A V M.&X'.|.,X'.} s.m.s.B.Q u s g r.L.} } i.A m m V g V Q -.M.v.M.c.c.G.&X|.m.B.d.B q I ) ..T ' 0...;.X.~.-Xn.@.Q Q ..t.r.B i g u g U c.,X;XV.v.U ] E.}.M.c.s.t.L.k.t.L.s.i.2.p.p.r.p.p.s.v.s.k.c.s.s.k.c.k.c.c.c.V.v.p.B.c.p.2.1.p.i.7 u g s s g I ' g ,.L.Q r.B.=.B.E.E.s.i.s.}.L.r.r.1.-.p...} ..=...=.Y.&XE.P.L.V.Y.c.c.L.v.P.M.B.E.c.-.k.M.p.k.v.v.s.i.i.p.v.c.c.c.c.k.s.s.k.k.k.s.s.s.s.s.k.l.k.s.s.s.s.p.s.p.p.p.i.i.p.s.p.p.p.p.s.s.p.p.t.u.r.r.0.t.c.p.K h :.k.B ...Xs.,.1.2.",
"l E A I ' ^ M.B.B.,.m g Q v.L.c.p.r.M.v.B.Y.F V 1.v.M.Y.c.r.r.m V c.Y.B.p.s.v.c.p.r.i.M.L.-.-.;X3X&XL.Q V r..XM.i...L.Y.B.B.B.B.B.L.L.B.M.B.G.L.L.P.n.n.W.E.u.1.M.n.r.l.W.~.~.].c.U.s.B.n.'.'..X'.~.B.1.B.p.A 1.<X[.{ :.~.&X.X4XE.B.c.r.r.n.n.B.L.L.U.l...=.X.K Q s.l.=.p.n.d.G.n.m i / '.L.n.U.Y.M.i.r.c.L.E..X'.Y.B.L.L.v.c.v.=.m.E.).}.B.D.s.;.y.' A u z V I ;.D.h.s.'.'.h.s..X{.}.Y.s.d.B.c.s.c.c.c.m.B.B.D.B.m.m.B.D.B.n.c.c.B.D.D.B.n.n.n.,.z 3 g / =...@.r.f.U.D.U.0.u.B.n.d.=.m z p.i.w.1.1.1.n.J.n.B.L.r.L.$Xh.~ Z g.B.w.n.B.m.m.c.c.c.m.n.h.h.c.h.h.h.D.B.N.c.d.h.m.J.m.c.n.m.c.v.c.y.p.p.' i U B.c.v.Y.p.}.E.c.=.I M.).J.s.h.s.B.c.r.d.c.n.s.c.p.s.h.i.M.M.B.B.Y.A m A >.;X;X&X}.'.c.V c..X}.E.1.} i ~ '.E.V } M.} m m m Q Y.c.B.Y.s.s.M.E.E.s.r.M.v.B.n.y.:.0.0.n.s.-.G.U.G.E.) u q Q c.!.|.B 7 u U B.s.'.,XP.s.p.1.s.c.'.L...=.M.E.v..X.Xv.i.c.-.c.s.i.s.p.s.v.s.s.s.p.p.s.s.p.p.s.p.v.1...v.M.s.-.i.v.M.,.Q Q i.L...i i g r.1.g M.i...}...g A p.L.c.' i.p.c.c.M.Y.i.=...Q A r.&XL.M.B.B.v.=.} ..I s.=.v.'.c.i.p.r.r.s.v.v.s.r.t.c.s.s.s.c.c.s.i.i.r.r.r.0.2.0.r.t.s.s.s.u.p.s.s.p.p.p.p.p.t.p.s.s.p.p.p.p.p.p.t.i.r.t.0.r.r.p.k.1.B m :.V.r.l.c.A u =.i.",
",.1.-...B.L..XL.s.Q 7 l r.'.r.Q c.E.B.Y.E.Y.r.-.B.Y.J.c.L.&XB.U ..}.M.M..Xp...v.B.}.|.}..Xc.r.3X&Xs.Q A ,..X;Xc.r.,.Y.L.B.C.L.B.B.B.B.B.M.D.L.L.G.G.B.G.~.'.B.0.1.B.P.E.].{.L.B.U.P.c.n.G.G.L.G.+X'.E.E.n.=.8.[.+Xl.@.L..X;X-X'.L.c.s.r.p.n.n.B.L.G.B.p.=.r.@.Y [.3X#X'.~.G.L.P.s.c K ..U.=.;.P.c.|.|.L.E.&X,X,X3X}.c.v.M.s.s.i.r.U.E.Y.).J.L.).d.B.c.r.} =.n.B.E.1.3 =.).1.>.>.w.m.E.L.B.Y.W.J.w.h.c.c.B.D.m.m.B.m.c.m.B.B.n.c.B.B.B.B.n.c.n.B./ u S z z m 3 ;.@.=.U.d.1.[ D.L.B.y.i.X.s g Y B..XW.,X,Xm.1.J..X'.;X/.i.} ` C.h.B.c.c.m.B.h.s.c.m.c.h.c.c.h.c.c.c.d.B.B.m.B.c.s.m.c.m.B.n.n.h.w.r.' m g A c.c.B.B.v.E.Q I v.M.L.E.I.i.c.s.r.8.i.c.d.s.i.B.c.d.i.r.s.p.c.s.B...=.v.'.3X'.E.s.c.r.7 F r.=.1.c.} * -.v.m A ,.C.p.=.A A =.,XB.'.}.Y.'.E.,.-.M.L.L.U.u.c.y.@.:.m 0.U.s.E.G...u g c ' ..L.B.p.I 8 B E.,XL.L.c.E h I -.v.M.E.E...} 1.t.M.M.B.-.v.v.=.s.c.p.k.s.c.v.s.s.k.s.s.c.c.s.p.s.k.p.-.2.E.P.M.s.p.p.r.d.c.E.;XL.Q 1.,...p.v.1.1...p.;Xp.I =.B.i.' I r.p.v.i.L.L.p.L.~.B.c.L.|.L.E.L.c.r.{ ..-.U i.U v.Y.c.B.1.r.c.k.k.s.p.t.s.c.p.p.p.s.s.p.i.r.r.r.0.1.1.0.t.s.k.k.s.p.t.p.p.r.r.p.s.s.s.s.p.p.p.p.t.t.t.t.i.i.p.s.r.s.p.p.u.=.m h ! r.s.k.1.H ' T.|.",
"s.A.E.c.E.'.'.M.x.Q y U E.L.m } &XY.>.c.L.'.|./.}.c.M.p.Y.L.I ' &X;XL.B.|.c.,.E.&XE.|.'.v.v.M.c.Y.=.A ' E.,XE.B.s.s.Y.L.Y.L.E.C.B.B.B.M.M.L.L.L.n.c.M.B.n.D.d...c { l.d.L..XU.n.c.s.r.0.l.d.U.L.L.B.n.L.D.E.-X].E.~.'.,X~..X3X{.D.l.c.c.c.n.c.G.D.n.c.l.p.n.=.' ].,X'.~.'.L.'.3Xn...1.;.c...@.P.E.;X|.B.'.;X'.v.p.s.c.s.c.B.v.s.E.E.B.h.m.D.c.Y.}.'.U.B.J.J.Y.v.c.s.,.J.=.b } V { c.c.>.1.d.b.B.s.B.B.m.B.B.n.c.D.n.c.b.B.N.n.c.D.B.n.c.h.c.B.J.1.S R { ,.;.' n.l.T T z c ) L.y.d.B.{.r.s I r.'.U.1.L.y.g g m.E.r.1.Q ~ G R y.C.J.c.s.c.B.h.s.n.n.c.c.n.n.c.m.B.U.c.Y.U.B.Y.D.s.c.h.n.B.m.m.d.8.' g g i Q M.E.|.r.p.-.g } v.M.v.).E.c.J.s.1.r.B.h.s.s.y.B.m.c.h.s.c.s.B.s.L.M.J.E.C.|.v.i.} s.4.g = @ O * g $ 7 c.p.g ,...c.v.x.c...} s.r.}.'.M.c.-.s.E.}.E.M.d.n.@.c c U.c.n.d.u.B u q S G.L.-X.Xs.1.U A V B.OXL.i.,.A u g V ,.i.r.,.1...c.'.'.V.=.,.2.v.c.s.s.v.s.c.s.c.v.k.k.c.s.k.v.v.c.k.c.s.6.r.c.E.v.p.v.s.s.p.r.s.L.p.s 7 -.E.E.c.i.M.M.i.-.Q ..,.s.v.v.B.v.i.p.s.8.Y.s.i.E.;XE.E.E.E.L.Y.v.p.p.p.B.'.L.' } s.B.k.1.,.V.M.c.s.p.p.t.s.k.s.s.p.s.s.s.p.p.s.s.p.t.p.s.s.k.l.l.k.p.i.p.t.r.i.s.c.l.s.s.p.i.s.p.t.i.i.t.t.t.s.l.s.s.p.p.k.1.E K ' 0.p.r.:...!.;X.X",
"..p.&X3X;XL.p.A.i.m 7 P s.p.g 1.r.A Q c.s.L.}.3X;XC.M.L.C.m.s.r.B.M.&X'.M.Y.Y.v.c.-.} I g i V ..i.Y.E./.;X}.s.c.v.m.B.C.E.B.Y.B.B.B.B.M.M.B.D.B.B.M.Y.L.c.n.s.{ I 1.'.D.M.'.G.n.n.s.1.r.s.c.L.L.L.s.d.B.B.B.U.'.#X-XP..X].{.].L.n.s.n.G.B.n.c.L.B.B.D.D.n.U.n.'.3X{.L.~.#X&X].B.}.U.].P.'.L.c.'.;X}.B.E.#XE.p.c.c.i.B.c.s.v.p.Y.R.N.v.m.c.J.s.M.Y.}.[.L.W.B.D.c.c.E.;X-Xs.%.c.B.L.B.c.c.h.h.B.Y.U.).Y.B.B.B.B.m.D.b.h.c.m.m.n.n.c.c.n.B.B.B.B.D.E.=.u 1.+X&X4X{.y.0.9.Y K ;.l.Q 8.+X.X{ { n.s.r...A s...r Q Y./ } Q b U R } %.h.h.v.h.s.c.n.c.n.b.c.n.M.m.m.D.U.1.Q { } } m.).).n.c.m.B.n.c.i.;.I g g 7 ..E.E.c.' p.c.s.E.L.}.|.'.D.1.d.r.i.c.s.s.d.c.s.D.m.D.L.c.c.s.B.s.v.L.Y.1...-.m g 7 -.r.7 I U 8 * Q Q $.3X} U p.s.s.E.}.k.c.E.E.M.'.s...V I }.,XE.L.s.s.) m u I .XG.0.l.0.@.S N y.E.#XY.'..XY.1...M..Xv.-...i.V i v.}.L.r.i.' A A c.|.E.-.i.s.M.1.p.c.i.v.s.k.s.k.v.s.k.p.i.s.v.v.k.s.c.t.k.B.6.r.r.i.c.c.r.p.,.c.p.^ 7 u V s.M.r.s.p.p.c.c...g Q r.M.,XE...' ,.c.L.v.L.L.v.Y.c.v.s.c.M.M.c.i.p.1...] U U k.] r.M.,.c.t.s.s.s.s.p.t.s.c.v.k.s.k.c.c.c.c.v.c.l.k.k.s.s.s.l.c.k.p.p.p.p.p.s.c.c.s.p.p.s.p.s.p.i.i.i.p.p.p.u.k.s.s.t.p.c.t.u...@.0.t.l.G.'.;XL.r.",
"r.E.].~.v.P.L.s.A @ A ..i...8 -.B.-.v.|.c.r.E..XE.r.1.}.Y.M.B.B.E.1.p.'.c.B.L.p.} i g m g g B.r.c.L..X'./.L.a.B.N.C.C.m.N.C.C.N.m.B.C.m.m.B.C.B.B.N.m.B.B.s.-.' } '..X~.'.E.B.d.l.B.l.s.d.U.c.B.c.B.p.D.c.s.[..X.X'.~..X.X3X;XQ ..p.M.L.c.B.M.B.B.L.B.v.B.i.Y.;X'.v.c.M.Y.L.r.-.s.B.c.v..X,X-X,XE.'.E.E.E.L.s.v.M.s.c.B.M.v.B.L.D.c.c.L.L.i.;.w.h.+XB.1.).i.y...s.3X-X'..XE.~.&X.X&X#X<X-Xs.-.p.s.E.&XB.c.v.Y.s.M.p.,.p.M.M.B.n.n.n.n.c.n.n.c.s.B...' B.'.&Xn.Q 8..X=.g n.<XB.=.y.,XE.{ ..U.v.;.X.X.n.I M y.L.'.+Xc.E.m.,.8.B.s.i.n.c.c.B.B.h.c.h.c.m.B.c.d.D.'.A # + 7 7 * 7 Q R V / Q  ...b I c m M A ..c.'.c.=.r.n.n.1.s.8.=.n.s.8.c.r.s.c.c.b.n.c.n.c.c.B.c.c.m.v.n.D.m.r.;.` u & ` 8.` s.} g =.M...m i.1.B..X' I E.c.Q v.1.i s.Y.B.L.B.} Q ' -.;XY.'.M.-.c.A z m ' c.K p.r.l.B.r.D.{.&XL.n.E.E.s.P.B.~.{...m Q ' ) G.W.' { 1.=.A 7 ' E.E.M.-.i.s.i.s.c.r.s.c.c.s.s.s.c.c.c.c.s.c.k.c.v.t.i.s.x.p.i.x.x.c.Y.c.s.x.x.p.i.>.I u U i.c.Y.@.Q r.c.v.s.V Q V B.M.m Q Q 1.p..XE.c.p.1.i.p.-.c.c.s.p.k.p.@.m u A A l.v.O.=.! A t.u.c.k.k.l.k.s.p.s.r.t.p.s.k.k.s.s.c.c.s.t.r.s.s.s.u.c.c.p.r.s.s.r.s.p.i.t.p.p.i.r.p.r.r.r.s.c.c.k.k.c.s.p.t.s.k.c.i.r.i.v.E..X.X|.E.A.c.",
"K -.@.u A G.s.l.Q Q A U v.,.g s.L.P.L...Q v.}.L.O.g A y.v.s.B.M.Q Q ..B.E.E.M.M.A u m g Q M.1.A h.Y.R.E.E.B.h.h.C.m.m.m.B.C.N.N.N.C.C.B.m.B.J.C.I.B.m.B.D.y.Q p { B.L.P.'.L.c.0.y.l.v.B.B.L.p.s.y.i.s.B.n.G.#X-Xr.r.~.].G.y.Y g ,.M.Y.Y.c.B.B.L.E.M.B.Y.c...c.E.B.c.v.c.s.p.1.r.c.M.p.p.Y.E.L.E.L.}.E.E.'.B.s.E.B.M.M.v.M.E.Y.v.m.B.B.B.B.h.i.i.B.n.X.Q h.i.m.i.E.&X].E.'.E.c.n.p.~.P.D.p.{ m 2 $ 8 ' L.E.Y.v.v.v.M.c.B.M.c.B.L.B.M.c.c.n.B.c.i.s.=.Y D.'.d.8.K %.s.M 9 n.d.M s.-X{.1.S { +X3XE.X.Q I p { U.&X4X{.c.E.$X-X{..X'.c.B.m.c.m.c.i.i.h.m.B.m.h.d.h.c.p . s m z 1 O $ 2 = g s 1 G %.G u u g V { r.y.M ' c.r.D.;.M G y.W.'.y.;.U.y.c.n.c.c.B.D.B.n.c.d.c.c.c.h.d.s.i.w.V $ I Y.L.m.'...i Q J.s.=.B.1.c.|.r.A s.p.1.i.I i s.=.U U Q 1.M.}.,X.XE.M.,.' A i Q p.c.v.1.l.P.'.#X&X.XE.{.L.'.E.E.B.L.'..Xi.9 u $ c 1.s.) 7 A =.m u Q B..XE.c.,.i.s.p.d.c.i.c.c.s.p.p.s.v.v.s.c.s.v.c.c.v.i.i.r.x.p.r.s.p.x.B.s.g.x.x.x.c.s.,.Q =.i.p.v.{ A ..B.r.s.Y.r.Q } g 4 A c.v.L.r.Q Q U U ..,.-.i.s.M.l.:...B A m i 1.].#XB.r.' { B.c.k.s.s.k.s.t.t.p.u.u.p.p.s.p.p.p.k.k.s.t.t.s.l.l.l.c.s.r.r.s.k.s.p.p.t.p.s.s.p.i.i.t.p.k.c.c.s.s.i.s.s.s.p.p.p.p.t.p.c.P.'.'.E.E.Y.B.c.",
"u @.0.c V B.v.B.M.T...=.Y...P `.|.,X|.1.i.|.E.s.} i A ;.'..X,X|.' ..1.M.B.B.c.v.A i 4 Q p.1.Q ..B.}././.Y.g.m.c.C.h.g.m.C.N.m.m.C.C.C.N.m.B.C.J.m.v.c.m.n.p.=./ =.p.l.L.'.P.G.n.U.B.M.D.D.L.p.0.8.:.c.B.n.s.1.1.{ :.B.n.s.0.X.y.'.E.M.M.c.M.M.B.M.c.B.B.p.i.E.Y.M.s.c.c.c.s.i.p.d.c.i.p.M.M.c.M.L.B.Y.M.c.L.E.m.Y.L.Y.Y.L.B.B.B.n.D.B.B.B.m.c.m.L.y.%.} c.E.$X'.#X'.c.c.s.' S C K @.[ r.@.Q S a 8 X = ,.B.L.c.B.s.v.v.B.M.s.v.M.D.B.c.c.B.B.c.y.U.;.u M Q m Q X.d.X.A f ' I 3 =.-X'.=.u m Q ' / g I S S B..X.X'.U.L.B.L.{.E.'.{.n.B.c.c.B.B.h.s.h.m.B.c.h.c.s.r.r = ' g 3 =.=.r b u g s 7 >.J.M p p I =.c.n.n./ y.B.r.U.c.n.&X5X{.n.D.n.D.1.B.v.d.s.B.n.n.B.y.s.v.h.c.d.r.s.c.h.;.1.;X.Xv.E.{.r.A U i...r.}.,.=.v.1.Q E.L.s.c.1.i.d.r.-.1.,.p.s.v.L.r.E.i.Q m 7 c K ..r.L.#Xs.c.Q :.Y.p.;.W.E.E.n.B.G.c.U.G...m A -.n.n.B.p.' 1.p...=.c.L.E.!.M.i.i.s.i.s.c.i.s.v.k.p.p.k.v.k.i.c.s.v.c.c.v.t.t.x.C.s.g.c.c.Z.M.>.i.s.s.x.c.x.s.i.p.r.p.s...m ' B.B.s.s.p.Y.c...Q g r.Y.}.L.' ,.} U A A r.E.L.i...E U g i g H E.3Xt.@.E.'.k.s.l.k.s.k.k.u.r.r.p.l.l.s.s.s.u.s.s.l.c.l.s.k.c.n.B.c.k.t.r.t.s.s.s.t.p.s.s.s.s.s.p.i.p.s.c.k.s.p.t.r.p.l.s.p.p.p.p.p.s.M.T.E.B.v.V.B.c.s.",
"K k.G.v.{ p.'.L.E.c.U 1.}.t.r..X&X|..XY.E.|.v.p.Q B I =.&X3XL.=.c.B..X.XB.B.B.i.i g g Q s.' =.Y..XoXE.J.m.g.m.m.N.m.h.m.B.N.m.m.B.B.N.N.m.m.B.B.B.B.B.B.B.B.n.n.1.0.p.c.B.n.B.D.D.B.B.c.c.G.v.c.s.y.B.c.n...7 m r.B.n.B.d.r.U.'.;XY.s.M.L.M.v.L.M.B.M.c.i.v.E.c.M.s.c.v.M.B.s.s.c.c.p.c.M.v.c.B.L.M.B.1.Q =.E.|.}.E.M.v.B.B.B.B.B.c.c.D.B.a.i.B.Y.m.c.y.B.E.c.r.n.p.' :...i m g z S C r.' V C K g g m U -.E.Y.i.v.M.c.B.L.B.B.M.B.n.n.c.N.B.n.s.M.B.;.3 m =.Y m Q ..M S U.s.g @.'.U.s.S g u S / z { r.d..X+X'.'.U.n.w.d.c.r.d.U.h.c.h.h.m.B.n.c.n.m.v.h.c.n.n.c.V * ,.X.b R U z g m m A G Q R u z p { U.+XL.n.;.y.X.1.8.d.U.d.Y ' 8.D.d.E.U.c.E.U.B.E.n.c.L.d.B.m.s.c.c.r.h.J.m.w.h.{.s.h.{.D...* Q L.=.M.|.-...Y.i.-.,XE.i.M.E.'.-.}.}.1.V 7 i g u U v.v.v.Q Q Q Q ..p.G.G.i u ..-.L.B.n.&X{.c.p.s.v.r.s.0.:.1.B.G.c.G.&XL.=.p.B.v.s.c.p.s.L.v.c.i.p.i.d.v.p.s.c.s.s.p.s.c.s.t.s.p.c.c.c.v.s.s.x.m.6.s.m.c.B.s...r.p.i.g.s.r.r.s.s.1.c.c.i.A ' }.v.p...-.} 1.B.r...s.i...s.v.Y.i.M.E.M.'.E.p.=...U g u q U V.#Xs.@.v.&X~.l.r.p.c.l.l.k.u.t.p.k.c.c.l.l.l.l.l.l.l.l.l.s.s.c.v.v.k.s.p.u.s.p.t.p.p.s.k.k.s.s.s.s.k.s.s.p.p.p.s.s.s.k.l.p.i.p.s.c.k.c.M.M.v.k.c.M.B.c.r.",
"=.k.s.c.=.0.P.P.T.B.i.B.M.U E B.}.c.1.-.c.}.c.Q A i.'.|.E.1.u u ..v.&X|.Y.Y.L.r.u u ' =.v.v.c.;X}.Y.C.h.c.J.m.c.c.B.B.m.m.N.B.m.B.B.N.N.m.m.m.N.L.B.n.N.D.B.y.;.c.c.n.n.n.s.1.=.=.s.L.d.s.n.n.c.n.D.L.s.D.Q u 8.L.L.B.G.8...n.E.B.v.B.E.E.L.B.L.M.B.s.s.s.p.c.v.v.d.v.c.c.v.p.c.M.v.v.M.M.v.c.M.M.B.1.' -.I A X.I c.'.Y.G.Y.L.v.M.c.h.M.m.r.1.h.D.c.s.i.B.h.A A A c u g A A c i T 1.1.n./ g u u V I i.E.E.s.p.s.M.v.s.M.L.B.L.M.d.c.n.b.n.B.n.c.n.D.r.g ` E.8./ A Y u X.3XW.=.y.d.Y =.=.Y ..D.X.g Q E.&X3X+XL.L.c.Q / D.n./ ' n.c.c.h.h.h.c.c.s.m.c.c.n.b.c.c.B.i.g m A =./ 2 s V g m ` =.G 2 u m / d.D.8.A =.n.d...U M c.c.{ g M ' A 9 X.E..XU.s.s.n.1.8.n.s.D.h.r.s.h.i.c.J.h.%.' >.;.i.n.c.=.U p..XL.,XE.Q ,.B.p.Q r.E.Y.}..Xp.B..XI u ,.i.Q V Q Y.E.'.,XY.E.n.B.B.B.'..Xn.W.'.n.U.,X,XW.n.r.l.s.s.r.y.8.r.{ n.r.p.P.l.A c ' M.c.s.B.c.....B.M.i.i.p.c.M.s.p.p.s.s.s.s.c.c.c.s.t.c.s.k.c.s.s.p.x.p.c.c.s.M.p.4.x.c.s.c.s.6.6.s.s.,.c.c.c.Q ' Q u -.c.c...B.|.1.-.M.p.r.g A ..u -.'.E.E.p.=.2...I g B @.B.T.t.r.L.<X].2.:.r.p.l.s.s.p.t.t.s.l.c.l.l.c.l.k.s.s.r.t.r.0.r.t.u.p.u.u.s.s.p.0.r.p.s.s.s.p.p.p.p.s.v.c.p.p.s.c.c.c.s.c.s.i.r.p.l.v.l.v.v.p.p.c.M.v.M.r.O.",
"U @.+.@.1.:.) p.s.....Y.'.O.| '.v.s.1.1.v.E.c.' i.s.E.,X+XB.U U p.&X|.i.p.r.....g Q ..M.B.E.Y.P.s.g.E.L.m.L.m.m.c.J.J.N.m.B.C.m.B.N.N.N.m.c.m.m.m.c.c.n.n.d.r.;.D.G.Y.P.W.B.{ A m Q { T 1.B.c.p.l.U.G.s.c.C Y '.E.n.P.c.:.p.s.s...-.1.-.r.r.1...r.L.v.v.c.c.v.L.L.n.M.c.n.B.c.c.B.M.M.B.B.M.M.B.c.p.=.Q v.,.z = O I M.E.E.Y.B.E.c.B.B.B.D.B.m.D.B.r...y.B.r.p b g q m p ..n.I T B.'.~.E.X.M p m ..v.&XE.B.c.B.i.c.v.s.c.c.c.M.v.s.c.n.b.n.n.n.n.D.B.' u S L.L.c.y.s.;.U.|.n.B.B.L.X.8.m.D.{.+X1.' ;.B.r.n.W.J.s.=.A R 8./ u z d.n.c.n.n.h.c.c.s.c.h.c.B.m.s.i.s...,.i.' y.B.1.1.=.} =.8.d.c...G m r.U.r.Y g 1..Xy.L.B.1.y...n.r.p A z = . o d.8.g Y ' S / 8.8.d.s.r.s.h.h.m.B.s.8.c.i.%.y.r.s.D.&Xv.v.E.,X1.A p.L.M.A I E.E.M.B.p.v...A -.v.M.,.-.c..X'.Y.v.r.-.d.'.].L.[.#XW.G.l.r.r.B.P.r.8.1.s.n.c.r.1.:.@.p @.3X3Xl.K 4 c { v.v.B.B.s...} Y.M.1.r.p.c.v.p.i.k.c.c.k.s.s.k.k.s.p.c.s.s.c.p.s.p.M.L.x.1.s.B.B.c.M.M.x.x.c.s.s.s.c.1.p.p.v.Q U ..,.B.E.}..X'.1.A '.M.=.c.,.Q u 7 ,.E.M.L.~.B.v.2.2.s.k.].*Xs.l..X.X{.n.:.=.1.u.s.t.r.r.t.r.p.k.k.s.k.s.s.p.r.r.r.t.r.r.r.t.p.t.p.s.s.p.0.0.t.s.s.p.i.i.i.i.t.p.c.s.p.s.c.c.l.p.p.p.p.t.t.p.s.s.i.s.s.1.r.v.M.s.x.1.| ",
"0 K E 1.s.Q 2 I ! V ' Y.B.1.B.|.-.} V ,.'.c.Q i -.U p.B.1.v.E.'.L.'.r.g g 7 = 8 g 1.' M.c.M.'.i.i.c.J.h.>.w.m.L.m.B.C.C.B.B.B.B.N.m.N.B.m.c.h.c.n.B.D.D.n.c.c.n.p.s.n.B.E.c.I m g C c u 1.G.n.l.s.G.l.s.1.7 ) s.p.n.L.0.:.s.;.' I A m i V V m 8 ..c.M.B.s.L.B.s.M.v.M.M.L.U.M.v.M.v.M.B.M.L.L.B.p.r.p.=.r.r.i.U g i i Q r.r.i.L.m.B.B.D.U.U.U.E.U.s.;.m.c.w.s 2 4 9 m S p.p.A 0.,X.X{.'.p.I g @.L.L.L.n.p.s.B.B.M.B.v.M.M.v.B.M.h.c.b.c.c.n.c.h.s.W.c.I g E.L.=.L.3X&X.X.Xp.;.s.B.B.s.c.L.D.r.1.{ M.L.r.L.W.n.X.=.{ ` M 9 u g d.c.c.B.B.h.c.m.h.s.d.c.m.b.s.r.8.s.i.w.Y / r.c.w.;.c.J.c.r.v.B.../ y.y.1.L.D.n.s.S c.n.I o 9 D.L...X.S g z $ 3 $ 2 U ' A / 8.s.c.d.d.d.h.v.m.n.s.r.E.c.} n.D.d.m.Y...,.}.L.U ..L.i...i I p.M.M.L.y.p.' =.s.Y.&X|.G.Y.E.'.|.i.U u ) l.B.@.X.B.n.r.;.y.;.Y r.n.c.l.p.n.B.l.y.1.A 9 / ].=.u V z C X.M.p.i.' ..v.c.L.v.1.i.l.s.s.p.p.M.M.v.c.s.k.s.s.c.s.c.s.s.c.s.c.s.v.M.U g -.v.B.s.x.c.x.s.c.c.x.s.c.r.i.p.M.} A '.&XB.L.Y.L.1.Q } E.} -.i.M.v.v.1.}.;XL.c.L.r...r.p.l.:.r.s.1.P.L.XXE.0.=.1.p.s.s.t.r.p.s.s.p.p.s.s.u.p.p.t.t.t.s.s.s.p.t.p.t.r.r.s.s.p.r.p.s.s.p.t.i.i.t.p.p.p.p.t.p.s.k.s.p.i.i.i.t.i.p.s.p.i.2.i.r.1.r.c.c.t.c.i.,.",
"C I C V.L.C 7 g U g I ,.Q l.,XU A i.r.E.E.A A 1.i.Q L.,.2 A P.Y.Q U V q m g g i A g g s.E.r.s.Y..XJ. .V s I m.J.B.m.m.J.L.B.N.B.m.m.m.N.m.h.s.h.B.m.c.c.c.d.8.=.1.r.s.l.G.y.K Q l.G.l.X.G.U.c.D.L.G.0.r.{ < ..) ' r.' A C c ' r.Q C A V A u u u V A } M.v.Y.E.c.=.r.L.L.B.M.c.B.M.M.M.M.v.B.B.c.v.1.p.r.p.U U Q I A 7 7 i u V -.L.c.d.B.J.h.d.J.m.B.D..XB.m.Q 2 g Y C 1.n.p 7 c.].P.{.'.E.0.' B.B.E.}.&XU.L.s.p.M.M.s.c.M.M.B.c.n.n.c.c.c.n.c.s.D.s.n...p L.M.'.4X|.E.L.8.Y z p I X.8.c.1.Q 9 7 / n.c.L.,XB.y.y.=.` M 7 m Q i r.c.h.B.M.s.s.h.y.i.h.c.h.c.c.s.1.w.L.L.r.B.B.m.d.s.n.r.B.L.i.h.;.B.U.y.r.,X,XL.y.8.c.' 7 g y.=.A .XL.U.8.z / z $ g 1.1./ ..r.d.s.s.c.h.s.c.v.c.h.m.c.J.1.=.y.m.L.M.Q =.Y.,.Q c.p.v.U 7 I g =.M.i.p.1.Y.,X'.,X,Xv...D..XE.v...g g K ' ..S Q E.s.X.:.:.Q 2 =.U.l.n.d.c.G.P.E.c.9 i y.d.g m p.n.E.+XY.s.M.U V v.E.|.v.r.l.M.c.s.s.c.v.c.k.s.c.v.M.v.c.s.c.s.s.c.k.v.M.c.r.= X ..v.M.1.r.x.c.p.s.v.s.i.s.i.i.c.L...V i.c.v.B...Q -.Q -.Q A i.v.p.Y.v.'.M.1.,.1.s.-.r.c.r.@.@.=.p.G.k.V.'.c.2.r.r.p.p.l.s.s.l.c.l.s.t.k.s.u.p.p.s.s.l.s.s.s.r.0.2.1.:.2.u.k.s.s.c.l.t.s.p.i.p.s.c.k.s.p.p.s.s.s.p.p.p.p.t.i.r.t.s.s.i.i.i.r.1.r.s.k.s.1.,.,.",
"1.=.s.,X' A A ' r.U t.c.s.l.r.K i..XY.-.7 V s.Y.L.Y.i.} M 7 ' Q 2 g m U =.Q m I V A v.;XE.c.L..X'...r g i g V } L.{.h.n.m.J.J.m.g.m.J.h.m.s.i.s.h.L.n.n...Y ' =.s.d.r.n.n.Y A B.-XE.L.[.P.L.r.1.p.p.p.@.7 4 u i c C i g g z / ' A m V A g 7 Q A i m A v..XL.|.p.V m ..c.L.E.Y.s.L.v.L.v.c.L.v.p.s.B.L.B.s.' m V ' A c I m g g K B.m.m.c.c.D.L.M.J.D.L.'.B.).r.>.L...=.n.L.=.K p.L.c.0.D.L.E.U.d...c.3X;X.XE.p.p.c.v.M.B.B.B.v.s.c.c.c.c.n.B.c.d.n.c.B.d.c M ) W.W.B.L.8.:.I u M / 8.D.{.U.y.' 1.d.G.I 1.,Xn...X.g p q 9 Q m M d.%.1.L.d.p.Y.c.i.s.s.c.c.B.B...g r.D.d...c..Xm.s.L.s.E.B.i.s.L.m.L.d.1.L.-XU.' 8.E.U.{ p ' =.p { +XW.s.X.T =.m S G y.a.y.X.S C p.c.d.c.m.c.i.s.B.B.B.Y.=...m.B.L.v...r.c.....c.s...u g m m m ..s.v.s.|..X;X|.'.U g E.|.M.s.s.,.7 4 4 c 4 1.E.:.0.:.C * 8 ' L.E.c.G.E.].W.E.B.4 { s.K S l.U.B.E.P.'.Y.B.p.,.M.&X;XM.c.s.c.M.v.s.p.t.p.p.i.t.s.c.c.s.s.p.p.p.p.s.s.c.-.7 2 V 2.p.1.1.p.k.k.s.M.C ..v.B.s.1.s.v.,.Q } L.=.Q 7 V v.p.,.p.B.L.E.c.p...r.c.i.k.L.c.p.r.} U 1.c.s.G.P.l.V.'.L.p.1.2.s.s.r.t.s.l.s.t.t.s.c.l.s.s.s.s.p.p.0.s.s.2.:.2.0.1.r.s.k.t.r.s.k.s.s.s.p.p.s.s.s.s.k.s.t.t.p.s.p.p.p.p.s.s.i.s.v.r.s.r.t...s.c.s.,.1.r.p.",
"I ..B.c.U m s.Y.,X&X&X'.s.:.n.P.Y.Q Q i 8 Q m.L.B.L.v.-.' ..v.} 8 V U ' p.L.p.} } M.'.v.p.Y.&X;Xn.m.i.{ / ' Q m w.=.d.{.B.M.L.i.c.m.m.a.c.C.m.h.D.r.>.' g p M { @.p.r.1...C U D.'.L.G.E.P.E.r.....I I Q 7 u Q { K Y I M m 7 @.c.} A g 7 I c.'.=.V s.' ..'.E.}.i.= i m } i.-.r.M.L.M.v.B.M.M.B.v.c.......} ,.i.1.B.r.=.r.=.m m ,.L.B.B.J.B.n.v.c.c.n.B.E.m.E.1...@.T c.G.G.c.) d.~.8.c.U.B.s...n.E.}.,XE.M.M.c.c.v.M.M.v.M.M.v.s.c.c.n.n.M.B.B.n.d.B.n.r.=.8.l.{.B.s.y.1.=.S z ' s.c.Y.-XE.1.X.J.' M S  X-X{ m 7 g 7 Y y.1.;.1.y.1.r.B.L.m.c.c.c.c.h.n.B.c.1.Q A 1.>./ b ' s.d.I.B.v.B.y.s.c.c.r.y.=.E.,Xc.' g / n.L.r.g { U.;.).'.y.Q { n.1.{ W.X.Q D.L.{ m A y.).B.c.n.m.c.h.b.n.h.L.w.=.s.y.c.s.-.y.n.i.s.M.p.,.A A A g } i.i...p.L.'.3XY.M.1.' Y.E.Y.Y.E.E.1./ m M 2 ..G.) =.=.} Q C i A ;.|..X3Xs.l.s.2 g ..A p.B.G.P.L.L.P.Y.L.E.E.Y..X3X;Xc.s.i.i.p.s.p.p.i.p.s.p.s.s.s.p.c.k.s.s.s.s.k.c.s.p.Q g 7 7 m Q ' 1.i.p.2.:.A } c.s.p.r.c.s.s.Q M.,.g * A c.M.B.M.1.=.Q V A 1.p.1.Y.'.}.B.,.,.} ' ..-.2.n.L.k.p.B.L.s.:.1.r.s.r.t.p.s.l.k.s.s.k.v.l.u.t.t.p.u.u.k.c.k.1.:.r.s.p.s.l.k.t.r.p.s.p.0.r.i.p.s.k.s.p.s.p.r.2.r.t.p.p.r.s.0.r.s.1.,.c.v.2.i.=.c.c.c.r.p.s.c.",
"E -.k.B g I }..X.X].P.E.c.s.k.' A g q i Q Q ,.v.L.v.E.v.=.r.E.L.=.Q ' p.L.L.Y.E.L.E...I i.E.E.1.8.E.<X}.$X{.}.E.i.2 7 y.}.Y.J.E.N.m.J./.Y.i.y.J...7 g g m M p z Q ' T A A g m ' :.B..XP.1.r.p.c.D.:.C g i r.-XW.B.G.l.0.:...s.l.A g A -.p.=.Q 7 1.M.U V Q g m = $ V i g I U ..Q v.M.s.B.B.M.L.p.Q i 7 7 i g U v.L.M.s.i.i.} =.Y.B.h.d.B.L.D.B.D.c.m.m.J.h.D.=.R S Y c.G.B.Y.G.#XP.p.Q 8.l.X.M 1.L.}.|.L.i.M.B.i.c.v.v.v.v.M.v.s.d.c.n.c.c.c.n.n.w.n.h.d.D.s.;...{ u.r.1.' m m =.L..XU.c.{ m I E.U.d.U.3Xr.9 u > A m X.s.{ n.E.d.m.c.w.r.i.c.J.d.B.c.c.D.c.` V R ;.` V 7 3 s Q h.h.m.>./ w.c.B.c.L.r.E.D./ Y g S n.L.Q M / X.y.,Xn.U { 1...p.E.s.' M L.+XU.c.n.D.L.c.i.d.n.b.c.c.c.c.D.} ` m.L.Y.v.r.i.B.B.v.c.s.B.i.y.c.i.}.v.A g A 1.E.L.' p.v.s.Y.|.}.B.c.r...=.E.r.B.].d.@.T r.0.:.I 4 i u ' Q ;.9 $ i = A K r.-X<X.X.X~.E.{.E.L.Y.E.|.,X&XM.-.1.i.p.s.c.h.p.c.c.c.c.c.v.c.s.c.c.c.c.c.c.v.c.c.v.1.] ' H ..s...0.i.p.p.i.s.B.p.1.i.1.c.s.p.g A ,.p.U r.L...' ..1.B.c.Q ..1...Y.,X'.r.A g } 1.s.0.r.c.P.n.t.L.G.G.r.=.1.t.k.r.p.r.p.s.s.u.p.s.l.s.p.r.p.s.s.s.s.l.k.r.r.p.s.t.l.l.s.t.t.s.s.u.i.i.t.p.s.s.t.r.p.i.r.r.r.t.p.p.2.i.i.p.s.r.r.B.O...v.p.s.r.s.r.1.r.i.",
"B..XY.| ] v.,X&X~.v.n.G.} 1.p.m ..,.' Q g ..B.n.....D.'.E.E.L.v.'.v.v.E.E.p.s.'.L.i.u g =.i.s...z ;.Y.Y.E.L.W.}.}.r $ S E..XB.c.B.m.J.J.c.' s.;XI 2 m g 9 9 p M g g i i u g ) s.P.~.E.1.Y { r.B.n.n.=.{ 1.~.]...=.P.L..XU.U.=.p 7 -.c.Y.B...Q g ..s.M.B.i.7 = * g A Q Q V m ' U s.M.M.Y.E.Y.M...} U g g A u g ' ..,.M.Y..X'.}.'.D.c.d.n.J.D.c.c.B.m.c.m.c.B.;.G r.=.Q =.;.@.r.@.1.@.g { 8.s.{ @.v.E.v...m -.M.i.p.s.v.v.v.M.v.s.c.n.c.c.d.d.d.s.d.L.B.c./ * $ 2 Y 8.X.r./ 7 I E.-Xn./ T g u X.,XD.+X-X'.X.m A C N / 8.s.y.W.E.D.E.r.` ` >.n.D.d.B.U.D.D.i.V 3 g } g 3 u m V A Q b w.n.m.J.h.h.c.n.L.E.c...S u X.B.D.A ' ..m =.W.c.m z / M c.i.m p 8.U.E.D.y.c.s.r.r.i.d.h.s.c.m.s.n.L...} J.J.c.B.s.i.s.v.p.p.c.c.B.'.E.c.L.p...g u ,.;XM.Q v.c.M.B.E.p.I V g m v.-X#X].G.=.A ' T @.:.I T y.p . . $ = $ 4 u 7 S #X#X~.P.G.B.L.L.Y.v.s.c.B.E.L.1...r.c.c.c.M.m.c.M.v.c.s.c.v.v.v.c.k.k.c.v.v.v.v.v.n.p.2.V.E.;X*XE.B.M.p.p.r.i.r.Q -.c.1.r.1.} u I Y.&XL.s.U ' p.i.1.M.}.M.B.c.i.'.,Xr.m u u ..L.l.=.s.U.L.n.c.V.P.E.c.0.1.0.s.k.p.t.t.p.s.p.r.t.p.p.p.s.l.l.k.s.p.s.s.p.p.s.p.r.k.k.s.p.u.l.l.s.s.p.i.i.i.i.i.r.i.i.i.p.s.s.p.t.r.1.c.c.r.v.v.-.u m 1.,...=.i.r.s.p.p.",
"B.:X|.L.M.'..X|.P.0.s.u.T l.'.G.'.'.&Xv.1..XB.r.p.Y..X'.}.|.v.B.Y.+XE.c.B.B.p.i.B.s.} -.p.i.i.Q m s.E.n.r.D.E.L.D.1.n.' V 1.L.J.m.J.Y.w.1.G w.B.Q 7 s u p m U A ../ K A K X.B.&X-XG.s.1.r.c.l.s.d.L.G.'.+Xl.Q u K c.c.n.X.-.Q u I '.c.s.L.M.L.p.i =.M.s.Y...u I g g ..p.r.1.} Q J.B.E.L.M.M.r.=.' ,.-.>.} =.M.-.l.i.}.,X;X'.'.s.;.c.B.n.M.M.h.h.n.c.h.B.B.J.w.I ..d.B.Y.:.m S i g g ..p.K 1.I 0.}.E.s.=.A ,.L.L.s.v.M.v.c.v.c.s.B.B.n.c.c.n.c.s.c.n.n.E.Y 3 p A =.B.=.{ S m ..n.D.1...;.A Y B.+X'.+XW.l.=.S z m Y ' d.E.;X'.U.{.&Xi.y.b.N.a.' } w.E.Y.s.` 7 7 m n.{ m b A ' r.c.-.i.s.c.B.m.m.D.c.d.=.c.d.A 7 X.=.8.=.y.c.B.n.{.s.m g m g B.d...8..XL.c.s.8.1.r.s.c.m.n.h.s.c.m.n.d.m.w.s.U.c.D.M.c.i.i.s.c.s.s.p.c.L.p.-.I A =.s.' ..L.v.-.B.v.p.p.L.8.m i m } G.L.r.} A g 2 Y 1.l.s.I / n.Q c g q 2 u c g c A n.L.l.8.:.8.d.p.c.p.i.i.p.s.s.i.r.c.v.s.p.c.M.M.s.p.i.i.p.c.c.s.s.p.p.s.c.v.c.c.k.c.s.1.s.v.].].v.0.n.t.s.0...E I U } ..1.p.A I E.;XB...' ..}.,Xv.r...-.p.E.v.B.L.=.u 7 g A =.p.H @.!.~.s.c.L.G.T.!.c.r.1.1.p.k.s.p.p.s.s.s.s.s.s.s.s.k.l.l.s.p.l.k.p.r.r.p.s.l.k.k.s.s.l.l.s.p.i.r.r.r.i.p.p.t.t.t.p.p.s.p.p.t.p.r.v.s.i.c.=.i i g E I U 1.M.v.s.p.r.",
"1.B.M.c.B.M.V.B.B.l.t.) ' B.c.0.V Q M.Y.}.,.g A B.}.'.L.M.r.Q s.Y.c.Q U v.Y.v.B.'.L.c.E.'.B.i.Q w.E.R.r./ c.E.L.' 1.E.1.g 7 I Y.h.m.m.4.>.g ` X.b b ..=...=.d.M.n.n.s.r.l.L.U.M.L.{ T ' r.s.r.0.p.1...{ ..z 4 g c 0.L.B.p.X.8...s.E.' 1.Y.v.B.M.1.1.p...i.p.,.c.L.p.L.'.}.i.m } p.p.'.E.c.,.U U Q -...1.v.'.,XE..X'.,X}.i.s.B...z r.E.D.v.n.c.m.v.n.c.L.L.B.r.R ..r.E.'.{.+XE.B.D.l.p.c.1.@.4 Q ,X'.~..XE.v.s.c.B.Y.E.B.v.v.M.v.B.n.n.c.n.B.n.d.c.n.M.D.z u z m L.L.Y u u I r.u.d.L.1.s.B.y.y.'.&X'.B.=.Y / ..;.B.n.&X3X4X&X-X,Xd.=.c.L.J.r.7 X u } ' m > & Q c.Y.'.}.'.B.c.E.'.J.m.c.L.'. Xn.c.y.y.s..Xc.I Y 8.d.c.d.B.B.B.s.s.y.m m m { L.E.{..Xd.=.8.8.y.=.s.B.B.n.h.h.h.c.c.n.c.c.1.h.B.1.c.L.-.-.v.B.s.p.c.c.p.s.1.1.V u I E.' } 0.' ..L.p.v.p.B.p.U g g ..s.;.g i p 7 7 9 ..) I q T s.s.U.' m z p A m K g r.D.r.@.1.;.1.c.v.y.1.y.c.p.,.=.i.s.c.s.p.c.v.M.0.r.i.p.s.s.p.r.p.p.p.s.c.c.s.p.k.p.p.0.{ ] l.n.:.O.l.0.r.1.{ ! U g u Q 1.r.V r.E.L.-.7 m U.;Xp.c.,.' A U Q ..|.}.g 8 m V I U m I ..l.v.v.n.c.G.E.L.p.2.r.r.s.s.t.t.p.s.k.s.s.k.c.l.s.s.s.s.s.t.s.p.p.p.i.t.p.s.l.l.l.l.l.s.p.r.r.i.i.s.k.k.s.p.s.t.r.0.r.r.p.s.s.s.s.p.L.i.g 7 V A Q A B ..i.p.1.r.r.",
"i.M.c.x.B.M.L.L.=.=.{ I @.k.c.l.....Y.&XM.Q 1.L.L.,.A I Q Q I s.}.' 8 V s.v.v.'.v.v.c.L.L.p.p.'.U.n.y.` p S ;.1.y.d.1.1.c.{ p 8.B.<.A G I r Q w.I z / =.1.d.8.s.r.B.P.U.U.G.D.L.'.Q u 9 K I I K / K Q i 9 q i A I 0.B.l.B.c.|.E.E.v...p.L.E.E.L.Y.M..XE.i.,.B.B.v.} { p.i.Q ' ,XY.v.,.I i V Q ' I A m ' L.E.-.' v.B.E.s.Q 1.p.U u r.).J.c.h.s.s.m.B.n.L.J.c.d.=.s.B.&X#X{.L.@...s.~.W.n.L.r.p.,X|.c.L.Y.v.} I ..s.L.E.L.v.n.M.M.d.c.c.c.c.n.c.d.s.L.W.r.2 2 S 8.L...p m S I c.&X&XL.g ;.3XW.s.5X'.E.n.Y g Y ..r.m.U.-X.XL.U.L.s...1.M.B.L.).;.u 1 u 2 3 7 M c.}.N.Y.D.B.B.n.c.w.' i.B.y.;.=.I s.E.D.W.,XU.c.8.Q s.;.X.c.d.s.c.L.E.{ > Y {.n.y.&X'.r.1.d.8.;.r.B.c.c.c.s.h.c.c.c.i.m.m.1.s.w.m Q E...-.L.c.,.p.M.s.s.B.c.-.} ..s.i.Q M.'.,.r.M.,.c.i.i.p.v.M.E.,Xn.' { c u m c Q Q S c 4 ' 1.;.1...Q c.8.Y C c U U.n.@.=.r.@.@.s.v.r.,.p.c.,.} ..1.i.s.c.c.c.v.v.t.s.c.c.c.c.s.i.s.p.p.s.k.k.p.r.s.r.s.s.Q ..n.c.B.c.p.@.' I A c g g g ,.r.Q Q E.v.=.Q i V s.-.A Q g =.M.i.g g Y./ u Q =.,.M.s.1.0.M H r.L.G.p.t.P.G.r.0.s.s.k.s.r.p.s.k.s.p.p.s.l.k.s.u.s.p.t.r.r.r.s.k.s.r.r.p.l.c.l.l.s.p.p.p.s.s.s.k.c.k.p.i.t.r.1.,.,.2.i.s.t.t.t.p.G.=.2 g g V U A g g h A C ^ =.",
"=.M.M.A.c.M.M.B.i.h i 1.B.0.n.n.y.E..X1.Q p.-.L.M.p...,.-.-.-.c.U.-.U } p.M.p.-...c.B.B.Y.p.-.U.c.=.X.M 3 9 Q S =.d.Q > 9 ' Q X.'.>.% 2 r g A G ' M >.d.d.D.' 8.P.B.y.s.n.n.U.-XP.@.{ ' ..S c g q p r.) u i M K ' B.G.n.n.L.E.i.B.} ,.'.'..XY.B.Y.&X;X.XE.i.r.A A A A I -.|.3XE.L.M.U = . g ' V g A B.E.E.E.-.} p.,.} U 7 m A g r >.B.c.M.B.c.n.c.n.h.B.m.d.L.B.n.:.K K I c A X.r.) W.} ..n.W.n...U ..Q I g V r...i.B.M.v.v.v.c.s.c.n.c.c.c.c.d.M.B.L.X.z i M ..M ' d.B.c.r.B.d.s.s./ 8.L.{.'.L.Y.D.;.p g A A y.E..X{.J.y.d.r.c.1.n.m.i.r.m.D.1.>.` M >.J.U.}.U.Y.'.B.m.m.s.w.' ;.Y.W.=...>.G U.-X~.'.U...' Q Y U...h.c.s.U.s.&X,XL.{ L.s.y.W.'.M.n.-.1.s.1.D.l.s.n.B.n.c.c.n.c.B.c.s.1.m.1.A c.L.i.v.p.Q ..B.c.c.p.B.M.-.c.M.s.i.c..X.XY.L.i.c.c.M.s.c.}.&X'.B.B.G.P.s.T g r.B.r.l.-.u { i.n.l.d.'..Xr.u :.p.1..Xs.:.p.1.=.r.:.=.-.r.s.1.Q } p.s.p.p.s.s.c.v.M.v.M.M.v.c.c.l.s.c.s.s.s.k.s.i.2.1.p.v.s.A @.G.p.v.n.O.' ) K T C g g g p.Y.,.p.v.i.r.} V A 1.Q 7 g g ,.1.=.} ..c.I p.&X1.-.Y.p.L.! i 0.#Xc.r.V.L.G.B.r.r.u.t.k.l.s.l.c.c.k.p.t.s.t.t.u.s.k.s.r.0.k.s.s.s.t.r.p.c.k.l.l.s.s.p.p.s.s.p.i.i.t.p.t.i.2.1.1.,.1.2.i.p.1.=.t.p.2.U ; u m g V A V i 2 7 y Q 1.",
"4.A.M.B.M.B.M.L.c.-.-.s.r.1.l.c...n.p.X.z ..].+X.X-Xc.8...m v.]..X@.X.B.B.B.d.C ;.L.B.D.l.X.l.T ;.B.c./ i K ] c Y ;.i u I 8.B.E.i.....m z m 7 { h.B.B.1.W r.y.y.L.B.c.M.}.3X&Xs.Q A U }.E.v.s.,.=.i.Y.p.' m A V r.v.i.M.M.E.i.m U s.s.E..X}.-.,.E.Y.'.E.r.-.1.V Q ,......X,X}.E.M.E.E.Q g m A g A =.n.n.G.G.=.i X.s.I g K m c c A c.v.v.B.B.E.L.M.Y.v.v.L.p.L.v.X.g > 7 g z Q ;.y.B.I M c.G.8.{ 7 M S M m 9 { B.Q ..c.c.B.c.c.B.n.n.c.c.B.c.d.J.d.E.n.M p u M X.%.'.i.=.J.B.s.B.y.W.s.h.E.W.n.s.G.l.o.N B K f.'.E.B.{ Q y.c.y.m.n.s.y.d.c.Y.,.S S A n.L.s.r.y.E.&X}.-.s.h.D.h.D.&X;X&X$X;X;X&X$XJ.=.G } } g V 8.=.J.m.D.E.m.J.$X{.1.X.s.' p.&X'.y.y.X.n.c.r.d.c.c.v.s.i.d.c.c.v.m.s.s.d.s.v.E..XB.i.8.h.M.B.v.s.s.B.v.M.,.} r.-.A E.|.i.B.n.s.L.M.i.c.L.M.M.c.p.M.M.M.1.1.V.E.' s.i.' ..c.v.v.i.].}.,.Q 2 s.|.Y...} ,...I m =.,.@.=.' ' =.1.c.Y.i.s.p.c.s.s.L.v.B.p.l.1.p.s.d.c.d.p.r.s.1.d.s.r.0.r.n.=.C ..c.s.l.B.' T -.=.{ g ' } i.E.E.s.1.p.s.-.Q m ..Y.s.-.Q } M.i.,.=.M.s.v.E.A 7 } E.i.} Q c.{.V.1.s.L.G.G.c.r.r.k.s.t.u.s.s.s.p.p.k.s.t.p.s.k.s.u.p.s.k.p.p.p.p.y.y.s.c.D.c.u.s.s.s.p.p.0.r.r.r.r.i.0.1.y.1.1.r.r.y.p.r.,.p.r.B...8 2 m g Q s.s.O.V ..B 0 Q 2.",
"4.S.Z.C.B.Z.B.L.=.B =.M.:.G.!.K i :.A 2 7 A 0.W.#XL.:.:.@./ E.'.B.M ) G.E.E.B.r.c.U.'.'.d.Q s.1.=.~.].:.m / u.:.=.Q A :.0.B.+X{.=.u g A V Q ..E.$X.X8.A 1.D.d.Y.v.v.Y..X;X,XL.I 7 g V Y...i.E.B.L.n.G.@.M g V A L..X'.'.'.,XE...} E.;X3X}.E.-.I v.M.` m g ' v.L.E.|.v.E.E.E..X.X.XE.M.U A A A } ..B.G.E.5X].' U B.&XE.n.c.d.L.U.Y.'.s.s.Y.E.L.l.M.L.v.v.Y.s.c.s.I m Y { Y Y =.r.c.r...[ D.c.L.d.r.;.{ ..m I n.s.c.d.D.c.n.U.L.s.c.c.c.c.D.B.M.n.W.E.X.u 7 p Y B.'.L./ ' E.Y.v.s.B.E.s.m.'.).r.{ 8.T ) [ ) :.'.D.s.d.} S ..s.s.h.n.d.s.d.s.n.{ z m Q L.B.i.{ @.d.d.y.m } ..;.L.B.E.d.Q i.L.n.h.r.' m A ` R m m I =.m..X,Xr.1.$XL.;.S z I X.+X4XB.d.1.1.d.y.B.L.s.c.m.c.s.s.h.h.v.m.s.s.h.s.p.c.n.B.y.i.c.M.v.c.s.c.c.i.M.i.....I U |.c.g ..L.B.v.=.} s.c.i.s.1.p.p.} A U Y.E.1.-.s.r.-.s.v.r.c.Y.,XY.c.Q -.'.c.s.=...Q I V g V =.r.p.1.Y.s.B.B.v.s.p.p.p.v.v.Y.i.2 X * = u =.B.s.l.c.s.u.y.l.1.s.r.r.p.m 4 { 0.0.@.c.C A B.B.;.S A Q i.E.E.p.,.i.,.=.m A p.-.Q ,.p.|.'.s.c.Q 1..X.X=.I V r.|.-.,.L..XT.r.k.c.v.G.k.p.2.2.t.t.t.s.r.p.p.p.s.k.s.p.p.s.s.s.s.s.s.k.s.u.s.s.p.y.s.l.l.p.r.p.p.p.y.y.p.y.r.1.1.1.0.r.:.1.y.p.r.p.s.p.c.,.c.s.A 7 U i Q '.V.Q u t.E.Q C C m ",
"4.Y.Z.A.B.A.B.L.p.h 1.,X2.:.0.C A :.' m m c T ' L..Xs.@.p.r.r.) ..7 @.P.B.P.L.B.L.B.l.0.L.B.E.B.G.D.p.' c T B.'.d.' m S { W..Xs.=.A 7 r I D.W.'.W.c.=.Y d.m.c.L.E.M.B.Y.Y.Y.-.8 g i.}.1.A ' r.s.v.Y.|...A =.s.v.&X+XL.c.i.v.'..X&XE.=.' Q -.U V i.c.Q A 7 } E.}.c.I g B.E..XE.B.B...A u U Q Q Y.#X<X.Xl.s.l.1.s.L.E.n.c.G.].,XE.B.c.r.r.l.c.M.Y.v.i.M.E.E.c.M.c.I g / c.c.B.D.y.;.d.c.r.B.y.D.d.U.c.r.L.8.;.d.y.L.'.|.v.;.B.L.c.d.n.D.y.c.L.U.r.y.U.I . 7 y.L.+X.Xm.X.;.J.r.c.B.|.s.M I %...A m Z [ #.0.[.=X'.r.r.d.c.m.L.J.c.c.v.d.d.c.y.s.Q r p 1.'.B.B.y.y.8.=.M G m p I I Q w.I I g Q ' G I I b Q Y g U ..;.B.$XJ.r.V S U.c.I g M ' n..X+X'.d.1.c.D.L.d.r.l.h.M.n.d.s.s.d.n.n.s.s.c.s.i.s.s.B.p.p.v.v.c.c.d.s.c.s.M.1.U Q U } E.Y.s.s.E.B.U X 7 p.v.r.i.=.c.B.U 7 u V.E.{ ,.p.v.M.v.i.c.|..XE.p.I A M.c.I i V -.A 2 7 I m Q L.1.p.L.i.Y.M.c.p.i.v.c.L.M.B.' X . 7 > * A p.B.0.1.r.p.s.n.0.p.r.c.G.T I p.@.{ =.c.K ' G.n.B.c.,.Q ' i.p.' V A A ' 2 u c.M.} m 1.3XL...v.....-.A u ,.s.c.-.I }.#XB.B.G.G.l.V.B.r.p.t.0.r.p.s.c.l.l.l.k.k.k.s.t.s.s.u.s.s.k.s.s.u.p.u.s.p.y.p.s.p.y.y.p.p.p.r.y.r.0.1.1.1.1.8.0.8.0.0.1.=.1.r.1.p.L.' $ 0 c A m ] s.d E -.-.i I 2.^ B ",
"6.Y.C.L.Z.A.B.L.}.c.k.s.M -.L.~.L.~.].E.B.p.c.8.;.I 4 m 1.r.B.&XG.1.s.G.L.n.y.E.E.{.p.q 0.'..XE.P.l.p.B.B.n.P.G.U.E.r.) c.#Xl.' s.m.} ..s.Y.J..Xm.Q V ..L.E.Y.U.-.s.Y.c.=.Q A m I |..X..U ..M.E.'.B.B.V m c.|.&Xv.M.s.p.1.1.c.E.'.1.A g 7 g m i ..B.M.c.I -.Y.L.=.u M =./ B.i.v...m i A ,.i.i.,X&X'.n.Q 7 M I Q l.@.p u ..L.W.0.i.s.M.p.} U } s.U g r.|.Y.M.Y.M.) m I s.D.W.L.d.L.{.,.;.M.B.c.D.L.B.U.~.n.D.D.c.U.,X+X8.S ;.y.d.B.p.c.d.B.c.n.;.p d.I o Q &XU.{ / V s A r.X.d.B.M.8.A b s z g M [ a c u.{.D.n.u.s.y.d.m.c.y.i.h.d.s.s.c.s.d.Q 9 9 y.U.D.s...' ) / M m b A V V 7 p I L.' / M V ` Q Q r.=...c.D.J.m.E.R 7 m { m.v.X.y.n.c.,X<XU.d.d.D.=.A d.D.d.B.h.m.n.h.h.h.d.c.c.s.d.h.i.i.c.c.B.s.s.M.v.c.c.s.i.v.B.B.,.A U ' m v.&X,Xp.} A . . A B.M.8.r.r.M.v.A m E v.Y.c.v..XE.B.M.L.&X&Xp.{ A 2 A ..g * 7 V L.p.} } =.s.'.B.I 1.' } i.....v.r.r.i.M.Y.s.g 2 g g 4 7 u ' '.G.c.p.s.r.d.n.r.s.s.1.S { s.{ Q g M p 0.U.c.U.p.s.Y.|.E.=.g u g m A m =.L.s.-.-.Y.|.c...p.i.s.s.Q V Q v.c...r..XG.0.P.'.G.k.P.v.r.l.l.p.s.k.s.l.p.u.s.u.p.t.0.2.s.s.u.u.s.s.s.p.y.r.y.p.y.r.r.p.u.p.p.p.y.r.0.0.8.1.1.1.0.0.:.=.1.:.:.1.0.s.n.l.T.' 2 i m V 0 l I U ..E.....' m *.^ U ",
"6.Y.C.L.Z.A.B.A.c.'.'.c.O.].#X~.'.'.E.L.E.L.}..XY.U ' v.v.L.E.Y.B.s.' i.}.} i s.|.3X'.7 V v..X.XE.D.c.G.E.#X<X'.P.'.L.B.'.0.I 0.$X<XW..X,X$XL.E.i.' G i.E.n.1.d.M.B.s.-.,.Q u g s..Xr.}.s.L.E.v.y.A Q U 1.E.L.B...1.r.1.s.s...V m g ' i.=.r.=.u U Y.E.}.E.E.} u 7 = 7 7 I .XM.1.) z A ..p.p.1.v.c.{ m p u A u c l.:.i 2 T l.L.n.M.v.v...i 8 u g 2 = Q L.L.r.} Q 7 { B.$X.XW.s.r.|.E.{ s.U.n.c.&X.X;.'.+XD.D.y./ B.E.1.m S p.y.c.s.d.n.d.D.U.s.m 7 / p 7 n..Xs.A I ......b.;.h.J.).L...z m >.1.X./ g 9 [ U.y.1.c.c.n.c.y.8.s.B.c.c.s.s.c.d.c.Q 7 p I z ;.8.;.S z z g s m w.p.y.%.r.c.>.=.1.Q =.R m b I V ' c.y.s.D.>.V g Q D.&XE.{ c.U.B.{.d./ ' d.8.3 > y.B.c.p.h.n.c.d.c.c.h.h.c.s.h.h.i.y.h.c.B.s.p.v.v.s.s.s.p.c.M.M.p...Q Q Q ;X}.1.A 7 = 2 m r.Y.M.p.p.s.y.1.I =.E.;XE.L.c.Q g ..E.E.v.-.A I = A ..Q A A i.i.i.A } s.-.E..X,.m I g A I i 7 I 7 = g } M.=.8 4 A Q =.1.Q i c ..c.d.c.c.p.c.1.c.1.C z / ' I A C { =.~.].B.E.p.-.}.&X-.8 * g A A V ..c.s.Q Q E.&XE.p.Q i.&X;X|.s.p...v.1.i.E.E.n.T.'.B.n.n.B.k.p.c.l.s.l.l.s.t.t.p.s.s.k.s.s.s.l.s.p.p.s.s.p.t.r.r.r.p.y.r.r.p.r.r.r.8.1.1.1.1.0.r.r.:.=.=.:.:.1.=.:.r.s.v.G.G.M.i 7 H u B A g 1.L.L.i.r.-.t.B.i.p.s.",
"i.T.A.L.Z.C.B.C.L.B.!.U.t.'.].E..XB.L.B.i.,.s.c.0.i.v...} }.M.A ..' ..L.Y.=.=.M.G.,.:.C U E.;XB...T Q p.L.E.'.L.P.1.0.E.L.T ..,X.XB.c.L.L.L.B.=.g u G B.B.m.L.}.&X|.Y.c.v...7 V Q } U i.c.|.r.s.L.1.M.v.B.L.B.L.1.,.-...p.r.Q m 8 g U v.,XE.} m =.c.B.B.v.E.-.g Q -.p.s.E..XB.1.1.} U ,.r.,.=.....u 4 g A n.s.0.c.G.r.{ 1.d.c.D.B.p.-.A 8 q m 7 7 i V i.B.' = = A n.L.n.c.'.L.L.d.=.' u.B.r.c.c.g Q ].s.A p z Q r.8.A 3 Q D.c.y.;.c.D.B.D.L...* 9 p > M ].W.c.8...s.d.B.;XY.B.d.D.h.X...s.L.%.I / d.X.) W.D.1.y.8.8.p.d.s.s.d.s.B.d.s.c.d.c.Q 7 Y r...8.V S u 2 7 b } Q i.B.c.U.8.'.B.).d.c.p.1.=.%.} R =.m.B.{.n.;.1.w.h..X&X'.=./ p { {.n.X.=.B.1.{ L..Xs.n.c.s.c.h.d.v.c.d.s.s.s.c.c.s.s.h.h.M.p.i.c.c.p.p.p.s.c.c.v.c.i.1.r.}.;Xi.m m V i V Q G.E.L.c.p.v.s.v.' u g -.1.r.=.} m ..s...i 8 u 7 i r...I ' B.B.' 1.-.c.B.r.|.c.' A 2 i u 7 g 7 8 = = g U r.U i c :.E..Xs.=.K = > 1.p.s.U.r.r.s.n.y./ / I i m A c.,X{.G.c.0.d.i...p.B.p.=.' U A -.p.c.r.s.1.=..XY.Y.1.i ..'.r.Q A E.v.s.s.L.L.;XXX~.L.L.B.B.c.r.s.l.l.k.c.c.u.p.k.l.l.c.c.l.l.c.s.s.p.p.p.p.t.r.y.r.r.p.p.y.y.p.0.8.1.;.:.1.0.8.0.p.1.' / =.y.s.0.1.1.0.r.c.L.E...8 7 u m 7 V M.'.I I Q ' g p.&X}.].}.",
"p.E.L.L.B.C.B.A.M.s.T.G.p.!.].].}.s.M.L.} A A V U r.s.Q ..L.' I U m r.L.=.r.E.M.p.i u ' p.'.c...I 9 a r.G.c.c.n.1.M C 0.l.' s.~.m.{ i.D.s.%.n.Y.r...%.m.m.E.,X}.Y.1.i.Y.&XL.Q I A I Q g ..v...n.} ,.E.L.v.v.M.c.` V V I -.' A ' } ,.1.B.'...g ' c.p.'.1.A c.&X,X'.'.E.}..XB.1.1.r.=.g } ,.} ' Q u 2 c K Y '.U.l.c.L.~.B.y.y.s.c.Y.s...Q V Q ,.A i m g =.,.A 8 u ..s.=.{ { D.d.;.c.1./ =.h.B.B.=.m d.r.3 u 1.d.d.y.y.;.I ..n.0.A 8.s.c.).s.T 3 9 9 M g ..W.B.r.;.c..X3X3XY.X.w.h.m.s...' 1.s.{ =.L.u.s.n.B.8.s.s.d.8.8.d.c.s.d.D.n.c.d.c.d.n./ u I 1.8.y.A 1...z G r.=.>.;.' c.w.} 1.;.%.' Y.c.E.Y.I.L.L.E.{.'.W.=.m.Y.'.&XE.w.=.L.E.X.1.D.d.r.=.s.c.Y.{.s.;.s.s.s.c.c.h.c.h.s.s.d.s.c.b.c.c.c.s.c.i.p.c.s.i.p.s.p.c.v.c.s.i.c.}.}.-.Q m A A m I Y..XE.c.r.1.s.v.=.A 8 8 =.p.=.Q =...B.|.B.-.V 7 A U V g :.B.E.Q U v.|.,X;X.XE.A Q V g Q m g U g i g V I A m = 8 K l.L.,.u ) D.l.A =.n.s.c.r.s.L.D.1./ K g m :.s.#X,XP.p.d.B.c.-.i.p.v.L.M.p.r.i.p.v.p.r.s.r.r.}.M.l...m Q Q 7 u U }.v.i.'.&XL.|.!.c.l.~.c.B.c.p.k.l.k.l.c.l.s.k.s.s.s.s.p.0.r.r.p.p.p.p.t.r.t.t.p.r.r.p.p.r.y.p.0.8.:.:.1.r.i.r.0.1.' A Q r.s.1.@.:.0.r.l.L.G.p.8 7 I u A ..*.v...u Q Q B } .XT.M.v.c.",
"s./.L.Y.B.C.B.A.!.v.Y.P.E.~.G.{.Y.B.s.v.1.Q A ,.c.M.'.c.-.-.g Q U V p.L.s.p.} I '.p.=.M.L.1.V =./ S ' B.L.s.l.d.=.A u Q r.@.c.d.Z R s.>.i.s.U.Y.Y.,X.XL.{.D.D.n.1.M ..v.B.s.-.i.p.L.p.'.E..X,X;XB.r.r.r.v.L.Y.p.Q V A U c.M.p.B.E.p.E.'...Q p.M.r.t.,XE.E.3XE.M.1.} ' ' -.p.Q Q c.s.m r.E.r.....7 m C S ..n.Q 8.c.B.].L.=.1.L.'.M.1.Q } } i.B.Q Q V m =.g < g V c.c.=...A ../ A s.{.D.+X{.W.B.U.n.B.I p g =.B.L.8.s.E.s.y.B.y.7 ' E.'.c.m 7 = u Q 1.Q =.p.i.r.s.}.{..X}.} g >.J.'.Y...V r.-XD.s.s.r.c.W.W.8.r.d.y.s.y.r.y.d.d.c.c.d.c.n.c.B.{ m S S -.U.r.L.L.8.L.c.=.' / %.s...c.1.' ` %.r.J.$X&XY.L.}.+X&XE...L.,X}.'.E...g 1 / 1.Q v.U.r.r.r.n.s.y.v.d.c.r.d.p.v.m.c.c.s.i.s.m.d.d.h.h.c.h.r.c.p.s.n.s.i.s.v.p.p.c.v.c.1.i.'.i...=.A B d m d..XB.r.-.p.s.....I 8 g V ..} U -...r..X&XM.-.Q I =.-.-.1.M.Y.r.'.}.E.|.3XE.M.r.-.I u c.M.r.} Q i I A A A A g * g K G.B.{ c X.n.u./ z B.E.c.n.B.c.l.A p u A B.,X,X+Xn.l.r.=.s.n.1.,.s.c.i.i.v.M.p.B.c.r.p.s.M.E.p.Q Q m A ,.p.} g r.}.,X,XB.1.M.,...B.c.k.0.V.s.c.l.k.s.s.k.p.t.l.k.s.s.l.s.p.p.k.r.r.p.p.r.r.t.p.u.y.r.y.y.r.r.r.0.8.:.:.1.i.r.0.p.=.A g { c.r.S / =.r.s.n.n.) $ . u B g } v.! 1.s.s.k.s.L.&X|.Y.v.M.B.",
"p.'.E.L.Y.E.M.Y.B.Y.L.Y.].i.Q M.L.g.i.I R 4.1.C.s..XE.=.} $.Q r.1.B.Y.Y./.v.Q ' C.L.Y.L.E...V E.|.L.E.E.p.B.h.p...U Q A M.Y.L.}.R r 1.h.h.s.E.{..X.XE.p.{.J.1.=.Q U } 1.=.Q ..p.'.|.,X&X|.}.,XU..X.XE.M.L.E.B.c.E.r.c.Y.B.L.p.U ..p.M.M.,.i.M.E.|.E.s.A s.|.Q A m g g 7 m U u -.B.m m i.c.M.|.Y.K K ' :.D.E.A n.B.U.B.B.'.n.l.<Xp.A I ..Q 1.U Q v.Q =.B.s.g u } W.d...S u p g s.'.L.U.s.L.'.1.l.D.r.Q X.X.y.L.U.U.L.r.) D.=X..$ u ;.E.A * > z g ;.1.S ' ' n.y.d.E.J.1.>.' } 1.J.B.b = / 3XL.m i.U.D.r.s.s.y.=.s.r.s.s.s.n.d.y.d.y.c.n.c.c.c.;.p g 1.W.&XB.8.Y M M.r.s.B.s.D.8.I c.s..Xm.n.U.,X&X}.=.y.E.J.;.g > } c.w.1.L.s.I V G Y ' W.d.B.1.8.c.s.n.v.c.1.y.n.r.J.s.w.L.B.r.d.L.d.m.B.s.s.c.1.s.c.s.c.v.c.v.c.c.p.v.M.v.r.s.-.s.L.,.A U g A '.E.B.1.1.r.-...Q A =.=...B...} ....s.E.,.i g I ..s.-.s.M.v...L.E.i.,.i.r.-.U ' ..V u } B.|.Y.B.1.c.s.1.=.}...A V A n.:.{ ' X.Q 4 I 4 M s.p.0.n...Q M g ) n.3X;Xn.s.0.=.=.r.l.8.' } s.s.i.s.c.v.,.p.1.p.s.s.v.p.=.u U U I r.L.p...Y.|..Xv.=.i.s.-.-.c.s.+.T c.s.v.l.c.c.c.l.k.l.c.s.s.s.s.s.s.s.s.p.p.r.r.p.s.r.1.y.y.s.p.0.1.8.r.r.;.8.p.r.y.l.l.;.M 9 g ' p.1.C @.K 4 i p 7 : < q A m Q r.B 2 ] Y.v.M.c.L.B.M.i.n.d.p.",
"..`.M.L.B.L.B.L.B.L.L.i...I E L.B.B.i.I s A ,.E.s.L.U i.E.i.=.~ }.E.Y.E.&X'.v.g.L.Y.'..XL.M.s.E.M.c.L.E.M.Y.r.Q g ) I A M.L.E.c.Q ' B.J.m.Y.{.L.J.1.1...c.J.c.Y g I } s.E.i...i.;X'.L.v.M.L.E.i.i.L.B.E.E.M.M.c.p.|.,X.X|.i.g g ,.r.=...,.B.M.s.=.i Q ' i.,.A V g V ' ....,.,.L...m A ....i.p.2 9 { P.L.'.n.I l.n.U.l.1.Q B.L.B.L.i.c.r.i.c.1.B.E.1.=.Y.L.I } r.W.;.g p 2 I W.W.D.n.Y...m I ' 1.B.U.p.D.E.L.r./ y.r.I < X.Q u g p u 2 * * u C S r.r.B.n.M I c.c.c.w.S m g z A s.c.s.7 X.W.g s B.D.U.n...p.1.r.d.d.s.d.d.y.y.d.d.s.s.r.s.n.8.S 3 I n.L.8.-.s.=.S =.Q ` p.h.B.c.m.,.B.B.` L.-X}.E.r...i.i.Q b u u ' ..V ' s.c.E.c.E.}.E.D.1.8.1.0.B.B.l.s.B.B.L.i.c.1.U.D.s.J.i.` 8.B.c.y.s.B.c.h.M.M.v.c.c.c.v.c.v.M.M.c.i.' ,.v.c.Y.L.c.-.I ' v.Y.B.p.i.1...,.i.v.0.r.} i.M.L.-.Q g Q ..I } c.p.v.v.M..XB.E..X'.Q A A i A 7 V m g A Q v.'.|.E.;XY.c.s.B.Y.U 1.I C A m A Q ..Q { p.l.u $ M M g g 4 < ' '..X+XD.y.1.1.1.0.s.c.r.X.1.c.c.L.E.L.Y.L.L.M.v.,.,.L.E.}.;Xp.Q Q -.s.M.v.B.}.}.c.-.r.v.c.c.s.s.=.K B.B.r.s.s.s.k.s.s.s.u.u.u.u.u.u.p.p.p.s.s.p.t.p.k.s.r.d.s.p.p.i.r.0.r.1.r.0.1.0.p.p.r.Q z 4 C l.'.G.r.y.g u 2 7 7 7 7 g V V } -.=.p.v.L.2.v.-.s.E.,.m :.r.l.",
"$ U A c.E.B.M.A.L.B.E.c.....i.L.g.E.Y.E.c.4.L.Y.E.s.V 1.|.'.m.>.s.s.L.E.Y.$.1.m.m.s.>.s.,.Y.B...A =.Y.'.p.,.Q m m Q Q } M.B.E.M.r.L.'.'.D.L.E.B.s.1.r.1.m.y.i.1.} r.s.v.Y.s.p.}.'.L.v.c.M.L.E.i...c.c.E.L.1.v.E.E.}.r.' i...u ) c.v.,...r.B.B.L.1.Q E.B.M.} V i g -.Y.'.L.'.L.=.g ..i.E.'.M.s...z X.G.p.M...' L.P.<Xl.{ -.].L.n.E.E.E.=.p.r.,.B.-.L.B.l.c.v.&XE.U.A 7 u Y E.<XB.d.'.D.m Z A I ;.=.y.c.B.{ ' r.' B.c.@.A A 3 9 V M X.I * z ' m S {.E.c.Q d.y.;.c.1.8.I g Q R m h.M.i.8.w.Q Y 8.r.%.B.'.J.8.r.r.y.8.s.u.r.d.n.d.u.n.D.M.B.c.Q 7 u { y.s.{ =.L.&X'.B.s.r.U.D.h.r.r.h.{.J.=..X.Xr.%.Q Y ..' z g M S V / s m =.>.s.J.,X3X+Xs.y.s.B.n.n.B.L.Y.c.;.d.c.L.B.E.'.E.r.m > =.L.D.n.h.J.s.s.c.c.c.p.p.s.s.s.p.L.i.} 1.1.s.v.v.M.Y.L.' V i.E.v.s.1.s.v.s.M.B.i.=.Q r ..J.i.` V w.w.I m 1.&X.X.X'.E.3XY.}.E.p.-.p.r.U A m A g i g ..P.c.M.B.M.-.Q s.B.L.c.E.v.=...Q C m =.d.E.1.T r.A X 4 7 7 i 9 =.E.n.L.c.=.@.1.y.s.c.c.s.0.M.Y.M.c.M.M.M.v.E.v.s.s.L.}.E.|.v.I I =...=.s.v.|.;XE.,.-.c.M.i.s.s.s.:...].L.@.l.k.s.s.s.u.r.2.p.p.u.s.s.p.p.p.p.p.t.r.p.s.s.t.y.0.1.0.r.y.r.r.1.s.p.y.u.;.Q T g u p ..L.s.' ..p.4 / :.=.Q m A V m m ..,.c.,X|.!...B Q '.1.= A T :.c.",
"A l = Q Y.A.L.`.L.B.E.T.G.Y.P.B.m.L.L.;X&X/.&XE.m.M.c.p.=.s.Y.L.i...Q I Q 7 ' E.E.1.Q Y.c.} Q } Q -.c.i.I g i i n.r.'.E.B.M.c.r.i.L.E.$XW.w.d.J.c.w.y.r.1.G y.&X'.Y.L.L.E.|.;X&XB.M.v.v.v.c.c.=.,.s.p.n.p.Q -.E.L.r.Q } M.M.1.G.&XE.c.Y..XE.c.L.i.r.p.I p.s...A ..}..XM.E.&X1.* U ..Q 1.i.Q =.c.g :.B.0.s.{ r.].&X].T I &X,Xl.n.E.E.L...M.E.Y.|.B.p.c.B.,X;XB.1.S p V I B.+XE.D.D.D.y.p g Q d.8.{ d.U.Y.1.c.,XU.D.W.c.B.A Y Y M 8.D.s.Q { m ' d.s.I Y u B.W.8.y.h.r.m 7 r.B.} L.B.c.U...=.U.y.h.m...w..Xd.1.8.s.c.c.l.n.n.d.f.l.B.n.m.d.;.S u m M X.'.'.L.E.+Xc.a.c.c.m.8.h.L.h.J.h.c.L.3XL.' m M s b m m Q =.>.R 8.c.r.B.D.1.W.|.'.W.s.c.n.E.D.B.r.8.X.8.d.D.D.c.}.=.=.d.G p b A } r.L.y.m.s.r.c.c.v.s.s.M.c.s.p.i.-.,.c.=.-.c.M.B.E.E.Q g v..XL.M.c.L.E.L.M.8...` g 7 ;.m.-...=..XY.c.h.m.&X&X}.p.v.}.Y.v.c.=...L.E.;Xs.Q g V I V p.M.} A ..U V Q L.c.L.E.L.|.n.&X'.D.l.G..Xc.S * :.d.A Y C m C { c.~.n.L.n...;.0.s.s.d.l.l.d.E.E.L.c.M.L.Y.L.B.p.=.B.;X'.M.c...) r.L.c.c.Y.B.E.E.p.=.i.M.v.i.p.c.l.p.B.#Xc.t.s.s.s.s.s.p.t.r.t.t.p.p.p.p.p.s.p.t.r.p.p.s.p.r.1.:.:.8.r.r.r.0.r.r.l.n.0.K u g u 9 9 Y r.X.c c c p d.D.8.c.A u g m A =.-.O.=.Q I B ' T.,X=.u B =.s.G.",
"1.Q 7 u s.P.P.L.B.L.L.L.L.B.B.B.C.c.m.L.B.B.E.E.L.Y.m.c.F ~ E.m.B.m.i...s.' $.B.C.s.c.&Xc.~ C.3X'.s.} A k g V V Q -.}.}.}.&X}.Y.{.|.E.E.D.V %.Y.c.{ =...V r 1.r...r.M.Y.E..X~.l.M.v.i.p.s.c.d.1.1.r.c.c.r.I V p.-.r.E.;X,X|.'.,X'.Y.L.Y.v.) } L.r.'.E.r.v.E.c.M.B..Xs.U Y.&X..A -.1.i.i.A m r.1.U c.n.p.l.c.L.E.B.r.=.U.,XP.n.G.B.v.s.-.M.,X,X&X,X,...v.;Xs.A V g =.' 8.,X'.}.E.c.c.r.g u Y E.D.n.{.n.y.'.'.s.{ E.L.' s.I M.E.'.-XL.1.=.M 2 D.d.g * p M 8.i.' m I I r 3 8.w.S m.Y.U.s.i.J.s.>.E.c.s.E.Y.U.h.D.n.l.y.n.'.^.U.U.U.L.D.'.y.m u g A S c..Xr.X.r.s.Q ' ..8.>.I c.=XL.v.B.'..XJ.Q g u g z m m I r.U.L.R.{.5X,X&X3X}.'.B.d.n.c.d.n.L.r.g $ 2 > S =.y..X'.i.$ O 1 2 g u R X.1.B.r.c.r.w.c.c.v.p.c.L.v.s.E.c.Q i I ..s.r.r.s.r.-.V g c.}.L.E.E.E.B.v.c.-.=.S u ' h.n.h.i.B.c.R m g ` +X$XB.} i.M.L.1.1.Q -.B.p.v.} ' -.s.p.1.c.v.c...Q g } 1.1.c.'.M.v.v.G.].'.&X-X'.B.T I ) A p.X.m K a c n.'.-XU.d.l.,.0.p.d.d.s.s.s.s.s.r.1.i.s.r.1.s.i.1.I p.E.c.M.p.s.L..X&X|.}.'.L.v.c.i.p.v.p.r.s.s.r.r.s.n.c.@.c.0.r.p.p.r.t.s.l.t.t.r.r.r.r.t.p.t.t.p.s.k.s.r.0.0.0.r.p.p.r.0.1.s.r.l.s.Q g g g g m c g B T T S p C p.0.@.s.A V V A O...U U A m g } s.v.=.I A ' L.L.P.",
"l ,.,.I 1.Y.E.M.A.T.M.M.L.v.v.A.C.c.C.C.B.B.g.c.B.4.c.}.m.m.m.4./.).B.} g.M.c.B.C.L.E.s.V Q E.1.Q U V k V m R Q Q M.L.E.;X.XoX.XE.'.J.y.w.g %.D.X.} ' M b V 1.R U M.'.E.}.~.B.P.i.c.p.v.c.v.M.M.p.i.M.M.c.} g ,.B..X,X'.L.L.Y.&X|.B.s.c.B.i.p.Y.&X|.p...A r.c.c.v.p.Q I Y.i.g -.Y.M.B.B.c.Y.L.Q c.E.B.G.n.B.E.#X'.s.} L.L.E.L.s.M.c.p.r.p.|.}.Y.B.E.v.M.s.V V V S r.y.B.&X{.U.r.B.B.8.c g / E.+X'.c.y.c.U.' 2 g W.8.8.<XW.W.d...' Q ' A g 0.B.' Y 1.z ' B.1.I i g b m I w.I s h.J.w.c.E.i.r.B.i.I '.&Xh.n.B.d.d.l.U.=.T U.=XQ.~.B.p.n.' * 3 z m r..Xd.9 g ' X.X.` G =.s.>.L.n.Q p.&X$Xc.=.m z Q ` 1.r.r.n..X,XE.$X;XJ.c.U.'.'.c.d.8.r.d.d.v.=.p # u 1.Y m g M d.c.m $ * g z g Q B.$XL.h.d.c.>.p.c.s.v.p.c.E.v.p.r.V 8 V 1.-.,.=.M.v.} m p U M.|.L.L.B.v.r.i.h.>.R z r r.m.i.r.i.W.3Xd.R ' m.3X}.L.s.B.Y.M.p.} g U ,.p.B.s.1.M.p.v.c.B.W.p.r...Q v...} M.L.c.c.c.n.l.B.B.P.n.=.Y r.p.I c.E.E.B.I { #X.XU.y.r.d.0.r.p.l.c.l.s.p.r.v.p.r.1.r.1.,.p.,.Q 7 ,.B...r.i.p.E.|.E.L.M.s.s.Y.Y.c.1.i.v.c.i.@.r.L.s.=.s.s.s.t.s.l.s.t.r.s.c.k.s.s.p.p.p.p.p.t.t.p.s.s.p.0.2.0.r.u.d.s.r.r.r.r.n.n.=.m z M g m c M I T K m c C c ' { 1.Q m } I ' v.=.I 1.s.s.M.s.,.g u I I M.'.P.L.",
"I L.v.r.-.s.B.T.L.T.B.L.E.L.Y.B.L.B.B.m.C.L.h.c./.M.i.p.c.`.'.2X}.m.c.4.Y.3X}.Y./.Y.L.C.,.g.L.' g ..i.r.r.-.g.c.L.'.L.Y.E.}.;X'.h.|.'.i.;.A S m G / G m ..X.L.Y.M.'.L.v.E.E.B.E.r.M.v.L.s.y.p.v.M.M.B.B.L.-.A ,.3X;XE.s.p.v.c.M.=.=.i.v.E.M.M.M.Y.v.r.c.Y p.E.Y.E.B.v.E.&X..V ,.'.E.L.v.L.E.M.M.L..X.X].B.n.'.3X].P.m K ..r.p.D.M.M.M.v.v.'.E.E.L.}.}.,X|.U g g ..L.-X,X.XU.y.d.U.Q } / p =.&XL./ 7 ..n.s.A 7 / d.Y :.'.'.L.8.A S Y =.A =.B.z u 8.U.;.c.B.n.L.c.8.Q M V ` g m 1.s.i.Y.s.s.).c.r.E.L...-.d.U.c.{.W.U.a O B { [ n.X.p 9 < 2 A S A d.L.r.' ' { I S g p >.Y.U.Y.' g i.L.} S =.=.=.c.L.'.[.&X,X-X.Xm.h.Y.{ ` s.d.B.h.n.d.y.d.B.;.g > 7 W..XY S Q g o . + u Y ,.' I W.W.-XL.i.h.s.1.B.M.v.L.c.v.Y.,.' 7 p g A -.=.,.i.c.=.A g g V ..v.}.M.i.p.r.r.r.' m g G c.1.1.8.s..X-X1.>..X.XY.m.v.M.L.L.v.B...V Q ' i.;XL.Q r.s.v.M.E.M.g m 1.L.E.r.c.E.-.@.1.B.p.c.U.B.U.s.{ T r.U.M.c.n.s.m { E.,X.Xc.,.n.l.1.r.p.l.c.l.s.p.y.s.c.s.=.=.1.=.=.Q i 7 ..i...1.p.E.'.E.p.-.,.i.s.r.i...I ' s.p.! 4 :.L.T c r.c.=.l.c.v.c.s.t.p.s.s.s.k.k.s.s.p.p.t.r.t.u.u.r.0.r.0.0.p.s.s.p.p.s.y.P.d.A g m z g S C A 0.E.p.A g m Q ..{ { z C Q ' t.P.s.p.L.c.p.M.-.r.-.=.!.v.r.E.E.U.",
"=.p.A 1.-.....s.c.A.L.T.M.v.Y.c.c.L.C.m.C.B.c.B.m.&XQ ' E.,X2X/.L.4.}.}.m.L.i.p./.&XL.B.4.B.B.B.v.|.}.v.M.c.E.B.E.s.Y.i...}.oX..>.E.U.i.r.c.c.w.A u G s.L.>.U.E.E.Y.E.}.'.E.E.Y.c.M.p.B.M.B.M.B.v.L.c.M.L.=.A ..,Xv.M.L.c.c.c.p...A Q -.B.B.B.c.B.Q V c.r.v.B.v.i.c.Y..XE...i.s.M.-.i.r.r.B.L.'.~..Xn...r.#X<XL.E.B.A Q Y.B.d.n.v.B.v.s.M.B.c.v.Y.M.Y.E.}.=.g m B.<XL.'.B.Y S ' T 7 Q s.r.G.G.=.A > m z 1.c.' { n.s...A ;.s.[ / n.L.1.' L.r...M 8.n.b.c.n.'..X3X;X+X).h.=.I 8.Y.E.Y.D.i.I.J.>.L.&X..u 2 I r.W.U.0.9 > a % # * [ M 2 3 2 9 A Y 1.d.=.=.,.I ` ' m g Q E..XJ.i.V ' B.c.G M Y b S i.&X$X X3X@Xs.r.i.i.s.p.i.r.i.m.h.i.v.n.n.L.Q m 1.d.}.Q u d.U.d.A A Q M I m.E.B.Y.).L.D.B.h.8.i.B.c.s.B.p.r.1.g $ i V g I i.Q U r...u 7 I I g } '.E.p.,.v.v.s.p...I u r.).b -.E.B.L.>.S w.$X.XE.B.i.i.c.i.l.c.' A ,.L.Y.Y.A A E.-X,X.XY.-.....v.|..X|.p.E.r.=.s.,.p.c.i.M.W...Q A n.c.0.y.' m 7 p.4XU.L.s.@.s.1.s.r.p.d.l.s.s.s.l.c.s.v.i.=.U u u u g U V A r.Y.E.'.Y.c.1.,.v.M.r.A g g m g g u = u c.L.C B p.v.G.s.k.l.l.s.p.p.p.2.0.t.s.s.u.p.r.p.t.t.s.s.p.p.s.s.p.s.d.d.s.p.s.l.W.@.2 q g u S T B.E.E.;XU.,.0.p.L.v.E.=.i Q p.s.|.c.1.'.P.-.r.2.t.1.E.,X.Xp.s.n.U.~.",
"^ A U p.A.s.} x.L.L.c.c.x.v.Y.B.B.Y.M.L.L.h.B.L.}.}.=.' ,.C.E.B.r.Q ..B.C.r.V ..}.E.Y.v.c.L.}.}..X,X,...v.L.;XoXE.m.>.m ..}.C.=.m..X} 7 ..}.J.C.r.s.B.L.I m Y.L.v.&XE.,Xv.v.|.E.1.c.B.v.B.c.L.M.B.B.B.B.h.y.i.c.d.=.c.B.Y.s.i.L.>.p g s.L.h.m.m.J.%...s.c.L.Y.1...E.|.&Xr.' ,.;.0.;.U.+X[.=X&X.XW.L.r.c.+X,XU...1.R g d.{.s.d.B.c.m.n.n.J.m.r.%.L.L.c.B.c.Q m Q r.m./ w.c.` Q s.' Q r.>.D.s.%.R A b m I n.D.d.s.L.y.a K X.N u X.D.n.1.} J.B.Y.E.).>.U.U.s.$X,XY.m.B.).;X.X)..X'.y.L...c.}.B.m.U.&XY g / 1.u m R 3 * u A z { ' 7 2 S =.;.=.W  ./ w.r.%.a.%.{ Y 9 g L.L.` S h.J.c.L.8.;.=.=.r.1.'.;X}..XE.c.a.r.s.s.h.m.s.s.c.h.h.h.v.L.B.1.V u %.s.c.} i ` c.s.c.X.s s m c.L.B.J.{.N.m.B.n.c.d.v.w.i.B.i.i.>.b s r 2 R B.).=.g I U * b m V V i.,XB.i.s.s.p.v.c.c.0.c.{.1.T s.n.B.L.T c 8.c.#XP.c.u.l.s.0.p.1.Q ' ].#X=.Q q C B.s.'.Y.d.D.D.B.W.W.W.s.y.y.d.'.{.N.p.M.M.L.' m i ..G.' 8.p.:.r.Q 8.~.G.n.1.r.y.c.s.p.p.v.h.r.s.v.r.s.s.s.s.=.m q g c A u I W.,X'.].~.B.c.n.l.c.c.s.K 9 { 1.' { ) @.n.P.s.c.y.u.n.p.1.s.l.r.r.s.s.p.r.y.s.d.s.s.s.s.s.p.i.i.p.p.i.r.i.s.c.p.p.c.p.s.B.M.m 7 8 g } ' '.&X}.E.L.|.'.Y.&X.X&X}.r.Q ..c.B.M...' ,.A g r.E.E H M.}.B.i I E.Y.L.",
"..-.s.L.c.E.T.-.x.v.Y.B.M.L.B.s.v.B.Y.v.B.L.B.v.L.1.m u g 1.B.s.r.I ~ p.v.Y.c.Y.E...A $.Y.&X&X}.;X|.i.v.|.&X|.1.R s.r.A 4.'.Z.i.C.;Xi.7 A i.%.' '..Xm.R 7 ` i.Q m.&X.X,Xp.s..XM...c.B.M.M.c.Y.B.n.c.c.B.N.c.n.D.w.r.Y.D.L.c.>...g p A 1.c.B.U.h.n.m.B.r.i.c.s.c.E..Xi.s.B.c.B..X.X#X~.'.l.s.-X.XL.c.s.E..XU.D.D.E.` u 8.D.1.y.y.c.m.n.c.B.B.s.r.Y.h.h.y.' i } B.E.d.g s.L.,.h.=.{ ...Xm.G ' 8.r ....' ..J.B.d.d.s.U.0.0.y./ a K I ` m.L.Y.>.' 1.%.m.E.i.B.&XL.s.h.c.'.'.%.=.L.s...&XJ.B.h.' 1.$X{...;.m.i.A z . = M g 3 =..XB.r...8.L.+XL...X.;.I.n.r.<.;.D 9 g ..c.{ > 2 ;.h.n.J.n.i.L.|..XJ.E.}.).).L.N.c.i.s.c.m.J.c.d.v.h.h.c.i.y.Q 3 7 I i.h.=.M r / c.i.=.U i p A c.s.h.E.m.s.s.y.r.p.i.s.s.y.h.s.B.m.I z b } U..X}.L.s.c.c.A u i A -.L.}.c.0.p.s.p.c.s.c.s.B.0.c =.E.d.B.I K A K K G.U.u.c.r.n.n.1.Q Q { :.T g B.:.C / 8.U.n.c.c.y.r.s.n.1.S p ' L..XE.D.'.'.M.=.g u g r.s.) =.l.B.B.0.d.n.W.c.p.s.c.B.s.c.p.c.M.M.c.c.v.p.s.c.y.{ A m A C A 1.'..X'.W.U.U.n.y.1.r.c.p...3 Q {.-XB.=.) r.l.8.i.d.[ { ..s.s.p.s.s.y.s.s.0.y.s.c.c.s.p.p.s.y.i.i.p.p.p.r.1.p.r.p.p.p.p.p.c.v./ 7 g A -.1.-.;X|.'.B.Y.Y./.Y..XY.Y.Y.v.B.L.s.i...m ..v.,.A 1.'.i.=.r.V.p.g Q !.Y.B.",
"Y.Y.x.A.B.Y.s.l u Q p.,.1.E.E.B.E.s.B.v.C.v.s.C.v.~ u m =.Y.L.B.p.p..X,XE.}.|.&XL.Q m =.E..X'.Y.L.L.E.'.C.L.'.s.R C./.C.2X&XY.4.C.}.B.b m ..I R L.h.m u b =.h.c.L.}.E.B.Q } B.' I v.M.B.M.c.L.M.B.c.c.B.B.N.m.B.d.m.W.D.m.r.R p b p V y.).{.{.L.J.J..Xi.{ m.).&X.X'.-.1.c.E.E.c.s.B.r.:.B c U.E.r.r.Q X.U.B.r.n.c./ A y.p.;.n.c.c.N.n.c.N.m.h.h.h.1.8.Y m m c.B.8.m.r.1.Y m / h.A g r.B./ z g 2 1.M.i.r.U.D.D.B.D.n./ { c.c.@.=.r.1.'..XB.=.M A =.c.} ' Y.Y.=.` M.v.L.s.m M 1.X.>.W.1.Q I } D.,X.Xc.c.L.d.s.y.A z A 8.n.}.{.L.+X<.8.B.'.8./ w.U.{ { $Xh.g u D A w.i.>.Q { s.X.' L.Y.r.B.{.'.m.m.Y.'.B.} =.B.B.c.m.m.J.c.h.c.h.h.c.B.} * * 7 S c.s.1.R b ' r.Q r g A / w.}.r.>.B.{ =.y.r.i.v.s.y.y.i.s.c.c.n.G g h.W.-XE.v.Y.U.B.=.Q U ' -.Y.}.E.p.r.p.s.p.s.p.M.r.A g m =.c.1.s.1.c.d.@.Q L.L.r.d.0.s.d.r.C u 7 z I ) c.C z ..L.8./ ..;.y.n.y.s./ 9 2 r.-XD.D.-X;X.XM.} ' } A =.d.:.:.n.D.s.y.l.G.#Xd.s.y.s.s.1.s.c.s.p.p.p.p.p.M.d.v.p.B < a ' X.r..X-XD.n.L.l.r.s.p.y.p.1.K 7 i r.].].M.} I :.r.r.n.r.g ' =.r.c.s.c.n.u.p.d.p.p.p.s.s.p.i.r.r.r.i.s.s.s.p.i.r.s.,.i.s.p.p.p.M.-.2 2 g A p.M.E.&XL.s.1.s.s.L.E.B.B.M.p.i.v.B.v.Y.M.-.L..X}.=.....A r.V.s.I g ..c.i.,.",
"p.x.M.|.L.s.=.A g l g - - U p.L.M.L.Y.m.c.Y.B.C.E.i.g i 1.E.i.L.'.E.|.E.C..X.X'./.v.s.B.E.E.Y.M.v.s.C.v.4.c.E.E.E./.&X;X;Xg.C.1.J.J.1.u g s.Q b B.r.3 s A 1.J.Y.E.W.v.} u i -.A A v.c.L.M.c.B.c.B.c.c.m.m.b.c.c.L.M.m.c.y.' m u s b { J.L.;...=.L.U.,XW.h..X,X&X'.E.L.}.{..XL.r.Q Q I K =.P.~.A B z Q d.B.v.n.r.d.s.y.c.r.r.L.v.m.B.n.c.m.c.i.i.B.i.' I ' A ..B.` 1.y.' u u m c.i...S b 3 3 3 u =.}.'.)..XW.'.E.d.s.{ 8.G.D.=.{ B.c.U.1.A ..r.y.L.X.h.X.y.s.2 Y ,.1...Y g g X.h.).'.s.R u r.,X}.n.n.y.n.B.c.1.{ { Q .X,X'.L.;.Q g ' d.n./ ..n.W.y.N.W.S Q w.Y ;.'.Y.L.h.d.c.>.i.L..X'.$X;XY.1.s.s.J.w.V ` c.h.r.h.c.m.h.s.c.s.h.c.U.' * g g V p.h.h.w.>.s.=.s r / v.L.W..X} ' D.;.r.c.h.v.m.r.1.s.c.c.J.s.s.A p h.p.s.r.=.1.1.%.' V =.v.v.i.,.M.s.p.s.s.s.p.s.M.' 4 7 ' n.s.' p.L.n.B.W.E.#XL.s.c.d.d.L.U.i u c.[.s.@.p...1.s.D.L.8.1.r.d.B.c.c.M 7 X.-XD.D.4Xn.c.L.v...c.v.A V ) { :.P.n.0.1.G.W.G.8.r.r.p.l.s.p.1.p.c.p.s.v.p.M.i.s.r.I m 1.~.~.,X#XD.c.c.c.c.p.d.s.r.1.Q C I d.E.D.D.B.,.=.r.p.p.r.s.g C @.;...0.c.n.s.r.r.u.s.p.i.y.s.c.p.r.r.i.s.s.s.p.p.i.c.1.i.s.s.p.1.1.Q = i m g -.B.}.v.r...-.-.r.r.s.J.p.~ ` s.v.p.c.B.L.Y..X'.B...Q A ..M.M.M...Q L.v.s.r.",
",.E =.6.U 1.B.v.x...d g g m s.'.g.'.C.E.C.L.v.B.M.i.F g ..L.v.'.E.B.s.i.Y.;X$X'.E.C.M.C.L.E.Y.v.M.s.c.i.p.M.B.L.'.'.&X&XB.A 1.s.m.s.Q 7 V 3XL.=..Xr.s N G i.J.L.}.}.c.) V g ,.r.' v.h.J.v.v.M.v.c.c.c.c.m.n.n.m.L.d.w.i.=.G z m b Q %.d.h.y.s.i.E.;X}.L.Y.E.L.L.v.L.L.&X,Xn...P.r.1.L.,X[.;.@.A g 9 z 8.U.c.d.D.n.D.w.;.r.s.B.d.B.B.n.n.B.c.r.8.y.X.n.|.' ' n.y.,X{.m.n.I S h.E.).s.=.' 1 p I A n.c.Q X.B.B.1.m r.{.=X[.D.D.d.n.B.D.s.I g r.&X~.L.W.<X&XE.8.p 7 m A z r 7 M d.&X;X{.L.s...Y.$Xy.1.r.r.+X-X'.n.B.y.B.<XU.G.y.g 2 6 G ;.X.M ;.D.D.[.U.=.Z W.=XN s.E.D.U.m.s.1.1.B.B.)..X.XE.i.G w.v.m.h.h.Y.Y.s.h.h.h.m.h.h.c.h.c.m.m...s I / %.w.s.i.L.L...u z 8.s.J.1...1.I } L.c.h.d.s.c.n.i.d.h.h.y.n.r.y.A 9 m z Q w.1.....{ I i -...s.B.s.E.s.s.s.c.c.s.s.p.I = C p.d.c.s.0.L.i.n.&X-X#XB.y.1.l.d.n.l.u g B.l.Y ' c.c.y.B.#XE.s.=.c.L.M.8.Y 3 z =.U.B.W.+X{ ~ s.s.' r.r.V A Q ' :.{.s.1.{ n.{.;.0.s.s.p.s.s.=.m } B.s.,.i.y.s.r.r.:.=.n..X.X].].n.s.E.D.r.c.n.n.l.p.0.@.1.G.d.l.i.D.B.1.0.8.s.l.l.p.g A / K I 8.p.r.l.s.0.s.i.r.r.r.i.p.i.r.r.i.i.i.r.r.r.i.i.1.p.s.i.,.I m m 7 A A i ' v.p...-.=.p.i.i.=...r.I i F ,.g.c.s.i.-.c.L.c.' O.c.v.L.P.,...T.E.i.p.i.r.",
"A.s.M.M.p.L.M.L.p.r.U ^ ^ U -.^ i.M.-.L.'.L.v.}.r.m g U V A A A g I =.c.}.E.J.Y.Y.p.r.c.B.M.B.B.c.B.B.c.M.M.c.Y.v.}.}.E.v.I >.B.J.B.1.I u 1.>.c.;Xr.} R G c.J.}.Y.p.T m A g U Q s.v.v.B.v.c.v.v.n.b.n.n.m.B.B.B.n.c.y.s...V g m B.n.c.L.'.&X-XE.'.}.B.c.h.d.B.B.L.Y.E.}.G.{ m l.P.&X+XG...i @.C 7 A D.<XB.1.v.s.d.d.=.=.s.d.n.B.B.B.n.n.D.n.s.y./ L.{.W...1.s.d.J.s.=.r.i.Y.}.)...m Q c.Q z G S ;.w.;.s.y.1.=.Q B.n.:.) ) l.U.#X[.&XW.y.r.L.+Xn.W.+X.Xn.d.;.A / ' I A m z >.+X}.E.n.i.J..X,Xm.=.L.r.i.-X'.D.U.W.+X{.'.D.U.=.4 m G S S z p =.B.D.w.W 1.D.R.D.S ;.m.L..X+XW.d.c.J.&X{.W.m.r.=.G c.c.s.s.c.L.B.r.a.c.c.B.c.h.c.h.c.c.J...b s.J.c.>.{ A ..' 2 u ;.B.h.c.=.Y A p Q D.s.r.w.r.v.c.r.n.s.c.s.c.>.=.I s V A I } ' I Q / ' A r.} v.E.M.B.i.i.s.v.c.c.s...4 i Q 1.n.s.y.]..XL.{.{.n.B.n.p.l.c.c.L.1.p z / ..m @.'.&Xn.c.l.z p u Q { S z = u A A ..n.L.c...I i.=.V T ' V U @.Q Y d.1.n.U.4XB./ p.c.c.i.,.1.c.} ,.J.p.r.v.s.p.p.s.p.p.B.G.d.l.s.r.d.P.U.c.p.c.c.c.d.d.l.l.n.s.0.r.U.n.0.s.y.s.n.W.X.g / B c 8.s...K ..1.1.r.1.r.y.i.1.,.1.i.s.p.p.r.1.1.r.i.r.i.s.y.i...i 8 2 i A m g ' B.i.=.>.s.s.B.s.p.-.Q g R ..I ..g.1.u i ..,.=.i m I L.E.M.v.'.;XB.s.r.t.p.",
"E.&XT.B.B.s.=.B.M.'.c.=.Q ^ ..g g =.F u 1.L.r.' R = i 4.P g Q ' A i U c.|.B.B.L.c.1.i.L.E.M.m.C.B.G.v.M.Y.L.B.L.B.E.m.p.i.=.g.Y.B.L.L.s.' } a.;X$X'.c.=...m.).m.} g 8 A 1.p.Y.L.p.=.s.B.M.c.v.M.J.B.m.m.B.J.J.B.D.L.n.B.X.V m G 1.r.L.3X,X}.$X'.h.i.J.E.J.L.E.L.L.v.Y.B...C 2 T B.0._ B c c c.0.8.U.B.d.D.U.G.c.B.B.n.n.n.n.B.n.n.m.n.B.G.B.n.B.E.c.=.=.m z ..L.i./ z %.,X5X1.V h.X.I -.1.=.r.c.m.B.p.X.S y..X+X+Xs.( Y ;.~.W.W.D.'.+Xn.B.B.D.B.L.D.A i g u -.W.J.y.>.1.p.'.,XB.m.c.m.E.'.).w.s.d.8.s.{.E.L.{..X+Xn.1.y.B.d.Y S 8.X.;.o.;.d.n.n.9./ 8.b.a.X.W f.J.Y.B.w...' J.{..X).B.c.w.;.' d.m.b.c.r.r.m.c.c.c.c.m.c.h.c.s.c.h.E.%.G }.W.r.} Q g r 8 z y.D.r.h.J.{.B.I 7 Q E.m.c.s.r.d.1.' ;.i.c.m.v.;...{ I / 1.%.U g p Q =...V ..L.;XL.v.&Xv.s.s.v.s.v.c.S 7 i 1.B.r.0.G.~.y.=.n.n...1.B.l.c.@./ n.T $ u 0.Q K r.,X'.@.=.0.p m S M * O = u S A =.,...E..XI U 4.I m Q ..T Q W.p...p.r.G.<X#XT ) r.d.l.s.0.d.B.c.s.r.,.r.p.,.i.p.c.B.c.p.u.c.p.s.l.c.n.G.B.r.l.0.-.1.0.p.p.0.p.1.8.l.s.0.r.r.c.0.v.) m c i =.P.0.A 4 u Q ,.0.p.s.c.s.i.i.s.c.s.s.p.i.r.r.r.i.r.p.i.,.r.} m I V A V b Q i.'.B.1.1.i.i.v.g.c.s.-.' ..-.} =.-.I A V A g g g U Q r.' v.<X*Xs.,.2.1.t.s.",
",.v.1.x.L.E.c.1.1.A.`.Y.x.c.E.L.-.L.p.i v.'.Q . 2 V i.|.-.' c.L.A.I I r.p.Q ..=...} 1.Y./.C.s.r.v.B.L.E.B.c.B.B.B.s.c.L.g.g.Y.C.L.J.N.r.Y..X;X}.).L.Q L.,XJ.;XE.,.I A ,.p.c.E.Y.} g ,.M.L.B.L.E.L.B.c.v.J.Y.U.J.E.E.m.U.=.V S %.d.p.L.$XE.m.J.i...>.c.h.U.).c.).G.L.Y.L.c.) 7 s.:.i c u / 0.l.=.n.r.p 3 ..n.n.d.c.c.B.n.y.n.U.s.n.B.n.n.D.B.D.E.c.Y p z 7 u =.D.c.Q u h.m.Q I Y '.r.Q y.E.J.W..X'.;X+X1.A B.W.8.D.W.+XU.D.-X[.D.n.s.s.I y.B.c.L.c.Q i u Y 8.y.d.B.J.c.Y.,X,X{.D.h.r.B.D.s.B.i.s.y.B.c.n.B.d.s.n.y.X.Q r.M.d.1.n.W.E.&XW.).U.n.d.a./ { =.<.Y =..XB.Y.i.Q V V E.&XW.).n.m.s.i.d.L.h.i.c.c.s.h.s.h.h.s.c.h.s.d.i.h.c.n.r.%.n.=...U 1.c.r...p.y.X.s.m.=.i.c.>.=.s..XL.J.h.8.w.=.` =.-.=.;.>.%...%.Y s d.Y.r.G A h.,XY.B.v.,X3X}.}.;XE.M.c.v.i.v.v.m 9 m l.D.=.s.D./ 4 o T s.=.=.s.1...;.c Q A c m ' ~.#X.XE.I i =.B.E.B.U.s./ M g A A Q y.B.L..XB./ } c.Q ..r.M.p.r.U.B.c.'..X'.4X8.g r.s.y.0.p.0.n.p.c.p.r.c.s.1.r.r.d.d.r.r.y.s.l.l.p.r.s.s.=.{ =.1.T T ;.r.r.r.r.=.1.s.c.n.s.0.r.p.B.l.K m g { P.{.:.K m g ' n.c.s.p.i.i.p.s.s.p.i.i.i.i.i.i.i.r.i.i.-...,...Q c.Y.,.U I B.&X|.v.1.1.>.s.p.s.1.1.r.r.} ' w.=.A m V g c I ' ..1.p.c.M.,XXX}.,.1.t.t.c.B.",
"..Q u g ..B.r.O.s.E.L.E.&XOX,X3X'.M.B.E./.L.v.s.E.L..Xc.4.p.v.L.Y.M.' s.,.7 m V A A ' c..X|.v.i v.E.E.B.L.L.M.v.M.M.M.M.M.B.C.A.c.w.h.s.B.$XE.c...} u ' &X.XB.J.E.c.=.,.Q u A ..v.' Q s.E.E.Y.Y.Y.B.D.E.J.E.+XL.s.n.L.1.} m I n.B.}.L.J.n.J.B.1.w.w.r.w.1.s.I.).].E.L.i.v.p.i.n.' 2 g a @.l.G.n.W.' 7 m n.B.B.B.n.D.L.n.s.c.D.n.s.l.B.B.D.B.y.d.[ m 9 2 2 z 1.,X;XL.D.i.I u b { %.u I L.L.c.J.L.&XE.1.R y.L.;...8.c.+X{.U.+X~.D.c.D.s.X.r.D.n.G.c.{ M m ..8./ '.1.=.n.c.L.U.D.B.i.r.D.r.=.i.8.c.s.' =.r.d.' r.n.d.=.=.d.r.c.d.d.y.'.).=.8.r.n.Q.r.z Y d.L.R..Xa.Q i...} ;.c.$X).L.U.c.B.J.m.J.h.m.c.s.s.m.c.s.g.s.c.m.h.s.s.c.v.B.s.=...I I b p m.E.c.B.h.g ` J.c.n.Y.y.c.,X$X$XU.L.n.I G Q { ....` =.;.X./ =./ m 8.m.n.c.L.+X-X.X|.}.}..Xv.c.}.r.=.c.L.p.v.s.m C Q p.n.y.~.-Xr.I i 0.c.G.+X'.p.=.' q m u i u ' +XP.M.} g i =.B.B.L.n.n.n.=.A A m I c.W.L.U.D.1.s.i.-.s.c.i.....-X.XB.G.;.{ P.K m u.r.1.1.p.0.s.v.r.c.i.r.i.i.1.r.r.p.1.0.d.s.y.p.p.p.s.d.s.0.:.' K =.r.r.=.:.0.=.y.s.n.L.d.1.r...' I m N K 0.u.U.) @.@.r.U.E.s.c.s.p.p.s.s.p.p.r.i.p.p.p.i.i.i.p.1.1.1.1...=.c.L.Y.p.c.|.,X|.p.-.>.r.-.p.p...i.=.r.r.,.=.-.=.U K m U t.c.c.M.p.L.E.E.].i.Q i.B.s.s.s.",
"Q } =.B.|.M.*.-.'.,X'.'.,XOX`.L.c.s.s.s.i.s.B.Y.,XL.c.r.c.c.v.B.B.L.&X,Xv.m m =.V Q c.)..X'.Y.-.' / 1.B.L.M.M.M.M.M.M.M.M.B.C.L.s.s.s.h.w.s.m.` b g 7 h.B.G 1.c.v.-.' L.r.V u m ,.s.' A s.;X.XB.D.+XE.v.L.E.c...b <.J.} V m ..'.'..XB.m.c.B.m.w.p.i.p.i.r.d.B.m.M...1.} g g { ..u A [ [ l./ a ..;.Q =.Y.'.D.D.d.n.d.d.c.n.B.n.s.B.B.U.B.c.n.r.A u q a I Y z I c.h.1.B.w.y.B.i.c.B...;.d.c.B.L.r.1.' b 1.1.;.L.r.p.B.d.=.D.r.=.u.n.c.8.) { 8.1.r.8.I =.'.'.E.~.;.r.B.B.L.Y.L.n.h.r.i.L.c.s.B.i.,...S X.s.y.{ 0.p.n.1.;.r.y.B.s.' Z <.:.A %.{ =.c...[ B.D.@X4Xn.f p s.y.d.1.U.U.'.U.B.E.m.B.Y.h.J.h.c.h.m.C.m.g.g.h.v.m.c.c.v.m.m.d.c.w.1.' s m c.3XJ.s.s.1.h.W.{ s.v.c./ ;..X'.J.J.B.i.b r s V I ' =.;.X.1.%.%./ V =.s.d.B.;X3XB.v.s.s.s.v.,.8.M.i.A I i.Y.M.1.' T X.d.B.y..X&Xn...@.U.L.].&XB.8.{ i I u 2 A N L..Xc.@.A m Y =.G.;.c.W.,X,Xc.I z S B.'.1.s.E.r.r.c.i.$...Q m i g y.y.'.s.C A { a T :.r.1.:.=.p.d.-.1.Y.,.4.r.4.i.v.r.r.s.l.y.0.p.1.0.p.s.d.d.s.s.@.=.=...8.=.' 8.l.l.D.n.p.i.@.I u q i i c N 8.n.0.@.1.s.W.+XU.y.s.p.p.p.p.p.p.i.l.p.0.r.p.c.s.i.=.,.r.i.v.v.i.p.1.s.-.y.|.].s.Q ..' r.i.1.,.=.p.g.r.=.1.p.c.m.r.K g ..L.L.c.k.t.,.v.E.E.-.A ,.s.t.t.t.",
"l c.|.|.&X|.E..X|..XL.T.E.1...c.v.m.M.g.s.B.L.M.>.4.i.1.=.' i.E.L.v.B.$.....$.-.~ -.E.E.).E..X&Xv.' =.L.D.l.n.M.M.M.M.M.B.B.L.L.r.c.Y.r.s r I b G Q =..XY.%.c.s...I A M.,.} i.'.c.p.s.-.g A =.V A J.E.c.J.L.' . . 1.}...b I 1.c.E.W.c.c.i.h.c.h.c.d.c.c.c.c.c.y.A m Q A u p c u u r.~.n.0.0.=.) u ;.m.'.'.D.M.U.c.c.M.B.c.h.B.L.d.8.n.d.9.8.n.) ) 8.8.n.U.y.[ M 8 r { u %.;Xm.y.>.` w.n.L.n.r.m g b G m.s.;.X.A { 8.=.8.n.K Z D.D.r.{ N p z a a a 3 @.u.8.=.[ S w.Y.M..X&X).c.s.d.h.s.w.i.h.` = = g s.U.1.' y.B.c.8.r.s.n.D.y.A p 1.w.` d.w./ Y g ( W.d.U.'.S 3 V W.+XE.E.'.'.B.d.L.B.M.B.c.d.h.s.c.c.m.J.B.h.c.h.c.c.h.c.c.c.h.h.c.i.8.=.A } }.'.c.r.c.J.;X$Xs.L.L.B.i.U.&Xm.1.D.D.s.V s M m 3 g y.B.i.s...R R m s.Y.D.L.{.}.m.c.i.d.c.v.r.p.s.r.} 7 u 1.E./ m M M ' c.c.{.s.@.=.c..Xn.L.E...p 8 m i g / z T '.r.:.' p / r.p.d.E..X.X{.'.B.d.D.'.<X{.Q ' =.g ' v.1.} Q A i u i { 8.y.A K ) C i g ) s.:./ Y l.G.m I ..=.p.4.1.n.p.d.d.s.s.s.s.r.8.y.d.d.s.p.s.l.p.@.{ ) Y @.8.s.d.s.n.p.1.=.A u Y { { A C T r.1.I :.i.P..XL.y.p.i.i.i.p.y.i.i.i.p.i.i.p.v.c.i.,.1.s.v.v.B.M.=...1.1.} ,.L.p.Q A g 8 Q r.r.p.p.s.s.r.p.E.|.}.}.Y.' U s.L.r.i.B.E.E..X;X&XM.,.c.c.p.p.s.",
"u v.`.T.c.r.1.E.'.A.B.A.`.r.E c.M.B.L.B.M.L.v.,...1.$.U u A L.'.E.C.p.k 7 7 r.|.p.c.|.B.m.s.L.&X<XD.c.L.B.c.M.M.M.M.M.M.B.B.L.L.m.s.L.` 1 r 7 g g I s.h.C.}.B.m.r.V 7 -.s.M.E.L.c.Y.B.p.Q 7 2 . = G w.d.h.D.s.M ..E.).' u m ' 1.L.B.a.c.s.c.h.c.c.c.m.B.M.B.n.i.7 A Q g A =...T 8.@.0.l._ 0.W.n.E..X8...d.W.B.n.M.D.Y.B.i.s.B.E.o.4 D ) y.n.W.D.G.D.c.U.u.T 8.n.U m %.%.w.i.A i.' A w.E.&XY.E.B.m G ..=.I X.` m B M m ) c p u 0.n.X.( m 9 p a q a r.=.X.Y 2 ( n...L.$X5X;XJ.d.c.i.h.r.i.m.B.=.1 = m 1.1.A m ` y.d.;.r.d.n.r.;.m S n.D.;.Y Q / 9.m 9 z 2 =.a.9 g w.).).E.'.c.J.../ r.1.h.L.n.D.m.i.h.s.h.c.h.h.c.h.h.c.h.s.p.i.i.c.y.s.%.R I 1.i./ } ' 1.L.'...I r.} } c..XY.w.r.h.p.%.g V 8.w.Q } U.J.=.R u r m A =.Q 1.3X;Xh.i.c.r.s.p.i.1.p.,.i.Q A ,.Q 1.g = V [ P.&X]..Xc.D.c.P.'...,.G...3 g I g S 0./ { '.=.~.W.T 1.n.&X].{.W.N.s.i.s.B.{.-XP.n.1.;.{ g M ..I A m g g A ' s.~.,.Q l.p.@.c c @.c.r.X.{ 1...7 U i I 1.p.s.p.:.n.G.c.s.l.l.1.s.l.c.d.p.r.p.l.;.K I / C ..8.8.c.c.l.r.c.;.m ' 1.0.:.' ..=.@.g U ../ L.&XG.0.s.r.i.p.p.i.i.i.y.1.i.c.c.s.i.1.,.r.p.c.M.v.i.U } i.,.=.r.p.' V A I V $.g.c.M.v.s.s.L.'..XE.M.M.s...g U B A p.E.E.,X&X'.E.s.,.p.r.r.r.r.",
"y M.E.}.x.r.Q r.L.*.Q V i.`.1.M.M.B.C.B.c.v.m.g.E.E.c.,.m ..&XL...i.v.Q ' -.Y.Y.} 1.'.M.B.p.M.&Xc.G.L.G.G.D.n.n.M.M.M.B.B.B.L.L.m.m.J.A > u 7 A g u w.r.i.c.' i.c.M u ..Y.Y.Y.' Q Y.s.I V I Q g u I w.J.L.L.'.E.{.E.c.r...' r.).W.B.r.s.h.D.s.s.c.c.m.B.m.B.B.c.p.Y.E.1.=.P.~.n.;...=.~.U.n.u.u.L.s.;.c.d.n.n.c.c.c.n.c.n.L.L.d.K Z l.d.U.G.l.n.u.:.:.u.Y z @.;.>.>.h.Y.8.V * r.W.J..X'.}.B.}.;X}.J.J.n.I >.E.8.G.s.9.X.N ) z c ) g a a a Y [ ) l.l.a { @.{ u.n.J.W.,X).h.r.y.i.;.v.B.E.E.L.D.%.I M z u 7 9 g X.E.d.d.n.L.c.y.M ;.n.c.n./ s.n.R.8.8.8.o.D.w.z X.W.c.B.$Xn.i.w.y.>.;.s.d.L.E.h.B.i.s.s.s.h.h.s.h.c.v.m.m.h.i.s.h.n.v.L.;.A A r.c.;.b ` E.J.%.u m w.w.c.$X;Xc.....' } { G R d.B.s.Y.E.s...S s g b m =.=.B.3XD.>.L.L.s.M.c.p.p.M.i...,.-.s.-.Q 7 =.r.L.<XP.B.l.r.n.L.D.:.7 Y ;.m q m M Y p.c.U..XE.X.c.:.=.].,X4XL.8.:.=.1.s.s.r.8.c.1.X.;.=.../ z m u g m g A ..s.p.c.=.1.1.@.D.) K ] Q @.r.r.I < u V A =.E.Y.B.B.E..X'.~.L.c.c.r.l.l.l.s.p.s.d.c.c./ 7 7 z { @.c.y.r.1.:.r.{ K 8.8.../ I K K 0.c.p.G.c.+XE.=.{ @.r.y.s.s.p.i.p.p.i.s.d.s.i.r.r.p.p.s.s.c.p.1.A } 1.,.p.c.r...Q A ~ >.g.g.g.s.p.v.M.'.'.M.r.p.c.1.} Q p.1...Y.,X3X&XP.v.s.=...i.v.i.i.i.",
"=..X'.A.=.=.A ..r.=.6.1.A.`.1.i.Y.B.m.M.M.C.Y.L.Y.'.oX,Xp.c.&Xc.8 } E.$.r.&XoXL.g.B.}.M.'.p.i.c.I u.U.G.B.B.c.n.B.B.B.B.B.B.B.B.s.).J.m 1 V %.r.` G s.'.c...G R Q u s ' v.c.}.v.=.Y.Q m s.B.=.m S J.).J.E.Y.B.m.s.c.h.E.U.L.)..XL.m.s.r.8.c.h.m.c.n.B.m.c.n.B.B.L.}.v...;.M.p.y.n..X.X#X=X-XP.U.D.Q M y.n.:.r.U.c.B.U.L.L.L.y.Q 3 a ) z X.D.d.d.u.n.D.8.m Y l.8.r.L.m.B.s.r.=.L.Y..X&Xh.y.s.)..Xm.' %.1.d.Y.U.U.E.L.L.0.9./ m ( Q a a N T u.D.D.d.:.N 0.u.n.d.E.L.E.&Xr.' ` / Q 1.m.L.).J.h.c.1.' Y { Q Y m m 1.n.n.d.B.U.U.s.9 T r.w.=.3 s.[.W.b.b.L.E.'.' g r.h.} E.s.' 1.1.B.Y.B.L.E.E.D.d.s.a.c.m.c.B.m.h.c.c.c.B.M.c.s.h.m.s.h.s.=./ I w.&X+X X{.i.' w.} u %.Y.&X,X{.h.<.G m R >.>.' w.c.B.Y.J.h.h...U A M =.d.Y.;X$Xv.s.c.r.,.s.s.p.p.v.1.=.-...Q p.p.s.M.&XU.P.y.l.@.;.B.'.'.p.Q B.=.* m 0.l.D.L.u.n.y.m p S I L.{.P.B.d.{ X.1.r.y.s.s.s.1.;.Y I G m A g m u A =.=.s.p.M.G.=.g < 2 m l.l.:.0...p.s.0.' / g i -.Q v.C.L.M.,.1.) / ' =.v.v.c.c.l.d.d.l.l.l.s.A u A ) 8.:.=.=.=.p.s.:.:.r.=.Q I K C m p U Q { W.;X#Xr.' r.c.i.p.s.s.p.p.p.s.p.p.p.s.s.c.s.p.v.M.c.s.s.c.I ' s.s.M.s.i.p...m s ..1.,.g.s.1.s.c.Y.M.i.i.m.c.Q g V p.'..X,X;X.XL.1.....' ] r.c.s.s.s.",
"Q ' I P m u m r.,.v.T.E.i.E } i.Y.M.v.M.B.Y.L.c.C.B.B.'.m.E..XB.g R L..X&XE.=.Q B.Y.B.,.Y.r.1.-.K { l.L.D.c.c.B.B.B.B.B.B.B.B.B.J.Y.s.u r B.&Xh.R %.%.i.r.` I u u 7 u Q v.L.E.,.p.B.E.,X&XM.c.Q ..{.E.i.B.L.c.i.r.m.h.m.s.B.L.c.h.h.i.>.=.B.B.J.m.N.D.B.c.m.D.B.v.B.Q u T c.c.E.&X.X-X-X].~.l.c.D.d.s.D.B.{ / X.1.c.E.B.1./ M 7 3 { D.n.D.n.d.d.d.X.;.c.D.D.I.D.L.M.d.n.W.L.B.}..X;XE.>.%.w.B.Y.p.' ' S L.'.=.c.y.s.;.=.l.[ u.-X4XW.d.:.:.n.n.d.u.n.z f.I.y.c.n.X.J.W.y.Q 7 9 ' s.c.m.m.c.h.h.1.I X.W.s.{ ' { { r.L.L.Y.s.y.8.p f ( / Q m L.J./ 2 Y '.-XD.b p u.w.>.'.I I ;.d.D.s.s.c.$X'.d.L.c.s.m.m.c.B.B.m.m.c.c.c.c.h.h.h.m.J.B.s.d.c.J.'.3X3X3XL.>.U.3X&XU.{.3X.XY.i.w.r.m s I ..Q A c.'.'.B.L.c.i.I g A { c.L.{.$XY.n.D.h.-.=.p.l.v.c.v.r.,.r.I ..3X.Xv.s.d.1.y.s.l...r.&XL.n.L.G..X:.q ' '.n.#Xr.0.D.{ ..=.{ y.~.B.s.r.r...1.d.d.r.r.s.c.Q Q S Y I g i p m i R p.,.M.1.p.p.:.' T =.@.{ T s.c.G.L.;.K } r.' ..=.* i 1.v.m O : O X $ q =.d.p.s.d.l.l.d.u.y.{ c 1.~.~.~.n./ ' ..=.=.Q { 0.C C i q m :.c.B.;.p..X].l.1.=.y.0.i.p.s.s.p.p.p.p.i.i.p.c.M.v.p.1.p.s.p.s.c.v.I =.B.M.s.1.p.p.T m V =.1.i.M.g.1.i.v.L.M.c.h.s.=.g = A c.&X,X.X'.'.s.....=.-.i.k.k.p.p.p.",
"8 A U i m m E ..m i.p.v...A s.c.B.Y.E.Y.B.L.Y.B.c.B.i.i.1.B./.'.,.r.p.E.c.I m k p.C.s.' r.A I A A i ' L.U.n.B.B.B.B.B.B.B.B.B.B.L.m.Y.r & Y.L.V ` h.G u R G m b V Q S } M.}.M.m ' }.}.E.M.r.E..XL.D.m.E.E.c.d.s.B.m.r.B.h.h.m.c.B.s.>...r..XL.s.B.B.J.J.B.D.J.m.L.c...g 7 s.].{.,XL.n.0.:.{ c K c.d.D.n.c.L.N.u 3 m ' / z 7 9 9 K :.d.[.D.o.@.;.K c N T X.:.u. X8.y.Y.v.'.J.D.L..XE.c.c.B.c.n.).h.U.s.} L.D.Y.s.L.E.{ 0.E.U.-X[..Xl.=.[ 8.W.+X{.+XU.8.D.D.d.d.n.'.E.I M m * p E.n.B.B.s.8.i.s.i.m Y c.A z r.n.M Q r.r.-.3 $ u 7 z z z S I w.y.X.I  .c./ b N ( f.r.s.{ z m R %.w.{ Q m.+XU.c.s.m.s.h.s.i.h.c.c.b.m.c.h.c.h.s.h.c.h.s.s.d.i.+X$Xy.B.J.c.c.&X'.Y.}.}.D.>.8.1.1.y.b u Q / s b '.&Xs.r.J.d.>.M z ' B.$X,X.XE.J.c.c.h.i.1.i.i.s.s.B.v.p.L.p.&X|.'.B.1.:.p.r.y.p.r.s.c.r.Q d.B.y.@.:.L.E.p.L.E.].E.,X}.@.=.5XP.r.=.p.:.s.s.d.s.y.s.f.8.M p m g 7 g g r g m ' 1.m } ' s.s.d.n.B.c.y.G.0.0.y.'.{.s.' 1.@.p.1.V ..} 1.r.: 2 9 9 A u . c :.:.0.p.l.l.s.p.r.Q c M i m T 1.p.r.s.Q A M S ..c z A ..p.c.y.c.s.E.-XP.@.;.=.r.p.i.i.p.p.p.p.i.i.p.i.i.p.p.p.i.r.c.p.i.s.r...7 } s.i.=.-.n.-.u A ..s.v.v.c.r.s.Y.Y.E.Y.L.v.s.s.-.p.E.}..X&X}.V.t.' ' :.2.,.i.c.k.s.s.s.",
"K s.p.l.) :.L.P.n.r.:.@.:.p.!.p.c.Y.Y.|.Y.E.B...s.|.c.v.v.c.B.L.l.c.B.r.A g Q 1.B..Xi...p.' u A 7 7 U p.M.M.M.M.M.M.B.B.M.B.J.L.E.L.B.e u ' } m ..s...A i A A g V Q P v.}.M.M.Q V s.M.i...} >...J.U.J.W.L.s.c.c.B.b.h.c.m.B.B.B.B.c.g.B.E.E.C.c.m.L.c.B.M.M.E.M.G.P.@.s.' s.<XL.:.p.=.r.r.m u A d.D.c.L.c.U.B.m g I [ g g m S M Y S :.n.u.0./ 4 > a x p a d.[.G.r.y.c.M.-.S h.Y.E.s.>.Y.s.' r.=.%.h.X.d.&X,X).). X&Xc.+XD.r.W.d.8.S s 7 r.,X&X+X&XL.<Xd.[ +XU.n.+X8.u < D { D.U...X.B.r.d.c.b.[ 2 Y '.N.1.c.J.8.c.I 6 3 & % r r s / ;.<.;.y.r.L.'.I.n.` ' %.a.R.U.a.R A ..G Y Q 7 S $XJ.8.h.s.n.h.i.s.c.s.h.c.c.s.s.s.h.c.h.s.c.n.n.s.y.n.B.=.s } w.' ` h.c.s.J.n.@.{ @.T ..Y 7 S 8.8.I %.L.r.b A s.%.M b m 8.,X;Xs.i.m.L.y.i.c.r.r.i.s.s.B.m.8.s.d.m.U.).R.c.w.h.s.p.h.m.r.s.s.r.=.i.d.-.s.$X,XW.s.c.p.,.{ E.D.8.U.&Xv.y.1.8.s.s.r.w.s.c.s.s.;.u u b w.Q A / d.r./ i.m.I ;.).'.m.c.J.L.m.r.c.y.d.U.,X;X#XG.K A A i T s.B.l.} < m A m u c i * < I l.c.r.p.l.d.0.X.=.i 2 A r.1.1.D.s.g m V C K z ' n.p.c.L.n.r.P.&X'.l.@.;.p.y.d.p.y.y.y.y.y.r.r.r.p.p.y.0.r.p.l.d.d.c.r.s.Q g ' r.0.0.r.@.c u Y t.s.M.s.=.1.L.E.|.E.A.v.g.p.p.s.T.A.A.B.B.A.r.P A | ,.,.1.s.c.s.s.p.s.",
"u.G.L.E.k.s.G.c.A c @.K K n.U.O.i.E.M.B.E.&Xi.8 A P.Y.B.v.M.M.p.h.c.'..XM.i.E.5X;XE...} M.r.A A A m ' c.B.M.B.L.M.M.M.M.B.B.L.Y.E.L.v.e 7 m A U Q E.v.=.F m V I -.s.c.c.r.p.E.B...=.r...V A =.Q } m.n.J.B.c.E.c.N.N.m.n.m.B.B.J.M.c.c.B.Y.Y.B.v.B.B.M.L.M.s.C.E.B.n.U.0.p.5X+XB.p.d.I [ C I Y ' .XB.d.v.B.c.{ m l.E.P.s.{ m g ' @.X.n.=X8.9 u z a m I X.u.W.d./ =.$XB.J.c./ w.B.c.m.c.c.=.} h.8.y.=.>.W.$XR.w.a.h.J.I.y.y.>.[.I.{ 9 2 S .X4X'.U.B.c.U.f.r.8.m s.D.S 9 8. XQ.8.' 2 / I.d.n.J.y.z 2 X.@XX.<.n.B.B.a.G 7 r m I Z 7 ` [.,X.XE.&X.XN.{.i.D.E.R.B.R.@X>X}.W.Y.h.r.B.s.A r.}.c.=.s.i.c.h.i.s.c.c.c.c.s.h.c.h.c.m.s.i.h.r.c.M.c.s.h.d.r.,.h.} ` w.1.r.n.l.0.T Y / ) z u X.y.n.l.h.c.} r V U.>.s 7 Q }.B.A 3 G c.E.I.L.c.h.s.c.c.d.c.m.i.y.r.i.n.U.Y.m.i.c.d.d.c.c.1.r.r.d.1.i.v.h.L..X}.n.r.8.1.,.l.D.B.{.D.D.y.s.p.s.y.i.s.s.m.B.h.y...m r ` Y.y.y.}.-X.XY.'..XB.W..X&XL.D.'.}.'.c.h.n.#X&XL.c.p.S T r.B./ S =.8...A 7 m i V i A X.8.s.g M g c ' ' ..=.1.B.l.B.W.0.I ;.&Xp.@.W.U.B.n.=.p.c.c.B.r.:.n..X].].1.T 1.s.8.r.p.s.s.s.s.s.d.d.l.s.p.p.y.p.s.s.s.y.s.s.s.A I l.G.n.c.B.0.m g ..n.G.n.s.c.P.}..X|.E.s.1.s.i.5.p.L.c.M.B.v.p.=.U *.1.p.p.p.s.s.s.s.s.s.",
"E 0.l.v.E.P.n.c.C m U.'.c.P.p.i A Q i 7 g g 2 . =.E.L.M.B.B.L.L.M.v.E.,X,X}.L.v.p.Q g Q c.,.m m Q A } M.E.B.v.s.M.M.v.M.B.L.Y.Y.r.I $.i 2 Q ,.V M.,XE.s.=.$.r.p.L.p.B.B.L..X'.Y.C.M.M.Q F p.|.Y.L.J.).c.s.B.s.d.c.m.B.c.h.c.n.m.m.v.v.B.B.B.B.M.M.B.v.v.M.B.B.Y.L.B.n.' ' 1.r.n.c.1.m c u c c ~.X.Q B.E.E.P.s.B.#X~.W.P.I m ' c.:.d.G.W.{ x { ) Y c Y u.G.d.S Z %.c.Y c.r.V 1.c.m.1.' Q A ' B.L.8.N.).W.J.J.8.d.J.B.I.A W ;.R.h.y.>.r.L.,XB.=.=...[ K c / 8.[ n.D.{ l.5Xr.I g g Z { I.I.N.N.%.1 x =.Q N [  Xn.r.b.c.' 9 b b b h.R.$X).@X X@XJ.` <.` c.D.r.m.<X3X'..X}.E.D.E.B.Q >.=X}.i.%.d.c.B.m.s.s.m.N.B.c.p.h.h.h.c.c.s.i.h.d.c.c.s.p.s.m.B.r.B.=.1.M.s.d.c.1.0.[ ) { / g z Q ;.c.B.U.E.i.A s.;Xy.` =.s.v.m A 3 I W.{.Y.M.r.s.i.s.c.h.d.s.w.w.r.i.c.B.D.v.s.s.s.d.c.n.w.s.s.s.y.h.m.c.m.L.L.c.r.1.=.8.n.r.s.r.8.B.n.y.r.s.d.h.B.c.c.c.B.1.g 2 g %.B.Y.Y..X).}.;X;X;X}.Y.i.B.m.s.L.Y.}.n.1.s.B.Q 1.W.8.A s.s.L.].#X+X.X'.1.p I u @.=.r.#X&X;.p 7 * u @.=.1.r.1.s.r.c.E.Q q ..) U y.,X-X#X'.n.s.n.n.r.@.8.E.'.U.E.Y c r.l.r.p.p.p.s.s.s.s.d.l.c.s.p.r.u.s.u.y.y.0.d.d.s.m ..B.B.B.l.p.p.r.s.W.'.n.=.r..X,X}.!.:XB.1.r.s.4.5.m.A.v.c.x.r.,.=...i.p.s.s.p.i.i.s.s.s.s.",
"2.v.L.t.1.G.!.U.P.r.n.'.U.~.L.E A g 8 7 i 7 u U B.}.L.M.L.v.p.v.B.B.E..X}.B.r...A g i g U V m r.B.=...c.B.M.M.v.B.M.M.B.L.L.L.L...F A 7 ..|..XB.'.Y.i.1.,.B./.E.B.B..X|.&X&Xg.i.L.;X.Xr.s.,XoX'.;X{.y.J.U.p.B.h.v.D.J.M.n.B.J.D.M.M.M.M.M.M.B.B.B.M.c.c.B.C.M.B.n.c.{ A u > Q r.r.l.0.Q ..) 1.'.q c P.G.s.G.'.,X'.d.=.@.T 0.W.E.X.u.~.#X8.[ I.W.n.:.u.G.G.=.9 a y.>.V c.w.V i.D.h.Q g u u S %.;.s..XE.h.b.w.G w.a.J..X>.G y.E.b.s.W.$X{.L.' A I u x 7 q T d.l.U.=X-XG.X.9 q u ;.d.c.c.a.d.y.S 6 Z a m r.h.@X;.r.J.h.B...A ;.J.=X5XN.>.E. XI.;.G J.W X.R..X=X<XW.h.Y.c.h.c.h.' A E.&XB.w.r.h.s.B.J.c.h.c.c.m.m.h.s.h.h.c.m.s.p.c.B.c.s.i.s.c.h.s.c.n.' X.h.d.B.v.;.:.8.X.Z u r p S { i.L.i.I R r.-X}.} Q Y.).,.X.y.Q ' ).).c.r.i.c.i.i.c.n.c.d.s.r.s.B.D.B.c.s.i.r.i.h.c.M.r.c.b.s.h.d.d.s.y.y.d.d.8.s.0.M.n.v.n.1.s.L.d.r.s.c.M.c.B.c.n.y.>.G * m s.Y.c.w.y.B.m.W.|.J.d.s.8.' y.d.r.c.i.J.d.;.J.r.Q ~.'.0.@.:.7 T l.L.E.].&Xs.K g ...X}.E.'.D.C S / M K 1.c.l.p.8.0.;...1.m 7 I Q r.].-X.XP.s.l.E.-X~.r.l.c.L.L.E.c.g M l.l.s.l.p.s.s.s.y.r.p.s.l.s.p.p.s.s.p.r.0.y.l.l.s.c =.:.X.p.p.1.8.1.@.X.{ E ..L.,X|.E.;X.X6.-.g.p.i.x.s.v.M.s.1.,.r.r.-.r.i.p.p.i.i.p.p.p.p.p.",
"t.l.T.v.M =.V.B.G.~.P.k.l.].~.i.r.' Q ..-.r.i.1.,.v.Y.v.L.Y.B.Y.c.L.v.r.i.c.,.A i g i I s.v.v.;X3XE.L.'.E.M.M.B.B.B.B.L.Y.B.M.v.1.c.E.g.B.M.>.g.M.B.L.B.m.L.p.B.M..XoXE.E.v.%.4.v.}..XoXoX&X..I 1.%.} s.J.m.n.d.m.B.B.m.B.J.L.D.B.M.M.v.M.B.B.B.B.B.M.B.B.v.B.E.s.=.{ z u =.l.G.'.c.W.-X+X:.~.1.m T 1.Q ) r.L.L.n.B.{ S y.d.=.I 9 z y.D.=.8.W.W.[.n.d.d.D.D.0.:.s.L.c.c.B.1.h.c.8.R b Y w.J.d.Q X.).B.h.a.} Y 8.b.s.h.i.[ I.=XN.c.D.m.r.=.A z u m K a / d.u.:.W.=Xu.m 3 z B S c.D.[.<.9 z z * r I / [.X./ %.Y c.R.J.).s.y.$X$X). X%.;.L.Y.N.[  .D.h.Y.&XE.N.J.B.d.B.c.n.=.I S s..XB.r.1.M.c.s.m.m.s.s.h.h.c.m.c.h.c.c.v.m.h.s.m.s.c.c.s.i.h.c.s.c.c.%.;.s.d.m.r.1.0.r.) u 3 c Y ..s.s.s.>.g V d.U.y.A Y B.s.Y } i.s.1.Y.E.s.>.d.s.p.p.h.c.s.s.v.s.c.m.B.n.d.i.r.s.d.c.v.m.r.h.h.B.c.r.r.c.s.w.1.r.r.s.c.c.s.c.X.m X.s.p.s.d.1.r.m.B.v.L...z 9 u ' ' I A 7 =.E.Y.E.J.r.1.i.h.;.s.r.r.s...1.%.{ J.v.#X.X0.l.K u / ~.d...c.L.c.X.1.@.n.s.D.<XG...A K ,.Q T ' c.d.s.8.r.r.Q C z ) :.]..X<X.XE.l.' ' ..r.s.s.G.c.~.<X+Xr.m =.G.s.s.p.d.l.l.d.p.y.p.s.s.s.s.d.d.s.y.r.r.p.c.n.l.z ..' ;.-.{ ' ' A g m ) E s.,X,XY.B.E.c.1.1.i.4.4.r.6.c.c.r.-.1.r.1.*.r.p.p.r.r.s.s.p.s.s.s.",
"k.XX.X~.] I K -..XXXP.H U Y.v.'.|.B.E.L.c.p.s.p.i.i.Y.L.E.E.B.M.n.M.c.,.Q A } v.E.M.} ..B.E.'.|.E.L.|.,X'.c.s.v.D.B.B.Y.Y.M.v.v.L.'.3XE.g.c.r.c...M.E.E.E.s.Q p.|.E.r.p.v.~ I s.L.B.L..XE.Y.Q 8 b b s.1.i..Xc.E.Y.L.B.m.B.B.m.c.B.M.M.v.M.B.B.M.c.E.B.M.B.}.&Xc.=.:.s.I 4 Q ) ' :.;.].n.1.U.W.) { s.0.@.n.G.B.B.d.c.) g I m A c z q [ @.T y.[.W.#Xd.u.l.d.d.U.G.X.1.h.s.E.}.).s.L.c.y.m.B.h.i.%.=.c.d.N.y.w.h.h.b.a.h.r.Y S 8.%.;.' ' I m u g g { l.n.D.n.D.U.#X8.a x z A I 8.y.[ X.;.A 7 9 b I f D.W.I Y / ' ..h.c.1.;.).'.y.Y.'.%.r.I.I.N.X.B..X>X@XW.c.B.L.N.n.s.B.c.{ ' ..>.} r.y.' 8.h.B.n.s.i.s.c.c.c.m.c.h.h.h.c.c.s.i.c.y.d.d.i.i.c.v.h.y.n.c.c.c.c.c.8.8.n.y.I B z I ;.1.E.d.1.c.d.d.s.L...u } n.s.B.h.} D.m.U.'.c.,.r.8.p.c.m.m.s.y.h.c.s.i.s.c.c.s.r.s.h.c.c.b.r.h.s.h.d.s.s.c.s.r.r.r.n.s.D.r.d.=.9 7 z M A I ' ' 8.c.c.%./ 7 r g m 7 g b >.1.m.r.} n.d.s.n.c.m.8.r.r.w.8.{ ;.Q g I r.n.M.s.Q 2 ;.n.s.X.m T Q Q K =.s.T g 1.l.K i m :.n.;.:.:.s.r.s.y.1.@.m 4 m p.L.L.D.#XL.p.s.=.g i ..U.'.D.n.&X3X#X,./ B.E.s.s.0.s.s.d.s.p.p.s.s.p.s.d.s.p.r.0.0.s.p.c.L.l.p ' ;.{ ;...I C I y.-XXXT.'.&XE.v.s.,.,.p.c.c.>.C E A.T.x.=.=.1.1.,.1.p.s.p.r.r.s.s.r.p.p.p.",
"G.3X.X'.G.i.s..X&Xs.T 4 E Y.O.r.B.p.L.L.v.=.=.s...I i.s.B.'.E.L.E.&Xc.V Q E.&XY.p.v.c.L.v.p.Y.s.} =.M.'.M.i.c.L.B.M.B.L.L.n.v.M.L.}.B.' 1.c.U U =.c.B.|./.M.B..X;Xc.1.v.i.g m c.L.c.i.i.4...Q m R r.m.E.L.c.).}.{.E.L.L.L.B.m.B.M.B.M.M.M.B.B.M.c.E.M.L.E.;X;XI * { G.G.r.' 1.1.I g ..M m c.r.s.1.B.E.'.L.c.p.y.@.Q c g u A c.G.:.S X.d.T B y.G.' S 0.[.n.8.W.n.B.d.m.J.).L.>.R y.B.m.D.;.G y.'.@Xw. .n.B.m.h.h.m.d.c.a.8.z b S G r S m p m { =.;.u.0.r.D.#Xl.N Y :.Y 4 X.d.I.U.r.8. XU.;.Y R f X.D.Y ..y.y.J.W.w.N Z h.}.).J.B.'.>.;.b.N.a...L.;X).D.'.D.h.h.h.c.s.m.r.1.s.=.z r 1...I =.r.c.h.h.s.h.m.c.c.m.c.s.s.s.h.c.s.i.h.h.s.i.s.c.c.h.s.s.h.n.,.X.d.n.s.y.n.u.S z a K ' r.n.d.B.m.i.D.U.s.{ G i.Y.J.B.%.{ B.J.U.E.r.w.w.h.h.r.y.m.m.h.c.c.s.i.i.d.c.h.s.s.d.d.s.c.i.c.d.i.s.h.c.s.r.i.d.s.B.s.D.d.c.Q 7 g u z K A ' S u Q Q r 7 2 ` X.Q ..n.n.L.B.w.Q / m.c.s.s.w.r.=.i.c.r.,.>.p.` b M 8.-XL.1.-.@.D.n.:.d.;.) g C m K 1.=.n.E.K 4 g p.|.'.s.p.n.r.=.:.d.p.X.A g ) r.s.s.D.+Xl.,.c.c.A 2 ;.L.G.d.G.+X#XE.1.1.L.U.c.s.r.p.p.p.p.p.u.s.d.p.u.p.p.y.r.y.y.s.s.l.G.p.g ) r.8.{ M I c.#X&X&XXXXX|.P.k.p.s.k.=.' 6.s.P 7 } }.A.s.-.=.r.r.6.s.s.p.p.i.p.p.i.r.p.p.p.",
"B.B.L.!.p.i.].n.L.0.C g ' r.I B r.Q Q Q c.M.M.}.B.r.B.Q K s.'.Y.E.p.} -.'.&XY.s...Q Q M.c.c.E.Q 7 A i.E.L.v.M.M.B.M.B.L.B.v.n.B.Y.B.E...7 k Q p.M.g.c.&Xi.,.,X;XE.1.i.c.i.=.$.c.B.v.r.,.p.u u I m.Y.B.3XU.m { w.J.c.d.n.B.c.n.D.v.M.B.M.M.B.B.M.Y.E.M.,X&XL.c.2 X Q c.B..Xn.P.L.s...S m p / s.A ..Q d.d.q i A g 7 g a 1.M.L.L.y.y.;.l.#Xn.0.D.{ 9 c r.G.X.[ D.S I m.c.Y.,XL.Q w.Y.'.s.c.D.B.}.J.D.D.B.h.h.J.h.Y.c.D.D.c.m.[ %.<XE...1.` I =.8...c.+X~.U.U.8.g Y 8.o.c o.+Xd.y. Xd.W.I./ y.i.;.` f.f.W.n.B.R.).+X{.b.d.U.Y.J.Y.m.[.J.n.E.E.J.c. X>X$XW.'.i.i.b.r.y.i.h.>.s.-.V g ..h.b %.'.c.y.B.m.h.s.h.i.s.h.h.s.s.s.c.m.h.g.m.d.s.h.B.B.h.d.c.d.s.m.=...n.n.y.y.8.r.S 3 z 8.1.y.c.c.D.s.s.{.L.;.w.y.w.E.5X$XW.Y.}.).'.U.X.w.s.Y.y.I M X.s.h.c.d.c.m.v.d.s.s.h.c.c.h.s.c.y.c.s.c.p.p.s.s.s.h.h.B.d.s.y.d.{ > > 9 z @.X.u Y / p 7 7 2 ` 1.E.).E.W.}..X.X.X$X$Xm.D.B.p.s.c.h.%.w.d.r.>.>.8.R } s.n.{ K T Q 0.l...:.p.s.L.X.K q z l.'.E.=.Q 0.I c.~.s.' T l.:.0.r.0.l...A C 1.s.c.U.W.B.@.1.s.c.0.:.].B.p.c.D.n.~.G.p.s.c.c.c.p.0.d.s.p.p.s.s.d.d.s.s.u.p.s.l.c.n.s.c.l.c.1.C Q :.8.{ ' l.&X#XE.'.c.v.s.s.L.M.i.t...7 A Q - F T.m.=.r.6.1.s.c.p.i.s.r.r.s.s.p.r.p.s.s.s.",
"..i.' ' m =.s.r.=.r.U 2 ! s.I i I m V U v.M.c.B.s.1.Y.p.7 i i.'.E.7 i B.}.B.p.1.' Q -.Y.}.Y.|.1.U m Q s.M.L.Y.s.M.M.B.L.B.c.v.B.B.B.'.1.u k Q Q -.'.3XE.-.'.3X'.c.,.p.B.s.c.C.m.M.B.s.c.=.7 } E.E.E.E.'.w.u 2 2 I 8.L.B.m.B.n.B.n.s.B.M.c.B.B.E.'.l.=.=...7 = . = :.1.Q A Q =.B.B.Y.n.8.) i.1.C s.1.A z g K ) 2 2 A L.#XB.~.B.1.8.l.U.D.8. XW.c q q Y n.;.[ G.=.Q c.J.Y.E.8.;.L.h.R L.).,X-XU.J.R.N.J.b.d.D.D.c.W.N.c.N.y...i.$XB.w.X.m ..U.' 3 D.-X:.T S A S c x ( K f.D.4 Z I 2 ;.c.I / D.w. XD.u.U.1.8.'.,X=X XN.s.'.).}.c.L.$XN.y.B.W.E.).&X).h.;.c.D.w.y.d.y.h.h.m.h.} 7 ` &XB.L.$X).c.s.s.m.h.h.h.s.h.c.h.c.s.m.h.s.L.J.s.s.Y.B.E.s.r.n.c.s.).J.Q h.J.h.d.y.d.l.a a ( s.c.c.s.{.U.>.c.s.m y.L.,.'.5X'.B.E.B.n.c.c.s.8.w.s.h.h.=.1.Y.y.J.s.D.n.J.n.B.s.s.d.c.h.h.h.h.d.s.s.h.c.c.c.h.d.d.h.c.y.r.n.d.z = g M Y r...p g 3 M Q 1.;.I.-XE.'.Y.n..X}.W.Y.).D.B.J.L.c.r.s.i.y.h.s.r.r.w...I %.L.r.l.s.T m g m q m @.@.c.+XG.@.B.].p.A g -.' C ) Q z 7 2 ' #XE.{ ..:.c 4 Q 8.s.n..X}.s.K ) r.n.=.p.c.c.L.c.Q Q s.r.0.r.p.p.p.s.r.p.p.r.y.u.s.s.s.r.s.s.s.s.d.l.l.p.n.i.B.y.c m I A / .X,XP.c.0.L.B.@.1.c.c.l.l.c.Q 7 8 X 2 g ..*...p.6.,.1.,.p.x.s.s.t.p.s.p.r.s.s.s.s.",
"m ' m i i -.v.1.v.M.i...1.c.,.c.1.A 7 A M.L.s.-.m g i.Y...m A Q A X ..|.v.B.M...Q V Q v.M.s.|.'.1...c.E.E.M.c.L.M.M.B.B.M.v.v.M.C.B.E.,.7 i Q ..v.E.r.Q v.&X'.c.s.r.s.B.v.m.L.B.m.M.E.i.m 8 u ' { c.U.i.b p m b g >.E.J.c.n.c.m.D.B.n.B.B.D.L.D.;.Q m < O . z 9 u K m g u 9 c s.D.B.n.B.d.B.p...c.G...I :.A C ..:.].-Xl.=.c.n.c.-XW.d.;.q 8.T q a S [ '.[.l.~.I.B.d.E.E.A 7 r.;X{.[ c.Y.y.=.=.L..XN.c.d.d.N.m.c.w.Y.Y.a.i...f N Y m =.h.L.'.n.D.{.n.' c ( #X+XN 9 z I o.T A n.9.z { 5XD.Y B.).N.{ n.y.g ;..X{.'.d.B.Y.$X).w.>.$X'.d.;.y.J.N.1.` %.;.<.h.h.w.d.n.y.d.h.s.1.} w.Y.}.W..X$XJ.i.s.c.h.i.h.B.B.c.c.h.s.h.h.h.L.J.` u Y B.B.m.w.s.B.i.v.m.1.M J.L.Y.8.8.D.n.S c ) c.c.c.n.;.M m.{.i.y.-XQ V i.s.i.c.r.y.r.r.i.r.r.y.h.p.m.h.c.E.h.m.h.D.c.v.s.n.c.h.s.c.c.h.h.d.d.d.s.c.c.h.d.s.s.s.s.d.s.i.c.d.Y u S A 1.=.y.G.s...g [ I.J.{.'.s.h.B.s.L.m.s.s.B.c.c.W.Y.c.r.s.s.y.s.d.w.w.%.1.r.%.` ' ~.c.g u T T I =.p.E.,X~.c.0.s.' u < 7 ' ....n.Q 4 = 4 / c.=.7 C g C c ) s.r.B.E.L.1.T y.E.n.A 7 C G.'.) < i c.c.r.8.y.r.1.8.0.r.r.p.p.y.p.s.s.n.c.s.y.p.s.r.1.r.d.p.L.=.7 q z u { ].{.c.s.0.l.s.=.s.V.M.v.k.s...P V d s g i.m.c.B.6.=.6.p.c.s.p.s.i.p.k.s.p.s.p.p.t.",
"7 m 7 u E p.'.E.E.P.Y.V.B.}.B.Y.W.i.' ..B.B.p.A u V 1.r.Q A m 7 8 g L.E.v.L.r.-.,.Q I =.-.s.}.Y.Q s.|.E.Y.L.c.M.M.M.M.M.M.M.M.M.B.B.L.,.i g r.L.C.v.} Q }.oXB.p.s.g.m.B.B.B.B.B.v.E.Y.m.A 7 g V ' =.L.c.u g / ' G i.).B.s.n.c.m.l.L.l.l.L.E.n.I C 7 g { { 9 4 u m K A m m A m 0.G.B.n.P.M.s.p.n.].P.U.l.c.) :.G.].~.L.s.0.l.G.1.{ :.@.y.I 8.I B { u.d.'.n./ :.9.>.E.c.=.{ G Q d.1.1.}.y.s m i.&X).b.N.J.B.m.h.c.[.s.X. .b.s.m S s s c.3X,X'.D.&XB.I g c 8.d.S 9 m n.{.W.[.c.=.=.' W.'.[ y.R.N.;.S f.y.I 9.I.D.c.1.i.m.N.;.m %.}.Y.N.a.d.B.B.w.[ ;.h.n.h.w.<.a.h.c.c.B.m.v.c.;X+Xh.U.'.Y.s.w.s.m.B.s.s.B.m.s.h.c.h.B.s.w.c.} 2 8 w.R.c.s.r.s.c.s.s.d.} ..&Xs.r.c.c.D.:.m p Y u.1.s.n.B./ a.J.Y.&X;.b b u Q L.Y.d.r.r.1.1.1.r.s.d.p.c.s.1.h.c.D.'.J.B.Y.B.B.d.r.i.h.h.h.d.d.d.d.h.c.h.s.p.s.h.d.s.r.c.l.c.d./ u g X./ y.'.d.c.y./ X.X...B.w.w.m.w.1.s.r.1.8.m.m.B.E.Y.v.s.s.h.c.J.s.s.{ 7 ' 1.R g T { i u ) d.s.P.~.&X&Xn.c u u 7 4 u Q I C } ..d..X1.Y I m S ' C Q c M i T n.B.G.@.' Q ) r.1.I 3 9 g c.p.K i p y.U.d.0.0.0.r.s.d.p.s.d.s.y.y.p.d.c.s.r.8.0.y.0.1.0.y.s.G.K 2 q g =.P.&XW.l.s.p.s.=.=.l.v.s.k.p.2.=.1.1.p.| Q Y..XE.T.r.*.1.s.c.p.r.p.i.r.s.p.r.i.t.t.i.",
"m ..' ) i.i.c.p.T.}.E.1.H s.B.L.L.Y.v.c.M.M.L.Q 8 ) M.v.v.'.E.s.} B.|.v.B.L.i.Y.L.p.=.s.v.|.&XL.,.B.p.Q r.B.L.s.M.v.c.M.B.B.B.L.M.B.v...7 8 p.}..X|.&X|.'.B.v.g.s.B.C.M.B.B.m.M.B.E.m./.i.s m I s.E.}.>.` s.E..XM.U.I.s.a.B.m.B.c.P.B.n.P.P.1.u u u ) n.U.c.y.;.Q Q @.y.p.;.I c.G.n.l.n.L.~.+X4X&XE.4X#XB.D.-X'.s.v.D.c.c.L.U.A p u.n.U.D.d.n.:.:.n.n.d.B p u.D.c.).p.%.s.$X.Xn.M S i.' 1.w.E.D.E.B.D.B.h.d.c.E.U.b m [ ;.[ b ' i.r.U.E.c.=.A Y a z A Y n.{ 2 ) X.d.I.d.r.Q 2 Q s.&X;.m W Z %.w.r.c.9.8.E.+X{.d.s.w.h.h.W [ E.@Xm.N.c.d.h.m.b.s.a.B.D.h.y.i.h.d.y.d.m.m.B.L.'.p.=.s.c.i.r.p.c.B.J.h.h.c.h.s.c.m.h.c.g.s.h.Q u ' h.E.c.c.m.B.c.M.i.s.m.L.h.h.h.r.n.u.B a a / E.U.n..XD.X.m.W.Y.v.s u r 3 y.J.>.s.h.s.r.1.1.i.d.d.y.c.c.y.c.d...;.m A -.p.B.J.h.c.d.d.d.d.d.s.s.s.s.s.p.s.s.h.h.h.c.n.d.y.y.;.X.r.c.r.s.8.i A 9 I s.m.c.B.A ' s.%.<.a.r.r.r.m.h.i.m.N.c.B.B.B.h.h.E.s.r & r.=.b m { y.1.{ } p.l.d.c.E.i.Q A I K ..B.L.+Xy.g Q =.c.&X:.N M i A 0.X.8.c.) S 0.s.y.c.8.' A g g 9 3 a M / @.i i S m s.E.n.i.1.8.s.n.c.l.l.l.s.y.r.r.p.r.r.r.8.8.0.r.p.p.y.s.s.9 7 C K L.+XE.c.s.8.0.1.{ =.s.0.-.i.r.-.6.6.=.s.5.s.|.&XL.Y.x.1.1.p.s.i.6.p.i.r.i.i.6.1.p.p.p.",
"..E.c.U ' ..i.,.E.E.Y.=.A i.B.M.c.M.v.v.c.s.Y...7 Q c.J.Y.B.r.-.M.d.c.M.p.s.E.E.E.M.L.3X&X|.E.L.E.'.1...s.,.M.Y.B.c.s.B.L.M.M.Y.L.Y.C.$.k g B.;X|.,X5X&X4.i.M.v.c.L.C.v.M.M.v.B.L.c.E.E./.A 8 $.c.$XE.' L.W.L.,X.XE.c.r.s.m.c.B.B.B.D.n.B.s.Q m c m d.B.Q y.'.8.8.I @.'.E.' g B.P.B.r.0.E.<X,X{.Q r.'.B.p.L.P.p.P.0.C U n.l.=.M 4 d.I.c.n.l.W.y.o.n.U.D.X.Y 0.y.h.i.r.c.i.}..Xr.I >.i.' m.B.E.y.D.b.m.m.N.b.y.d.` & 6 N %.J.N.R.}..X.XY.D.;.g m r.8.y.u.D.;.[ 0.{.D.u.Q T T S ).,Xd.9 z m 7 r 9 ` D.D.U.+X[.Q.D.s.h.B.D.` >.h.h.J.h.y.y.h.b.s.w.a.h.n.c.h.d.i.r.r.n.m.s.i.J.y.>.1.r.r.r.i.s.h.n.h.h.c.c.c.m.B.c.b.s.h.B.L.>.m b I s.c.c.h.c.y.i.i.h.U.n.i.c.1.s.d.8.c c M { E.n.c.8.m 8.{.).m.,.m u m %..XJ.y.D.s.s.y.r.i.h.c.h.h.c.n.s.c...o X * = 1 * M d.s.r.s.s.d.h.d.s.p.y.i.s.d.h.d.d.h.h.c.c.s.s.d.s.n.{.E..XU.n.r.d.' u >.3X&XB.X.y.y.8.r.s.s.s.8.y.=.' d.s.y.m.s.w.R m ' V $ V i.m u U @.'.-Xd.r.c.B.y.'.L.=.d.E.i.Q n.,X~..XG.) ;.c.#Xn.;.' 0.s.G.'.s.p.8.B.~.s.l.E.s.s.l.y.@.;.=.A c M I C 7 i A ' G.L.d.r.r.y.s.l.s.c.l.s.y.r.r.r.0.r.p.s.p.y.p.s.s.p.s.l.:.> g K K l.L.r.@.=.-.i.1.=.2.s.:.=.r.1.O.6...^ 1.s.'.E.L.A.M.c.r.6.p.p.r.r.p.i.r.p.p.6.6.s.s.p.",
"r.`.s.I ^ =.Y.'.p.,.v.B.L.E.B.v.'.L.L.}..XE.L...A } i.c.M.c.-.-.L.' Q v.v.c.E.s.M.M.E.;X|.'.U.B.r.r.-.p.M...c.E.L.v.v.B.L.M.M.L.m.M.m.' A U B.E.Y.oXM...Q v.C.v.c.L.B.v.B.B.M.B.M.L.E.L..XI I E.+XL.8.A ..;.B.&XJ.h.s.y.h.c.i.c.l.c.n.p.n.n.Y i c M 0.0.p C ..Q L.n.D.'.L.r.{ B.L.D.n.p.B.U.l./ < { n.B.r.p.y.=.) ..' Q :.p.1.K x 8.G.c.d.+XU.c.l.I.X.{ l.d.c.W.B.J.w.B.Y.'.h.w.I n.r.;.y.J.'.D.d.i.s.b.J.c. .W Q i.[.Y.)..XI. XY.E.).}..Xd.;.L.-Xn.8.n.L.y.l.D.c.u.c.9.f.n.y.Q.{.d.' S N ` [ h.s.c.D.$X[.I.D.a.a.N.s.h.>...g Q R.c.w.w.d.c.h.d.b.h.N.b.d.y.w.d.B.L.m.p.c.).y.d.r.r.i.h.h.s.d.n.c.c.m.h.s.v.B.c.B.s.s.h.m.h.Q r Q ;.>.y.h.L.E.$Xr.G J.c.i.>.y.d.d.@.z m Q X.r.p Q ..S B.E.B.i.} R y.B.v.w.` >.h.i.i.s.d.h.d.s.y.s.y.s.d.Y.;.r g g b g . 7 h.c.i.s.s.d.h.d.s.p.i.s.h.c.c.h.s.s.s.s.s.d.n.c.s.s.L.L.d.U.B..X-XL.Q ' v.c.J.E.'.n.r.w.i.i.s.1.a.1...i.s.r.8.m 7 $ $ . = 3 R M s } ..G.].B.:.E.n.p.L.~.c.:.s.0.I A s.U.U.+X~.r.0.s.n.B.B.B.E.].W.B.1.1.c.c./ { s.=.0.B.G.U.L.P.c.m u A m I ;.T C s.+XL.r.0.n.n.d.d.c.c.d.u.y.y.y.y.r.p.y.r.r.s.l.s.r.r.l.B...2 z m c c.P.y.' ) ;.n.c.1.t.k.1.,.r.-...,.*.^ ' ..i.1.c.L.p.r.1.1.i.r.1.r.p.i.p.c.s.i.p.t.i.i.",
"p.L.c.s.B.x.L.`.E } M.x.M.x.M.}.M.n.E.}.|.E.L.1.A 1.Y.M.v.L.c.p.Y.r...c.Y.v.l.c.c.c.L.L.E.|.}.B.,...p.B.&X}..XE.M.B.B.B.B.L.L.B.E.L.M.Q ' 4.E.L.|.|.i.} 4.L.M.c.v.B.B.M.L.C.B.B.M.'.M.L.}.A ' M.c.J.L.r...J.&Xc.1.8.i.s.n.n.i.c.n.G.n.l.P.n.T q c { { g 9 ) @.p.'.,X+X'.[.-X{.P.L.B.W.E.B.r.0.X.C / c.G.X.Q r...I z =.&X-XU.:.{ n.n.l.u.( n.8.d.{.[.{ ) E.W.c.c.h.r.1.'..X$Xy.A Y I u s.).'.).h.n.s.r.>.X.` ` y.}..X.XE.W.R.N.R.L.s.i.y.=...8.E.W.E.u.u.c.l.d.l.=.z :.c.s.c.U.1.m x ' y.w.D.}.'.<XW.{.<Xn.c.W.).c.b.s.d.J.g.Z w.d.a.r.r.i.h.m.N.h.i.c.c.d.d.h.Y.m.B.d.h.J.D.y.s.r.1.s.B.h.s.h.c.B.m.c.h.r.s.c.c.h.s.s.i.m.L.c.i.).h.} R A Q Q X.i ' c.A 8.y.i.s.y.S p K 0.r.d.M G {.D.s.).Y.I r m w.c.8.V u ' L.h.s.s.h.d.i.r.y.c.h.c.h.B.A 1 A 3 N } I R n.r.1.s.s.s.s.d.d.d.d.c.c.c.c.h.h.s.s.d.s.s.s.d.d.n.L.U.E.;.' '.'.r.B.B.c.Y.&XE.c.y.w.w.y.i.h.r.m.n.s.s.c.i.1.3 = & u S b g A I B.B.` y.B.=.' B.D.n.,XE.G.8.) u 7 K d.0.E.'.B.s.l.'.~.'.U.s.r.B.s.{ :.d.G.l.Y 8.+XE.E.,XL.1./ S m 7 ..' @.c.G.{ Q P.-XE.c.p.s.s.s.l.l.l.d.s.y.r.r.y.p.r.0.8.0.p.s.p.1.r.c.B.Q q m c K E.E.c.=.' ;.l.s.=.0.s.0.1.r.=.=.r.1.C u d k ^ Y.A.,.,.,.,.r.1.6.r.r.6.p.c.p.r.s.2.2.1.",
"c.E.M.M.T.L.L.v.' r.L...r.c.B.E.m ..s.} A U ..} 7 ..L.c.r.v.L.E.B.L.L.s.,.....Y.L.c.Y.E.E.v.r.=.U Q ,X3X,X|.Y.M.c.B.L.M.B.E.E.B.v.4.,.k ..Y.2XoXE.v.c.M.).m.v.M.B.B.B.L.Y.A.B.B.E.B.L.Y.B.g @ g w.,X&X-X{.&XL.1.=.1.s.d.B.J.c.c.P.G.s.P.L.T z S ..l.l.{ K :.=.8.n.p.8.W.=X.XU.P.#XB.~..XL.:.s.B.n.s.L.G.@.A c.r.0.{ :.{..Xp.) U.4X~.u.n.Y @.f.Q. XW.@.[ n.W.n...).r.Q 8.} ' A s } 1.1.L.i.;.E.s.y.d.c.;.Z r / @X$Xb.b.J.h.h.J.J.B.y.d.8./ =.s.1.y.u.r.c.d.d.d.U.{.X./ X.n.1.d.J.8.S 6 y.=XB.=X$X[.=X'.W.[.,X).J.b.a.L.m.J.g.Q h.8.y.d.c.N.B.h.y.i.w.c.n.b.c.y.c.i.c.m.B.n.X.r.y.s.1.s.J.c.h.c.y.s.i.h.m.h.i.i.i.i.s.h.c.J.m.i.L.L.B.>.V 2 g u 3 7 { { 7 ..d.d.s.;.p p [ d.1.L.c.c.1.B.+X$Xr.m G r.d.s.1.R 1.v.c.m.s.y.s.i.r.s.n.s.s.c.c.J.A R Y.L.B.E.L.h.J.>.i.s.s.s.s.d.h.c.v.n.c.h.h.c.c.c.h.y.s.s.d.c.c.i.8.y..Xm 1.Q.'.d.' ;X3X;X'.L.s.i.d.s.d.h.c.r.c.c.y.s.h.s.c.R I S Q n.' g S r.$X/ r p.r.X.l.L.B.l.}.-X.X0./ S U ..Y.~.#XL.p.s.1.n.l.n.B.p...{ M z B..X&X{.+X,X~.l.r.B.s...A C ) } }.~..XU.0.0.'.<X'.~.E.l...) 1.p.=.p.s.p.0.1.:.1.0.y.u.u.r.0.0.0.8.s.c.n.I p C A ;.'.B.n.n.s.y.r.1...,.t.0.r.r.-.0.r.,.u k ^ A ..L.M.=.1.r.1.r.r.s.r.1.1.i.s.r.,.p.,.,.,.",
"A D.B.B.Y.n.L.P.'.L.E.B.c.r.p.r.,.I s.v.=.A g h 8 U M.p.s.E.E.s.B.L.n.l./ T G.~.B.c.n.B.E.G.=.' ..Q s.|.E.1.i.>.4.s.Y.C.1.c.s.....m g A R ..E.}.s.B.v.L.B.v.p.C.B.B.B.B.B.M.B.B.L.L.L.D.Y.A = g i.B.M.'.L.c.c.d.d.c.n.c.c.n.n.l.n.G.c.E.@.u M r..X-Xr.8.r.L.n.s.X.S { L.'.c.=.X.i.B.s.n.D.d.c.c.L.h.c.U.1.z ..X.=.l.4XE.r...S +Xn.r.8.B.8.=.W.'.P.=.u m .X&Xy.Y n.) z m M / S Y 1.D.L.{.8.` J.B.d.b.b.;.m z D.U.f.B.c.b.n.h.d.c.y.f.0.@.u.y.s.@.d.:.S c.I.J.N.{.;XD.8. Xr.a.D.E.[.` <.L.m./ m.}.R.J.I.}..X).B.m.s.B.c.m.m.h.m.B.i.h.B.s.m.m.c.c.y.h.D.B.I.d.b.c.c.l.n.U.s.m s.1.i.y.n.m.h.h.s.B.m.c.c.h.h.m.N.B.h.h.m.h.h.c.i.s.E..XL.=.S g b b x Y ;.Q W 1.8.h.g g G } =.w.Y.&XD.c.&X;X&X' u 8.&Xh.c.=.B.5XL.y.w.=.c.r.r.i.y.n.h.s.i.c.y.g ,.s.L.$XE.}.$XD.<.s.s.h.h.s.p.s.h.s.s.s.g.h.c.c.h.d.s.c.n.c.s.s.y.r.L.1.7 s.h.=.A r y.&X<XE.p.n.c.d.r.r.s.d.p.r.r.8.1.s.y.,.y.X.I s.{.{ g A 8./ i g =.}.L.,X}.L.E.~.L.L.s.r.}.$XY.&XY.'.p.r.y.,.1.i.p.p.B.E.;.=.s.}.;XE.E.;X}.p.A 7 ,.V m m V s.L.|.&X-Xn.B..XP.n.n.B.L.1.9 z p 9 m T @.1.r.s.r.0.s.l.r.8.r.s.s.p.p.s.y.c.S a c c { W.G.l.s.p.u.u.p.0.0.l.1.8.0.y.:.1.' g U $.B.}..Xm.4.1.6.=.,.s.s.1.2.r.r.c.s.k.} I ' M.",
"u c.G.l.G.'.#X'.D.G.p.B.{ m g / P.1.v.k.p.v.M.M.A Q }.}.!.v.U I c.D.B.=.=.E.~.L.c.=.r.D.G.c...A A Q i.|.v.v.i.c.Q A A I Q $.V u I A } Q } v.L.c.g.c.L.E.E.B.v.v.D.B.B.B.M.M.M.M.v.B.L.B.Y.' i Q A T 0.L.=.:.B.l.l.n.B.n.c.c.c.c.P.D.L.0.C i C D.E.I u ..'.G.B.P...' ;.s.c.s.0.:.m M n.r.;.B.c.n.d.n.Y.B.' p =.B.d.E.{.B.D.@.a n.` =.B.B.S ' '.n.c.} g I { Q p u r.1.T 8.W.D.X...E.p.L.<X.Xs.s.s.X.s.b.9.W ' D.J.c.I.c.a.D.B.a.c.0.[ ( #.y.[ 9.n.r...Y y.I.m.Y.3XB.X. .J./ w.I.D.w.A h.<.f X.,XE.J.m.h.m.b.h.h.m.c.J.b.N.J.m.b.h.w.s.w.w.b.h.N.h.y.d.B.W.D.=.8.s.n.W.D.d.Q 1.d...,.i.m.h.h.J.m.h.m.c.h.h.h.h.c.m.c.h.c.h.h.c.i.r.J.J.a.1...G N b z g A S Y Y S / u I w...b X.c.} } {..Xv.s.' ..&X$X=.E.5X$X'.B.L.X.z 1.m.s.s.c.d.c.p.B.L.r.3 3 V S %.L.L.1.h.i.>.r.s.h.s.s.h.h.i.g.g.g.h.h.h.s.i.c.h.d.s.s.i.i.i.J.' u D.L.' 7 * X.E.y.=.;.s.r.s.s.d.y.y.d.s.r.r.s.d.c.8.X.{ ,.'..XA Y =.y.d.1.Q s.=.} L.}.v.p.M.i.=.=.M.'.}.'.U.i.s.Q Q s.c.r.s.i.v.M.p.' p.}.;XY.r.....I m i } Y.,.V I A ..|.-X&XB.} Q :.y.0.=.c.n.} g m g C q m =.s.0.r.s.d.c.p.r.r.p.u.p.p.s.s.u.n./ q C Y 1.U.G.l.u.0.0.0.y.0.;.0.0.p.0.r.8.s...g Q s.&X&XY.p.i.1.1.6.r.6.,.s.1.s.s.c.s.c u m E s.",
"< ..L.]..XP.p.:.=.p.B.E.n...:.y.L.M.V.s.r.P.P.P.r.c.V.' ,.L.2.Q d.v.L.G.&X<Xs.' I g ;.E.G.d.@.V g g M.}.c.p.v.B.A 7 7 V } 1.V A ~ 1.B.m.M.}.'.c.i.1.-...c.s.c.C.L.B.B.B.M.M.M.M.B.B.B.v.E.-.g g I :.v.G.=.@.s.M.c.B.G.B.n.n.B.B.G.n.c.C 7 c T l.{ g C p.P.#XL.G.L.D.L.s.d.s.d.;.u p D...' n.r.d.D.U.U.{ g 9 / n.L.;.8.L.'.G.n.c...c.B.s.{ ..D.D.l.Y g ;.{ =.' ;.U.[.B.{.,Xy.8.c.h.n.L.w.r.B.Y.%.Y s.J.b.f.J.W.E.W.n.D.c.y.B.h.8./ X.9.q.y.;.r.u.X.9.<.[ a.d.'. XJ.c.J. Xa.}.R.;. .Y a.r.y.;X=XB.m.s.y.s.h.s.s.h.c.N.h.b.B.c.s.r.y.I.h.N.D.d.B.b.n.B.D.D.[ a c S Y ( ' Q g r.8.;.c.c.m.s.c.L.c.i.m.c.h.h.h.h.h.h.h.s.h.s.h.m.s.a.h.y.=.>. .V V W [ / D S Y Y D u s ' >.{ ' w.} 3 m ' Y V A Q D.).c.$X;XE.r.s.y.L.D.s.J.s.y.y.i.s.v.r.h.h.J.r.u 7 s s ` m * ..s.s.h.m.c.s.s.h.s.w.s.s.s.d.d.s.s.i.c.s.y.s.s.s.i.s.8.i.r.J.J.d.I = r.'.8.1...1.s.d.8.c.d.y.s.r.r.c.c.y.n.s.{ X.n.{.s.7 X.B.d.s.;.{ B.-.=.} ..1.,.i.s.1.;.c.B.L.).r.p.} A ..B.v.,.c.p.p.p.1.Q } r.c.,.Q g u 7 u g B.3Xs.' m g ..}..X1.) ' :.r.1.K > u ..m q ..A 4 C i.L.U.s.r.y.p.r.8.0.y.p.y.r.r.u.1.p.G.=.z ..s.].~.B.r.:.;.1.r.s.) ] 1.y.d.r.0.0.1.Q m ,.'.&XL.1.1.} 6.c.-.1.M.r.s.r.t.'.s.T u u h Q s.",
"z =.E.P.1.T ' c.B.n.,Xn.K / G.r.s.L.'.'.Y.'.c.k.L.}.r.Q s.E.}.M.'.P.L.&X-Xl.{ I m c 0.Y.r...I i T =.E.Y.Y.n.L.v.=.I } ,.>.i.=.c.m.L.i.C..Xv.Y.>.Q =.....L.v.i.B.B.B.M.M.M.M.M.B.B.M.M.M.}.p.U Q I y.U.E.r.8.s.B.n.B.B.B.B.B.D.G.n.U.0.4 = m s.P.Q q ) E.E.#X1.1.c.{.5XW.y.A A 7 7 A =.z X.h.d.M.D.B.s.9 2 g I s./ p m =.8.=.B.s.8.n.c.c.d.r.s.c.r.Y m y.r.L.L.{.#X+X+X+Xs.g =.U.B.'.J.` S R J.1.<.W.@X{.'.+XJ.D.8.X.N.D.n.R.a.[ T { 8.d.u.9.d.c.8.W..Xa.I. X,X).'..X X XJ.@XI.'.&X<X$X X,X$Xy.J.c.a.i.h.J.B.m.c.h.m.s.h.m.h.i.w.c.).c.h.c.d.c.c.d.n.D.;.7 9 x A z > A ..d.L.r.X.s.=.>.d.J.B.s.c.m.c.h.h.h.h.h.h.h.g.h.s.h.N.h.h.s.y.e.c.b.w.h.[.U.R.w.8.d.c.l.{ m I } r.h.w.=.1.>.Q A g u p =.Q w.+Xy.w.h.8.m / c.L.W.c.B.m.s.s.r.i.h.i.c.p.p m u u g g A w.r.D.J.m.s.i.i.i.y.r.i.s.s.s.d.s.s.s.h.i.i.c.c.s.y.s.s.s.h.d.c.B.m.m.E.W.B.D.{ 8.c.y.r.d.n.d.y.y.c.B.c.r.s.y.=.8.n.n.' g ' s.n.d.1.d.B.i.L.E.B.M.p.c.c.v.s.c.J.L.m.w.s.Q ,.M.s.i.w.r.c.r.p.B.s.,.1.s.-...Q g i g V }.E.i.r.V i ..E.E.8...r.s.y.=.M u o X = c n.c.A ..&XE.d.r.r.0.8.r.1.0.r.p.r.8.r.s.c.B.P.I < g c @.n.s.1.{ K m A Q K =.y.r.0.8.p.i.L.' 7 ' s.v.c.L.1.A ' x.s.c.B.r.i.M.L.L.c = c g A -.B.",
"7 ..M.1.} ..,.c.Q i.-.g g ,.' r.v.k.1.i.p.B.M.E.'.;XL.s.Y.v.M.M.B.n.E.].d.=.p.n.E.U.~.B.1.{ T Y 1.'.c.L.Y.L.G.~.B.=.p.s.} 4.c././.i.A } E.} =.I Q r.v.E.E.B.i.v.B.M.M.M.M.M.M.M.M.M.L.v.B.-...c.Q ;.].+X@.8.B.s.B.n.l.c.n.M.M.n.n.=.A q { c.U.n.'.0.&X-X.XU...=.D.E.'.c.1.A Q A m Q / M 8.s.c.v.c.D.c.7 3 C I c.i.W.1.=.L.....D.c.d.B.B.1.r.L.n.y.d.a.D.L.W.E..Xs.L.+XW.y.Q s.'.&X3X3XY.w.R B.Y.d.E.W.R.I.I.r.u.8.n.D.y.n.y.m D / ..X.{ I S Q G d.'.+XU.{.=X}.I.).;.Y <.h.D.8.D.U.&X$X>X[.).D.J.c.s.s.c.m.m.m.B.c.N.h.c.m.g.s.i.Y.Y.r.$.s.J.N.D.b.b.R...9 [ { 8.T { L.B.c.-.i.s.8.` X.c.L.h.1.s.b.h.h.h.c.h.h.c.c.c.N.h.s.c.s.a.h.h.s.J.W.L.).@X)..Xn.Q.=X).Q.n.Y A w.&X;X$X-X&X+XJ.1...} s.s.i.s.1.Q L.U.r.=.r.y.X.y.i.w.w.h.i.y.i.r.b.s./ & V ..r.r.Y.&X).i.v.n.r.1.i.s.y.y.d.p.s.s.s.s.s.s.s.h.s.s.c.d.r.w.a.B.r.y.i.i.y.B.&XE.s.d.c...d.s.1.c.r.d.c.s.n.D.s.d.i.r.8.r.s.s.1...Q M ' r.s.f.c.=.p.Y.,XL.s.r.i.v.s.U.L.J.Y.i.r.X.=.B.v.-.p.s.-.1.1.i.p.p.p.s.p.Q i.E.c...Q g p.|.p...r.M.L.-Xc.y.1.p.p.1.Q g K g u p S y.d.' s.<XD.1.1.r.0.0.y.r.0.r.i.r.0.y.d.v.B.B.7 q z z 1.c.r.{ A q 9 A ..@.l.u.0.1.1.s.l.M.' u Q r.,...-.} C e E T.`.r.,.t.'.&XU X < B A m =.s.",
"8 r.}.'.'.'.v.,.U A 1.c.Y.,X|.E.i...C m A Q r.}.&X&X'.] 2.V.i.i.@.' P.n.I I ..P.&X'.c.=.0.s.r.l.L.) z n.Y.p.E.L.>.A Q ,.' s./.Y.=.A i g i.U A } c.B.}.;Xg.c.M.B.B.B.B.M.M.M.M.M.B.M.L.v.v.=.' r.r.G.,X~.Q @.c.n.L.n.l.l.n.M.n.c.d.Q =...:.=.g T ].'.<Xc.=.r.K ' U.s./ g z M c.L.n.y.B.s.n.n.c.y.B.E.U.M S X.{ B.D.' ' d..X{.,XL.D.c.n.c.,.=.d.U.}.+XU.n.D.s.Q M U U.{.D.U.L.U.W.Y.s.J.J.;X3X}.m.U.E.I.I.n.u.1.1.b.8./ / B.D.S u S T S N x { d.a.I.W.N.8.y.J.i.1.r.[ <.B.>.w.c.L.=X&XY.B.y.R.$XR.y.h.N.C.c.s.s.c.h.N.h.c.c.g.h.h.L.J.h.%.b.b.d.I.J.h.R.:./ d.u.D.U.U.L.M.8.=.r.s.n.r.s.m.c.i.1.h.c.s.a.h.h.h.h.c.g.h.N.g.a.h.s.i.h.m.a.a.i.w.i.h.B.+XJ.W.-XI.y.=.} J.,X}.8.{ ..=.G m ' L.=.B.I A S A m >.} ' ..G * A i.m.B.c.m.c.d.p.>.b.J.=.9 b d.E.'.-XE.s.>.%.s.1.1.s.c.s.p.c.s.s.d.d.s.s.s.s.c.d.s.p.r.1.w.s.y.p.c.p.p.d.y.w.s.r.s.1.1.n.8.l.y.;.r.y.1.y.d.;.1.d.p.s.n.c.r.{ Y z z r.r.;.i.r.,.p.=.V.p.s.s.y.,.} s.` S m.B.1...v.M.1.p.v.p.p.c.c.c.i.s.s.s.i.l.L.'.s.=.i.1.L.i.U -.L.M.....s.0.8.p.d.r.I u V 1.].:.Q ..@.c..XW.n.r.0.8.r.r.0.p.y.y.y.r.r.s.l.n.B.;.: c m Q l.~.1.m q g A Q { u.c.:.p.s.r.y.s.M.1.g g k m g g A m 8 - l d - 8 ' s...* 7 m @.0...L.E.",
"g B.'.L.r.Q Q ....c.|.'..XY.E.E.v.M.M.v.c.c.T.XXE.r.-.B r.E.s.M.c.@.c.=.g q g d.p.{ m g ' r.0.s.0.g ;.#Xs.i 1.r.7 * g r.p.B.B.=.g i g A 4.Q V s.'.E.Y.Y.M.B.C.M.B.B.B.M.M.M.M.v.M.v.B.M.E.c.=.-.r.U..Xl.U =.l.L.G.n.c.n.B.B.B.B.1.i c A ..r.Q p.P.s.:.1.;.s.m 0.M.B.=.M u M D.+XW.L.W.U.E.E.B.B.n.M.c.S X.n.s.E.p.M S 8.3X+XB.r.y.d.n.s.;./ } c.B.B.d.n.{.{.s.=...W.d.y.B.L.B.r.r M h.Y.Y.L.B.'.&X@X.X.XN.=.;.Q G Q 9.y. .S z 9 / c 9 m b [ D.+X+X'.d.=.8.N.;.{  .W / X.G ;.Y.J.8.d.m.d.w.h.b.N.a.h.J.J.b.s.a.h.h.m.g.h.c.s.h.h.c.m.c.<.d.W ..N.h.y.c.r.b.W.U.G.Q.'.{.'.y.;.1.n.h.s.c.h.r.1.r.C.c.s.i.s.s.s.s.c.i.s.b.s.s.m.h.s.a.m.h.i.y.1.i.c.X.b.;.=.c.{ p 9 } r.` 7 3 3 3 g u r =.E.Y c.s.c.h.=.7 7 g g A Y Q L.'.d.c.d.c.B.s.c.h.d.d.>.I X.L.'.;X&XB.v.i.8.i.r.r.i.s.s.s.s.s.s.d.d.s.s.s.d.h.s.i.r.r.y.s.d.y.w.1.i.s.s.s.d.8.p.n.r.d.b.s.n.X.1.1.;.=.1.8.0.1.d.d.c.n.n.y.Q 9 3 Q E.n.y.c.c.p.Q i r.Y.c.,.-.Q I / 9 u c.E.r.r.B.r.,.L.M.i.v.s.i.p.i.c.r.i.p.M.p.i.,.=.M.v.i.r.g ..-...} g i.G.c.p.r.{ A K I :.r.C m g 8.-Xp.X.=.0.0.:.r.s.0.p.p.p.p.r.r.u.c.c.L.A = K A p.B.Y q * i { r.8.=.l.B.=.p.c.s.r.r.s.s.I m A U m u d 7 l U g 8 d A m A X * A K p.r.1.].}.",
"} '.L.i.-.V i 7 ..&XM.v.E..X}.v.M.M.B.c.B.L.}.Y.E c i 0 =.B.B.B.L.G.M.p.;...1.W.L...m c / =.@.=.p.D.E.&XB.{ q = * g } &X,XE.,.i A ' A r.E.1.' Y.E.L.} A B.L.g.C.M.M.M.M.M.M.M.M.v.v.D.c.L.s.=.} 0.r.'.D.T r.G.y.n.l.d.c.n.B.B.G.:.C 4 m =.E.W.-Xn.0.s.d.Y.1.m B.B.B.{ A I y.+XW.c.U.8.r.U.B.s.B.B.n.s.A { d.s.E.1.M L.<X+Xs.y.v.d.B.W.;.p Y B.E.d.D.E.&X+X+X X-X.X'.{ r.d.c.B.Q 7 r..X+Xm.i.m.B.c.c.L.W.s.Q { u 2 N W Q z 1 r D x S / 8.9.U.+XE.D.1.=.y.J.c./ / ;.R u Z V I w.D.%.%.B.d.w.J.J.I.J.b.h.s.h.h.c.c.h.m.s.h.b.h.h.h.I.C.r.%.a.u ` N.n.D.b.d.{.+X Xc.U.Q.W.8./ { X.r.=.>.d.s.%.I I =.b.s.i.s.g.i.s.c.h.h.b.s.h.B.h.y.i.h.y.s.b.i.8.%.8.r.Q o.B./ 9 T s.I r g b z V Y { w.D.8.` c.8.Q w.1.I I Y g ' '.&X.X).m.n.c.L.c.m.s.c.s.s.r.w.;X;X&X&XU.s.B.>.8.w.r.r.1.8.s.s.y.y.i.s.s.s.s.d.c.r.y.i.i.s.c.m.c.r.s.w.s.y.y.s.i.y.,.p.y.c.n.D.;.;.s.1.X.d.c.y.c.d.c.s.s.y.d.c.Q z T 8.s.1.D.B.y.c.L.B.M.M.r.,.-.v.s.8.>.m.E.n.y.1.c.=.-.v.M.c.r.s.p.p.1.d.r.p.s.r.} Q Q A ....V -.Q A m V ..} p.:.1.s.l.) c C 2 ) { g m Q L.~...{ @.r.s.r.i.s.r.r.p.s.u.r.0.y.l.M.~.u 4 A p p.;...Q T { 1.y.c.B.P..X0.:.1.r.p.y.i.i.Q 1.E.|.i.~ Q g F x.B.^ g A } g 7 m i { 0.I =.E.L.",
"} E.C.c.p.Q g } M.M.c.'.L.v.c.p.=.r.L.E.E.M.E..X=.U H g ..E.M.B.n.p.L.L.G.E.L.U.B.=.A A =.l.s.1.r.~.0.X.g n.[.@.Q i ,.M.A A } A -.' w..X&XE.Y.c.Y.V V 2 g.E.v.B.Y.B.B.B.M.B.B.M.s.M.B.M.M.1.' =.s.G..Xc.) G.i.l.D.d.p.L.r.L.c.p.s.7 p M { T n.P.u.n.B.l.p.C I B.D.B.1.1.c.U..XU.c.B.n.B.n.B.y.n.L.n.8.S u =.L.4Xs.X.+X'.c.m.;.B.D.n.E.' g =.0.d.'..X{.L.n.y.s.+Xi.8./ =.J.B.1...=.&X~.n.B.s.d.d.a.b.y.b.r.8.a.d.X.I b M N.X.z N 1.h.b.n.[.5XR.D.n.d.y.X.:.8.X.A r g p p V b p N f X.m.m.c.D.D.h.h.c.b.N.B.B.m.c.c.B.h.c.N.c.c.h.b.J.s.b.i.9 b.I.c.d.s.J.d.f.c.K [ X.@.I z q 9 S Y / r.r.r.X.%.s.h.a.h.g.w.y.h.s.h.h.s.y.i.h.c.h.d.h.i.i.h.d.y.r.y.d./ 8.u.f.S y.L.} =...=./ r.{.,X<X-X.XD.b 2 u y.1.1.c.w.{ c.&XE.B.J.B.n.c.c.U.E.c.m.s...X.w.c.Y c.B.w.8.i./ %.8.X.r.r.s.s.d.y.p.l.s.y.d.c.c.r.y.s.s.i.i.d.d.i.h.r.d.p.r.s.r.s.y.s.8.c.n.r.y.r.y.1.X.i.s.1.r.y.r.d.s.d.d.c.r.Y I =.s.,.8.B.X...'.*X,XP.L.1.} -.v.c.E.c.m.D.U...1.s.c.v.L.B.p.i.i.s.p.i.s.s.i.r.=.g V m g I i.i.1.A p.i...Q r.1.z Y r.:.c u C B ' I c T E.c.s.@...i.l.i.s.0.s.0.1.8.1.0.s.s.d.n.c...7 u d C L.&X&Xi.-.p.r.E..X,X,Xn.r.=.:.y.8.r.0.=.g Q }.g.I -.|.m.x.Z.c.M.} F I g 0 i g H ) ) v.L.s.",
"..B.g.i...u V }.'.Y.C.Y.M.p.g.4.Q t..XE.Y.|.3Xk.I =.c.] } M.M.B.G.l.B.n.B.n.B.G.U.P.l.c..X'.D.{.l.K T g M 1.G..X1...=.Q =.1./.E.L.I p.'.=.I M.Y.} g m I ..E.L.L.M.B.L.L.B.M.M.M.B.L.B.v.B.s.=.1.p.P.E.n.@.d.c.c.n.L.n.n.n.G.M.P.8.$ g =.1.@.W.P.L.n.s.;.{ A ) B.c.n.d.n.U.'.'.D.n.U.B./ ;.B.L.d.s.W.r.g I ' L.+X[.U.{.c.=.s.c.B.B.c.U...Y m S Y U.U.s.s.c.y.c.D.V [ r.s.d.J.B...D.-XU.r.r.c.D.;.r.B.d.b.f.d.d.r.Q / %.c.s.9.m z %.I.D..X=XI.s.n.d.X.=.Q a m { I u V Z Q %.=.w.d.w.J.).D.h.n.m.h.c.c.b.b.m.m.m.c.N.J.h.c.m.h.h.h.m.m.b.s.n . %.>.{ 8.J.h...Y X.z 9 u u q 3 p ..c.X.r ` 1.r.d.m.Y.J.h.y.y.s.m.B.b.m.m.h.a.s.h.h.a.i.s.i.i.h.h.s.s.d.N.r.h.B.c.Y / y.V w.c.B.B.s.i.'..X.Xh.} g { y.b.a.p.J.E..X<XW.U.J.E.W.W.c.A & X.E.' Q r...r.Y * B.r.w.' A g ` r.X.8.c.{.L.d.n.c.d.c.c.c.d.d.s.s.d.s.p.s.c.h.s.s.i.m.B.c.p.w.h.n.s.r.d.d.8.8.8.:.r.1.s.n.n.B.d.s.d.y.y.y.s.r.Q Q d.n.r.r.y.8.r..XY.v.i.B.s.r.c.v.p.r...c.B.y.-.s.M.M.v.M.c.r.1.i.s.s.p.s.s.p.p...i g m i A s.B.B.Y.'.Y.i.,.-.I @.z 2 7 u A @.0.p.D.y.r.W.=.=.0.r.1.s.@.1.c.8.1.0.8.1.r.s.p.s.B.=.8 2 R Q c.5X&XE.Q ..v.E.}.L.D.L.u.:.1.0.0.r.0.} I U g $.Q s c.oXm.,.A.`.T.s.r.=.=.c.c.C T =.O.G.G.s.",
"4.}.B.i.$.R } /.Y.m.B.B.L.p.s.$.E v.B.] r.v.L.T m r...7 ' Y.M.B.n.B.L.G.P.c.P.].E.~..X#X&X=XE.8.Y Q ] N I A p.:.c ,.1.p.B.'.}.E.}.m.Y.} i Q .X/.1.m g r.} M.B.B.L.B.M.v.M.M.l.s.M.v.v.v.L.v.,.r.0.P.W.c.r.c.B.B.P.G.n.s.D.D.E.L.u * C r.~.'..XG.D.c.c.l.p.r.1.B.J.J.D.c.L.{.L.y.s.r...9 M ;.L.W.'.E.X.Y Q r.L.B.d.d.n.D.c.d.D.n.D.B.n.=.;.A S ' U.E.s.n.n.r.D.D.Q r.B.m.L.m...R J.U.c.p.y.n.s.p 8.D.d.a.y.d.;.I 1 s.J.D.c.I A 8.N.d.b.'.d.s.J.r.;.Z z 9 9 D =.I g S Q s.[.&X<X=XI.[.).m.a.h.N.c.b.b.c.b.b.m.b.m.h.m.s.g.c.h.c.c.C.L.b.i.G 3 ` w. .Q X.S m b { S 4 q i m 9 m s.B.V r M ' n.E.E.B.R.J.h.a.c.m.h.h.i.a.i.y.s.h.h.i.i.s.y.i.h.h.s.s.n.d.f.s.h.c.9.;.E.=.B.h.s.s.} =.c.i.n.=.Q A s.B.c.c.1.L.;Xd.=.Y.).E.E.c.=.A * O * * . I E.Y.L.X.r.W.c...V u * V y.{ / ,.W.D.d..X'.D.U.D.n.B.y.y.d.h.s.p.d.c.c.s.s.s.c.s.s.s.r.c.s.:.r.d.c.s.8.8.1.y.s.B.L.D.B.s.s.d.r.r.y.s.s.X.8.s.;.c.B.y.c.n.i.V i U c.M.M.L.J.p.i.r.W.'.w.r.p.v.v.s.s.i.r.r.i.s.s.p.s.s.p.s.1.U g g m ..~.c.,.'.B.L.c.B.B.s.l.r.' z z Y T m K P.L.B.,XL.c.1.p.:.s.0.;.s.:.0.r.p.r.8.r.p.y.p.V * u r.|.&X}.E.} 7 =.c.M.=.g 9 =.8.=.0.p.p.l.@.A -.v.I M.M.U i.$.P P C.Y.s.s.i.! -.r.1.Q 1.) ) .XP.c.",
"p.&X/.L.E..XE.E.E.c.c.v.c.r.r.=...B.P.p.'.M.r.A i s...7 ..P.B.B.G.P.B.l.L.l.E.W.c.p.B.G.c.U.n.A a r.@.0.l.s.'.@.' B.c.c.' s.&X&XE.E.}.g.r.B.|.L.}.r...' A M.|.M.c.M.v.M.L.L.B.L.M.v.M.v.M.p...} ..@.0.A { B.B.P.E.r.U.].U.P..X=.* u A @.L..XW.n.B.v.c.n.c.l...s.E.y.n.}.&XE.r.y.r.{ A I ..c.i.y.v...A A Y B.d.r.0.y.y.B.c.p.B.h.c.L.d.r.d.s.r.I.E.Y.l.B.d.1.B.L.A 1.m.c.h.=...J.U.L.B.n.d.c.n.X.r.D.d.f.d.h.' a A D.N.L.y.S d.D.b.N.B.=./ X./ / Y m q 4 T ;.' 4 z W h. X@XW.d.>.D.J.B.d.a.c.N.b.b.b.b.m.N.N.N.m.h.m.s.h.m.h.b.c.B.J.a.r. .9 } J.1.p u 7 z z Z u c K 1.8.A m Y g 7 >.J..X'.h.M.i.i.c.c.c.B.c.g.m.r.y.y.r.s.c.c.g.d.h.s.s.h.d.y.y.c.r.d.D.d.d.:.[ Y i.W.%.r.s.s.&X$X=.{ I g i s.B.c.c.Y.&X$XL.D.).D.n.m.>.b = * m z = S W..XU.B.Y.W.1.s.Y z g ' >.X.m 2 2 g 9 9 / ..Q X.' =.D.n.d.c.h.s.i.s.c.h.s.i.h.s.w.s.m.h.s.c.r.c.c.c.n.8.:.r.r.s.D.D.s.r.y.r.y.r.y.s.d.n.r.Q z p c.c.y.y.r.=.m I -.M.v.v.B.B.,.c.n.L.'.i.d.i.s.c.s.i.i.i.p.i.s.p.p.s.s.p.s.i...V V A =.v.T Q M.B.'.B.Y.Y.|.P..X.XE.l.' C C ..=.S =.'.p.1./ T Q { c.y.1.;.:.p.d.l.l.r.[ B m = m c.&XL.i.t.,.U u I U I I Q =.p.l.r.:.8.s.r.A g Q s.v.}.i.A ..~ 5 $.;XM.s.Y.=.] I V B C B H L.E.s.:.",
"c..X/.'.}..X/.|.Y.B.g.c.1.=.>.c.'.'.*XL.c.s.v.' ..c.v...' v.L.,.D.B.:.X.l.c.U.B.B.n.n.D.G.B.B.D.~.n.u.G.{.#XB.c..X'.L.n.E.}.3Xs.-.,.Y..XY.oX}.B.1.1.Y.v.1.Y.B.i.p.M.L.L.B.v.v.B.M.v.M.v.v.d.1.1.A m I z ..s.r.s.X.7 ..E.W.{.n.3 = 4 Q l.M.Y.L.s.s.c.p.l.c.1.C ..'.c.B.W..XL.=.X./ Y M Y ;.D.' 3 7 9 c p r.B.s.d.y.n.B.s.y.n.D.c.n.L.B.1.8.1.{ n..Xn.s.c.v.c.c.D.r.r.m.w.g u ' c.r.D.D.c.u.y.n.G.r.c.u.c.D.c.Y p 1.y.G 8.:.8.8.<.N.D.J.i.s.;.b z q x I / y.f.X.a g ` W.N./ m s ` J.D.b.h.h.b.b.h.m.b.m.N.N.m.c.h.h.J.c.c.N.c.c.h.D.c.h.a.W + 1.D.[ 9 3 u a x x p m M r.=.A { X./ A } E.$X} b ' } w.h.m.m.B.h.i.c.c.b.c.g.h.m.c.h.h.h.h.h.b.h.s.d.d.y.d.D.f.B.o.x r y.h.V s.E.Y.s.` 3 b I V m c.J.1.p.W..X'.$X}.s.s.r.n.m.8.R z A V ..I Y.U.c.J.i.G A / M u s L.B.1.Y z 4 o . . 2 . . 3 $ 7 8.c.y.c.h.i.i.s.h.d.i.w.s.d.h.c.c.h.s.d.r.d.y.s.c.r.8.r.8.s.c.d.0.1.y.r.p.y.s.s.d.c.1.S I 1..X;.D.c.y.v.i.P.E.L.c.M.Y.Y.m.'.E.E.Y...X.s.v.M.c.p.p.p.p.s.c.s.d.v.c.p.p.c.s.p.E.B.v.}.L.r.c.E.E.l.c.M.'.#X&X{.E.E.n.p.c.=Xn.Q ..s.,.1.A 4 g K r.r.r.s.n.s.d.n.n.=.i < u 7 c.'.E.r...1.' m s g ..>.s.C.E.'.n.s.:.1.r.Q 7 8 A p.L.} m m $.p.5.r.i.M.v.r.p.) C } T B A @.s.' H T ",
"L..X'./.B.g.x.C.c.Y.E.E.r.} F ,.E.T.E.Q m ,.k.=.L.Y.E.s.p.T.n.} c.B.d.s.v.G.L.B.c.l.B.D.c.c.c.0.:.r.].U.U.'.D.]..XL...{ |.&XL.Q } p.c.i.4.}.p...i i %.c.=.,.Q =.Y.M.v.v.c.M.L.B.B.M.B.n.v.B.Y.'.0.s.l.n.n.{ 1.r.g < ' r.c.0.N * p X.B.~.].W.v.s.s.B.n.L.~.c.:.c.v.8.r.B.W.B.' g V X.B.1.y.L.B...7 p M y.'.B.n.c.s.d.L.n.n.D.B.L.L.B.U.X.;.' { d..XD.m.n.B.D.c.B...=.c.Y.%.s V R X.n.B.d.n.n.u.y.f.d.u.n.D.u.m p M S D Y w.d.T =.D.8.1.B.y.z z z ( S 8.n.c.F.Q.0.m [ m.%.s f / ).).J.b.h.c.b.c.c.m.m.m.m.m.c.s.i.i.m.h.c.m.c.m.h.h.J.B.a.;.1 X.%.p r u g 9 a M Z x a ;.{ / n.G.E.=.>.'.c.s r b ' J.m.h.h.h.a.r.i.c.m.b.h.s.h.h.s.a.h.h.h.N.N.b.N.d.h.d.c.u.D.[ 3 M ;.s.r.&X&XE.' u 3 A ' G M } Y i.J.&X;X.XD.r.i.c.s.v.B.L.m.` s G B.m.'.w.w.J...7 s 7 1 u >.W.E.U.d.y.;.A V z m p g A 9 9 1.D.c.c.d.p.p.s.s.s.i.r.y.h.m.1.} r.n.y.p.d.d.n.c.8.r.s.c.B.s.r.s.y.s.s.c.s.s.s.d.y./ m ;.L.s.p E.P.d.L.c.P.L.L.Y.E.E.c.L.B.1.L.p.b R c.c.v.v.s.s.c.p.c.c.s.s.v.c.i.i.r.p.c.E.v.v.|.&XE.L..XL.v.E.+X-X&X~.r...y.L.L.D.L.D.y.X.Y Q ) 2 A 4 2 q ..U.c.G.'.].n.Q 7 2 z / ..M.U A >.$.=...Q V 7 ..1.p.B.L.L.Y 9 = < u 9 i 8 =.s...Q ..i -.g.5.E.A.p.p.-.U c E s.r.c.l.c.) g i ' ",
"M.}./.E.B.L.Y.C.B..X.XC.s.} m ' =...,.A ' }.c.=...p.L.i.c.B.) A G.L.P.{.B.G.l.n.n.c.L.L.c.G.r.9 7 F.<X~.u.l..X~.L.'.1.T l.G.s.M.v.Y.v.=.,.c.A i m g g k = Q =.-.E.c.c.c.p.B.'.Y.Y.L.E.B.c.M.D.E.&X&X.X].n.@.c.U.2 g n...' 4 X S n.-XE.r.E.E.c.D.U.E.B.G.B.s.E.~.Y Y 1..X'.{ z z p 1..Xd.8.D.~.c.X.X.=..XL.c.h.s.U.n.v.n.n.d.d.U.D.n.B.1.s.s.U.B.w.J.L.n.c.d.l.c.i.B.B.L.' 7 ' d.d.B.c.r.n.L.n.n.L.D.n.D.J.8.r r m N d.8.f.d.D.D.L.L.c.b.y.z T d.D.s.G.D.l.H.W.:.%.s.h.h.s.i.J.=X[.J.d.d.c.c.b.m.m.b.m.b.c.h.s.a.i.m.h.h.c.c.m.h.y.J.h.i.h.b m A p D / ` G z ( Q X.@.B.D.B.L.s.c.%.U.,XL.V s A >.L.s.w.e.y.s.h.c.i.h.m.h.a.s.h.s.r.s.s.h.N.N.b.N.s.n.J.B.n.a.I p V y..X,X}.s.Q G w.=.} X./ =.d.r.D.Y.3X&Xi.r.d.y.d.i.i.8.r.s.X.I >.=.L.s.w.J.w.Q A 3 7 z =.,X+XW.n.r.8.d.1.) g N T Z Z z x { l.s.s.i.i.i.i.i.i.y.s.s.d.r.G m =.y.d.d.8.d.B.;...r.n.B.D.s.y.d.s.d.d.c.y.r.s.d.;.z 9 / X.m u {.'.D.M.p.c.s.B.E.Y.v.c.J.y.{ L.d.-.L.v.s.c.c.d.v.M.p.c.s.p.p.s.p.r.p.i.p.r.1.Q ,.p.r.i.p.v.p.c.M.B.c.L.:./ =.y.0.r.G.n.s.s.y.Q i q u u u m 9 g M C p.'.E.=.< . 9 S T Q g 8 i u V 1.$.} F m ..p.v.c.p.I 9 3 u i u u i i ' V I v.i.e ' x.s.x.$.E V A A A ..s.E.~.t.L.].l.-.G.",
"g.Y.C.L.B.L.Y.L.J./.v.Q 4.i.r.E.'.V V m H &XP.1.v.t.B.i.p.E.:.I v.;.-.B.s.E.c.G.n.D.n.B.E.L.{ 7 T G.D.l.@.l.&X.X~.B.0.g M.B.L.M.E.m.C.$.Q c.p.Q A U >.C.>.r.M.-.L.n.E.B.} Q =...r.i.B.B.v.M.M.B.s.0.l.c.n.E.U.n.K m Y.0.+Xc.@.'.].n...Q c.P.~.{.G.B.n.l.@.K :.S S U.<XW.Q 2 i M { p.1.z g M.d.M r.'.,Xs.s.c.c.L.s.n.c.n.D.B.B.n.B.U.s.r.r.B.m.m G D.D.n.M.n.U.n.J.J.B.n.S R |.B.{ X.1.=...X.y.E.D.B.c.n.c.o.> 2 %.L.c.N.Q.W.-X$X).;.d.d.b.'.+XD.8.D.U.r.c.H.u.c R. Xd.J.$X}.,X-X).N.a.d.b.c.c.N.m.b.c.c.c.c.c.h.N.Y.B.m.b.h.c.s.D.a.b.J.r.N m I X.8.f.a.8./ W.<X<X=X&X&X+XU.n.E.L.B.8.J.` ' &X&XY.s.w.w.>.1.s.h.s.B.J.B.c.h.c.h.i.s.s.s.c.h.d.h.u.y.c.r.s.{ { c.h.3X,X}.U.E.Q %.{.&X$X4X$X$X.X'.;X&XY.r.d.s.=.s.i.i.c.h.s.s.w.i.m.s.).I 1.r.s Q 1.G =.'.$XY.Y.' { / [ G.{.d.B / 8.S z I T X.c.d.r.r.r.i.y.r.r.y.y.c.n.>.s g %.` { Q g Y =.S Q c.n.y.d.p.y.s.r.d.y.r.=.=.r.s.X.3 9 m c 9 Q D.r.8.' @.c.s.v.s.s.s.i.c.B.c.}.s.r.B.B.l.c.c.c.M.B.p.c.c.s.p.s.i.i.c.p.r.y.s.-.r.1.i.1.p.-.1.i.1.p.s.y.1.1.p.s.y.p.c.p.s.G.D.y.' i g m m c Q -.4 . < S i * < g A m z 7 7 i 7 u } s.1.=.Q ..-.).&XJ.=.M B z N g u C m g A 7 Q p.i.,.A E..XM.r.s.P l m B ..s.L.=.1.,X#X~.=.p.",
"g.E.m.A.C.Z.A.L.p.6.>.7 V ,.E.OX.X..l u ..;Xk.-.c.P.T.!.&X&XE.B.l.d...,.Y.L.v.Y.Y.v.Y.E.M.Y.Q 2 L.{.0.m Q ,XE.E.0.} A m 1.i.s.r.r.s.M...= r.&X}.L.p.E.L.E.M.' L.X.A Q r.... 7 7 A I ' E.c.v.M.s.=.S =.8.:.n.B.n.p.B.s.{ G.P.~.d.c.L.1.r.G.B.P.L.s.0.r.=.A 2 A I m c.1.Y z g I w.m.Y.r.9 m B.v.' 8.U.).c.s.D.L.c.D.c.L.D.d.L.s.n.N.n.v.;.-.' M 2 $ ;.D.n.r.y.U.m.n.c.L.8.$ Y ' X.' M N / M 9 m ).).W.d.a.s.` 6 G m.c.J.h. X&Xh.} G 7 s.E.d.E..X<.u.d.r.x c.&Xd.N d.8.' %.c.L.J.Y.B.a.y.h.m.m.c.h.h.c.m.m.c.c.h.g.d.N.c.a.h.b.h.s.c.d.D.D.D./ 3 8.I.u.8.n.D.l.c.d.D.{.d.d.R.'.D.W.D.{ z N y.<X$Xm.h.z A 1.{ s.B.c.d.s.s.r.w.s.c.c.m.s.J.I.d.y.r.8.8.d.y.r.8.z 2 I R N.D.L.).I.L.h.a.r.@XE.N.D. .>.}.m.` Q i.h.y.c.h.c.c.h.s.s.c.m.L.Y.h.u U Q U c.D.M.{.E.h.s.%.G =.S ' D.Y.} ..;.I I 1.B.{.E.L.y.y.8.1.8.r.;.B.s.s.c.s.Y g d.c./ g A g 7 2 A L.D.n.d.s.y.r.p.d.s.s.=.I m / 8.Q 7 g S M Y 8.1.U M p ;.p.1.r.8.;.;.8.r.L.:.A 7 A c.n.n.B.L.n.{ :.;.d.0.p.c.c.c.c.p.s.r.8.1.8.r.r.y.r.r.r.r.y.y.r.r.r.p.1.s.s.r.u...C { =.i S 8.=.A g I L.B.L.I i g : $ $ q c m c ..} A S m s %.;./ A m A 1.i.} b =.1.=.1.U ' ..r.=.m ,.s.v.x.s.] U E.M.L.c.=.s.-.....k.s.p.:.E.;XB.O.g O.",
"s./.M.B.B.L.T.L.>.C s $ ..`.C.$.>.M.p.,.c.}.-.O.B.P.v.L.P.s.@.B ..v.E..X&X'.L.c.s.'.c.Y..Xv.g S 3Xc.} ,.E.;Xc.' = = 7 g ' U A A V I U 2 = Q i.p.B.Q Q E.c.V g &XY.C = 8 m 7 m i A i i ,.v.s.s.s.s.{ 1.;.@.s.s.s.c.c.I . { r.I Y i.B.Y.s.' r.B.1.0.S m C m A 1...Q B.>.M u R r.n.m.}.-XE.J.Y.c.s.Y.U.c.c.D.D.c.D.B.M.D.n.y.D.c.n.L.D.8.Q m 7 u 7 V m ' / 7 X.B.1.c.W.=.) 3 4 9 T c.{ S p r u g U W >.I.J.a.J.c.).i.W.N.;.w.{ M 3 Y Y 8.h.R.{ p S X.W.d. .d.I.W Y J...%.L.).J.L.).J.h.g.m.m.m.b.c.c.h.h.g.h.c.h.h.i.s.s.a.h.c.h.c.a.c.D.n.n./ p :.n.c. XG.r.f.u.{ / / 1.I.).c.{ w.D.I.[ ;.[..Xn.W 7 1 ' %.' n.J.M.i.r.r.w.>.w.h.m.h.=.I  .9.<.s.y.y.r.f.<.p 3 9 2 % Q J.J.a.[ f N 7 } .X).8.W Y B.,XE.w.1.c.h.i.c.c.h.h.h.s.s.h.h.B.E.Q g Y A i.+Xh.d.c.s.c.W.B.=.{ S =.B.U.;.=.d.A / D.<X-Xd.y.s.1.;.c.d.n.n.r.p.y.p.8.8.c.L.n.{.W.c.,.c.;.Q y.1.=.8.s.c.s.r.p.c.v.;.Q / { A 9 z M M r.B.s.8.I 2 2 ..d.r.' Y ' 1.;.;.y.m 3 z S r.u.n.n.r.) q C m ..1.d.l.p.i.i.1.p.p.y.y.p.s.s.s.y.y.y.p.p.p.p.y.y.y.0.l.l.p.c.:.X.=.S $ g s.'.c.c :.n.X.=.M m g q c u C A Y s.B.' s.s.` b } ../ A 7 3 w.r.' b } B.L.'.,.r.i.,.m | x.L.E.B.p.^ U L.i.r.,.' p.v.L.B.T.Y.'.].-XP.K g i m ",
"6.E.M.M.M.Y.Y.M.A 8 C ~ /.`.R * =.,.' B.|.E.U V n.l.n.L.1.m K @.E.#X,X&X'.|.&XL.v.E.'.E.s.' 7 { Q A M.3X,XL.L.Q = 8 I A V g g A g 7 u = g V Q } v...,.'.Y.-.' v.E.Q A g m 7 g A g u g =.B.p.i.s.n.r.s.1.:.l.d.d.n.0.I 3 :.P.=.1.s.n.n.8.' B.E.P.{ i q u i ..G.=.h..XL.8.' c.,X,X,X.X{.)..X}.J.B.+X&XJ.n.B.U.n.U.v.n.B.B.h.D.L.L.D.;.z p 7 7 S ../ g c 7 $ ;.Q = [ L.{ { 9.d.@.{ ' R r.1./ b S I & 1 =.;.I d.w.[ Z d.a.d.b.S W ;.<.s.W.y.N.n.8./ A n.s.c.D.b.b b $Xa.Y.3XE.B.'./.J.h.h.b.c.c.c.h.B.N.m.c.m.B.m.h.c.h.h.h.m.c.h.N.n.n.c.U.n.B 9 X.D.d.G.Y S D.'.r.z m a.c.r.[ Z X.D.I.c.'.'.[ S S 7 m w.I b { ..;.w.r.s.h.y.r.h.m.E.z O # f y.;.9.[ M u p & p z u m 1. XN.Q g 3 r A R.+XD.8.G X.4X).m.i.s.c.s.s.c.c.h.s.s.h.h.s.y.d.E.R =.L.n.Y.w.` w.h.L..X.XL.>.m u { n..Xd.X.B.r.E.+X{.B.;.s.d.Y Q s.n.y.c.y.s.d.r.d.c.D.s.s.U.n.B.X.S { ,.' Y / y.c.y.r.d.d.y.d.s.y.c.d.I 7 z M ..+X}.B.{.c.Q M ;.n.l.s.{ =.1.y.{ Y * 9 X.S / ..:.0.1.) q g q i } r.r.1.r.r.r.y.u.s.l.l.l.d.s.u.p.p.p.p.s.s.u.d.p.p.c.s.p.r.{ / ..=.l.'.'.&XB.@.L.p.{ c.p.r...d.M z I C =.l.u I r.r.y.n.J.;.I Y I V 1...8.%.>.r.I Q Q =.Q U Q 1.s.x.M.r.| U ' i.A..X}.c.L.'.|.].}.|.].'.L.0.g 7 U B ",
"g.}.L.L.A.L.Z.x.R ..|.`.Y.p.} r.c.| ,.3X.Xs.Q ^ P.B.l.U m 2.~.*X,X3X&XE.B.'..XB.v.i..Xp.m i 8 A u m s.Y.L.i.,.i g g m i A ,...' u A ,.U g m p.E.v.-.B.=.s.L.i.} A 7 Q I A g A s...1.M.E.M.s.v.M.M.n.n.p.s.B.c.l.c.@.u A s.L.0.r.U.G.0.=...P.E.G.' A ' 8.@.1.L.D.$XY.i.D.m.E.&XY.B.L.J.D.W..X.X.XW.E.1./ { D.Y.D.L.n.s.M.D.L.W.E.L.' 9 p u m Y y.c.1.r.I p { p o a I 1.W.~.[.B.W.'.c.'.'.i.1.B.n. .u z r & } a.8.%.a.Y G h.b.d.Q 8.r.c.Q 8.D.W.E.;.n.J.N.D.d.:.Y =.} B.'.s.m.&X.XB.c.c.b.c.h.c.h.h.h.c.m.b.c.h.r.m.m.h.h.m.c.h.b.c.c.d.W.n.u < T c.f.y.p B D.U.{ A o.d...8.b.1.( =./ B.@Xa.x b =.1.w.>.u 7 r g U %.r.v.s.=.=.d.L.X.= 3 m ;.R.y.y.X.p o g u f p G a.a.h.8.p 6 G z ..$X[.y.Y V h.+Xw.1.r.s.i.i.h.h.h.s.s.h.h.h.s.r.r.D.i.i.J.y.s.=.%.8.=.d.D.>.Q A z g Y ;.c.Y A n.E.,X{.B.r.1.s.=.Y u M B.s.r.n.s.c.y.d.8.1.I I Q m 2 3 o z L.;.A I X.r.y.u.r.r.s.y.d.c.U.L.1./ I S D.-XL.B.U.r.=.n.{.W.@.n.y.J.d.1.;.1.' / 1./ r.1.1.1.r.@.c K A ) y.c.s.s.c.s.l.r.p.d.d.s.s.s.s.p.p.p.p.p.s.s.u.d.u.s.l.p.s.{ m c I p.'.#XG.U.B.B.+Xc.:.d.1.@.l.C g S 9 I @.K A ..i.h.}.R.X.g r Y ....%.r.&X).W.m.>.>...1.i.g.g.r.p.x.M.x.r.p.V..X2X2XOXA.B.T.B.!.E.'.v.0.} ] I V Q A ",
"r.Y.v.A.A.A.L.A.L.A.T.*.*.s.r.s.M...r.L.-.r.s.|.n.1.A B 1.~.~.' -.r.-.,.c.L.L.c.U U ..8 8 8 7 m V A I U v.M.Q A m ..s.r.i.Y.L.Y.1.i...g I s.P.s.p.{ v.-.s.L.L.M.r.Q ..A A Q I -.Y.E..X}...,.c.v.B.G.B.s.c.B.l.s.B.s.> X.#Xd.{ ..p...C K q 8.U.{ $ C r.B.B.E.'.'.` G R s.>.X.1.%.8.i.h.D.L.n.h.c.D.d.' 9 = Q d.n.l.B.D.L.L.L.L.s.z 2 9 g S r.y.'.B.B.+Xs.m 9 z z N z =.D.c.l.s.B.L.E..X).i.J.M.I i.' V Z f Y ..` m ` <.=.a.N.J.s.u.d..XB.B.n.d.=.` a.R.s.d.a.D.r.J.J..X$XC.B.).E.N.h.m.m.c.c.m.m.a.h.b.c.h.d.i.r.a.h.s.a.d.h.d.d.1.l.c.I.r.a 9 D d.W.D.o.0.n.f./ h.=XJ.m Y X.( 9 g Z u.n.D.D.R.I.h.n.=.} 1.Y A p z ..d.r.I u 3 > . . z h.:.I a.n.d.=.;.b.S x S ;.[.Y M Q r N D.).=.d.<./ b >.$X<.1.r.c.h.w.s.n.i.s.d.h.h.c.h.s.s.h.i.c.8.r.A =.J.i.>.S ` >.I u 9 9 ..y.d.s.c S L.{.E.n.L.c.1.8.8./ 2 = y.L.c.d.y.r.d.c.d.W.I 9 I Y 9 2 Q L.L.M S g ' 8.r.r.s.d.s.d.8.=.;.{ { s.y.1.{.W.B.u.M 3 g ;.E.r.A =.s.L.B.c.n.c.L.D.D.s.n.r.y.:.[ K c 0.B.'.'.G.c.v.s.1.r.p.u.u.p.r.y.u.s.p.p.y.y.p.p.p.y.r.r.p.d.l.B.Q 7 c { G.B.c.p.r.8.1.l.s.p.l...m =.m I { g I Q K p.c.c.s.B.' m [ r./ I Q / L.$Xi.v.p.s.L.s.p.c.c.r.s.M.'.OX&XXX&X&X'.'.(.L.x.p.L.'.B.l.c.1.=.! Q I ..m m ",
"i.T.M.L.A.B.L.T.L.c.6.A l C C Q c.U i g H ,.i.E.s.p.I n..Xn.E.+.* 8 8 A ,.1.} I V Q A 8 V A M.E.s.i.s.-.Q } g g { L.,X;X&XY.B.L.E.&Xi...i.M.s.v.|..X|.&XY.B.B.s.}.E.E.s.p.M.i...B.p.s.s.m ..s.c.B.G.n.d.c.B.n.n.n.=.$ ..s.A K m z 3 * { =.s.n.Q : I r.s.l.D.1.' m.{ 7 V Q 1.r.Q Q m A h.'.n.i.c.n.D.8.p 2 ..Y.M.n.W.'.X.g 7 7 $ * 2 z M ..E.n.d.D.$X+X;.=.{ 1.%.@.9.8.y.D.U.E.B.U.&X}.L.1.J.L...W [ Y d.'.J.} u z b b.{.'.m.i.h.d.y.h.` { L.I.%.S d.I.d.n.J.N.B..X>X}.m.m.).'.I.c.g.h.m.c.m.m.c.h.b.m.h.s.s.h.h.s.b.h.s.h.c.d.a.r.c.n.I.:.u a T U.=Xn.8.n.D.n.n.U.<Xa.p u u g z ' c.:.[ L.L.L.<.S Q i ' D.d.r.Q 3 3 9 p z M z 2 u p I [ p 9 ` W ..b.h.o.9 g Q y.M V w.S 9 h.b.Z G <.Y S a.[.D.V i.d.m.h.r.s.c.r.s.h.c.c.h.s.s.d.m.s.r.=.n.R y.c.y.w.{ } =.I p u m E.-X{.E.' / r.D.d.c.n.{ Y / =.g u u M i.E.s.n.s.s.r.1.s.M A X.{ S Q '.c.{ [ Q X...:.y.s.d.c.y.d.p.{ V 7 S n.D.}.&XL.B.;.m Y { E.L.S 1.y.d.8.r.n.L.B.U.B.d.d.y.@.=.Q a u K E.<X.XD.r.0.s.p.r.r.s.s.p.r.r.r.u.d.p.p.p.p.p.p.y.r.0.r.y.s.c.B.M q < A s.s.B.c.=...' @.s.B.E.c.' :.p.p.B.s.A i ;.s.s.i.i.1.M R >.} ,.' } ` U.B.I %.=.` 1.v.c.1.4.B.E.'.;X&XOX].].T.>.p.m.s.B.T.Y.x.,.@.=.....{ U A i 0 Q ",
"r.`.Y.E.Y.A.L.A.E.=.m A A g A -.c.A g ' i.1.-...i v.G..X'.c.L.+.u A =.M.c...A 7 m I =.Q m =.;X,X|.Y.E.r.i A S i g M.|.M.r.V } c.r.E.B.L.M.-.-.E.E..XY.E.c.Y.E.L.'.;X3X,XB.p.c.,.s.1.i...g -.M.M.B.n.c.c.n.B.L.L.G.A < A u q T m g 9 S |.3Xc.Q M 9 q ' B.G.c.@.;.Y.}.m.M.D.E.s.A ....>.)..Xh.r.h.B.L.1.u ' Y.&Xn.c.8...7 2 z A m p z V I r.U.U.r.W.-Xd.M 8.D.n.r.B T 1.1.l.f.s.n.{.{.B.d.s.n.J.s.L.B.%.d.W.c.R A Z W h.d.N.J.b.c.J.D.=.W y.J.:.y.Q.+X$XW.E.{.B.E.$X3XE.e.h.}.[.J.h.i.s.h.h.c.c.h.a.d.d.a.i.a.d.d.c.m.b.b.B.c.s.s.D.c.c.c./ < u [  X~.8.X.8.n.f.I.<X'.X.Z ' =.S z s.W.8.[ I.c.D.D.n.1.m ..d.d.n.y.Q z g Q 9.r...m S z ( Z S ..p . 1.J.;.r p o.r.c.8.;.L.y...%.m s ` ).W.I.5X'.` [ v.h.h.s.i.s.c.s.c.c.c.h.s.s.d.d.i.B.i.{ i.' c.c.c.s.r.>...V 9 M g r.B.c.E.c.s.U.;.i.E.s.M Y I A 7 z S g ' D.U.L.s.1.{ m u 2 Q X.X.y.p.d.g 9 B Y D.{ =.E.D.1.r.n.y.s.Y M Q =.L.U.&X'.B.d.1.y..X.XW...3 -...;.n.E.c.=.X.-.8.r.;.I { ) A z c K B.].G.0.=.1.s.c.v.M.s.p.y.y.p.u.s.s.s.s.s.s.s.u.y.r.r.y.y.s.c.s.q A c.c.y.@.p.:.{ X.1.i.B.n.s.0.u.n.n.l...r.s.8.p.y.L.d.s.1.Q d.L.s.r.s.r.r.E.B.=.8.` ' 1.p.p.v.L.'.OX|.&XE.B.s.M.x.p.>.>.} c.L.=.d ) ..O.! U Q B m 7 -.Y.",
"5 ..1.v.A.E.'.`.L...7 g m u U p.L.Q ' L.|.E.,Xs.:.].&XG.n.B.+.a = I Y.|...i A A I ' |.c.Q E.E.E.E.|.L.s.p...U A A Y.B.} Q u } i.v.|.;X;XB.i.Y.}.Y.c.Y.L.M.c.s.}.E.E.B.E.-.Q c.M.v.Y.Y.Q i ..v.M.M.c.l.n.n.n.G.D.{ 2 q c K -.{ Y ..m 1.~.r.m 7 9 g I p.B.i.G.y.' i.;X+X.X.X-XW.8.B.'.Y.Y.L.c.B.c.B.U.8.9 I Q ;.d.X.> o > ;.U.;.z I Y N ' y.8.W.L.'.L.L.n.n.J.n.s.N D D.{ ;.U.r.{ d.n.y.;.r.1.B.E.).'.R.I.d.` S D.s.c.L.b.W.R.N.I.d.8.c.R.D.{.E.W. XD.>X<XW.R.B.D.).E.N.m.L.I.J.J.h.a.s.h.h.b.m.h.s.d.h.h.b.b.b.h.a.y.i.c.N.d.y.d.c.c.c.X.u & p / +XG.:.[ / D.n.#X-Xa.S x ...Xn.8.b.h.f./ 1.X.=.8.;.Y A d.D.c.s.c.d.;.1.c.c.8.{ Q S m x D 9.s...{ d...Z 7 b h.'.y.h.B.D.J.J.<./ r.@X&X>X.XR.%.V 1.U.n.s.h.c.h.c.m.n.c.h.s.s.s.s.s.s.h.s.=.n.w.s.L.y.} >.c.h.{ m ' Y 1.M.d.E.d.X.B.c.B.-XB.Y d.s.;.Y 9 M =.8.s.+Xn.S ;.;.{ ..g m T X.m =.1.7 I { r.A ..E.~.y.s.D.d.r...9 ' ).U.U.+XW.c.s.s.y.d.L.'.J.d.s.d.m A '.W./ m =.=.' Q / ' T A A T S a 0.].n.0.1.i.i.s.c.s.p.y.y.p.s.d.s.u.d.d.d.l.d.s.y.r.p.p.r.d.c.r.7 @.B.L.) u Q } =.@.0.1.i.c.c.0.c.=.s.;.:.l.0.p.s.d.s.` X.c.J.).1.I r.h.-.J.'.m.>.` M ' s.B.Y.;X&X|.'.L.E.B.p.-.s.s.6.Q =.>.r.^ d C ..,.1.] H U u u A .X|.",
"= u 8 H ].L.] I A g 7 U =.=.s.M.|.=.' B.XX].!.E.-X-Xv.L.L.2.c < g I M.p.I =.=.p.,.r.Y.=.p.E.c.B.B.v.r.i.M.E.E.c.L.;XQ m A A s.M.L.E.B.s.L.&X,X&X' ..E.E.i.U Q 1.' U g I z ,.Y.M.M.'.c.g g } B.v.D.B.n.c.c.D.B.y.z < u ;.'.l.0.c.B.r.E.[...2 i m 7 @...p.E.c.s.d.U.Y.s.c.J.Y.B.N.m.1.h.r.c.c.1.d.E.c.u $ Q X.Z A 7 7 u S / A z / B.8.S s.s.' ..r..XL.y.X.1.E.c.B.@.X.f.[ u./ I Y s.n.s.d.s.h.s.J.E.).[.$X=XW.W.3X3X$X X[..X[ Z d.;.n.d.D.'.=X'.B.c.X.=.R.D.1.a.y.4.h.s.s.m.m.B.m.h.h.w.c.h.m.h.h.a.a.8.y.n.c.r.9.y.d.D.J.c.b.c.r.D.U.X.9 & 9 a r.#Xf.[ T ) c.D.+X'.y.D M <.E.Q.;.c.d.y.c.I.` N S A p g s.=.y.D.8.d.y.y.s.Y m z M f.W.9.;.%.8.D.W.T 7 > f / 8.' 9.B.<XR.w.R.I.I.Y.W.@Xs.%.%.I p r.n.c.s.s.s.d.c.c.c.s.d.c.s.y.s.s.y.c.i.i.c.1.c.B.s...i.s...A 1.D.d.s.c.D.c./ r.D.U.D.U.n.c.L.y.0.Y I { v.c.z / m = g S Q r.m z A Y z ;.;.X.D.U.B...8.E.n.y.n.r.s./ 9 I s.{..Xn.c.d.r.8.1.1.y.s.B.B.'..Xc.K ' D.r.A @./ M I / ' Q N c z Y L.{ c.'.p.1.-.0.s.s.p.p.s.s.s.s.p.p.p.s.c.l.s.s.s.d.d.s.l.p.l.d.B.d.C > K =.r.Q I m I ) / -.@.v.n.l.8.@...l.1.T s.s.0.l.s.;.s.'.E.X...I i.r.J.&XE.r.=.G g A /.&X|.;X;XE.A.`.B.p.-.=.t.6.i.6.' >.s.} d ..1.1.' h T A u 7 2.E.t.",
"7 m I m =.O.= = 8 7 i ..V.T.!.L.L.p.c.&X.XL.}.|.B.A H E.s.c 7 q A Q i.v...-.M.Y.E.}.y...M.B.M.s.M.Y.B.c.|.3X'.1.v.,.u A ....c.}.L.E.L.M.|.&XE...g A s.,.A m } ,.r.r.Q A M 1.L.L.E.E.r.} } 1.v.M.B.G.c.B.L.M.s.=.< q Y 1.:.i c l.L.D.G.{ i z ' ' I =.8.:.1.l.B.s.J.E.B.L.B.D.c.i.A m r.y...` =.r.n.I > 3 / L.B.Q m g z S Y 2 Q B.c.8.i.-X XL.W.U.D.n.X.S r.'.8.n.G.D.l.n.u.u p ..B.n.u.s.i.s.i.c.a.d.R.$X.XI.L.W.[.Y.c.L.J.%.b X.r.D.D.U.I.I.n.w.8.Y S  .u.d.w.;.h.` V r.N.Y.B.g.w.s.c.c.h.m.h.a.d.s.N.d.n.c.=.N.D.).D.f.c.d.N.+X Xc.c & 2 z c =.f.{ m S S u.<XQ.b.;.Q 1.W.W.<.p s.n.y.b.Q.Q r a p z S 8.1.r.;.n.B.B.d.;.g u m I <X+X.X=.d.R.[.c.u z 9 Z ..r.D :.D.=.r Z ).[.J.N.b.b.d.<.Z u b d.h.d.d.d.s.s.s.d.y.d.c.d.s.d.d.y.n.1.B.c.d.} =.D.1.1.i.w.I b w.c.B.L.L.s.=.A X.D.=.d..XE.c.n.s.d.1.&Xr.i.d./ > . m ..' I A z M S ..;.L.D. X'.L.'.'.E.&X{.B.y.;.y.A u =.E.D.r.X.r.y.s.y.....r.d.d.B.s.B.n.B.L.X.m z / S M / ' I z N g K ;...B.}.s.y.8.0.s.v.c.p.p.r.p.s.s.s.s.d.l.0.0.0.0.r.y.y.r.s.y.s.s.c.d.) p 7 l.:.I l.p.I g V g Y =.) =.l...B.l.=.T l.B.d.L.c.E.).;.2 m c.n.B.m.L.m.X.g r I G 1.,X3X,X'.B.s...,.r.s.1...r.s.L.1.| i.p.r.,.x.c.E.m 7 h 7 c p.'.' B ",
"..B.r.U m i i U U ..} -.l.E.'.E.T.-.} T.E.c.v.,.c 7 } '.=.a m H =.' p.E.M.i.v.s.E.Y.i.c.E.s.B.c.s.M.v.} 1...g 7 g g g U ..s.M.c.M.E.s.=.1.,.1.m 7 Q =.g u I 1.Y.M.Y.v.c.p.1.s.'.L.L.1.i.i.v.v.M.l.c.d.n.c.c.0.c 7 C N A I A / U.n.].~.I 4 g X.r.d.P.#XP.l.B.D.L.E.E.B.U.B.D.c.1.M Q c.B.h.i.m.s.A 3 9 z M y.L.{ 3 ..1.m R S s...z S X.n.G..X&X.Xn.n.n.c.n.X.p y.+X0.U.[.8.9./ / U.d.y.y.d.s.c.c.a.8.b.R.h.w.y.w.h.%.Q B.}. X=.>.W.D.B.W.W.n.u...Y 4 { c.X./ X.r.%.=.Q c.Y.E.s.N.L.r.h.h.c.h.e.a.d.d.d.s.D.s.I S n.R.b.=./ I =.'.u.9 O a [ S z 9.n.T Z q I W.#Xy.9.r.Q ( B..XW.D.U.L.J.Q.s.S / T Y z ;.U.n.B.=.n.l.@.X.u.{ S { U.+XL.{ Y D.r.c.G 9 / ( ` { c.%.n.J.i.R G >...X.<.a.<.;.8.1.y.w.d.h.n.m.d.s.s.s.p.d.n.d.y.s.d.d.d.s.s.c.;.D.s.1.L.s.y.1.8.Q m i.c.n.{ 1.' u / n.=.c.U.-XM.-.8.y.d.B.d.I U b ;...2 m Q Q I u u I { s.L.#X.X3XD.c.E.E..X,X{.n.s.=.M z A d.D.r.r.8.r.8.d.d.X.} 1.8.1.d.1.;.@.r.y.=.y.B.U.v.y.1.' I V K / ..s.=.G.r.:.y.r.r.d.v.c.p.p.r.p.s.s.s.s.d.l.s.s.s.s.d.s.p.r.s.s.s.d.l.c.y.Q K y.7 4 l.i.z q u 7 4 7 i ..@.Q L.Q r.c.n.-X<XP.E.c.r.s...} %.Y.).J.1.b g V R B.}.&X|.L.L.-.' Q | ,.s.p...=.M.M.c.=.} r.i.x.c.B.E...2 m i = U L.-.$ 2 ",
"2.,.I s.s.I Q v.;X,X].L.V..X*X;X}.s.*.L.Y.c.Y.-.i l.|.v.' T T I Q g v.'.|.|.'.|.s.A s..XE.s.M.B.Y.Y.i.7 V m 7 m u A =.c.1.v.L.M.E.v.V 7 V ' p.' g ..L.r.V U s.M.v.v.v.M.v.-.,.c.-.p.r.i.s.M.D.B.B.d.L.B.s.L.r.2 K E..X~.W.E.r.s.s.l.X.{ 8.) ..@.G.,XE...@.c.M.B.J.h.w.B.B.B.i.} S h.E.'.3X.Xd.I / M m S ..s.M.r.r./ S Y L.c.B.X.9 Q ../ s.W.n.c.B.B.s.Q q i ..E.;.c y.U./ 0.d.U.E.s.s.s.n.h.J.m.h.y.d.b.s.i.c.N.D.y.8.E.W.).h.Y.=Xc.s.J.B.w.8.[ 9 > w.=Xy.Z g g R 1.e.).).N.=.<.c.%.b.m.B.h.y.N.y.B.d.E.c.I Z 9 f 7 6 9 9 a f 9 X $ 9 x S [ / ) y.c S T D.+Xd.=.;.d./ u Y s.c.;.:.).<X&X8.[ D.D.r.0.{.+XG.W.8.;.8.X.:.G.~.~.{.,Xh.;.u r X.[ m 8.u.n.b.r.{ D.B.f.B.;.G S 1.r.w.>.w.s.8.=.h.L.d.h.8.s.d.y.y.c.B.v.s.s.s.s.d.s.s.n.s.c.d.c.r.G 1..Xc.s.1...G G y.c.=.' 1.X...s.d.1.<X&X'...Q 1.y.y.r./ g S r.D.n.{ U p g 7 m Q D.E.E.{.&X+XE.;.r.c.E..XW.s.8.c.8.7 * I c.n.d.M.s.8.r.s.s.;.X.1.8.r.8.s.=.1.r.8.L..Xd.s.,.1.-.U I ' @.n.n.L.W.l.@.n.p.r.0.r.p.i.p.s.s.d.l.d.u.p.p.p.l.d.d.l.d.s.p.r.p.p.0.y.r.s.c.' =.r.i S { A S @.T ..) { { =.M { n.r.L.c.n.E.=.K R ` } Q { B.E.&XL.c.<.=.c.U.E.,X5X&Xi...>.Q =.>.1.s.M.1.U ..v.s.g.m.1.p.c.M.v.`.i.* 7 7 g Q s.=.I E -.",
"g m I p.T.B.-.L.XX.X!.T.P.-X.XP.|.}.B.`.E.'.3XB.c s.t.c i A T { ..I M.v.i.i.i.v.-.u p.E.M.v.c.M.Y.c.Q   A -.I g m -.B.|.M.v.L.p.c.,.u g A ..L.v.1.L.E.E.Y.c.s.B.M.v.B.Y.}..XY.,...r.r.1.s.v.Y.B.B.c.W.B.B.U.Q * p.+X'.E..X.Xl.d.B.1.c s.,Xr.s.n.<XP.A i ) ;.s.n.m.r.8.E.E.L.s.=.c.&X&X}.;X).B...{ I m Y r.c.c.L.8.{ { Q c.+XD.' { 8.s.r.E.W.=.{ I / A g u M { m { ;.:.=X#Xu.U.&XU.d.c.c.m.d.B.c.d.b.c.c.B.b.h.J.b.b.R.).I.B.s.d.B.d.n.D.r.8.y.[ z 8.n.D.D.y.X.' w.Q 1.}.Y.i.;.b 1 k m.c.i.s.h.b.h.d.d.E.X.6 Z m 1 7 z S (  .G > 3 4 Z K m a T c.D.[ / 0.n.X.=.u.w. .p 3 m ` I > 6 G I f. Xd.8.d.{.~.G.D.d.) N s.d.0.f.W.<X=XW.D.n.8.S ;.U.D.I u.U.d.d.8.%.d.N.8.y. .8.Y..Xw.` ' { 1.a.r.d.i.%.%.8.:.1.y.d.s.y.d.0.y.d.c.c.s.y.s.h.y.J.L.u A '.'.d.L.J.R r } s.n.L.c.E.+XP.y.s.5X{.E.n.G ` s.c.s.n.X.z m n.y.c.'...p g z r.'.,XU.E.#X'.{.y...1.s.U.c.8.y.n.B.r.M 2 @.E.]..XB.;.y.c.s.y.@.=.d.n.D.d.c.1.d.E.W.L.X.u 7 g ;.B.s.s.n.~.#X.XP.l.@.d.p.s.y.r.r.r.i.p.s.s.d.d.s.p.y.y.p.p.p.p.p.u.s.s.d.l.d.r.p.0.s.n.{ I { C =.s.p.c.p.L.'.-X.XM.Q q Q 0.s.c.@.r.0.7 4 g 3 r.E.D.Y.Y.w./ M A D.}.B.'..XY.m.1.r.i...M.v.p.r.c.p.] *.p.s.L.E.r.i.s.c.M.E.m * c V 1.:.' K v..XP.",
"A i.r.l.E.~.'.,XE.G.B.n.0.'.'.V.L.c.1.L.'.E.|.L.L.P.v.T h g I =.Y.,.r.c.1...=.' } ..v.M.B.c.v.B.c.v.,.7 g I Q 1.-.v.Y.E.Y.B.L.p.r.r...r.,.-.M.c.p.Q ..Y.c.c.L.p.i.r.M.'..X,XY.,.L.M.s.p.B.c.B.M.c.G.L.G.+Xr.= 4 I :.0.s.p.@.=.~.L.y.c { :.p 1.W.&X;.7 A ..0.].'.J.B.m..X).L.D.L.r.h..X<X'.m.B.` 9 z Q 1.s.i.s.L.=...d.c.s.n.} / '.y.D.{.+XD.X.Q p M 9 9 Y =.s.Q ;.E.n.d.0.8..X,Xv.s.c.c.c.h.n.c.h.D.h.a.m.c.i.c.D.J.E.r.a.8.{ b S 8.D.J.8.d.8.z =.'.B.X.;.N. XR.g.=.w.s.>.' Q r * u r.b.i.s.h.h.N.s.D.1.a u z p 9 %.;.G I ` [ o.X./ K p K 8.D.U.l.;.I.D.X.[ ( D Y [ & p W.1.3 I p Z 9 u S X.D.4X=X8.B T S 3 m n.U.u.u.U.=XD.r.r.d.:.[ s.{ p / I.E.N.b.s.d.8.n.W.>Xa.%.=.1.S z Q <.Q =.1.%./ I S ;./ ' s.D.d.r.d.B.c.n.c.s.d.c.y.r.d.E.` . =.}.d.d.m.B.Q m w.s.m.s.{.&XB.r..X,X{.r.h.d.A X.d.d.c.n.1.1.U.U.d.E.W.Y g S s.'.E.=.S n.{.B.L.r.=...1.y.../ X.y.1.S u 8.W.{.U.E.c.1.d.d.c.s.=.:.B.D.n.s.c.Y.n.D.U.=.A n.r.=.r.s.d.W.-X<X#Xc.s.[ _ l.8.s.s.p.p.p.p.p.p.r.y.p.p.p.p.s.d.s.s.s.p.p.s.d.l.c.l.p.p.r.s.l.=.S 0.1.n.G.s.p.s.'.'.n.I l.{ S I { { X.@.r.y.I ' Q 8.;X).c.J.'.y.=.G m i.c.h.;X$XB.i.r.c.s.,.M.r.p.p.M.p.=.p.M.x.m.p...5.1.p.v.r.7 u h O.r.A m O.Y.1.u ",
"m Q g i.'.' 1.E.'.c.r...g t.L.v.p.1.1.B.L.i.k.Y.P.P.~.r...{ 1.l.c.I Q '.&X|.E.U.s.L.L.c.M.c.B.L.D.M.B.E.E.i.1.s.|.v.m.v.E.i.s.;XB.s.B.L.E.s.M.=.V A =.'.c.1.v.E.c.v.B.E.B.B.r.M..XE.v.v.B.c.v.M.B.W.L..X&XQ : z ) { Q m A c S =.1.p.p.B.n.) { U @.@.' Y ) M.#Xc.h.L.J.W.D.n.B.E.m.i.E.W.c.m.E...9 ' s.D.'.W.B.c.E.d.c.D.n.D.r.1.1.M ' d.U.B.B.c.s.c.8.g m d.'.=.[ d.D.;.@.#X,Xn.y.c.d.d.c.n.c.n.h.c.h.d.b.D.J.J.I.B.a.z r 6 r r Z 8.a.d.T X.S % %.%.{ S A ;.w.D %.c.=.R m f p N i.$.r.Y.B.b.N.N.s.B.U.( 4 c x u S r.X.9 9 T 1.n.:.( c x d.<X+Xn. Xn.-Xd.{ ~.D.u.N.Z 4 I / S { y.=.d.h.( A W.&Xd.=.D p 4 q ) d.y.G.G.D.n.'.U.c.0.[ > M I 9 3 u 8.%.X.1.s.b.n.).$X1.1.y.=.w.w.d.[.J.8.;.G p 2 f S A x z ' s.n.d.y.L.:.:.d.u.u.c.d.s.L.M.r * b Q ' ....=.;.1.J.c.c.;.c.8.B.&X].s.d.;.s.r.m 1.d.i.c.y.v.;.B.n.1.c.B.Y p I n.W.=.p Y 8.;.X.i.-.;.=...8...I p g z 2 9 {.'.d.-.1.y.y.y.y.s.d.8.y.B.c.y.y.E.+XD.n.y./ ..) 8.l.n.c.D.+X&X~.G.=.-.8.0.c.G.s.s.p.s.s.s.p.i.r.y.y.y.r.p.s.l.s.u.p.r.0.0.r.y.y.r.y.0.0.r.8.1.z C M ' s.1.r.n.].B.I c .X+XE.U.r.L.s.8.d.8.K 0.s.s.} / s.J.L.L.i.1...w.i.L.;XB.L.r.>.r.p.1.c.,.1.s.M.=.| x.M.p.g.s...6.s.c.c.1.A I U m i I c.c.=.g 2 ",
"= i K 0.T.Q Q '.E.0...K 2 t.L.r.k.A.B.c.B.B.v.v.G.P.~.s.B.V.B.P.i.7 Q '.'.B...c.5XY.M.i.s.v.L.M.B.B.B.M...A =.L.=.=.B.=.p...Q M.,.=.E.M.E.1.v...' A -.}.r.,.B.M.p.'.'.Y.c.s.Q 1.L.Y.p.c.s.v.B.Y.B.P.G.,XU.i 7 g { n.n.A m Q r.l.l.n.E.n.c.B.D.8.1.c.E.E.E.d.K 7 =.J.Y.).L.B.c.B.L.E.'.s.r.B.D.{ p c.L.d.W.{.n.n.M.n.D.U.B.U.{.{.E.n.n.B.+X'.|..XL.Q ;.Y A d.n.z [ D.D.Q.G.D.n.c.s.D.c.c.c.B.s.c.h.s.b.m.h.m.N.r.V 9 1 . 3 6 s G h.Q.c.r.7 9 9 7 z m A 9 x  .W g y.y.Y Q m b g / ).b.a.L.s.c.J.c.c.r.I p Z K m x ;.n.n.T 4 S f.D.o.a a { +X+Xc.r.D.y.=.[ ' d.d.I.1.z 9 N g N <.y.W.d.h.D.c.c.I f 9 q z B @.c.n.D.W.c.d.D.{.l.9.8.T Z g M m  .9.c.+XL.I.+XR.+XI.S & R D.B.J.n.b. XN.D.r.M I M g D z z q 9 Y 0.=.N 0.a B n.B.y.d.n.Y.{.1.& b m Q 3 g { w.J.).,X.XL.L.n.d.&X'.c.i.8.1.y.=.p p.D.y.s.L.m.I { ;.=.E.{./ g I ;..Xr.{ c.=.r A =.' 8.B.X.Q Y S 9 p z g X.W.r.X.r.y.r.s.y.s.r.y.p.l.n.c.n.U.+Xr.=.n.1...8.Y r.n.d.s.E.-X{.G.s.s.:.l.l.d.s.s.p.r.r.p.s.p.i.u.u.p.r.r.r.y.s.u.s.s.p.y.y.p.s.p.r.l.p.s.d.r.c./ ' 0.r.r.;.n.~.L.Q c U..Xs.,.l.+X-X-X'.=.1.p.s.D.-.A w.w.V s ' Q } ,.d.B.'.$XD.v.s.s.p.s.,.r.1.1.i.v.6.,.s.p.s.C.|.1.4.B.x.r.c.v...k.g m 1.V.-.U =.}.",
"u U k.r.~.v.r.~.l.=.A u 0 T U I ..s.V.L.B.c.c.L.B.E.p.g B 1.r.L.c.1.,.B.c.c.v.}.E.M.s.c.M.v.n.B.B.v.B.E...i ..L.-...M.B.,.i I E.c.s.|.}.L.r.M.-.-.A =.v.Q 0.|.'.c.Y.-.....,.-.V i Q M.v.v.v.B.B.B.s.A Q g $ p S X.W.n.{ -.L.-X<XL.&XE.1.U.n.d.s.%.B.;XM.%.=.I b L.,X;X.XD.B.d.n.B.s.J.h.>.m.D.%.i 1.c.n.E.c.c.c.D.U..X<X,X&X+X.X{.s.r.{.{.'.L.U.8.>.1.W.U.d.r.=.n.n.B.8.S =.d.s.n.n.n.c.h.N.D.b.c.h.h.N.c.n.h.G & + 3 x M G 8.'..XB. Xo.Z / Z b M z z g S L.d.G { Z G { I p / D.R.L.Q u h.n.a.y.D.X.> 9 D r.:.8.D.c.{ m c 0.n.L.=.Z  .s.J.s.B.Y Q =.f 9 Q r.a.m.m 6 s I N.W.J.b...X.L.a.s. .3 p ..' ..;.c.c.D.B.;.A X.U.-Xn.8.c.B.B.J.c.n.N.y.n.>X Xn.d.B.+X' f p.'.'.-X'.s.b.=.=.u.=.=.G.8.:.d.Q =.=.Q u > u u 3 . ;.,.s.c.s.D.E.M.3 r A V ..s.n.J.J.c.h.B.Y.E.'.i.a. XN.y.r.s.h.a...X.h.h.r.b.B. .p S / L.,XR.W w.d.J.$Xh.s.I.U m z ' Q ;.8.M u g m M A p A W.B.8.=.8.s.s.y.r.y.y.c.c.B.B.s.D.&XB.{ 0.r.r.s.d.X.' Y 8.+X+Xc.1.n.s.r.1.8.d.n.d.l.d.p.r.r.p.s.s.p.s.d.s.s.s.s.u.s.d.d.s.p.p.p.s.p.r.1.r.p.s.c.v.r.,.=.Q M.p.i.p...4 s.#XB.' Q n.<X+X&X}.) I n.r.=.1.r.>.b u u g b Q s..X$X,XY.B.L.r.4.r.i.i.r.i.i.s.c.i.r.i.s.c.c.s.~ 4.i.6.p.p.p.i.M.-.@.M.l.l.k.r.E ",
"2 @.B.T.l.m 1.L.0.1.m I I H Q Q ' -.c.B.v.Y.E.c.Y.E.-.h i m ..L.L.c.s.v.E.E.&X;XL.v.c.v.B.B.B.B.L.B.v.L.Q 7 =.L.E.L..Xv.i.1...L..X'.3XL.-...-.Q i u ..1.p.'.B...1.M.=.Q A =.L.G.i.B.B.s.v.v.L.'.U.) o 8 7 3 b z s.E.;...{.3XL.c.U.'.{.n.L.y.E.U.L.1.Q V ' h.h.r.'.{.).L.i.s.c.B.s.d.n.1.>.J.U.s.u X.&X<XW.=.;.X.n.&X+XE.D.c.c.r.' u r.4XW.D.U.=.S X.8.}.r.X.s.U.r.8.y.y.f.N.=.u.d.s.d.d.d.n.N.h.c.h.s.s.d.L.;.2 1 g x S Z ' '. Xd.a.X.m A A g Y m  .X...R.<X+X{.U.{ %..X+Xy.b.5XL.D./ & N <.B.y.n.( 9 Z p 9.I.u.=.D.[ S 9.D.f.=.;. .w.8.1.m.I r  .V z f z h.J.%.Z X./ } h.W.D.' %.w.I.W.E.c.%.G I / s.r.s.c.c.s.8.Q ;.L.W.c.y.B.n.D.D.a.X.[ =.c.d./ 3 > ( B.I A ).).c.B.s.>.L.E.K { { L.D.[ F.:.r.r.c.L.8.B z c 7 / d.=.:.B.U.B.%.* & m b ' Y.3X).E.B.i.w.r.i.i.;.Q w.h.y.<.=.w.y.s.w.r.n.b.d.N.[ & 3 z ;.;XY.c. . X>X@X$XJ.<.a.y.=.d.8.=.1.p 2 g ' =.8...X.L.L.s.1.8.d.c.d.s.y.y.c.s.d.y...X.B.D.{ =.1./ ;.c.{ Q y.W.&X&Xc...X.E.d.y.l.l.c.n.l.s.u.r.r.r.p.p.u.y.s.l.s.p.s.d.l.u.p.y.y.p.s.d.l.p.r.r.p.s.c.c.c.p.A g } s.M.s...I =.W.E.s.T ..'.E.E.l.p.' ' L.W.m.8.c.w.V m r.1.} s.E..X}.$XJ.m.s.>.1.i.p.s.i.i.s.g.s.p.i.p.s.s.s.,.C *.s.s.p.1.c...-.,.l.B.p.r.2.r.] ",
"T l.s.L.p.U p.@.U ' i C ' 1.B.B.s...M.&XG.s.V.L.L.c.A m A U c.P.E.E.E.E.B.k..XL.c.c.c.v.M.B.M.n.c.Y.M.Y.V * ..E.v.E.,X.XL.L.B.&X|.c.v...Q r.-.U ' } ,.M.E.B.L.Q U M.p.} ' E.3X'.E.Y.....c.M.M.B.h.m * g M p S Y #X&Xy.s.&X'.X.c.~.n.n.c.D.d..Xy./ w.=.U I %.B..XE.d.s.s.s.s.B.m.c.B.m.w.i.J.B.c.g 8.D.X.D.;X.Xr.{.,Xn.1.r.r.s.X.p Y B.W.n.n.r.g ' s.;.s.M Y i.n./ Y d.U.L.{.c.D.D.d.d.h.d.c.b.h.B.s.a.m.D.J.N . z Z b S g T U.U.L.d.G z x u M N [ b.B.d.'.b.h.I.=X-X{.D.B.{.+XJ.I.<.=.y.8.<.L.W.D.Z & I x m T 9 g u.u.n.{.G.n.d.Y ' c.d.D.X.r G r 3 f b S a.b.D.}.W.a.b.I.Y...N J.i.i.c.<.<.m.E.X./ n.D.n.c.s.c.D.s.U.&XE.n.s.d.s.f.=.Z u Q L..X' x G Y =.r.Y =.s.;.I X.p.n.{.U.@.) Y B.d._ U.0.1.y.c.d.s.y.) 7 d. Xy.' I Y / I & . u A 1.'.;X$XJ.m.i.w.r.g.h.s.8.>.I.d.d.i.8.s.d.w.w.h.b.i.r.d.W f ` r.E.).d.<.' i.i.a.i.;.S d.>.8.s.s..X'.' z S X.r.L.D.U.&Xc.1.;.0.c.d.y.p.s.c.B.d.s...I =.r.A Y r.' { 1.1...1.U.&X+XU.y.;.s.L.=.@.s.s.p.s.s.s.y.r.r.y.p.p.p.r.s.l.s.y.p.s.d.p.r.r.y.s.s.s.p.p.i.i.s.s.s.p.p.r.A g c.E..Xs.' v.#X&X~.l.S ..L.D.E.p.@.K I c.c.m.h.c.h.c.).;X>.=.Y.&X.X'.E.y.w.i.-.w.i.p.p.r.i.c.s.p.p.p.i.p.p.s.i.| r.x.p.i.r.p.-.r.t.0.} 1.M.c.P.B.",
"] B.L.B.c.V.G.-.C i K :.P.#Xc.Q E.L..X&Xv.k.Y.B.V.v.B i m ..}.E.r.c.i.v.' -.T.s.p.c.v.v.v.B.B.v.c.Y.L.L.g 2 Q B.E.'.s.s.Q } E..XM.i.p...Q B.'.}.E.r.r..X;X}.;X..,.G.E.&X;X3X,X}.}.Y...p.E.'.E.M.' 9 u A { Q =.L.E.B.n.&X+Xd.Q d.'.s.=.y.8.;.L.1.>.3X+Xs.h.}.5X.XD.r.1.w.m.m.D.c.c.h.m.m.J.Y.M.m.u ..n.;..X,X{.W.'.D.1.1.X.S A g m d.E.W.'.B.I 9 X.D.n.B.m p r.D.L.y.L.W.f.n.D.+XU.n.h.c.h.h.n.n.c.c.B.N.J.R.Z 3 b Z { X.{ r.9.8.D.s.Y 9 f Z d.b.r.d.B.d.' x X.d.>XR.d.r.<.8.d.B.8./ ;.W.Q.R.[.D.D.d.I =.n.c.0.m ( 9.n.D.:.c ;.I.X.R.Y.n.N.N b b f f s %.R.W.B.<X$Xc.N.c.y...9 [ b.b.D.%.W D.Y. XU.8.{.'.U.U.n.n.c.c.'.&Xn.v.s.i.X.;. .G z ..).U.X.g o.X.h.W.y.1.B.%.b / w.i.y.{ :.n.'.'.^.F.u.u.D.B.B.y.B.-X].c.'.W.Q c u > 9 u & V V Q }.;X'.m.h.i.r.r.s.m.c.s.n.D.R.d.d.s.y.c.b.....h.n.i.s.m.J.J.}..X).} ' [ Z Y ..R A S r / I / ;.d.+Xn.Q S A { 8.s.U..XD.y.y.r.s.c.s.p.d.c.s.c.n.;.g S 1.Q ;.r.1.' i.;./ 1.+X+XP.s.r.8.8.r.B.....s.s.i.s.d.s.p.r.i.p.u.p.p.p.d.d.p.r.r.y.p.s.s.s.s.s.u.r.8.s.p.p.s.s.p.i.i.M.i.V Q p.v.=.p.3X<X&X.XU.8.B.L.B.=.T ..S c ..A g 1.i. X;X3Xd.g >.E.$X'.).c.} =.r.-.r.i.r.p.i.s.c.p.i.p.p.i.i.p.g.M.g.m.s.1.r.s.s.r.r.1.:.Q r.s.-.k.t.",
") B.G.1.0.L.P.V.:.) n.&X!.P.T.n.!.}.}.E.B.L.L.M.M.Y.1.A m ,..X.X! c.' Q Q i.Y.s.k.M.B.M.M.L.L.M.Y.B.L.v.i 7 A s.3XY.Q Q i =.;XB...M.L.c.r.}.B.A g g c.E.i.s.' V c.E..X,X}.Y.B.B.Y.Y.c.}.Y.B.L.p.m z S Q c.c.s.D.d.r.'.,X8.I Y ..:.n.u.1.u u 8.E.,XL. .D.3XE.L.L.L.J.c.r.B.c.c.n.n.s.B.J.B.L.h.=.7 Y .X&X.XB.c.n.;.M ..E..XE.8.' ;.B.L.B...{ m 2 A Y 8.'.1.M n.$Xc.D.c.U.D.;.X.L.D.d.d.b.c.b.D.D.J.r.m.I.E.N.Z Q m ;.c.c.U.-Xd.r.=.[ g > :.1.h.D.r.d.J.+Xy.X.d.N.B.h.y.;.;.y.b.d.Y M D 8.D.R.B...f.U.0.n.-XU.I.n.y.I.<X{.f.B m Y D.'.' a.8./ ..W / R Y B.E.W.&X&X .[ h.y.Y.I.=.h.X.y.h.y.m.3X{. Xn.r.L.' M ;.y.r.s.c.W.E.1.u.s.y.f.s.9.{ D %. X'.w.o.8.( b.$Xr.G s.%.Q w.d.8.s.s.%.b.d.Y X.l.X.d.D.r.U.W.L.n.i.E.s.=.I u p z b u G A =.'.,XB.m.B.i.i.i.s.h.h.s.r.a.N.1.w.r.y.a.c.J.8.8.b.c.a.d.h.m.a.D.y.y.Y ..D.=.3 b z 9 6 V B.s.1.-XW.B.;.V r.n.U.E.n.L..XU.d.c.y.s.d.s.s.d.c.d.n.n.I 9 ( =.Q =.S z / A C 1.L.L.B.s.1.8.s.s.s.M.:.:.s.p.y.l.l.c.s.y.p.s.s.u.s.s.d.s.y.y.p.y.r.s.s.d.d.u.y.r.r.c.s.s.c.s.p.p.s.M.L...} v.r...}.&X'.P.l.D.B.l.1.8.K T n.r.K ..1.1.i...J.J.r.m p h.).'.Y.Y.1.R >.>.=.r.i.i.s.c.v.p.i.i.p.i.r.r.s.s.s.r.i.s.r.r.p.r.r.1.r.1.' 1.:.' -.) ",
"2.'.L.L.P.s.B.c.P.E.~.k.g u B.L.B.E.E.Y.Y.M.c.Y.M.M.M.s.k.Y.V.i.O..Xc.' B.L.Y.v.v.B.B.M.M.B.B.M.M.M.Y.c.i 8 U L.E.-.r.L.c.|.3XE.c.B.v.v.Q V A A I =.M.r.m g I '.'.3X3X'.s.B.B.v.c.s.s.L.p.p.M.,.9 =.B.n.].#XU.B.L.D..XB.9 2 { Q 8.W.y.T U B.E.n..X@Xs.w.i.i.m.c.s.B.L.B.m.i.s.m.B.m.Y.m.i.c.1.A / c.'.n.n.B.y...A Y }.,XD.d.s.U.U.c.s.w.q 2 m / y.' ..y.;./ s.1.[ n.y.8.X.:.D.[.c.d.c.N.b.n.D.J.E.r.J.E.R.;.6 b G h.s.R.=X X8.9.7 o > 9 8.:.a.B.[.D./ { 9.b.b.J.B.d.y.a.s.h.h.a.( u 9 / 9./ { 8.f.r.=.r.u.x z S f. XD.T { 9.@.8.[.h.' B.R.R.[.R.i.h.;.1.Q 8.}.i.V R G G Y.>X$XR.d.b.8.N.J.;.{ =.{ ;.L.{ M { s.B.d.B..XE.y.d.d.y.y.d.y./ S a.W.y.8.U.+Xc.R.9.9 z r.d.y.>.[ ' =.{ ..1.{ { X.T N { d.s.{.D.r.8.{ 1.V * p z ;.D.;./ G Q E..Xh...%.s.i.i.s.s.s.s.s.s.a.b. .i.s.y.s.d.b.h.n.n.i.y.a.8.d.s.w.=.X.f %.c.8.S w.w.w.<./ G u g / z S r.c.U.+XB.;.d.M.D.'.r.s.r.y.d.d.s.d.y.B.s./ 9 I X.I / { / I / u Q L.L.W.L.c.r.8.r.8.;.d.r.8.0.r.p.l.c.n.s.y.s.d.s.s.s.s.s.p.y.u.d.s.y.p.p.u.y.r.r.s.l.p.p.p.s.p.i.p.s.s.B.B.p.1.V A c.'.l.=./ v.y.m M I Q ..s.d.Q S 1.s.I s m N V A R h.J.Y.J.L.} A >.1.,.s.s.p.c.s.s.i.i.i.i.r.r.r.p.i.6.1.,.p.i.i.i.2.t.t.k.' h ) r.O.-.E ",
"B.P.r.s.=.u t.L.l.P.l.U m ] L...r.}..XM.c.L.L.B.B.v.M.T.}.L.=.A t.M.B.M.].E.T.L.M.M.v.M.M.M.M.v.s.M.B.M.m * ..E.r.Q i.E..X}.E.Y.s.B.c.....M.s.Q s.G.s.B.s...v.,X.X}.E.L.s.c.p.v.c.p.s.p.v.Y.E.p.z ;.D.E.W.-X&XE.d.s.1.Q z z y.../ :.X.z ' U.U.c.'.E.r.%.=.r.J.m.Q ` 1.m.i.s.n.B.m.D.U.B.n.c.;.` c..XD.d.B.s.X.;.8.B..XD.1.;.,.n.8...c.U.8.9 S c...X.r.X./ c.{.s.{ U.$XW.f.R..XL.n.b.N.b.d.n.R.W.J.b.'.b.s./ 7 3 X.s.w.U.D.X.a I ( a b S m m 8.L.W.E.=.Q n.).d.c.c.d.f.a.s.N.D.d...z p G X.D X.B.f.n.y.S A 7 p 2 r.L./ 2 I I.&X<X&X=X<X X$X,X=Xh.'.'.1.X.X.h.b.I N <.r.D.;X'.J.N.} y.d.b.s./ Y z u Y n.n.d.y.h.c.r.c.W.D.c.d.l.s.B.c.1.z g w.B.;.d.h.c.B.U.[ u Y r.l.8.Y g M K g ' d.8.n.8.g x =.s.n.L.M g n.b.s./ i S ..B.'.Q / i.}.+Xm.1.s.c.m.c.c.c.h.s.i.i.i.h.h.1.d.h.r.y.r.<.1.i.d.a.d.h.d.w.h.w.s.i.Y h.b.c.Y <.).$Xm.` ..=.r.I M X.E.{.c.U...z 8.U.B.E.n.s.r.s.c.c.d.s.8.=.A 2 z =.{ z A g A g 9 Y c.E.D.W.B.y.8.r.d.c.s.d.l.p.r.d.c.c.B.n.s.r.p.s.s.s.s.p.s.s.p.u.s.s.y.p.p.y.r.r.y.s.d.i.i.y.p.i.r.i.p.i.p.1.Q ' ..L.3XW.8.{ ' s...q m ' { :.1.l.:.z I r.=.>...R Q m A h.m.Y.L.J.' G 1.p.i.c.s.i.s.i.r.i.i.i.r.r.i.i.i.i.i.p.1.p.r.p.s.c.s.2.p.I i A :.v.v.:.",
"1...:.G.c.A k.c.E.E.s.i C r.s.] v.L.L.B.B.B.B.V.c.L.L.Y.c.,.i.M.T.A ' '.c.c.Y.k.M.v.v.B.B.B.M.v.L.Y.i.M.Q 2 ..r.=.' A ..'.E.v.=.=.A Q =.L.5X,X&X'.B.Y.B.B.L.}.Y.L.E.Y.B.s.B.c.c.s.c.v.,.c.Y.L.p.Q S Q D.E.{.n.I Y X.S p M u d.U.f.x u z d.D.B.'.r.I z ;.}.&XB.Q A 1 b 8...s.Y.J.W.).).).'.s.' -.c.D.c.W.L.B.n.c.D..XD.1.8.X.U I 7 X.,XL.s./ X.M u Q c.r.{ {.&Xp.h. X-X,X<X=Xh.c.b.b.h.y.w.n.[.+X X;.h.J.h.r r <.{.L.d.X.m m < ' D.<.a Y ;.h.b.c.<.W.@Xy.b.s.o.;.D.n.B.D.c.c.n.B.%.9 z u.+Xr.r.s.d.L.r.9 f p I [ d.s.A S o.L.&XW.I.$X'.@XB.R.s.[ <.;.8.Y.).@XI.>.n.).'. X XJ.1.U.N.y.W.[.J.%.G f g U X.{ 8.c.B.r.B.D.W.d.y.8.r.r.B.r.d.s.8.d.B.R.).8.=.c.D.N.d.X.d.s.n.D.8.I m m A l.{ { D.W.n.U.c.c.L.S z s.a.d...=.r.s.n.U.A =.E.}.>.c.B.m.L.w.w.r.s.h.c.h.h.c.d.r.d.i.b.i.d.h.h.8.8.h.N.a.y.h.D.w.h.i.h.h.h.B.L.` z G Z u r s..XE.L.'.&X{.r.D.i.=.' X.B.s.{ 8.1.;.1.r.8.1.=...g = 7 r.y.Q Y A g g M a / ..r.&XU.n.d.s.y.y.y.8.l.n.p.0.l.d.y.l.c.y.0.r.s.s.s.d.y.s.s.p.y.y.r.r.u.p.p.p.u.p.r.8.i.p.s.s.i.8.8.i.s.M.=.Q v.3X,X'.G.p.l.:.Q g p u m u :.l.=.A 7 ' s.i.%.i.B.).A } Y.E.'.L.B.' Q h.c.p.c.i.1.p.p.i.p.p.i.r.r.p.i.4.i.r.p.,.s.p.p.p.r.p.t.l.H m m @.B.n.2.",
"T *X{.t.'.L.l.L.v.@.1.....K =.0.} A 2.T.v.v.V.v.V.c.M.P.B.c.E.3XE.m -.B.=.i.v.k.c.v.v.L.B.c.v.M.v.B.v.E.} A ,.i.v.p.} 1.'.B...V i V 1.|.&XE.Y.'.i.p.E.L.M.c.-.i.s.-.,.p.M.s.B.c.v.v.v.B.B.M.E.1.I g S +Xv.1.A g S Y I / R r.8.U.=.S g M G.W.W.0.G g u s.&X).s.u b %.} z { J.E.E.i.;.,.1.1.%.s { n.Y.B.P.L.c.U.B.B.r.s...c M M z 2 r..Xs.D.L.d.h.n.1.L.n.d.s.X.n.[.3X@X<X XX.;.n.B.9.Z p 9 f I / r X ' h.w.i.Y.E.[ T %.D.r.W z [ D.X.M =.a.8.E.$XN.w.S W D.X.;.u.8.n.n.h.c.I.c.D.X.z W b.b.;.L.I.n.d./ 4 z d.D.` y.c.r.=.n.=X{.s.b.}.E.).c.i.%.r Z %.<.s.'.$X@X X[.b.m.d.h.y.h.w.%.).-X{.)..X.XR.} / X.I n.U.y.:.s.n.r.=...;...y.N.X.Q X.( ;..X@Xs.W T 8.D.J.n.b.d.y.U.n...d.8.p.L.U.n.b.W.&X&XE.r.8.{.B.{ v.'.L.Y 1.W.W.+X-Xc.L.).L.p.X.' r.>.,.s.s.p.s.s.h.h.c.d.h.d.i.s.d.d.h.w.r.c.h.a.a.r.d.i.b.y.b.N.d.R.W.w.% r f 9 m 8.}.+X{.+X&X{.U.n.d.y...S s.c.I 3 u z m Q Q m A A 9 9 2 S v./ m z 1.8.y.=.-.=./ D.'.n.d.s.y.y.8.8.r.n.n.0.y.d.y.l.l.d.r.0.r.p.p.s.s.p.s.d.p.r.r.p.p.d.p.p.s.s.r.0.0.1.i.p.i.i.p.p.p.p.B.r.Y Q B.L.s.d.y.p.r.r.A i m Q ..r.0.T g z I i.>.' r.B.y.' m.B.,XJ.c.D.` 1.c.p.i.i.i.i.p.p.4.1.r.i.i.i.r.r.r.p.x.6.s.s.,.s.i.p.r.p.B.1.i i =.l.-.V.",
"r.T.r.:.p.n.U.v.s.p.c.t.) A { I ! I 1.B.M.c.s.k.B.v.M.L.B.v.B.E.,.Q c.E.c.Y.P.s.v.L.B.v.v.B.B.c.B.M.v.E.Q 8 } L.B.L.B.E.E.c.r.=.U s..X'.M.L.E.Y.-...c.B.M.B.p.i.U u g Q L.E.v.M.B.v.v.B.L.B.E.=.9 A c.U.U g V ..8.8.M.d.D.'.s.D.X.o.s.d.E.y.I g g m Q m.'.h.I * Q i.D.'.i.c.s.>.u . $ o 3 I 7 m X.y.B.E.W.c.{ { ' 1.8.S p p 9 g / D.&X{.U.&X.X&XP.d.L.D.B.n.8.B.-X+X9.X./ b =.d.d...g a M Z f * p 2 b ..R.E.r.<.;.D.D.8.J.{.f.{ b.B.D.c.T ' ).W.W.;.g W '.b.b.n.=.Q d.U.r.c.d.L.` 9 ` N.{ x a.W.d.' 3 & z / Q S a.N.W.&X<X+XD.a.h.D.[ / w.y.} G >.=Xi.%. X+XW.[.h.` A S  . .X.' ;.W.N.X.y.J.J.N.s.s.'..X+XE.c.n.s.d.1./ Q ' =.1.8.G 9 u 7 I W.d.( 4 Y  .8.U.u.:.8.d.0.r.z Y W.B.W..Xy.s.E.E..X{.E.L.{.E.U.}.U.E.V s.<XU.c.s.{ ,.w.J.=.7 7 ..h.m.a.s.h.h.h.h.s.s.s.h.d.s.b.n.h.d.N.a.a.a.d.s.w.a.N.N.h.s.%.[ >.} % 9 b V %.Y.&X$X.XW.W.W.L.n.d.y.X.M M B.8.{ ' g 2 9 p p 9 7 u 9 m S 1.y.Y m / d.s.c.-X~.n.&X,Xs.r.8.r.i.s.r.0.r.s.d.:.0.s.p.c.n.n.s.0.y.d.d.s.s.r.p.s.y.r.y.u.s.s.u.s.s.s.s.s.l.p.s.s.p.p.p.s.p.s.c.M.' g s.L.c.0.r.n.L.D.Q z m Q ~.r.1.s.{ m Q r.h.B.J.h.>...m.J.'.h.m.).1.w.c.p.i.p.p.i.s.c.s.i.p.s.s.p.i.i.i.p.i.p.x.c.s.r.6.c.p.t.c.O.m ' s.T E t.",
"=.' r.v.r.s.=.B.*XE.G.n.T I k.v.L.P.s.,.B.L.c.E.M.B.B.B.v.p.,...Q =.k.B.P.!.L.c.c.p.p.c.v.v.v.M.c.s.v.L.A . A B.E.B.M.Y.B.M.Y.M.&X&X'.v.p.v.s.-.Q A ,.c.c.L.B.c.....m ..Y.i.M.L.L.M.v.B.L.B.L.} 3 Q +Xy.g g 1..XW.n.-X+X5X.X=.y..X[.3X-X~.X.7 m X.n.U.r.1.s.=...m.w.r.'.=.} I 2 * p %.Y u A u V ' M ,.;./ [ M m m S A g m S { M.,X.XE.B.r.{.,X<X.XL.E.'.+X&X.X-X-X8.2 u Q <.I.c.;.G u b S m M M p ~ w.m.m.b.y.y.U.'.{.U. X<./ D.h.B.d.d.w.r.J.n.d.D.1.M G I u.n.s.1.z %.L.B.d.c.s.8.b.W.c.' a. XB.8.Z z ;.D.U.'.@X[.E.).$X$X'.R.D.h.G r =.b.d.d.).3XD.J..XE.).N.w.A 9 A w.>.A 6 [ m.%.s Z G b S m 1.B.L.n.s.1.r.m.h.=.Q / A / Y x x z u m %. XD.z 9 Y ' X.Q u  .W.z.U.~.y.y.r.1.s.h.I g g Q ).).E.W.U.c.c.{ M s.X.;.1.9 p M p 9 Q } G %.'.).L.B.r.a.h.c.c.h.c.c.h.c.s.s.c.b.d.a.N.i.r.y.h.h.w.i.d.a.m.r.b * & X . b s <.>X=X).'.E.D.c.8.) Q ;.d.=.Q s.'.=.s.n.1.A g p 7 g M u A p Q c.{ S A >.d.r.'.8.1.&X-Xn.d.8.r.p.d.c.c.d.d.s.s.8.0.p.u.c.B.n.p.0.r.d.d.s.p.p.s.d.u.p.s.s.s.0.r.r.0.0.r.p.s.s.s.s.p.i.p.s.s.p.M.s.z z v.p.s.c.s.l.c.p.I i p Q n.l.E.B.@.g m s.E.L.>.r.c.i.i.$X'.m.B.).,.%.s.s.p.p.i.r.i.s.p.s.p.p.i.r.r.i.i.x.s.B.s.1.p.r.A.s.s.M.v.E Q B.0...@.{ ",
"r.L.~.0.l.&XG.,XE.:.v.U.-.' l.~.'.'.M.1.c.T.L.B.c.B.B.B.c.,.Q B A B.L.v.T.L.B.Y.M.s.c.M.v.c.k.B.M.B.c.i.V i ..E.;X&X}.E.M.i.v.M.B.M.L.E.Y.B.v.c.....s.s.i.M.B.B.E.'.-.s.E.c.Y.M.B.v.v.M.L.B.B.Q 9 { n.m p r.&X.X=.r.-X{.E.' g X.'.n.c.G.c.' g 8.n.m.m.d.w.Q b Q ` 1.'.,X{.E.s.m b ..c.1.I / I ' c...y.' g A a u A u u z S ;.L.+Xn.d.L.B.D.U.'.n.L.d.r.c.B.c.h.d.b.m 1 x Q 8.n.s.s.{ M N Q / 1.r...r.a.c.8.a.h.y.a.c.U.{.=X8.( n.b.B.c.I.'.D.N.n.d.J.D.r.;.' y.n.y.).p 9 8.b.c.D.E.[.'.U.R.Q.{..Xd.U.W.W.=X4X=XE.D.B.c.D.'.E.a.X.s.s.r.G Q ;.d.h.J.i.d.W.d.w.h.I Z R } s.N.<.V f } ' p 1 Y { g r I S z ..n.s.r.E.L.1.I 8.d.g g { ;.8.c.{ =.%.X.Q u { n.{.n.Z A n.n.8.U.:.;.d.I d.w.' I M 8 / }.d.8.B.B.d.y.A z E./ { =.g Y X...Q h.J.} } W.L.).Y.r.a.h.h.s.s.h.v.h.h.a.y.d.h.s.s.d.a.a.y.h.N.d.m.J.d.y.' u 3 7 r A R u 8.@XW.N.I.n.d.0...S Y r.E.{.L.&Xd.{ L.L.{.y...V M A M u 9 z / ;.p z Q r.y.8.r.Q D.<XB.=.r.r.r.i.y.y.s.s.s.c.c.s.p.s.s.l.n.l.r.0.p.d.s.s.u.s.l.l.s.p.u.s.u.d.l.d.y.r.p.p.p.i.p.p.i.i.p.p.y.i.v.} 2 V c.,.,...@.=.X.' K K Q Q I d.s.I S i I } } Q G r.4.s.3X}.m.s.i.s.Q Q h.i.i.p.i.1.r.p.i.p.i.r.1.1.r.i.s.g.i.s.s.p.B.x.M.p.Y.L.r.7 2 0.r.+.-.K ",
"p.|.{ h s.E.].B.C u l.P.L.V.E.~.r.-.B.B.1.c.E.L.v.M.M.B.B.1.I m U B.,.=.'.'.c.s.B.B.L.v.c.B.s.p.B.B.c.r...-.,.c.M.L.s.v.E.M.s.s.Y.}.&X}.D.M.M.v.B.E.B.,.0.v.v.B.i.r.B.v.v.E.v.M.v.v.M.M.L.B.B.Q g 1.1.g Q {..X/ { d.W.L.9.m u T n.:.' a.;.A M n.J.c.c..X.X>.b 7 u r.'.c.J.'.w.A u R A A V A G U s.L.r.m M A u A Q ' { ..r.U.{.D...c.'.D.D.d.n.c.n.d.8.s.d.r.y.8.d.N D A / n.c.h.d...M M y.E.@XD.$Xh.G ..a.m.a.a.h.n.f.r.f.U.L.'..X$X<X=XE.W.[.d.N.n.D.'.,X&X XJ.I.I.r.M I D.d.s.B.d.D.h.1.{.5X XI.b.b.c.w.i.b.s.I.c.a.d.a.%. .<.8.b.).y.' G ..y.s.i.h.d.i.s...z S %.r.D.d.>.G W y. .N g ;.J.i.=.s.D.D.d.i.i.c.r.y.&Xs.8.v.y.r.B.+XR.W.J.I.N.E.1.z ;.@X@XX. .W.+Xc.u.{ 7 I n.f.f.' 3 9 m Y L.&Xh.y.d.s.d.d.' Y n.m Q s.=.d.s.r.=...B.=.=.).E.).i.r.p.h.h.s.i.s.s.r.s.a.i.d.h.d.h.s.c.d.r.c.B.r.r.Y.n./ > 1 N R } G f S I.).J.b.L.y.;.=.1.8.s.B.L.D.p.y.Y { c.y.....8./ n.r.{ s.{ 1.1.' p I r.d.d.s.;.W.3XU.h.=.s.s.s.y.y.y.y.s.s.d.c.c.s.s.s.u.c.l.p.y.s.d.s.u.s.p.s.p.y.r.y.y.r.c.l.s.p.s.s.p.r.i.i.p.i.i.p.y.i.s.r.I i g ,.r.' { 1.r.@.T Q =.y...8.G.{ T K 9 i ` ' =.%.Y.&X&X}.L.r.w.=.} g m ,.w.r.p.p.i.p.c.s.i.i.r.r.r.i.p.s.5.i.r.g.p.v.s.p.1.i.B i 8 4 0.'.l.L.u.",
"=.s.' { V.c.B.@.g T G.1.l.L.B.,.A =.v.M.p.O.O.B.L.V.M.L.L.-.A m ..,.B } |.Y.r.c.B.r.c.B.L.M.t.B.E.M.p.s.p.r.' r.i.r.} r.&X,X'.E.;X}.Y.v.c.Y.'.E.L.Y.-.U ,.M.M.B.,.r.Y.E.c.B.v.M.c.M.B.B.L.B.B.Q 7 A p u ' U.{.n.E.E.n.B.{ q 9 I #XQ.s.c.' g I B.E.J.L.'.D.8...V %.L.n.d.r.s.Q ..%.n.d.h.w.y.v.c.y.W.d.X.r.s.8.y.X.n.d.d.U.n.;.=.c.&XE.d.1.r.y.B.r.r.8.s.n.c.B.n.c.G S z ;.$Xn.<.[ m b ' L.W.<X3X3X%.A >.i.s.h.D.n.f.h.L.d.N.c.I.+X-X+XR.D.W.'.D.n.U.'.W.'.W.h.X.w.I Q w.8.h.h.d.d.w.r.r.8.J.W.E.N.%.=.8.X.w.N.a.B.B.N.N.b.y.r.b.J.D.h.d.b.<.8.L.h.s.h.y.n.i.N p X.<.>.J.B.U.h.D.m.h.r.' ;.D.B.B.:...D.B.U Y d.y.U.5XL.d.B.c.c.3X+XB.c.U.=.[ &XX.g / N.;.I c.$X+Xl.G.~.l.0.D.'.n.E.d.} V r.;X).h.B.p.r.d.n.n.D.W.y.1.d.y.n.d.y.8.-.=.R h.3X.X).h.1.r.s.c.c.s.s.s.r.h.c.h.h.d.a.s.s.b.h.y.b.y.A r ` i.[ 7 u G Y I b s i.>XW.D.c.N.d.8.8.p.s.d.s.y.1.X.{ 8.d.L..X/ u I r.U.=.,.s.c.B.B.i.p.L.'.c.B.W.{..XL.i.>.=.G.d.d.c.d.d.d.d.s.0.p.c.p.p.s.p.c.l.s.p.s.p.r.r.s.r.y.y.r.r.p.p.y.r.1.:.0.y.y.r.8.p.s.p.p.p.p.p.r.c.,.g A ' 1.r...X.=.,.1.' T c 7 7 X.1.m M i =.G.y.w..X$Xc.L.;X|.L.i.p.1.=.I R ..i.i.p.s.i.s.c.p.r.i.p.s.p.i.r.r.6.g.i.M.k.c...I 7 * X $ 7 ..'.G.E.L.0.",
"A =.0.1.u.B.c.] a r.L.s.'.&X].s...!.'.L.,XY.! ,.s.V.L.B.s.U i m Q O.} ,.p.I V r.v.' r.E.L.O...].&Xv.r.i.1...Q E.;X&XE.}.;X.X&X;XE.B.M.B.M.M.Y.E.M.i.I V -.B.Y.B.}.L.=.Y..XE.Y.s.c.M.B.M.L.L.B.U z Q ;.y.E.'.D.n.E.B.d.-.9 * m 8.#XE.B.r.Y / 1.L.E.%.s.B.I 2 r b 8.i.' ,.G A r.&Xs.n.U.n.1.}.3X.X.X-X<X<X<X,X'.c.s.B.s.n.D.' m / d.W.M.B.M.M.i.w.c.s.s.d.c.n.n.c.D.d.a.8.N.E.<.{ Z g Y :.B.9.I.-Xh.N [ i.w.d.N.d.B.u.u.s.s.n.c.c.d.L.B.d.B.n.n.+X.X'.{.@XR.X.a 9 n.U.y.=X'.%.y.B.d.b.8.u.D.r.I c.Y.d.a.d.h.Y.[.J.h.h.i.y.c.N.N.J.).B.>.h.I.B.D.L.h.a.b.J.b...b b [ .. .s.Y G S >.D.h.i.;.h.J.a.J.D.8.;.M 2 ;.s.A ;.L.y.' ,.s.s.L.n.f.d.a.p z b.D m X.d.y.D.+X{. Xc.0.[.+X~.U.l.:.L.U.1...'.,XJ.m.).B.p.8.=.:.d.d.y.r.v.n.c.i.s.n.m.m.h.).J.w.w.>.r.i.s.h.c.c.h.h.d.b.b.h.h.d.i.a.a.d.a.i.b.;.r 2 1 S N g b z A A ' i.[.D.a.N.J.h.L.d.y.y.8.1.r.r.r.@...s.' r.{.r.8.d.L.d.Y ;.X.s.U.W.W.+X-XE.8.L.<X{.c.s.r.=.d.d.r.s.s.s.s.s.p.r.8.y.c.r.r.s.r.c.n.p.0.0.0.0.r.s.y.p.p.y.y.s.s.p.r.1.1.p.s.p.y.s.s.p.p.i.i.p.p.i.,.Q 7 I 1.i.1.s.{.1.m c g I / ' ' =.=.,.c.s.B.=.%.s.L.>.Q W.>Xc.r.1.i.i.p.w.d.i.s.p.p.p.r.i.p.r.i.i.p.p.i.r.r.r.x.r.1.g.v.L.A = 8 g A Q { G.#Xs.G.-.K ",
"u I u ] k.k.0.K Q P.v.P.&XP.c.1.B.Y.p...B..X,.u ' c.P.v...i 7 A p..X;XE.v...V B r.Q r.V.=.7 7 v.p.=.1.p.1.Q A '.&X'.E.|.|.}..X'.M.v.c.c.v.L.E.L.'.i.U U ,.M.Y.v.c.} i 1.|.E.i.M.v.M.B.M.B.L.B.I u { d.Q y..XU.c.E.B.y.z 9 8.W.{.U.c.L.y.1.U.E.L.&X=.Y.Y.G g m S i.M.d.).h.w.&Xd.I ` Y.r.M E.,XE.+X{.L.n.L.B.;.X.B.D.L..X{.n.n.D.U.U.n.y.c.y.B.d.D.c.c.d.c.B.c.c.b.J.N.L.L...z Z p m /  .h.y.n.w.t Y m.i.c.D.h.b.a.d.J.f.b.d.f.d.c.r.d.b.n.D.B.B.+X-X+XD.y.X.A m y.-XW.D.f.s.n.b.n.D.d.D.D...m D.E.c.a.h.B.J.L.L.B.w.;.s.n.r.w.N.J.I.L.$Xc.h.J.>.R w.w.;.` p 7 p m z b 1.N m S i.R.J.D.N.W.b.<.-X-X+Xn...' E.' 7 9 g S S r.D.B.s.<.w.c.Q 9 / X.I y.R.J.J.D.D.'.c.@.r.U.W.W.r.' I 8.Y u ,.&XD.w.m.B.d.r.=./ { 1.;.s.8.y.n.c.d.p.s.s.c.E.3Xs.R ' 1.B.m.c.s.s.s.g.h.d.h.a.y.d.c.c.m.h.s.w.w.h.<.Y X.w.W 3 f b g %.y.s.L.W.D.W.c.d.B.c.;...X.,.r.y.r.d.;.y.d.g / / { E.<X%.;.X.s.-X&X-X&X{.E.B...{ |.&Xn.c.=.s.c.r.n.s.d.d.s.s.d.d.s.y.d.n.p.r.s.r.c.B.s.8.1.0.p.s.c.p.p.y.r.r.y.r.0.s.0.0.s.s.r.r.l.y.i.r.1.1.i.p.i.I * u ..} -.i.E.B.I > 4 2 c { l.r.L.W.c.s.c.X.7 g s.Y.m.Y.3XL.=.} %.w.w.r.w.m.w.c.p.p.i.i.s.g.i.g.s.i.r.4.r.i.s.g.4.6.' C =.m U ' =.V H !.'.1.2.u.Q K ",
"T ] ! G.{.:.) H s.G.1.Q ..) u @.E.c.Q i.|.E.V.,.,.v.v.s.B.M.r.,.}.3XB.Q Q T.L.' i A c.E.' 2 8 A Q A ..Q A Q ..B.Y.c.B.E.L.E.Y.i.] c.L.c.L.M.L.M.E.,.t.B.k.L.E.i.c.m.i.L.E.L.m.J.s.B.v.c.L.B.h.Q 9 =.1.9 8.B.y.L.;...=.8.'.&Xs.r.B.y.U.D.' X.8.D.Q g y.8.' ' Q =.B..XE.L.&XL.L.d.M M c.B.E.&X}..XL.8.{ Y 0.T z D o.'.W.:.n.D.U.W.=.X.c.n.d.b.c.J.I.r.N.n.h.h.D.d.U.c.n.d.J.X.r 9 M n.D.c.'.B.` M g ..s.i.i.B.B.a.h.h.h.h.h.d.s.a.h.h.h.h.h.j.J.Q.$XI.R.8.Z X.e.Y D 9.X.:.9.K. Xd.u.u.y.n.W.D 3 X.y.a.B.r.m.I.D.i.w.8.h.h.=.[ <.D.N.N.J.J.B.J.D.i. .w.G * + & g S G } %.a.<.W b.%.X...$X@XR.&XD.D.Q.~..Xf.E.D.3 N X.X.m V 1.h.h.d.` z N * f w. .%.w.h.B.a.n.J.W.w.w.a.s.n.=.N [ d.8.y.=.).}.b.b.b.b.h.y.%...1.w.X.G S Z w.b.i.c.y.B.c.;X3X).1.1.N.s.s.s.h.g.s.s.h.h.h.a.y.i.d.d.i.d.h.y.a.h.Y.d.a.J.J.s r 9 y.D.d.h.w.B.Y.I.c.D.d.c.=.X.w.1.;.w.i.h.i.h.} G A S s.}..X>.1.i.Y..XJ.Y.c.h.y.r.' Q .X].n.p.l.s.r.u.c.l.l.s.d.c.l.l.d.s.c.n.d.y.p.s.d.c.y.8.y.c.M.c.d.1.8.i.s.c.c.p.r.r.s.i.r.i.r.r.p.c.w.p.r.8.r.c.` r 7 m ` } w.L.).v.I p %.h.n.' u s s.d.r.y./ b g A E.&X+X,Xi.' V ..r.p.r.1.i.p.r.c.p.s.x.i.r.p.p.c.s.p.s.s.p.p.p.c.s.B.=.y 8 Q E.c.) 7 C k.@...-.s.:.m ",
"u.G.^..X~.+.U l.L.!.n.2.K m U 1.P.L.s.!.,X&X.X}.2.M.B.M.L.L.Y..X5X}.} U 1.B.r.A A Q p..X' = Q Q ..A i g i m ' c.M.M.Y.B.s.M.i.V ' v.B.n.M.M.v.M.B.U ,.T.].,X.XE.M.m.Y.n.B.d.w.J.D.B.B.D.B.J.'./ 3 / p.r.a.y.n...I Y y.L.W.D.X.X.c.;.A g m { ;.U.S g =.I Y B.1.' w.I...&X|.D.E.'.G %.,X'.}.E.E.D...) S c X.c a / { 0.q Y d.T f.D.Y u.s.u.d.h.B.r.N.h.h.w.b.D.c.I.n.c.D.n.I. .9 f [ d.%.b.W./ Z X.>.=.r.B.J.c.h.J.h.c.c.c.c.c.c.c.h.h.h.j.b.N.I.).).a.y.W p  .<.Z Y X.=.D.W.@X_.F.y.d.I.K.D o 2 t b G b.c.N.D.=.;.w.a.c.1.X.w.b.Y.I.J.a.<.i.D.W.@X).E.h.a.y.` M V =.c.m.s. .A 1.' ;.r.R.o.X. .m m T @.%.S L.L.%.u.m.).i.r.).J.g.).r.{ r u g <.h.y...h.Q c.&Xb.w.8.=.>...[ G s W N.B.Y.D.).).R.N.N.a.w.=.[ ..r.a.<. .b ' Y.i.D.i.d.Y.3X3Xi.1.s.J.b.i.i.s.h.g.a.i.s.y.a.s.s.d.c.b.h.y.c.h.s.d.B. .V %.%.p m Q a.w.b.y.d.N.s.r.d.B.s.r.1.w.s.s.y.w.;.>.d.r.g 7 A m.&XW.L. .i.'.'.n.r.;.%.;.i.y.' %.&Xn.u.r.r.r.p.d.d.s.s.s.s.d.d.s.p.y.d.c.s.r.r.y.s.s.y.i.i.i.r.r.y.p.p.s.s.c.s.p.i.p.1.1.p.i.r.p.r.r.X.1.i.s.1.d.Q p s m m Q G g s.c.y.%.s.8.m z =.w.E.E.d.c.h.=...|..X'.'.E.Q V V -.r.p.r.r.s.c.s.s.r.i.p.i.i.p.p.s.s.s.x.s.p.p.x.s.p.M.x.i.c.r...u B g K A g c ' +.2.#.",
"A ) ~.G.s.U.l.s.E.p.+.'..Xt.1.n.V.L.}.].B.Y.'.M.M.P.Y.B.v.s.c.'.E.c.U ! M.E.L.} v.s.s.~.} 7 i.p.E.c.V V A 1.'..XL.L.L.s.r.M.p.I =.L.M.V.M.B.c.M.1.V 1.E.P.B.c.Y.-...>.A J.B.` w.B.}.).J.L.m.B.' Q =.n.W.'.W.c.I S ..B.D.B.L.1.Y m I S S ..W.L.A Q =.r.d.s.c.n./ %.{ I E.B.c.Y.Q 2 m >.%.c.L.c.{ Y d.;.N / p p B B :.y.'.-XU.{.n.I. XN.c.B.s.b.D.c.B.D.f.c.I.s.L.n.J.D.N.L./ 2 p G w.b.U.8.Z  .I.h.r.w.i.c.m.c.m.c.c.c.c.c.m.m.b.h.h.h.j.b.N.J.R.j.y.N. .b ;.e. .y.[.).F.D.@X).F.d.d.D.;.% 9 G f f I d.D.c.d.X.;.a.d.c.r.r.N.L.Y.i.b.r.1.c.b.h.Y.J.N.D.E.I.8.' w.h.).}.J.s.y.J.B.W.'.d.9 6 A S I A 4 N m / S b.N.c.>X3X[.J.N.)..X&XB.{ I ' d.m.).8.w.c.J.} m.c.w.%.;.>.[ ` ;.s.D.E.b.N..X;X}.i.s...I / X.;.N.R.i./ W b.d.b.c.b.;X5X'.s.Q A <.}.E.y.i.s.h.h.s.s.g.a.d.h.s.s.d.h.h.a.h.d.s.h.b.[ Z 8.N b ' W R ` a.D.R.W.I.h.i.y.i.r.r.y.c.c.1.Q I / Q V r z G W.}.D.m.>.c. XE.s.L.r.B.c.h.J.W.}.E.r.y.p.r.r.d.c.p.s.s.s.s.s.s.u.y.y.s.l.d.s.y.s.s.d.y.r.0.8.1.8.r.p.p.s.s.i.i.r.r.r.-.i.p.,.1.r.-.} 1.i.1.r.w.B.R m V V m R ` ' c.M.h.%.} } G 8.$X&X$X}.r.;.s.n..X}.'.Y.s.1.' ..1.i.p.p.p.p.p.s.s.p.6.6.i.i.p.s.p.i.s.c.c.x.p.s.c.x.s.M.x.v.E.r.h i A A 1.Q H u c t.P.~.",
"T K ~.G.K A ! U.U.B.k..XXXG.c.G.P.k.P.,.h s.*XM.c.v.v.M.L.B.B.E.Y.s.A U L..X3Xc.M.Y.Y.Y.=.7 I 1.Y.=.g =.1.E.,X}.E.M.v.c.s.B.Y.c.v.E.M.B.L.B.c.M.,...M.}.B.p.B.;XY.} L.m.B.L.;.3 r %.J.m.L.v.s.s.r.;.U.s.=.n.{ ..8.B.L.1.=.1.S 3 g ..;.Y.&XE.U.W.W.'.D.L.c...L.d.r.s.s.i.8.` G u g Q S V A 1.>.=.c.=Xu.I :.{ :.y.d.E.+XW.U.[.{.c.L.1.;.r.D.D.r.n.N.8.a.r.8.Q.d.r.c.I.N.B.W.=.g I f / -X).g A <.u.s.i.1.>.i.B.B.s.m.m.v.c.c.c.c.c.b.j.h.h.h.d.h.b.f.y.b.G 6 ` e.f.e.N.F.b.).@XF.d.b.d.o.$ . Y W / / h.s.L.h.y.b.w.s.b.N.y.s.J.B.c.h.n.s.a.m.h.s.B.y.i.N.c.d.d.N.,X$X3X4X@X$X>X$X$X+XU.d.n.=.d.y.f.I.[ M Y I.y.h.<.). X XE.r.w.B.m.Y.B.h.X.h.[ Z Y I <Xm. .R h.J.D.w.X.N.Y.N.W. X[.b.<.w.[..Xh.Y Q 7 3 z } a.h.r.%./ w.h.S w.r.U..Xh.>.G g I J.&Xh.r.y.a.h.h.s.a.s.h.h.d.i.y.y.a.d.b.s.s.h.c.i...X.W b Y =.r.8.s.b.{.=X@X Xm.s.w.b.s.s.v.).E...u 7 A 3 1 V ..w.$X.Xc.s.1.%.1.w.1.U.).U.B.B.E..XE.h.y.s.d.p.r.d.l.y.p.s.s.d.d.s.s.u.s.d.d.d.s.s.d.c.n.y.1.1.r.i.r.y.r.i.y.i.r.1.1.1.-.r.c.p.8.8.{ C ' c.D.1.r.w.B.V 7 m g ..h.L.3X}.s...>.s.'.&X-XE.w.G s r m =.c.).v.p.,...i.c.r.1.s.p.p.p.p.p.i.p.p.r.i.s.p.s.x.s.p.s.c.c.s.s.x.v.s.p.x.s.p.M.c.-.A g m c.r.@.K ) ~.~.U.",
":.l.H.s.0.-.:.#XP.0.t.:.c ' v.'.E.L.E...g i.E.s.L.L.B.B.G.B.M.M.L.B.i.E.,XE.T.s.Q r.B.L.1.u } V.=.u A |.'.'.E.L.B.c.v.B.M.M.L.L.L.Y.M.v.B.c.B.L.B.'.B.B.c.p.'.|.).r.}.'.%.n.+Xy.z m c.v.c.J.J.E.n.X.L.;.m y...r.U.E.D.8./ 9 = g Q h.s.c.8.z X.&X|.d.U.1.n.D.L.n.s.>.s.Y.%.g r r g s.L.1.7 $ 2 / r.u.K / U.D.W.-X=XW.u.n.n.u.c.d.M 4 x D  .N.a.[ ` X.r.' 9 M Z / ;.b.y.y.c.( 6 m m f n.U.Z [ r.9.N.r.1.s.m.c.c.B.B.m.m.m.m.m.m.m.b.j.h.j.h.d.a.f.j.a.d.` Y a.b.h.&.d.F.b._. XF.d.f.W.9.1 z n 6 f { W.J.U.h.c.Y.r.a.D.D.8.y.J.h.8.b.d.a.d.d.h.m.B.h.s.c.y.y.c.b.).W.E.E.m.L.E.a.b.d.D.d.d.o.n.I.U.u.D.U.D.'.n.=.( J.$XL.<.1.s.m.b.a.h.y.J..Xw.B.<.[ 8.` w.h.'..Xs.8.B.[.d.w.R.I.d.w.y.<.y.} b 6 r 3 m S =.J.<.N Y V X.w.X.s.I.y.S s ..G I L.$Xh.%.e.r.i.g.h.a.i.a.i.i.i.a.d.d.h.c.h.d.n.h.y...Y / p m.h.<..XD.>.W b.[.W.n.>.w.w.a.B.n.c.D.n.' g z V V ..h.m.,X3X'..XB.B.i.r.h.c.L.J.n.L.h.r.h.r.r.p.y.s.s.r.p.s.p.s.s.d.l.s.s.s.u.s.s.s.y.r.r.s.d.n.y.1.8.r.r.r.y.r.i.t.i.r.r.r.r.-.i.s.i.c.r.A g r.B.n.8.s.1.1.p u I Q E.4X.X{.n.A i } 1.L.J.{ m s g A X.w.c.Y.s.Q A m ..Y.L.,.s.p.i.i.p.s.p.i.p.r.i.s.x.p.p.x.s.s.s.p.p.p.p.s.s.p.r.p.x.s.c.c.-.Q m K 2.! K @.~.{.l.-.",
"l.~.~.~.B.+.@.p.4 i :.B.p.c.p.B...c.E.v.B.T.L.T.Y.L.L.B.B.B.L.P.c.B.s.B.v...r.v.s.M.v.E.r.q -.,.u m i.L.-.M.E.M.v.M.L.B.v.v.M.v.M.B.L.v.M.v.E.v.i.'.=.Q U U r.=.s.U.).,XE.E.U.h.R s ` =.E.}.i.r.n.E.$X&X'.-X'.'.&X+XE.d.' p m i.{ S / U.W.=.B.-Xn.X.1./ D..X&XU.s.m.w.B.W.A G ..U ..p.r.B...b m [ [ m B ;.8.d.n.[ Y U.+X0.u.0.[ z D W / m S  .p a I m 9 x M r Z =.D.d.d.a.W 9 z Y G ( B.:.1.D.D.J.i.r.m.B.h.s.m.c.c.c.c.m.m.m.b.j.h.h.b.N.b.h.h.a.h.J.N.I.$X XJ.R. XQ.j.I.I.d.o., W p 3 G f Z z =.R.$XJ.i.N.m.y.c.B.B.c.J.D.y.i.d.r.i.d.a.h.b.s.d.y.s.s.a.i.w.a.c.d.h.y.d.B.<.s.=.w.[ A f.U.r.' =.9.I.{.R.I.1.Q I.E.c.r.s.B.Y.J.<.[ c.5X&X[.).` %.9 9 <.@X}.<./ ;.J.8.b  .J.h.w.y.w.W S r > 3 z N A X.a.;.S f s 2 ' R.h.@X[.;.%.1.e.=.h.$XJ.Q w.s.s.s.h.h.s.s.h.i.a.d.b.m.b.c.c.8.s.n.;.} R Z V 7 D.B.y. Xs.y.a.R.N.=.A 9 b X.h.Y.E.L.n.h.y.1.1.i.X.%./ S W.{.{.i.1.L.L.n.c.N.B.m.D.'.r.%.s.r.r.y.0.r.u.y.p.l.l.s.d.s.s.p.y.r.y.s.y.y.r.r.8.r.s.n.y.8.8.8.;.1.r.r.i.i.i.r.r.r.r.-.i.i...=.Q A r.L.Y.y.{ r.d.%.7 m A s.).E.L.1.I 9 Q ' r A A 2 b r Q %.%.R ' i.} s.r.,.B.Y.i...p.i.i.i.p.p.i.i.i.r.p.x.s.r.r.s.p.p.i.6.1.r.p.p.r.i.s.s.s.r.i.=.h i m 1.n.0.+.:.c.n.' K ",
"s.#X.Xu.L @.c.c 4 1.L.!.XX-XT.~.i.Y.}.'.].P.c.V.Y.B.L.P.L.v.v.v.c.V.v.B.B.B.M.c.c.p.,.p.0.g Q I m 1.M.=...E.|.M.v.B.L.M.v.M.B.v.M.B.B.v.c.E.E.Q u ..g u A } s.i.s.` Q L.m.v.8.A M Q %.1.L.%.1 . Y L.U..X'.s.c.U.D.E.Y.=.z m { X./ ;.X.d.5X-XU.n.;.r.y.E.-X'.U.=.}.}.'.D.m.G d.h.B.h.B.=.d.W u G S A u 3 A n..XL.m Y .XD.I n.n.8.X.y.N.N./ 9 g 3 X.y./ m I z u z N X./ X.=.` M A <.r.[ c.9.1.n.c.c.h.h.h.c.c.h.h.h.h.h.c.c.c.c.c.j.h.h.b.D.b.h.f.<.h.j.j.N.J.).W._.e.%.K.1Xd./ 9 p n 3 6 G o.d.h.J.'.$Xm.y.d.d.d.b.m.d.w.h.N.y.d.J.N.a.w.y.h.b.h.d.c.b.N.c.h.D.D.h.s.d.i.a.B.<.<. .( { X.c.Q I D.d.c.d.I.+XW.r.h.$Xy.;.L.B...[ ..W r  .N.;.J.N.;.w.w.A d.&XJ.c.%.1.X.G } B.J.n.D.X.' S g r b s A N S ;.>.z 7 g f R m.). .).b.h.5X$XI.Y.L.m.i.W r.c.h.h.h.h.h.h.c.d.d.h.b.c.d.s.h.w.a.s.` W G V b Z W I S  .Z ..D.d.X.[ Q b r G X.' >.s.h.i.y.8.%.w.` ' A z w.%.} s { Y.J.d.i.B.L.E.c.c.s.i.y.8.d.p.r.y.s.p.s.c.l.u.s.s.p.y.r.y.p.s.y.y.y.r.8.0.r.c.r.1.8.8.1.,.8.i.r.1.1.r.r.r.r.1.i.r.A 7 i I Y.r.c.8.' w.U...r M m 8.>.R =.` p 7 h.=.r g m g ' s.r.=.Y S r.'.).;X.XE.E.p.s.B.c.s.s.s.p.y.y.i.i.p.p.s.p.1.r.s.p.i.r.1.,.6.p.i.1.1.s.p.p.r.p.r.B g B ..r.s.B.l.c.@.c g ",
"U.,X~.l.q.n.#Xl.n.G.c.]..X'.P.G.t.s.E.].L.v.s...U B } c.Y.L.B.L.p.B.M.B.v.B.v.M.s.1...A Q 7 u ..=.} A =..X;Xc.,.p.s.M.B.L.B.v.c.M.B.c.c.p.&XB.> . m 7 g r.E.,X3Xh.R g w.c.1.A g G c..XW.%.7 z A r.s.r.B.;.Y r.1.d.'.4XW...s..Xc.;.=.c.{.{.8.1.r.U.{.+X#XW.E...V w.1.1.i.>.%.Q ` c.m.Y.1.1.Q b i.8.I g z X..XU.I 7 { m z ..l.d.D.D.h.D.d.<.X.W ' 8.=.A p m m  ./ p S u Z ` o.T D D.r.8.L.8.c.D.d.m.h.h.m.B.m.m.N.b.b.m.m.m.b.c.h.b.h.h.b.b.h.y.w.8.D.h.b.h.y.N.j.[ [ 9.).@Xo.S 4 r 9 n S 9.1X@X4X=X@XR.m.b.8.b.d.w.J.w.u Z c.b.w.d.N.y.;.d.h.r.y.a.N.h.s.y.d.L.s.h.c.b.m.D..Xh.1.` z G { [ I S d.W.D.N.h.{ / ` z G m.U.d.' r 3 m r u p m b G 1.;.8.h.y.i.y.B.J.n.s.c.Y..XI.J.J./ p / ;.N s  .m p I D.D.;.{ S S r.E.=X1.[ s.s.n.R.).Y.).E.Y.h.V y.c.h.h.h.s.a.s.h.d.d.d.s.y.w.a.b.b.a.a. .[ A p r 1.` r 1 ....' c.a.} / b u b <.s.' } 1.s.8.1.r.r.D.D.'.s.=.w.G 1 1 1.W.r.=.1.m.m.c.B.i.1.r.d.h.r.p.p.p.p.r.s.s.r.y.y.p.y.p.p.s.l.y.y.y.u.y.8.1.8.c.1.X.1.s.y.r.8.i.r.1.1.2.i.i.i.p.s.1.u . 7 A =.V ` =.r.B.Y.I u 1.r.%.Q U z 7 7 G E.s.1.} I ' r.i.r.L.L.D..X;X3X&X-X|.B.u g i.1.p.s.s.p.y.s.c.d.c.s.p.r.1.i.x.s.r.r.6.1.r.p.p.6.r.r.,.r.i.s.p.E g U t.P.T.~.p.2.{ g u ",
"l..Xl.U.~.U.U.l.V.u.l.].P.{ U ) U v..XL.p.}.r.i u g i ..P.Y.M.B.M.B.v.v.B.M.v.B.B.c.B.!.2.U 8 -.M...} |.;Xv.i.' I I r.L.E.Y.M.'.'.Y.M.=.E.3X..2 g U g A ;X}.E.s.' r u ' } I Z V g Y.&X$XL.h.{.+XD.d.L.=.p p D.L.'.D.L.W.~..X;X{.d...r.,.' y.L.'.L.D.E.n.r.1.n.d.' z Q s.D.R >.L.L.w.&Xs.} s.s.L.D.b.' Y <X&X=.2 / s.' ..s.z / L.f.8.c.n.L.u.y.G Y y.%.W.d.{ D.c.[ :.=.n.W.' a 1. Xd.y.c.u.y.h.s.N.1.<.m.J.m.m.J.B.J.N.h.g.h.b.N.b.j.h.h.h.j.j.b.D.D.D.h.a.h.j.y. .N.$X@XK.a. .Z  .a._.R. X).R.Q.).L.1.w.b.b.N.d.w.R.s.z ` D.w.i.h.y.w.r.h.n.m.c.h.h.h.h.h.c.d.i.m.m.m.C.N.I.;.S r W :.8.r.{ 8.D.G.) 8.Q m M p 2 [ .XN./ u * b p z b [ X.A r 3 9  .c.N.a.D.R.J.c.r.I.[.w.d.b.s.p + X.Y Z R i.=.Q w.B.b.r.d.h.s.m.W.I.i.%.m.Y.[.W.Y.L. X).h.%.` y.g.h.s.i.s.i.i.s.h.h.d.d.h.a.y.d.d.w.s.%.` 7 b z b ' ;.z X.}.}.$X;X}.D.` G 8.&X.XU.i.s.c.y.8.{ m.m.).}.w.} m.=.' g Q h.=.} ' c.B.y.c.1.{ r.i.m.c.p.p.s.u.y.s.l.p.p.r.r.r.r.p.s.l.y.y.s.1.c.1.-.c.n.=./ n.U.c.c.-.r.p.r.p.s.i.s.r.i.M.r.i u i K 1.I s z I h.D.I g g u r 1.s.S s s y.,X>.s.1.I h.s.=.m..XY.E..X3X).B.n.1.L.=.Q ..c.s.i.s.p.r.i.r.r.6.r.p.s.c.c.x.s.p.i.p.s.s.r.r.p.6.p.1.p.r.i.i.V i p.].'.].B.@.s.-.' K ",
"u.G.B.n.K Q c.0.=.) ! P..X..i g ' L.,X&XY.c.E V Q V i } M.P.P.v.B.B.M.v.B.B.M.B.L.B.v.v.L.'.-.,.'.E.E.,X}.,.Q V g i A I ...X5X.Xi.=.=.U E.5XQ . I Q M.}.E...m g r u g I Q g b =.L.;X.X).L.B.E.L.D.y.n.d...p =.n.y.c.y.i.D.D.B.'..Xc.L.L.B.E.W.E.c.r.d.d.s.y.L.E.s.1.B.U.L.a.E.Y.s.L.L.I A D.B.a.c.c.s.1.c.r.m Q n.U.'.&XY./ d.+XB.:.w.{ 9.B.8.%.r.1.B.D.u.W.U.'.D.b.W. Xy.m I L.R.n.r.9.r.h.b.d.N.h.h.m.m.h.h.h.s.h.c.h.h.h.c.h.h.h.d.h.N.D.N.b.D.N.j.f.a.h.b.d.b.[.%XW.h.y.a.d.)._.D.).b.N._.J.n.N.d.s.U.E.m.D.B.J.y.b ;.D.h.B.m.h.s.s.h.c.c.h.s.d.h.d.h.b.b.h.N.m.h.h.h.D. .f g 8.U.I.u.8.d.d.=.S <.9.x > M 7 i.}.[ b u I G t I g w.I.1./ ' Q ` %.d.m.N.E.L.I.w.I.D.J.R.1.V 2 X.L.a.a.1.y.h..X'.R.B...w.b.X.h.Y.w.[ Z w.}.W.m.).).L.h.g.g.r.h.i.g.a.i.s.i.w.r.w.r.d.w.h.r.%.c.i.N.b.%.9 g z z X. .%.1.'.@XW.).E.). XD.h.a.i.Q { =.y.h.i.s...n.m.r.B.=.>..X3X,X8.} ....>.=.a.c.s.c.=.y.>./ r.w.y.s.c.s.r.s.l.y.r.p.s.s.s.p.y.y.r.r.s.s.d.=.;.y.d.1.I S 1.;.=.U.c.p.r.c.c.,.-.s.i.1.-.V 8 i } A u u 1 7 g b S s V b m ..i.1.V s s.r.X.8.V Q Y.n..Xi.1.w.Y.&X.Xd.-...{ B.L.p.s.v.c.i.s.p.i.p.i.i.1.r.p.i.r.2.6.r.s.p.s.x.k.p.i.r.-.i.2.i.p.s.1.8 g n.G.L.B.r.) ' p.=.) ",
"..n.l.@.Q l.s.g u M m r.L.Q H @.c.E..XP.c.U h ..V.r.-.s.c.M.Y.s.c.M.M.M.L.B.B.V.v.B.V.c.'.,X'.E.Y.}.}.E.c.Q g g g U I U g Q E.r.7 > m A m.L.A 3 M r.-X'.8.' A p r >.r.A r V r..X;X.XL.i.>.1.d.h.d.s.c.c.D.{ / Q I s.n.c.U.B.d.U.W.E..X&X{.E.G.n.=.Q ..y.U.n.d.s.J.i.b.J.}.&X&X{ >.n.{ b I c.B.L.'.L.B.X.I S u I D.-X,X{.}.'.+XE.o.T W c.'.U.d.r.U.d.%.[ =.b.J.&XL.a.W.b.p 4 X. X{.W.s.=.y.d.y.y.b.b.h.a.a.b.b.h.a.h.h.h.h.h.h.h.j.h.d.h.N.N.h.f.h.d.j.N.b.j.h.a.a.D.K.j.w.w.j.I.[.R.D.R.`  .R.J.J.a.s.D.&X{.r.b.;.' ' S b.J.c.d.B.N.b.c.h.h.h.h.h.c.h.s.a.d.h.h.h.s.i.a.c.D. .f 1.=X&XL.8.u.u.u.d.d.d.s.[ 7 T I.).h.r s G ` N G ..' w.i.D.N.h.>.Y ;.8.}.J.s.n.y.b.W.d.b.8.` g f c.W.y.X.' h.W.$X}.).I.=.w.d.%.Y.{.d.'.W.@X'.[ m I h.h.w.s.h.y.w.w.i.i.a.h.s.i.a.h.d.m.8.b.r.;.I.8.h.J.} 7 u Y <.i.w.r.Y.<X).L.b.B.J.'.E.J.h.w.` 3 m ' m.B.r.m ' r.1.} b ..Y.D.L.i.Q R 1.m.s.c.L.B.s.1.L.i.8.s.r.s.u.p.r.y.c.d.:.y.s.d.l.s.y.r.0.8.r.i.s.p.1.L.U.'.A = . > = $ ;.L.r.i.r.=.=.,.r.i...g u U s.E.,.s u ' ..g 1 3 m R i.r.i.y.h.1.>.} 3 r m g =.s.r.X.` c.E.).).m.X.Q ..i.c...m ' s.c.r.i.r.r.s.p.p.i.p.p.p.r.r.p.p.p.p.i.r.i.p.r.6.r.s.r.i.i.p.1.g q L.n.B.2.O.@.-.L.c.0.",
"@.0.@.#.U.<X{.v.' :...k.t.C ] P.'.E.E.k.r.I ! v.T.M.B.E.B.v.B.c.v.B.B.V.Y.L.M.B.L.M.Y.c.c.1.1.M.L.E.E.p.} i 7 Q ,.M.L.Y.' u V $ & 2 m V ` A 7 3 s E.v.Q s g I Q B.'.L.Q M m.3X+XW.v.d.=.' w.h.B.s.n.n.y.Y.n.;.S z 8.L.B.d.c.d.y.c.n.d.D.W.U.u.' =.M p Y c.B.B.B.J.J.'..X;X$X.X8.r.Y.w.S W h.D.L.8.;.r.Y.'.z < S n.W.E.;.' ,.;.I f p I E.W.<.f.d.y.B.D. Xd.[ b.'.b.D. X=.> f f.<XQ.D.w.8.c.c.a.c.h.h.a.e.h.J.N.h.b.N.b.h.h.h.N.N.b.h.d.h.b.b.d.a.h.f.h.D.D.h.f.e.e.a.h.h.h.h.N.J.h.e.[.D. . .R.[.D.<.1.b.Y.D.s.D.i.Q Z b 8.d.s.i.c.b.b.h.h.h.h.d.b.m.b.d.i.a.s.d.h.i.i.g.m.d.Y u ;.E.1.A / w.l.W.U.9.d.d.<.;.c.3X=XR.%.I >.i.w.h.d.D.[.B.+X).b.<.n.w.D.i.' y.W d.E.N.h.i.A G V S J.b.%.Y z y.[.R.m.b.w.;.i.m.R.=Xh.a.-X XJ.w.b 3 & =.e.w.g.s.a.r.y.s.s.s.h.h.h.h.c.s.c.8.s.1.w.b.h.b.w.G N m R %.N.b.L.'.$XD.b.a.c.h.c.y.8.>.8.h.;.} V %.i.1.1 2 1.;.g 3 A m.R z { S w.L.B.;.p.c.s.8.D.m.i.J.r.r.s.y.y.y.p.d.s.1.y.r.r.r.r.r.r.r.8.p.1.d.B.s.n.8.u 2 m g p u = C Q g ..s.,.1.r.....A 8 u r.'.M...I w.&Xi.V A s g U L.w.d.w.=.s.y.{ p R Q / c.d.d.X.1.m.r...i.B.=.r.s.M.i.I i U M.c.1.r.r.r.s.p.p.c.s.p.p.x.c.s.p.r.r.1.,.1.r.i.6.6.1.1.s.p.i.c.i...P.r.:.2.t.r.2.B.v.l.",
"K _ @.Q ] 0.v.!.].!.L.&X!.=.s.E.c.r.=.B g g @.c.i.1.i.M.P.L.M.B.Y.E.L.L.L.B.M.B.L.s.M.M.Y.p.1.r...M.Y.r.Q g U Y.E.E.|.Y.=.A m m 9 I A m G A G + b >.s 9 b A { L.3X).m.s.c.}.,X).B.r.i.;.8.U.L.m.B.n.B.d.c.c.c.s.1.M.L.B.n.n.c.c.8.B.c.r.y.d.c.s.W.8.Q Y r.s.d.d.c.U.Y.D.B.i.c.n.B.J.L.....m.Y.).8...m.E...p ` ..h.V V b $ p ` I 9 4 w.b.8.X.B.W.).n.&XQ.<.f.L.E.'.+XR.=.X.y.d.R.D.a.w.f.c.c.c.h.h.N.h.h.D.N.h.a.b.N.h.h.s.h.b.N.h.h.h.h.b.N.b.b.D.f.a.h.h.d.h.h.b.h.h.h.b.N.N.J.e.e.E.h.e.a.I.J.X.b g X.a.b.b. .=.G u p [ d.h.a.d.d.d.d.h.c.h.s.h.b.m.c.c.c.b.m.m.a.h.m.m...r 3 a ;.8.X.b.W.'.D.[ { y.D.@X3X[.I.r.d.b.s.B.m.1.1.D.m.&X}.'.L..X$Xd.b.N. .R w.S a.J.Q Q b u Q  .J.W.8.;.} g =.'.).w.>.;.X. .a.)..X` h.@X;.A  .a.s.h.E.g.w.s.a.s.y.h.c.h.a.s.s.a.h.i.r.d.a.a.w.b.s.d.B.u & > G R ;.D.N. X.X'.d.y.b.h.h.b.d.w.X.' i.B..Xc.X.R Q s S i.m 2 g I Y.i.m g 9 %.%.R b 8.w.1.s.'.r.w.s.=.i.s.y.s.c.s.p.s.s.y.r.8.8.r.y.y.r.r.s.1.U.E...p $ = 7 p M ;...z / 7 . g p.s...=.v.' g u g V I g u X.B.w.S z A ` I B.).1.B.L.s.s.1.w.r.).1.V =.s.r.s.h. .g 9 =.E.y.s.s.i.-.V V V p.c.1.r.i.p.c.s.p.x.p.r.r.p.i.1.-.r.r.6.,.6.p.p.r.r.6.r.s.p.r.c.v.t.c.2.B Q ' U U I Q ' ",
"q.U.q.4 c Q ] 0.U.].#X-X*X#X].B.c.k.1.U g I s.B.v.s.M.Y.E.M.s.L.Y.Y.B.v.M.M.B.Y.B.v.v.s.L.c...7 ' v.L.-.V i I ,.,..Xs...' r.|.r.u A I 8.p.h.h.g m Q I G Q h.U.<X'.E.D.W.&X'.U.}.c.i.h.i.c.E.D.s.B.s.n.n.d.B.D.B.n.L.c.B.W.r.Q ;.d.s.X.I } c.L.D.c.s.l.c.D.n.B.n.M.L.i.8.v.c.c.n.m.1.L.>.8.L.E.}.$X.XU.Y.B.=.b E.d.' G z p r.).L. ./ d.D.c.8.{.U.w.c.B.' D.>X9.I L.E.r.8.W.R.9.<.c.d.c.n.n.n.b.s.J.I.N.h.b.h.h.N.h.b.b.h.h.b.b.b.h.h.h.h.j.j.j.j.h.y.y.h.h.h.h.f.d.h.h.d.a.h.h.b.a.I.a.h.e.a.b.;.b 2 b D.W.a. .3 1 6 6 N 1.U.D.y.a.d.d.s.d.h.h.i.d.c.b.b.c.m.m.b.h.w.h.B.N.Q 7 u f w.,X=X+X+XW.D a 8.8.W.<XU.r.8.;.8.s.'.B.m.;.8.s.h.R.L.W.w.G f Q W.c.L.E.m.y.r.g 6 f 6 X.s.%.L.D.r.;.Z N U.-Xy.} G %.W / N.N.m.=.<.>.p g 1.U.E.5X'.g.s.s.r.y.w.h.h.i.r.i.i.i.h.h.a.d.s.<.r.m.L.W.8.3 9 ' 8.y.I.;.J.<XW.c.<.1.b.h.c.B.D.b.w./ i.B.3X$Xw.m p S d.L.V g ` U.{.L.1.g m 1.>.%...c.y.1.c.m.8.s.1.r.c.n.y.r.d.c.c.l.p.s.p.p.s.d.d.s.r.y.y.y.E.1.4 o > M 9 A U.4XW.=.G 7 i 7 A ' i i ,.V g i A A g u } J.d.>.r.E.).Y..X3X'.J.d.s.r.1.h.'.3X{.Q Q i.c.r.>.h.h.n.n.'.E.,.r.p.r...u g i i.l.1.r.i.p.s.i.i.1.r.r.r.6.1.,.1.r.r.r.r.p.p.r.1.p.p.r.1.r.k.k.i.B Q s.B H B q c U ' =.",
"-.l.] T B.-.c A @.L.#XL.L.].c.@.p.Y.L.Y.v.c.B.L.&XL.}..XL.s.p.B.n.B.v.v.M.B.B.L.c.M.L.M.L.L.s.Q 1.L.E.v...} s.c.,.' i M.E.,.'.Y.' G } '.B.B.B...A ;.J.s.' i.U.W.L.U.m.L.&X&XY.J.h.B.L.B.B.D.c.m.c.s.n.n.n.L.n.d.L.U.L.U.D.Q p I Q I I u p ' 8.n.L.D.{.'.L.s.c.d.i.c.r.r.h.v.m.h.y.h.{.r.i.&X).m.{.{.h...} B.=.s.=.L.h.} / h.c.1.U.W.h.L.D.=.n.{ f D.c.X.'.D./ S 8.B.d.D.U.s.s.h.r.c.c.n.J.n.d.D.J.I.h.y.j.N.N.I.b.N.N.N.N.N.b.h.h.h.h.h.b.j.h.f.a.e.d.N.N.N.h.w.y.h.b.h.a.h.j.b.j.I.a.N.y.a.h.%.z Q N.+Xm.Y g f r b m S d.W.I.y.s.c.c.h.d.h.h.s.h.h.h.h.h.h.h.a.y.w.c.N.B./ s Z M u.R.c.y.d.r.m r.U.{.5XU.1.d.f.d.b.a.w.G >.h.h.y.d. .Z  .S $ & d.I.Y.J.E.I.y.D.s b z z w.y. .h.m.R.s.m ' @XJ.Z 6 ` D.[ A w.D.<XB.W m 2 / N.h.b.Y.' ..h.s.s.h.s.e.i.y.y.s.g.s.h.h.s.h.<.Y ` Y J.$Xr > m h.>./ [ ;.). Xh.w.%.w.a.a.d.h.d.r.%.S s.3XE.X.I ' / ..r...m g Q }.w.Y { r.L.'.|.'.D.w.;.r.i.1.r.s.i.d.i.B.c.l.l.c.B.B.p.p.s.d.l.l.d.p.p.r.0.n.c.p $ u I 9 z n.&XD.L.D.Q m ' u i A * = 8 * m m p.B.=.=.M.1.%.D.E.&X3XB.L.d.=.r.V s S ..s.E.Y.' 3 ;.B.i.p.r.r.D.).'.'.' M ..} ' g 2 g g s.s.,.1.r.r.i.1.r.,.6.p.p.r.r.i.p.r.r.r.p.p.r.r.r.1.1.,.,.s.M.t.-.7 m :.B { p.) ) 1.i.s.",
"@.#.) A Q T { ] H -.n.s.c.1.m A s.T.L.*X3X&X'.&X.X1.c.'.B.M.v.v.M.L.L.L.Y.V.v.v.V.B.L.E.G.c.M.v.i.M.B.M.' I c.B...7 U i...' r.'.M.' =.B.} s.c.r.G I / D.U.s.J.B.n.c.J.U.J.Y.Y.s.d.n.c.n.B.c.h.J.B.n.B.B.B.n.y.L.D.n.D.y.z = 3 g z 7 z p m { ..r.U.D.+X+XU.s.d.y.c.s.r.h.h.m.D.s.r.c.'..X+X5X{.+X).c.i.' u =.}.i.y.w.d.;X.XW.d.` =. X=XW.D.d...m S 9.Q.).U.X.{ =.D.J.d.D.n.d.W.d.c.D.c.n.I.9.{ m.h.N.a.y.I.).N.h.N.D.N.b.b.b.h.h.h.d.d.b.D.J.N.h.h.d.h.N.N.N.h.e.b.D.b.f.a.h.b.h.h.;.h.d.h.b.h.%.' h.b.S 9 z g V Z Y R S n.L.D.1.a.b.B.c.d.h.c.c.c.h.h.d.h.c.h.s.h.h.B.b.m.R u N b d.8.=.y.y.' { B.3X3X'.b.B.a.c.h.a.b.s.G m w.h.J.h.<.R 9 + 3 =.Y.h.;...[ G Y %.b z m w.D.%...N.W.=X'.w.r.} r b y.Y.8.N [ B.Y.I.W G y.A Z ` A w.E.V Q i.e.s.h.r.e.a.s.h.c.h.s.s.d.h.I.8.S V . r.}.2 u b 9 f f >. X@Xr.1.N.1.s.i.h.D.J.c.>.W u <.E...r g m.'.E.w.b s m %.E.>.G X.{.,Xr.%.' Q s %.N.c.J.B.w.n.y.8.l.E.].L.s.c.L.G.1.r.p.p.r.0.r.y.y.8.B.y.> 9 S p  .8.{.D.I I } Q y...g Q Q c Q z g A U .XM.{ c.1.U G =.D.8.M m V I S Q 7 m %.Y.c.w.A p g =.w.r.D.L.h.Y.r.X.r.G r.=.-.p.A i V Q |.c.,.1.r.6.r.1.r.r.r.r.i.p.p.i.i.p.r.r.i.r.r.t.c.r.r.s.M.B.0.A i ; m { g K c.k.V.l.c.c.",
"c.-.u 4 U l.n.V.n.0.{ { t.T m T L.,X:XP.c.c.E..X=.T ...X.Xs.n.n.M.Y.L.v.B.B.B.P.B.L.L.L.B.M.M.B.c.M.s.E...g M.Y.s.1.' E.Y.s.v..XB...R A r.'.h.D.I u 1.} 1.Y.c.L.i.i.c.m.B.E.L.n.n.n.c.c.c.n.m.B.B.c.D.B.c.n.c.n.L.c.B.p $ & g S m m z m ' c.B.%.b.'.c.J.c.s.m.d.N.n.B.M.d.h.s.=.Q g Y.}.L.'.U.E.c.c.c.i.} / B.h.r..X,X.X'.+X$XY.;.s.L.n.z Q d.8.1.D.W.-X1.p A ..r.8.w.c.b.D.b.G y.D.N.R.y.u ..h.m.B.` Q b.J.B.m.J.m.h.h.h.m.c.s.s.s.s.h.h.j.b.N.h.h.h.j.N.h.a.h.D.N.b.h.h.j.h.a.a.&.f.h.h.D.w.G h...r 3 u N ..X.y..XU.0.u.f.D.:.a.m.b.b.h.D.h.b.d.N.N.h.h.h.s.a.a.N.m.L.8.* 6 G 1. .V >.a.a.G M i.8.` y.h.h.c.r.h.N.h.b.r.A  .$XB.w.D.).r.Y A I / b 1 g R %.%.s.h.[ [ y.a.i.J.$X3XD.%.w.d.y.X.b.$Xg 7 7 ` N.y.I % p R.d.;.W g z m.<.;.8.h.h.1.i.a.b.b.a.y.y.i.h.J.>.y.<.Z b & p Y > b S m V g X.R.Y.y.d.h.s.i.h.h.b.N.s.d.w.W W <.Y G z R.[.D...g G w.N.;.6 S B.B...g m z A s.W.|.'.D.r.s.s.8.m 2 >.U.Y + b 8.i.7 1.d.s.d.w.p.M.d.c.L...7 g S A ..s.B.{ 7 Q ..A I c Q 8.Q c z ) Y z 1.d.p Z D.s.s.m.m.i.N g w.i.%.G A g u r.&XL.,.b s b } h.n.{.y.8.).h.E.Y.U.;XB.p.p.X.X.G.~.L.i.-.i.0.p.s.p.r.r.r.i.r.>.>.r.p.p.p.1.8.p.s.p.s.p...s.G.) 8 X 4 h 0 K c ' n.r.].P.1.s.",
"r.H c :.k.B.L.XXE.n.' m T K m C E.x.] l I M.}.=.m B p..XE.n.n.v.B.V.M.v.B.B.B.L.L.L.L.B.v.v.v.M.B.M.n.M.1.m M.Y.&X&XM.,X&XM.s.}..Xh.y.1.L.&XY.{.../ c.=.1.s.L.U.L.8.i.L.L.B.h.c.m.m.m.m.m.m.m.m.L.n.B.d.B.U.D.d.d.E.-.' 1.Q { ..` =.=.>.s.c.m.h.J.h.h.B.h.B.c.B.c.h.c.c.d.c.s.;.Q ..M.w.J.=.> ;.c.d.c.M.=.S i.B.E..X'.L.b.c.U.).y.1./ m 7 X.&X-XU.c.3Xs.M x r A %.=...} >.N.d.V w.B.J.D.;.' L.R.L.N.} R ` %.s.s.m.m.m.N.N.m.h.s.h.b.N.N.N.b.j.b.h.b.h.b.J.b.h.h.h.h.h.h.h.h.h.h.h.y.N.J.N.8.` <.).y.=.Y Q s.W.>X<XW.l.[ f.G.H.d.;.h.D.N.m.L.i.n.d.b.h.a.s.d.h.b.J.y.8.s.<.1 9 1.{.h.{ 8.c.[ S y.U.J.Z Y d.i.y.B.h.y.N.B.` r  .L.A / b.b.w.[ g A  ...w.w...h.N.B.D.d.d.n.D.W.W.b.B.%.G ..m.@X Xd.S Y y.%.;.U.).w.b s X.;.D.y.<.`  .;.a.y.i.s.w.d.N.y.1.d.D.h.i.c.i.S b z p f Y %.S b V X.h. .X.Y.&X'.s.c.b.N.c.h.c.h.a.w.d.w.I I >.X.g  .=Xh.` Z S >.a.h.w./ d.Y...m M s I +X5XE.L.n.s.r.c.n.s.Y 2 3 2 2 3 $ + g u p.J.M.m.s.r.1.1.c.r.{ u M g I ' c.D.=.D ..8.c.S / D.d.d.y.B @.0.c u.X.4 a :.U.v.s.m.).L.Y..XY.B.).}.h.%.h.).J.B.B.L.r.8.c.i.s.{ m.&XL.' ' L.B.=.Y p Y E.E...1.-.@.p.i.p.i.i.r.i.i.i.r.1.w.i.r.i.1.8.p.s.0.0.d.2.B i K < < B h M B 4 @.s.l.L.u.Q h :.",
"4 u ..P.v.B.v.0.} V.B.] g g K 1.c.C A U t..X}.i.U B c.L.p.B.n.U.L.M.M.B.B.B.B.M.M.M.M.B.M.M.B.B.M.v.M.M.c.=.E.;X&X'.=.Y.3X&Xv.M.'.c.L.Y..X3X+X,X'.'.-.7 w.s.D.B.W.d.m.J.B.B.B.m.m.m.B.B.B.N.m.n.B.B.L.p.n.D.n.s.E.s.Q E.<X{.D.M s.s.;.c.).c.s.m.J.L.G ..c.v.E.B.J.m.c.h.d.n.m.s.d.Y.).B.8.1 $ I Y.c.h.B.1.G 1.D.}.|.U.B.m.c.s.%.M r.c./ g A =.' A D.D.g u p g / %.Y N z N ` 1.c.d.b.D.b.=.h.$XE.L.E.J.r.A G c.J.B.N.b.c.h.h.h.c.h.j.b.N.b.b.h.h.h.b.h.b.J.N.h.h.y.f.h.h.h.h.h.h.h.N.N.N.D.;.%.[.}.J.Y.h.d.}.=X+Xr.f.( 9 D.W.z.I.D.N.h.w.1.b.d.h.d.h.h.d.d.d.s.s.m.a.h.c.d.N r X. . .m.R.h.f `  X1.%.%.G 7 > b ;.B.J.a.Z 6 r 8.E.9.c.n.` 8.Q.:.<.4XL.>X3XB.J.L.Y.N.a.D. XJ.1.1.s.d.[ Z G Q =.h.Y f b d.J.W.$X@X&X>.W Y =.).h.J.b.).B.s.8.y.c.a.y.c.s.8.w.d.h.d.c.I 3 u % $ Q W.R.W.W R <.R.Y.B.).3XW.a.D.m.c.b.m.b.n.s.w.a.} p z n.s...U.).y.Y 7 V a.i.w.d.N.$Xh.G S =.c..X-XU.G.s.r.y.s.s.r.s.;.S 9 3 7 i Y R 3 s r.v.r.r.r.r.r.r.s.n.i.u M I Y ..d.s.1.;.=.` p.d.r.d.{ o.8.u.:.u.;.y.K p N y.8.z %.E.}.{.$X).h.c.E.c.%.w.Y.Y.c.s.3XW.{ B..Xs.c.W.}.J.s.' d.).' m 3 C s.c.' ' L.,...1.,.r.1.i.p.c.s.i.1.-.4.i.1.1.i.p.1.8.y.r.:.{ T q a 0 i C g K T M { A { 1.=.H B v.",
"u g ..L.V.L.c.=.,.n.c.v.c.n.i.s...Q c.c.|.&XB.k.@.V p.L.l.B.l.V.L.M.L.P.B.M.B.M.v.v.v.B.L.V.B.B.M.n.v.L.v.B.E.,X,X;XM.E.}.L.r.r...Q r.D.L.).E.{.'.,Xv.>.,XE.d.n.B.h.L.J.h.B.J.c.c.m.B.B.B.B.m.n.d.B.B.n.B.B.8.y.n.I X.E.d.B.U.%.1.Y.U.m.s.s.J.U.D.w.u 2 ` M.B.d.B.m.c.h.c.D.J.B.r.{ p.n.c./ A i.D.B.h.d.=.G -.Y.&X{.n.s.h.m.h.} M ;.L.s.1...1.Y A c.m 9 g I c.L.' z p p f f W W.J.m.B.J.s.E.).J.L.J.h.h.$.r.Y.h.J.N.h.s.a.h.c.B.h.h.f.f.h.h.b.h.h.h.h.b.J.N.h.a.a.h.N.b.h.h.h.h.h.N.h.a.N.h.h.>Xh.N.I..X@X$X XX.{ d.x u F.y.Y I b.J./ u V ` w.I.n.d.d.c.c.c.h.h.r.d.b.N.c.Z 7 I S N N.Y. .7 G Y 9 b d.` N r = R <.1.G + 1 N d.L.s.{ =.d.d.S g L.c.G h..XB.c.i.N.1.I.<X.Xs.y.m.N.h.R A V s 3 N b b r ' R w.+Xh.r.[ V f w.=XI.N.c.c.i.h.D.D.N.B.R.d.h.y.8.i.h.b.b.` [ m N Z b r.B.s.p z y.d.w.m.4X$X;.A r.N.m.d.a.>.s.a.a.d. .G %.b.s.U.=Xc.y.} ` s.U.D.h.N.N.L.X.S B.{.3X4XB.r.y.8.r.s.s.d.D.n./ u s.s.m p %.m.d.;.c.s.1.w.y.s.c.d.r.B.{ 9 Y E.U.c.{.W.n.=.M 2 S D ) u.u.' / l.u.8.s.f.u.D.D.U.s.r.v.}.E.'.$Xh.>.r.c.>.I ' i.m.B.i.p.V u w.%.I }.'.L.h.>.} i.d.;.M & { P.) p X.n.Y.s.v.p.p.1.1.r.r.>.,.1.,.r.i.r.-.r.i.,.,.y.0.' @.1.1.{ T T h T T 1.G.r.K 1.1.p.s.V.'.",
"2 ..Y.E.s.v.V.E.E.L.M.;X,XT...Q c.c.B.'.'.i.c.v.:.K :.V.n.n.n.B.L.M.L.L.c.c.B.V.V.B.B.B.V.B.M.M.L.B.v.B.c.M.p.Y.L.Y.Y.E.v.c.v.M.I V ;.h.i.d.c.B.).L.L.Y.i.Q ..W.Y.B.{.+XW.Y.B.h.c.c.m.B.B.B.m.n.B.D.s.L.U.n.Q ..s.r.E.W.L.n.s.B.&X|.$X.XY.L.c.' =.>.R u s / d.L.s.c.c.n.B.B.B.n.m...Q w...m i.r.X.h.m.c.%.m { |.;XU.d.c.d.i.m.B.X.Q :.@./ A d.B.E.{ I ;./ c.&Xr.` ` .. .>.;./ X.s.d.b.B.h.L.b.m.E.J.>.i.h.)..XN.m.c.h.h.c.m.b.c.J.b.h.h.b.N.b.h.a.h.h.h.N.b.a.y.h.N.J.N.j.h.h.h.a.h.a.h.N.b.N.I.=.w.c.).).E.d.9 Y [ x I ( S S D A I.Q p ` N W y. XD.h.c.d.s.d.s.b.h.w.c.h.b G i.>.X.b.8.u g 8.8.m b d.a.w.<.G m r . & s N Y r.;.<.s.c.d.X.M G <.m V D.E.c.h.>.w.I h.'.h.;.c.R.d.<.p r s / Q b V p W d.c.B.D.G > p s G m.W.h. .w.s.1.w.N.D.N.D.D.m.a.w.h.L.D.c.n.N.I.[ D.1.I N.Q / s.A <.r.w.W.[.D.[ A w.c.b.b.c.y.N.D.J.J.8.1.J.;XD.h.W.I.X.V %.1.%.a.d.n.N.Y.E.c.-X<X.Xn.y.c.1.8.i.r.s.n.{.d.3 7 =.>.Y A ` n..X{.B.r.i.m.h.w.y.D.D.r.z m =.).'..X=X.XU.y...m I B B :.n.n.n.;.n.D.0.l.D.u.;.S u.B.8.B.).$XE...1.d.d.i.>...>.i.h.>.A 9 g A M ..&XJ.=.} ;.B.'.E.s.' B I T g c =.s.Q g U } 4.1.1.1.r.>.1.i.r.1.,.>.i.,.i.s.1.} Q Q A ' P..Xp...I { v..XB.0.1.p.c.1.L.#Xr.",
"u p.L.c.l.E.M.k.B.M.V.'.v...' p.&XT.6.,Xc.V v.r.,.=.0.n.c.n.P.G.B.B.M.c.p.c.V.L.Y.B.M.B.B.M.B.L.L.v.L.v.M.c.i.v.B.p.p.c.i.c.c.,.r.=.h.m.y.i.c.m.E.c.y.i.=.1.1.L.,X&X-X}.'..XU.c.c.c.m.m.N.m.m.n.B.D.d.U.B...> m U.U.r.1.L.B.n.L.s.Y `  .%.m.n.>.' B.I V >.G X.b.B.L.D.m.m.c.c.m.v.w.c.%.G 1.}.J.R r.c.L.d.Y Q {.'.J.v.D.m.c.B.s.1.y.'.s.S u y.B.s.B.L.c.D.E.U.{ %.d.D.N.R.E.y.%.;.d.N.h.h.J.D.J.).L.=.h.J.[..X'.m.c.h.h.c.N.N.m.b.h.h.b.J.J.N.h.a.h.h.h.b.h.a.y.h.b.N.b.h.h.h.h.b.a.a.J.b.y.h.b.<.%.h.d.a.N.<.I g A S Z M { o.9.p ..N Z %.} y.X.B.r.y.b.h.i.a.y.N.B.y.c.c.` y.J.h.N.m.h.w.b.b.h.a.' <.B.d.B. X<.[ A f Z N z z 9 ` [ { f.n.s.f.X.X.w.).N.a.s.y.h.%.1.N.I.c.d.N.B. .g f N B.@X<.X.X.w.8.L.1.s g Z W [ i.B.w.w.;.W.}.a.' %.d.W.[.c.s.b.b.h.N.N.c.h.X.Y N  .` y.a.b 8.=Xh. .A i.$X[.I.d.=.d.h.c.d.y.d.N.c.c.w.G b Z N N Q R.L.G G ` A G w.>.<.h.m.c.D.W..Xc.8.r.;.y.d.r.y.M...S m 2 z g g } p.L..XY.J.y.w.s.c.i.r.D.s.;.m u S m..XE.W.I.M.D.U.~.r...S N { n.;./ [ l./ u.n.r.B B N 8.A I h.'.W.y.Q 1.s.>.,.y.y.s.s.8.R A A G %.E.&XE.L.s.i.J.B.B.E.Q u c u 4 9 K r.c...i u I r.s.i.,.s.1.1.r.r.r.i.i.c.c.B.c.' m m m I -.:.s...A ' l.#X~.T C ..=.p.:.XX&X' ",
"} B.Y.v.p.v.n.'.!.c.1.1.v.L..X3X3X3X|.2Xp.1.Y.] { 1.c.V.V.V.G.n.v.B.M.c.V.E.P.V.B.M.M.B.B.M.V.E.M.c.B.M.B.B.M.B.v.c.v.v.c.M.B.v.M.s.n.v.y.p.c.c.B.i.V 7 ..E.Y.B.'.+X'.h.c.U.m.h.m.m.m.n.n.n.n.n.c.B.B.D.n.m X p { ;.{ r.r.d.R.U.n.I b > G &X}.c.E.J.' S Y.c.S ` c.J.B.c.c.h.h.J.r.}.c.8..X).n.=.%.m.m.L.D.%.I D.L.B.h.h.s.m.D.1.Q y.E.d.;...d.y.;.5XD.1.W.n.L.r.` i.m.N.B.D.R.R.B.J.I.D.D.I.).B.s.Q u a.Y.).L.m.c.h.h.h.h.b.N.B.f.h.h.b.J.J.N.h.a.b.b.h.b.h.a.a.h.b.b.h.h.h.h.h.b.h.a.N.b.e.h.N.<.=.d.u.r.c.a.s.m z z M f.I.D.Q.c.X.p 6 W 1.i.m N b } b.m.c.m.b.i.s.d.d.h.8.s.8.1.c.d.i.h.E.'..X>X).w.s.J.m.<.%.} <.m g G X.' X...Y G =.c.L.+X<X3X}.$XJ.s.1.r.s.w.h.R.E.c.d.h.y.p 3 g [ m.N.W / a.N.a.a.` I ..>.d.r.B.n.B.'.'.$X$X'.D.d.} R ' G Q s.D.d.s.B.m.y.Q r 3 b s.w.b h.N.Z S s Y R.{.-XY.r.R 1.B.D.w.%.J.B.s.i. .m g p W w.D.L.S 3 w.[. XY. X).W.J.y.I W n.E.1.r.c.1.p.d.r.d.B.p O = g u ..Q 1.$X&X).U.r.1.s.s.s.s.s.Y.s.Y 7 g A =.D.n.d.E.E.D.n.n.=.=.X.[ y.-Xn.;.n.;.X.=X-XU.@.8.0.[ r.d.'.).B.s.,.r.r.r.y.s.r.w.i.s.{ G I s..X&XU.w.Q Q / ../ 8.i.A p i I 0.d.G.'.l...u u m ..-.i.v.-.-.1.i.s.M.m.i...-.1.Q u g Q U ' k.) I I h C r.t...Q T ..s.p.n.G.:.c ",
"U T.&XB.s..X;X].V.T..X}.,X,X;XP.E.v.c.s.=.V.-...@.-.r.r.k.n.n.P.c.L.B.B..X*X!.v.M.M.V.Y.L.M.M.V.v.M.v.Y.s.Y.v.B.v.M.M.s.M.m.s.c.c.s.v.v.c.v.M.M.Y.1.A 7 g ' v.v.s.n.M.h.c.i.1.B.D.B.m.n.c.c.n.b.n.n.D.c.W.I 2 M u M M / p I =.s.1.A r.d.B.E.w.Y.3X,X$X}.c.=.c.} Q ;.y.h.m.h.s.B.J.8.>.B.+X1.V I i.+XE.n.s.X.G h.8.,.s.L.c.i.h.w.Y =.d.L.E.r.r.s..Xc.I d.c.d.L.' N <.h.m.b.J.=X;X=XB.b.B.D.b.D...r X o m.E.J.c.h.w.i.c.N.m.c.h.h.h.b.b.b.b.h.h.h.h.N.N.b.N.b.h.h.h.h.h.h.h.h.h.h.y.b.a.b.J.a.a.f.1.a.r.f.8.[ { / s.Q ' s.D.c =.c.X. .s 7 E.>Xw.Q p p [ b.h.y.d.h.D.<.y.a.h.y.w.1.).J.m.N.W.$XB.Y W Z ;.s.r.1.s Y V G g ' %.D.B.n.b.d.d.d.D.B.d.J.s.8.B.J.c.y.N.h.c.D.W.I.b.N.h.=.m z [  XE.Q * g D.m.Y.8.` D.h.b.8.d.=X.X>X$X[.d.d.D.W.N.f   $ 6 r / r.B.).).m.8.} r r 1.s.S w.R.%.Z Q f s.@XE.R.%.` G a.D.h.h.}.W.N.<.[ b r S I R.-X Xa.S A } .XE.Y G I.3XY.h.=.{ s.n.v.8.8.c.8.8.s.s.8.p g M 9 =.r.r.[.;XL.m.s.i.i.c.i.i.d.=.{ p u p I y.S ..c.n.{.U.s.r.0./ =.U.W.<X[.d.;.u.n.~.l.l.:.8.n.y.y.B.L..X}.c.,.-.y.1.s.i.w.w.8.r.n.} S i.<X'.h.i.' m I I p 3 ' m Q Q S ) D.W.G.L.p.m g U A 7 = A s.=.i.B.L.L.B.>.k 2 = * = $ m r.v.c.s...g 8 m B -.I E =.1.T r.0.s.r.i g ",
"E M.Y.r.p.|.`.'.A.,X3X:X&X/.M.B.v.,.r.B.g 7 Q L...H I @.L.s.l.l.u V I g U A.|.Y.M.'.L.E.B.s.Y.L.s.E.J.v.E.Y.M.B.v.v.v.v.v.c.c.v.v.M.M.v.M.B.B.B.L.i.V ,.c.v.L.L.N.;.%.s.s.;.r.E.N.b.v.c.s.c.B.v.B.n.d.B.U./ 2 / 8.Q g z 9 p p / V g m.).s.I 7 L.&XW.c.s.} r.L.L.` s r.B.N.r.D.B.c.B.U.E.L.a.%.[ c.E.J.B.E.y.b >.} g r.B.c.h.d.B.d.c.B.y.} X.s.D.y.m z / { n.U...G D. Xc.c.h.y.'. Xc.N.N.y.R 3 r * $ G [.J.Y.J.a.h.h.h.c.c.h.h.c.h.b.b.h.h.b.N.b.a.h.b.h.j.N.b.h.b.b.b.h.h.h.h.b.h.h.h.a.J.a.a.D.N.d.d.d.[ f p 9 G A L.+X;.' n.X.Z h.I.D.)..XR.h.i./ =.Y.r.8.d.b.b.h.i.s.c.i.a.I.;XD.w.J.I. .b 1 6 b b z <.d.N.R.b.w.1.D.8.N h.h.u.U.c.d.n.B.{ p N g R.;XN.i.c.h.c.h.a.w.;.s.<.%.` m W J.).D.' r ;.y.` <.y.w.r.y.b.L.>.X.i.I.d.a.h.;.L...3 8.>.V f V 7 7 G ..N b & u / h.L.m.>X$XJ.W.w.m.[.I.R.N.p Q a.B.).I.i.R.y.d.1.G 1 V V w.3Xh.i.c.D.w.w.h.I f b b.).N.>.a.d.L.c.U.s.1.s.y.;.G.8.m g z g M ;.n.L.&XE.m.J.L.c.h.s.8.n.=.u + = m C ,.{.8.n.=.;.L.s.Q ' ;.{ Q G.4X8.[ @.[ n.d./ 4 a a { u.f.n.r.c.E.L.D.n.1.y.s.y.8.r.8.1.y.y.I ..B.Y.n.r.} ` ' c.J.I m ` m M C 8.1.'.&XB.{ g g ..,Xi.u i 7 V Q =.p.Q r.c.A = A g i V R s.,X|.E.-...I g V I ,.].E.2.I i I c.}.v.T u ",
"c.*X|.=.=.;X,X}..XOX'.L.L.M.c.M.c.k.v.M.s.M.E.E.=.G.].L.E.l.{ 7 = i I B 2 U ].E.|.v.B.E.v.L.E.G.E.E.E.E.v.i.v.s.M.v.M.M.n.c.c.v.m.M.M.M.M.B.B.B.v.c.1..X|.l.v.B.m.b.c.c.n.M.m.c.b.d.c.B.B.M.B.D.d.B.D.n.c.' p / / c.B.I m c g g g ` L.{ G Q A { =.g 2 u A r.D.c.r.` c.B.B.m.m.h.B.N.B.D.L.U.W.{.&X.XY.B.L.w.g 1.h.' V n.v.B.L.m.n.c.n.8.' -.B.'.{.{ Q y.s.D.{.c.8.Y.w.;.W.N.%.h.m.c.d.a.;.Z 9 u 3 ..Y..XL.m.h.c.c.s.r.r.g.m.m.m.h.h.h.h.h.b.b.h.h.h.h.h.h.b.N.b.h.h.h.h.h.h.h.h.a.b.b.J.I.b.J.D.b.f.B.c.S 6 9 m z S 8.{.{ Y I.n.R.<X3X=X'.c.s.L.).h.c.D.i.h.N.y.w.h.b.h.s.w.s.W.J.n.r.[.d.r b b [ r.d.%.y.m.b.<.b } b.B.c.;.r.B.N.9.[ a.h.d.X.X.` ' $XW.h.r.c.r.d.r.8.../ X.W b 2 9 N >.b.E.8.z b / =.).L.b.c.y.b.8.S s ..J.i.i.h.b.a.G u R / ` Q b 9 7 & * X * p G <.y.J.$X$Xs.m.d.<.J.Y.L.@XN.I ..W.[.D.B.i.;.%.a.i.R b N / R.m.9 z >.s.w.s.c.X.).I.<.%.%.} 8.s.B.c.c.8.0.y.c.d.s.1.z 9 S S A G n.1.s.L.Y.'.E.c.p.1.s.%.g 3 M S u m n.E.8.;.X.y.B.Q I 8.{ M S  X0.a a z S @.:.u.W.=.p N n.:.;.X.n.W.L.D.B.d.c.1.p.y.s.d.d.d.8.I } r.y.r.1.' I b g g r Y Q u g m :.B..Xn.T q g m E.v.A ..,.g 7 g V u O 7 g = m i ' L.,X}.L.L.r.c.U ..s.Q A i ..r.U 2 8 g } M.M.! H C ",
"x.`.`.c.s.'.`.A.T.B.c.c.c.x.s.c.x.x.A.M.'.B.T.'.G.p.1.' U E K 4 7 m u m 7 g T..Xv.'.E.M.M.V.!.|.}.1.1.v.A 7 2.v.M.v.v.M.M.v.v.M.n.M.B.M.M.B.M.M.M.v.s.E.:.m ..Y.D.U.Y.D.c.s.c.D.B.B.J.D.m.c.c.c.n.D.B.s.d.r.' / 1.d.W.-.=.Q { ' / 1.}.s.n.L.Y.h.8.m b m ' B.Y.h.B.h.L.h.y.m.B.U.B.m.c.c.c.c.B.L.E.E.h...A r $ Q s.c.1.Q m.N.m.m./ p u.=.m d.U.c.r.d.L.n.i.E.&X8. .W.J.D.J.;.1.R.J.i.N.R.8.=.8.V R m.[.J.m.h.g.g.e.y.h.m.C.C.m.h.h.b.h.h.b.N.N.h.h.h.h.h.h.b.j.h.a.h.h.h.h.h.j.h.h.h.N.J.[ n %.h.n.l.D.u.Z M p z ..s.c.D.N ' D.B.,X&Xb.%.w.c.h.m.b.J. XY.a.w.d.w.r.d.h.d.h.d.d.b.a.b.b.I.<.Q 8.X.;.d.B.>.8.N.h.V 9 R i.B. X@X XQ.D.u.8.B.n.U.8.w.Q 8.E.a.J.R Z e.w.=.<.Z 9 Y  .f g X.B.'.N.a.X.` G r.J.I.R <.R.B.a.h.N.X.>.s.8.N.d.c./ s z b [ ;.p s S G f b g N s Z b.W d.<XX.` b.n.i.D.L.R.[.w.8.s.D.=.R  .=.a.;.[ %.A M R m.R.b X r ..y.d.N.N.;X=Xy.[ r.R b y.c.L.L.c.p.c.r.c.c.s.s.S z { ;.n.c.h.S s.+XL.J.h.1.=.i.=.2 = A I g Y ..n.{ X.y.' ' I 9 Y ' p g m [ ) 4 4 9 N ) D.<X{.u.[ :.y.y.y.L..X+X{.U.c.s.y.y.c.r.1.y.d.d.1.Q ` } ..w.r.I u u ' %.Y 1.>.>.r.0.d.P.p.p 4 q m A -.A i -.s.....Q 4 i g 7 i 7 A s.;X}.B.v...~ 1.1.Q E 1.'.Y.I =.1.U i B A I s.s.I -.k.",
"1.x.E.&XE.L.c.M.6.i.v.B.M.c.M.M.B.v.T.A.V.,.M.|...8 8 q u =.0.q h A 7 m A A ,.] A P.-.I } 2..X].' $ X m 7 g B.L.v.v.v.v.M.M.M.B.M.B.B.M.M.M.M.v.Y.Y.Y.E.=.m =.Y.m.n.B.E.Y.m.d.c.J.L.B.c.b.B.c.s.B.n.h.d.m.L.v.w.B.p.c.X.s.=.y.D.y.h.'.U.n.r.'.;X8.` m.Y.{..XL.i.c.E.J.m.p.c.n.J.s.d.n.m.n.h.s.i.h.h.V & X $ 3 G h.B.U.s...B.B.} p z X./ ;.n.d.L.y.r.s.L.W.D.1.3  .c.E.I.8. .y.b.D.J.J.c.h.c.c.b.)./.Y.c.r.s.s.1.s.c.N.b.h.h.m.B.h.b.b.b.N.N.b.h.h.h.b.j.b.b.h.a.a.h.h.h.h.b.b.b.j.y.b.w.f z ;.J.L.D.u.;.@.D. .( a.w.Q.=Xi.i.8.R.=X'.X.p ` D.B.i.J.N.J.b.h.8.a.s.h.d.i.s.b.b.a.w.i.w.h.%.N >.i.%.). X'.i.a.B.c.W >.i.h.D.r.w.E.w.A =.d.c.w.n.[ =.<.y.8.S Q * 3 c.<.f N s 9 Y i.%.b.R.)..XI.h.1.w.` y.i.1.m w.B.} d.a.d.1.J.B.X.G / s > g ;.D.$Xw.u y.J.b.%.N z S / L.n.;.I.<.g V ;.w.' <.R.).E.b.s.h.d.Y m ` 1.Y.y.Y m z %.J.<XL.b z z ` 8.8.b.).[.h./  .J.Y r >.s.~.W.c.d.c.s.n.G.U.1.g p m A s.Y.' V E.,XB.B.h.>.y.s.3 r b U g { r.C A $ f 8.m m u g Q A u S Y n.I.B K S Z ;.-X[.W.U.u.8.{ d.G.&X{.D.U.D.8.0.r.r.d.8.1.s.s.;.Q ` I Y ' ;.%.A M ` U.U.>.U.Y.Y.s.B.U.p.I K I K 1.v.p.=.k U v.v.J.-.A g m g V m ,.,XL.C.B.$.I $.g...g i ' }.! m s.'..XL.1.A U s.} I p.P.",
">.g.m.M.r.s.g.s.p.m.L.C.c.M.A.A.A.M.A.v.s.v.E.E.K 0 K =.1.B.t.m h I =.r.-.t.i.i * B 7 7 B ,.M.B $ = 7 A u m v.B.M.v.v.n.M.M.M.B.B.G.V.B.B.B.B.M.c.M.M.B.p.=.p.v.h.J.E.Y.J.B.D.J.J.J.m.B.Y.I.J.I.B.c.c.D.B.L.E.U.s.L.U.;.y.i.y.B.v.{.'.r.V m 1.s.G g X.r.Y.+X{.).E.$Xy.d.h.d.n.c.s.h.n.m.n.n.n.m.J.s.& = u m G u =.s.i.J.' m Q 7 z m g M Q M ;.L.y.c.B.n.8./ n.Q.).I. X[.N.b.n.B.<.;.W.m.X.;.;.d.).).m.c.>.i.r.s.h.m.B.c.a.a.h.b.a.h.b.j.h.h.h.h.h.h.b.b.b.b.h.a.a.h.h.a.h.h.h.h.b.f.b.G t f.).D.n.d.8.z.U.U.T { '.L.$X XN.h.h.&XL.I.h...;.s.s.J.L.D.Y.I.I.y.i.h.h.h.c.h.s.a.d.h.J.y.b.y.N X.N.[.&X.XL.w.d.b.D.B.). X'.'.c.D. Xw.( u.B.c.r.;.z =.b.a.y.R 1 3 A ` b r p s ;.I.'.I.J.I.m.n.h.h.8.;.;.i.y.c.8.c.w.R i.D.B.h.m.;. .G 9 9 ` y.J.$X3Xy.' ).w.w.D.Q G X.d.L.../ =.3 & s Z Z z ;.'.E.m.a.d.1.d...I a.J.h.=.%.A ` {.&XL.b.>.%.G y.h.X.m.E.I.I.>.Z ;.i.1. .Q n.D.B.L.n.D.c.8...2 = g I 1.L.r.8.B.'.B.i.d.s.>.r..XA 9 g G V y.X.p I g * I Y m M A Z S A A 8.<XU.S S T u.n.0.y.U.@.) { 9.0.W.).D.y.c.s.;.r.y.r.r.;.1.y.r.=.Y ` m m A m u g } w...A ' U.r.D.+XL.1.l.E.l.l.|.E.p.).p.Q s.L.-.1.1.} Q Q I U m Q g.c.v.=.F } s.i...g V *.1.g =.c.A.c.x.Y.s.6.M.-.I =.0.",
"s.L.c.c.s.A.Y.B.m.A.A.c.c.C.C.M.B.M.v.B.k.E.E.c.' ) 0.p.c.s.1.l...1.B.L.Y.P.c.i.A i 7 u ' 1.m O 2 7 g I I I ,.B.B.M.v.M.M.M.M.M.M.B.B.n.n.M.M.M.v.L.B.c.s.2.B.|.L.Y.E.U.B.h.i.r.r.c.B.U.b.X.;.E.E.B.n.L.B.n.D.d.' S 8.n.;.=.1...).'.1.A m ..w.Y V ' y.,.h.W.v.;.E.+Xw.s.c.s.M.m.m.B.B.n.h.h.c.c.L.d.2 V ' I ..` s.B.c.h.Y.I 7 3 g g n.B.y.d.L.c...B.n.1.s.y.E.c.h.h.R.E.J.8...Y.X.r h.r.1 g G b y.E.h.s.y.b.1.N.s.c.N.N.N.N.h.i.a.h.b.b.h.h.h.b.b.h.h.h.h.h.h.h.b.h.h.h.h.h.h.h.h.D.J.r 1 e.[.R.c.o.X.F.l.Q u u.<X4XJ.G z S J.W.a.h.b.r.d.b.a.R.8.c.).).J.y.w.w.c.h.h.d.i.h.c.i.B.b.i.N.V m N..Xs.[ A G y.b.I. XY.Y.h.' %.}.W.D.B.D.d.h.W.Q.8.D.i.b.J.h.` Q V 6 p ` / ` U.D...8.L.D.b.m.1.%.>.b.N.B.h.d.y.d.s.d.s.D.d.J.}.E. XJ.h.s.N.J. X Xr.f ;.N.z b N.h.I.@X.Xs.b.d.s. .z m f r p R =.h.h.` i.i.a. .<.'.J.=.a.J.J.@X-XN./ %.r...Q h.X.` R.c.h.d.d.h.E.'.y.f p Q A Q y.c.E.s.* $ $ Z Q ..r.A R B.&Xh.=.%.=.1.=.m.c.A Q ' u R 1.' 1.d.s.I g I m p S c z A Q n.'.:.z z @.~.r.8.'.9.z a ) u.n.U.d.n.c.s.;.1.u.r.y.1.=.1.r.y.u.X.G 9 g Y G A ` d.>.i.%.G Q A ` / 8 g s.E.1.' -.m I E.,.,.;X}.v.p.c...1.s.1.r...g i.}.i.i R c.c.m.`.E i c.p.g A r.}.p.p.A.r.' =.,.s.s.p.",
"1.M.g.B.Z.A.B.m.c.A.B.c.C.C.m.m.B.A.B.T.L.L.v.v.C K 2.+.r.B.L.U.1.v.v.s.L.s...L.k.! V g Q Q 8 7 V V A A A m A p.B.m.c.v.M.B.M.M.M.M.n.c.c.v.M.v.s.B.L.M.c.Q ' c.v.c.h.c.B.s.Q 3 9 m A A r . & R L.D.c.n.n.c.c...1.z =.E.c.s.B.s.).1.p 3 Y -.c.h.L.'.B.y.w.>.` { s.L.s.s.c.n.h.c.n.B.D.m.c.c.B.B.B.c.A ' =.` ;.J.c.[ 1.D.c.Y.I 7 S ;.Y.X.L.-X+X<X,X+Xi.1.E.s.B.0.y.y.h.J.D.%. .J.<./ W 1 . 3 7 Y E.[.c.h.b.N.1.r.b.m.c.g.h.N.N.c.h.h.h.h.b.b.b.N.b.h.d.f.h.h.b.b.b.b.h.h.h.b.b.h.e.I.b.1 3 Q E.R.d.S N [ D p ( I.8.:.N 7 f f h.B.D.B.d.X.s.R.h.b.d.y.r.i.y.d.a.w.N.c.s.y.h.I.a.Z N.I.a.D.V f 1.r.X.b z / d.J.'.'.J.@X=XB.w.D.;.' S T %.d.+X+XW.U.y.D.h.h.c.` g ` B.>.;.W..XX.r X.R.1. .y.8.y.J.>X'.h.d.B.).}.[.).W.}.Y.{. X).R.b.$X$XR.Y.Y.c.' A %.8.` Q 8.r.W.$X'. XR.@X.X<.[ r N V N b S w.D.8.r.N.b.w.E.$Xa.%.y.y.L.D.Q p 2 g <.I S X.m ..R.s.i...1.U.b.<.} [ s.r.Y 9 p p M 9 2 3 z I M =.L.=.m =.h.>.;.;.i.i.%.s.s.;./ Q ` y.U.r.c.8.s.s.A 3 m p I I Y 8.D.{.~.( 9 z X./ N {.=X0.=.z N :.Q.n.@.0.c.8.X.0.d.y.1.:.y.n.d.c.l.' u u ..n.c.B.E.).1.r.D..X).>...>.y.0.W.=.7 I l.) A Y...V %.c.E.r.p.0.' U 0.d.i.v.r.I Q =.1.i.r.i.1.6...k.c.p.r.'.|.'.B.Q d | c.B.].P.L.",
",.E.B.B.B.B.B.B.B.T.A.B.Y.M.x.A.s.B.M.c.L.M.s.V.:.4 ..c.G.G.L.0.A t.T.L.V.B.c.M.,.m h I V m A A m A I A 1.Y.i.r.v.c.s.c.M.B.B.B.B.B.M.v.v.M.B.B.L.B.B.L.L.V 2 V ..D.J.` M Q I 3 s b r 2 u u s G =.n.B.c.s.d.n.X.;.n.s.Q i.D.B.Y.r.' ` ` ..m w.3Xc./ g s.L.{ R }.E.v.>.U %.m.c.B.m.B.B.d.i.s.h.c.M.c.X.i.L.8.b g g M s.E.B.s.n.1.A =.g z d.8.'.L.U.d.I I s.=.E.,X XE.D.Y.a...s.D.s.b.%.r p V G a.&Xm.i.s.i.y.y.>.w.h.B.m.c.c.h.s.h.h.h.h.h.b.b.b.h.a.a.h.j.b.h.h.a.h.h.h.h.b.b.h.h.@Xw.+ p W b.G / q a D q z ( a 3 9 u g %.b.'.U.B.b.d...w.J.s.J.h.y.r.c.8.r.a.h.b.m.c.a.N.W.;.+ ;.8.8.b.S N } 8.G g ` r.d.b.[.W.J.b.w.<.N A A * 4 S U.<X'...' Y w.d.e.e.s.A I B.r.9 s 1.=.<.;. .R Z R w.i.Y.[.).m.Q <.I.W.<.>.a.R.).[.$X X@XE.R.$XW.h.'.R.h.w.;.Q 3 Q n.R.Y. X'.Y.}.<.G ' m G  .` 1.s.L.[.L.h.D.b.w.h.h.N.J.a.s.8.1.8.b * 3 r / ;.z S y.d.R.B.w.y.y.w.;.Q =.r.r...y.U.1.S q 9 7 7 A / c p =.B.y.d.s.D.J.i.>.B.=.s.c.y.h.i.A 1.+XW.y.y.c.d.y.{ M c Q A I B.<X<X-X-Xn.1.8.r.:.l.=XG.0...K K d.c.U.l.d.D.d.1.d.u.y.f.u.l.c.0.l.n./ i / '.&Xc.h.c.r.u %.U.L.s.n.'.&X.X.XW.M V =.1.p.-.L.,.I } =.....-.;.c.p.r.,.n.E.,.U >.m.s.s.s.c.c.v.'.v.p.A.M.Y.|.B.s.' Q s.v.B.c.r.r.",
"1.L.c.P.v.L.B.B.c.s.v.V.M.v.B.Y.v.M.L.B.B.v.c.E.v.h A E.;XL.E.i.m s.L.;.n.L.v.p.B.s.I ' A ,.E.V m A i A B.,X3X;XL.E.L.B.Y.L.v.L.M.B.B.J.J.J.B.B.B.m.B.m.' g u W s.B.Y.c.A 1 u m ' z I c.} m h.G A B.L.s.c.D.c.} L.L.i.;.s.N.h.r.=.B.c.=.8.X.;.1.z p m c.n./ y..Xn.c.I / d.s.c.B.c.M.c.c.s.D.c.L.b.D.B.y.f.;...D r.n.L.N.f.r.I.c.{ 1.y.X...w.E.l.p.m p :.X.y.p.L.D.U.B.y.J.W.N.I.h.c.N. .u b ` =. .<.I.N.h.w.w.y.h.h.d.a.y.a.d.b.m.c.h.h.h.a.i.g.s.c.m.c.c.m.c.h.h.h.d.a.a.d.b.N.j.W.w.> z ( W 1 9 > 9 z N r x t z G N X.y.9.N.@XY.c.R ` h.h.h.b.' W w.8.h.s.N.h.b.h.a.c.m.L.W + / X.N.w.p u %.D.f.[ E.a.c.U.E.[ G f.' / X.` S ' r.E.c.9.n.S u =.D.N.:.d.c.;.W.a.%.N G R G 6 X.8.Q A ..1.I.&XW.' ..z 3 S r.N [ b I N.=XL.h.h.y.N.c.y.r.c.d.B.<.m S m.b.N.>...).R.).r.b g r 9  .c.d.n.W.'.b.R.$Xb.b.N.h.h.w.s.r.w. .y. .6 p S b Q ;.D { n.+XU.;.n.n.1. .K D A ` Z Q >.h.N.4XN.W Y Z  .Q g ' h./ w.b.s.E.E.i.r.s.i.i.h.y.i.y.>.c..Xc.I D.y.y.n.d.8.=.A I d..X,X&XW. XD.E.{.W.{.-XW.{ / S a a T @.=.Y B.B.;.;.n.y.y.p.c.s.s.d.n.B.=.m E.E.B.{ y.D.%.m ..B.w.} s.m.n.D.B.n.8.E.L.1.8. .}.} ' i.} r $ i.E.i.s.s.r.m.1.-.L.M.p.s.s.s.c.M.i.M.r.L.,XL..X.XM.c.E.L.T 7 Q Q H c ",
"2.V.M.L.L.M.M.V.v.M.L.B.c.c.v.v.M.v.L.L.B.M.v.L.p.B A !.3Xv.1.B.s.Y.-.} B.s.v.M.v.L...} 1.v.v.Q R 1.1.i.}.3X;XY.' i.}.}.v.M.E.B.J.B.B.B.m.m.m.m.m.B.B.B.R u V 1.E.m.).&X}.=.m s.'.i.c.>.R %.%.m X.y.h.B.m.h.B.h.r.s...S X.B.J.s.L.s.y.s.s.B.W.y.p g Y n.U.D.{.E.y.r.{ d.'.n.d.n.d.n.n.c.d.L.c.n.h.b.1.z u b I g r.d.b.;.;.c.N./ >.W.E.U.W.y.8.r.{ g { c.Q p.D.;.9.'.n.d.J.8.Q g [ B.i.i...A a.N.b m G Y h.N.8.X.h.h.h.d.s.d.c.N.m.c.h.h.h.a.i.s.h.h.s.s.h.h.h.h.h.h.a.a.a.a.a.a.b.K.X.& Z %.o.9 1 b D N z z Y &.( ` 8.b./ G b.b.L...z Y w.1.} X.b W <.8.w.m.b.h.h.B.I.L.m.h.N & z f I & 6 s.N.[.'.+X{ I b.9.c.Z Y s.d.W.E.b.I.<XW.U.Y X.m 9 [ =.=.W r.:.c.b.V N w.B.h.B.<.G y.X.[ ;.} } ).R...f f r f g V S D.8.c..X$XN.y.1.%.w.<.a.c.n.a.d.Q 7 R =.Y ` G G J.).c.Z p }  .w.L.n.B.).).W.N.c.I.N.b.8.b.d./ i.N.y.<.>.R ;.` g b X.D.W..X-XW.1.:.c.8./ Z S 8.y./ p d.c.b.w.c.Y G w.'.d./ ' r.c.>.m.a.s.).W.h.d.h.y.w.h.i.r.i.s.L.{.s.s.U.E.B.r.c.n.d.1.d.{..XL.B.D.c.d.n.n.d.U.D.{ 3 4 3 x c X.G.;.s.M.s.r.;.y.r.r.i.r.y.L.D.1.I 2 R L.s.' >.).r.m ..h.{.L.n.Y.h.=.y.n.B.I.E.r.i.}..X}.X.<.m.h.8.G A v.C.B.s.r.s...' r.} ..C.M.i.m.} A ..^ ,.`.B.E.v.B.s.L.E.p.1.p.u.2.@.",
"i.B.v.v.Y.v.k.v.c.B.L.M.v.M.B.M.B.c.L.V.v.M.v.v.2.U U L.L.} Q }.'.L.Y.v.B.v.}.B.'.M.r.r.M.L.L.i.} C..X;X,X&Xc.A e i Q i.c.B.Y.m.J.B.B.B.m.m.m.c.c.B.J.Y.` 3 m ..J.Y.r.n.$X.X$X$XW.E.&Xh.s.&Xh.>.m.>.1.B.c.s.D.L.L.>.b u ' m.).[.E.D.B.W.U.U.c.' } ;.y.c.U.+X.XD.r.r.1.L.'.n.d.c.M.d.c.n.c.D.d.s.b.c.a.Y p z / / r.B.n.<.B.I.N.c.B.E.U.U.=.Y ..Y ..G 1.M.y.B.L.r.( y.u.n.w.m p r w.B.s.'.c.%.}.).=.=.S & g I ` r.D.B.m.h.d.d.d.h.h.h.h.c.c.c.c.m.c.g.s.h.c.c.h.h.h.h.h.h.b.b.h.a.d.N.` % b o.u.{ x N Z D 8.%.Y S X.j.D.K.D.a.b.j.;.N p V G V Z / / ;.s.h.h.h.y.N.h.i.d.h.D.N.A r A A z m s..XL.B.N.d.=.s.f.7 g 1.y.J.Q.$Xn.=.d.R.U.{ q % z r.D.u.S ;.n.r.d.h.Y %.R.;Xy.b.I.W.).G r.r.` X.E.J...7 7 z A Q 1.;.h.D.@X=XY.d.y.;.;.8.y.h.h.d.n.D.Y r A G f ..m.L.$XR.X.Q 6 r Q ;.X.J.}.I.[ ` i.s.B.b.n.y.B. .o f '  .X. .[ R.c.<.<.h.+X&XE.J.D.d.c.c./ ` ;.c.U.d.{ d.L.J.i.W =.%.w.h.).N.%.y.d.d.a.r.w.c.'.J.1.w.r.8.s.c.r.r.i.s.v.m.L.D.;.c.E.E.n.y.E.{.&X'.c.i.0.;.0.r.8.@.9.n.y.Y $ a m :. XU.n.~.,X-Xd.s.y.d.d.p.s.c.c.L.y.p = 3 7 X...s ` w.V R r.c.J.s.s.m.i.%.>.m.s.c.c.m.{.-X>.` R =.s.i.i.=.Q A V } s.i.i.r.,...Q =.i.,...U * . E >.p.A.r.=.v.s.! ,.p.O.s.L.n.k.u.",
"..l.v.M.E.E.V.P.c.B.B.v.M.V.B.B.M.M.V.M.M.M.s.M.c.m g ..Q h m c...} &XE.v.M.E.L.s.M.L.M.L.s.B.M.Y.&X:X.XY.B.r.V i.>.A 7 7 g Q s.m.m.B.J.J.B.m.m.B.B.B.)...2 g I E.).s.).E.i.L.>.=.D.{..X+X<X).Y.W.a.<.i.c.n.B.c.m.s.' S w.&X Xr.T { 8.E.B.L.U.B.r.B.B.s.W.-XU.D.y.s.s.m.n.d.n.s.B.r.p.c.b.n.s.s.w.h.E.y./ <.Q.+XN.'.D.D.+Xn.1.y.m.r.c.J.=.B.n.p f 2 ' W.<XU.c.U.I.{ 1.D.;.N z / a.N.y.w.s.<.' ' R.3XI.u r ;.b.D.R.J.c.d.s.s.s.a.s.h.h.c.c.m.B.C.m.h.h.N.B.b.h.h.h.h.h.N.D.D.N.N.d.b./ + t / D.D.&.Z N Z N.u.9.%.X.Q.f.X.D.a.y.[.I.1./ Y m I s.J.y.1.%.I c.B.m.h.m.b.J.h.s.%.6 9 I =.w.I.+XN.8.w.b.N M D ;.;.z w.W.'.I.L.8.{ <.;.[ g c :..XG.d.{ D.{.f.'.$XJ.b.D.,X{.<.D.3X>Xy.3 s.R.).$X[.i.>.A Z G G X.L.m.y.).$X).y.i.h.r.s.d.m.h.i.s.B.c.A b %.$X;X[.@X>XW.S p 9 g p 6 >.N. XR.N./ X.I.L.I.y.S S A r $ b I Y G %.L.L.;.;.r..X Xn.U.I.n.8.Q ;.D.d.s.f.8.X.S s.=Xs.} 8.).D.N.D.R.Y.<.i.d.y.m.w.h.Y.}.h.X.1.s.c.n.s.1.p.s.>.;.1.n.y.=.n.d.d.=.f.&X-X'.s.=.1.8.=.u.8.@.=.u.l.0.X.( Y D.#X#Xl.( u.&X.X/ Q ;.1.8.y.c.d.U.d.p $ u g f =.r.` i.s./ p.B.Y.'.E.L.B.y.>.w.c.>.=.1.E.E.1.Q 2 A m 1.B.=.c.-...=.,.v.v.r.-.r.Y.,X'.A . = * u U E..XT.p...,.r.=.Q 1.s.=.s.E.G.c.s.",
"1.E.'.'.T..Xv.s.B.L.v.v.M.v.c.v.v.E.Y.v.L.c.,.v.1.u g ' ..m A p.-.Q -.-..X'.Q g B.}.-.Q Y.U.'.'.oX.X}.L.r.1.r...C.E.w.A I =.1.i.m.m.M.B.B.B.B.B.L.B.c.L.%.3 A ..r.c.}.=XD.=.=.;.8.B.B.).m.i.i.s.Y.D.i.r.m.J.c.d.c.s.1.1.J.&XE.>.;.l.D.r.C B.3Xc.S X.c.v.'.,XU.c.s.s.c.n.d.s.n.d.s.y.n.n.c.c.d.l.c.y.r.=.c.4X X' Y y.I.E.r.D ;.d.B.U.c./ Y y...S Q A n.<X{.' ..U.o./ u.c.Y > u ;.R.h.R.N.y.h.' r =.B.Y.w.%.h.m.n.L.b.i.r.i.h.h.h.h.h.h.h.s.h.h.h.c.h.c.B.m.g.s.h.h.h.h.b.j.h.j.N.D.b.D + z / n.n.a.&.f.d.b.a.b.Q.h.d.w.y.[.R.J.D.y.` G <.y.b. Xc.%.y...> Q c.I.c.s.a.B.h.d. .r b m r.>XD.;.y.i.L.d.T 9 4 =.B.=.J.E.D.y.s.s.<.8.X.x q ' f./ I Z o.@X=.G N.Y.d.s. X$Xb.J.).;XB.R ` I. XN.B.h. .' / G ` <.r.s.D.b.N.$XI.1.y.c.a.c.c.d.a.h.N.8.S > m a.N.m.W.@XJ.%.m z Z a.8./ [.,XW.W..X X{.@X).&XJ.[ ` z 9 6 [ b.B.%.y.R.i.1.%.d.3X@Xu.c.f./ 9 7 ;.9.( I D M T g I Y s 6 Y h.h.m.c.8.` r  .D.w.a.i.D.R.D.=...r.c.B.s.r.1.d.s.1.1.>.c...' D.1.....n.,XE.y.;.1.8.y.d.d.r.:.y.n.d.:.;.8.u.=X{.u.T p X.E.c.S ' =.0.d.s.;.:.Q 2 = p M M ` L..XL.).W.n.M.3X,X;X;XW.h.r.w.i.r.r.r.8.h.' s I %.I 1.B.=.D.;.g R c.L.}.Y.v.c.i.g.} g e u V A ^ g.Y.r.c.r.,.c.r.,.2.s.k.p.l.U.L.v.u.",
"'.;X}.}.E.;X1.V M.L.M.v.L.M.c.B.Y.E.L.c.c.=.I O.h 7 g =.E.1.} v.v.Y.i.} =.' U m i.,.A r.3X,X}.v.Y.Y.E.Y.i...-...4.m.|.|.L.E.}.Y.J.B.m.c.c.m.B.B.B.m.m.J.=.7 G p.c.;X}.c.r.1.1.w.L.D.m.s.=...} ;.c.m.c.s.B.m.s.B.Y.=. .s.B.m.L.'.{..XB...M ;.s.A > Q U.U.n.E.L.s.d.r.y.c.d.p.c.D.y.D.W.d.h.n.c.d.y.a.N.d.c.W.X.2 s.N./ S 9.S / U.E.-XU...;.s.0.}.<X'.E.D.E.r.;.c./ f.' z 9 3 / u.'.).[.=X$XY.b.B.8.=.i.L.L.R.I.{.B.h.y.r.i.h.c.b.h.h.h.h.g.h.h.h.m.c.c.c.s.s.h.m.j.h.h.h.a.a.h.N.N.d.Z 1 S G 9.;. XF.h.d.<.D.F.W.Q.j.K.d.&.Y ;.8.g r ` =X5X&XD.S b [ I 7 G d.c.N.J.h.d.y.a. .G W G b. X8.Y r.U.c.d.f 3 Z %.8.1.U.W.b.w.d.u./ / M 9 I D.{ B ( 9 o.8.M G y.y.r.J.<Xd.y.I.a.h.d...y.<Xa.f s f m Z p z =.m.N.I.).D.N..XD.w.r.s.i.d.h.d.s.h.m.I & & M Y h.J.w.X.{ W S r.&X'.' a.[.b.R.,X$X$XJ.D.I.&XD.r.a.h.w.W a.W.c.J.W.B.s.).J.[.).1.r.8.X.A f Y ' S 7 7 p u u z =.<.m 9 ;.d.Q %.U.R u 1 W B.h.m.J.).L.w.` =.s.i.i.r.y.y.d.s.s.c.r.;.;.' 1.Q { {.&XW.D.r.-.8.y.y.s.u.u.0.0.f.f.0.9.:.D.U.U.=.3 9 X.c.D.D.U.c.E.G.K g 4 o o g A g A R i.m.m.8.;.p.n.$XJ.r.1.} } y.s.r.>.s.s.r.y.Q A y.1.=...Q { m.d.U ..L.}.;Xv.4.4.s.s.=.Q F I U m C s.5.P c.x.1.s.c.1.i.s.0.=.=.c.n.0.@.",
"U U I A A =.m . -.c.v.c.B.B.M.E.'.M.s.2...A g H i c m ..E.E.s.r.} B.Y.L.-.,.i.I ,.' =.E.P.M.Y.E.'.L.s.i.=.} >.1.B...' i.L.|.;X|.J.B.m.c.c.m.m.B.c.c.L.J.w.u m c.'.&Xs.s.m.r.c.B.Y.U.B.r.p.1.;.d.b.s.c.n.B.m.d.J.s.1.w.s.c.m.n.r.{ M 9 Q p.} I ' u r.W.n.r.1.;.s.n.y.y.s.s.s.s.B.c.n.s.X.d.n.s.s.b.y.d.n.h.c.T m { m y.U.N.d.D.b.&X.XE.{.+Xc.y.y.Q r.s.Q S A ..W.{.<Xb.Q p A D. X' / w.b.` Q h.m.w.a.8.w.J.,XE.h.b.b.c.h.d.s.h.h.h.c.m.h.h.c.b.c.c.m.h.g.s.h.m.N.h.a.y.f.d.d.h.D.a.f.Y x W N :.8.b.8.w.d.I._.y.8.[ ( a.j.F.8.y.<.r z N.,X}.B...b N u 2 b y.L.a.a.1.y.h.d.8.Q 8.N.n.J. .b 6 b y.8.A * m Z Z %.c.W.W.u.y.d.X.S ' x I d.y.X.f.D Z ' r.=.y.'.@XE.I.8./ =.} [ X.1.` b h./ b S p p s r z 1.d.s.R.Y.R.;XD.a.i.y.y.d.d.h.m.h.a.d.b 1 b Z G %.%.S m m z G '. Xy.r  .h.b.[.E.i.i.` ;.s.d.' y.1.i./ / .X}.B.Y. X).N.L.B.R.r...8.=.Z 9 Y a.a.I.X.z b / Z G r.<.a.%.8.s.r.D.E.Y g m s G 8.J.R.&X).y...r.c.w.i.h.s.i.d.i.s.m.s.s.8.I i Q L.5XE.d.B.s.=.1.s.y.8.f.u.y.0.r.u.u.0.y.@.d.Q.B X q q Y n.~.E.n.M.Q o 2 X S ;.M z S M <.X.Y ..Q / ..>.1.' I A g R d.y.r.r.r.,.y.d.s.1.s.w./ { =.i.s.X.i.v.p.V m A ,.4.i.r.s.p.R k I F *.|.'.i.E.>.} s.r.=.1.B.l.@.-.s.n.:.! ",
". $ i ; . 8 u 8 H 1.s.i.c.v.M.P.'.,.=...A m B I A t.v.p...c.}.v.i.B.B.B.v.E.B.M.v.Y.|.'.B.E.M.Y.'.g.Q A I Q =.>.c.4.} 1.E.'.c.p.B.B.B.J.B.B.N.m.B.m.L.B.s.b m B.-XB.L.n.s.B.B.'.Y.}.n.a.L.>.w.B.Y.s.m.B.m.L.D.B.B.r.s.B.B.s.} z 9 u g m %.r.8.S A D.p.X.B.;.S s.c.n.n.d.c.m.p.r.n.X.m z s.v.r.s.c.d.D.D.n.n.S g ' { U.9.8.U.D.W.U.U.s.n.y.m ;.d.;.=.s.Q o 7 y.+X+Xf.[.-XN.D.D.X.G d.$Xi.Z 1.E.c.Q a.I.@X Xh.Z I d.b.D.D.c.d.h.c.b.N.m.c.h.h.h.h.a.h.h.a.s.c.b.h.h.y.y.f.h.d.d.h.d.d.( N [ Y d.D.w.9.Q.h.W.<. .d.( Z d.J.Q.N.D.9.1 N $X Xi.h.;.<.8.` ` ` N.d.y.y.a.c.N.B.y.Y =.=.A ' y.w.` f * 3 $ u m Y d.R.=X-Xd.' ..{ g z %.u =.U.Q.D.:.9.8.y.d.` 8.D.[.a.G u G G + I S g N r 3 g f Y %.[ V <.G w.L.h.;.%.B.J.w.>.d.s.y.h.s.h.a.b.h.b.b r / z / 8.>.b p I %.L.3XD.[ u ;.a.b.N.w.X.<.m Y ` [ / w.h.N.b W <XI.}.).d.m.a.r.J.D.s.X.p a u b o.;.s.s.d.[ {  XW.y.X.[ R.D.a.d.m.Y.N.I s  .S G n.$X$X.XE.i.%.r.p.1.c.D.y.1.d.y.8.d.s.c.1.r.M ' d.E.B.y.s.1.=.r.d.s.l.f.y.u.l.d.u.0.;.8.;.n.d.S p z p g 8.r.s.B.X.= 7 p s.'.;.z p A 1.I.B.=.%.Q -.{ ` ..' Q A 3 G n.y.s.d.w.1.s.1.h.s.y.U.' X.c.c.1.=.1.4.-.I ~ A ~ A -.p.c.Y.L.>.4.'.2X2XC.6.T.Q P r.p.c.r.p.0.:.v.p.G.1.Q ",
"i u U g g A m g =.r.m ] M.U U E..Xs.g B g ..' -.' -.O.Q 1.E.E.T.c.L.v.E.M.E.3X.Xc.E.,X&Xv.Y.L.v.B.B.Q A g u >.c...r.E.|.Y.Y.' r.h.m.c.h.m.m.v.m.m.B.B.B.1.A ` Y.E.D.m.h.J.n.D.E.L.L.r.1.1.Y 1.c.h.d.h.v.B.B.B.m.c.w.m.m.8.;.I u I =.8.' =.W.D.X.=.L./ Q D.v.S Q c.D.c.d.D.v.{ u m o Q z ' D.,.d.h.J.y.D.n.n.S u ' I.{.B.( s.I.'.n.A { A M 7 ..c.+X&XL.M I y.U.+XW.D.W.E.o.A A x R J..XY.c.%.Q %.<.J.).d.` z 1 + Z c.R.I.B.m.J.b.m.h.h.h.h.b.b.a.i.w.y.c.i.m.i.w.h.N.h.y.d.a.e.f.d.X.S x z / D.e.W._.W. Xf.p  .D.b.R.).b.e.w.I.w.m J.[.c.y.r.i.a.J.[.N.c.b.c.y.m.h.).N.s.G m ` I b M I.N.a.D.G 7 f N r.&X&X.XW.8.I r 6 > & =.` A y. XU.n.d.n.f.h.d.h.d.D.h.G 3 N z > s w.m G  .z W Y r.,Xs.D.d.w.M w.B.N.y.y.D.m.w.8.a.i.h.y.s.a.h.h.s.y.G 3 A X.8.>X%.w.J.E.,Xb.h.;.X.S >.N.r.y.` ;.a.Y ;.8.8.w.a.a...Q N r.'.N.y.d.y.h.>.i.b.w.Z u u Z <.d.r.s.J.W W h.s.b  .m.b.h...s.).=X>X8.r { m.s.I.=XL.B.Y.J.m.r.8.8.1.d.s.i.p.r.>.i.c.i.s.d.D.=.Y r.B.8.0.n.s.;.r.y.8.r.0.y.d.u.:.8.0.X.:.0.l.n.( u Y N m ' u 7 M $ 3 M ..'.L.y.S i ' n.%.' %.m 3 u 9 A } Q Y b g I h.r.y.r.r.r.i.s.s.i.v.,.b G i..XE.d.s.s.p.L.Y.-.1.R v.M.}..Xr....X;X'.m.=.E r.U U 1.s.i.r.i.s.l.l.s.L.@.B ",
"7 } ..m c A U I A ' I Q V.A Q }.2.B 8 g Q v.P.L.].Y.V I M..X'.Q v.E.c.c.E.L.i.p.-.r.M.w.p.v.p.c.Y.s.i.L.s.i.v.' e } ' B.}..XB.r.A r.L.c.s.m.B.m.C.M.B.Y.w.z ' ,XW.L.L.B.Y.Y..X&XU.L.<.>.i.%.w.d.r.r.w.i.h.n.M.B.h.h.r.1.s.X.m Y =.s.L.'.c.L..X;XU.d.;.n.L.L.d.Y ' E.d.i.s./ S z > M D.Y I s.B.U.n.c.E.d.D.B.u 9  .D.Q.N.A 8.W. XI M M Y 1.8.r.'.-X-X8.p I ..1.{.c.c.d.' 9 9 S ( =.N.y.m u Q %.%.d.J.y.W V A V r r s m y.).h.a.J.b.m.m.m.h.h.c.s.y.h.y.s.e.a.s.N.J.y.&.a.N.f.f.D.h.Y n f p o.n.D.d.G Y &.f.&.[ h.W.>X<X8./ e.I.d.w.E.L.s.d.d.a.r./ ' / d.I.J.b.m.W.h.[ G r f N V G y.y.;.%.S b / p =.+XW.n.n.b.W z T p z ..D.m N 8.[.n.B / ;.N.L.B.s.c.8.S S Q b ;.` Z ;.m W w.b 8.d.D.=.%.h.a.%./ y.a.h.s.h.R.i.1.s.m.h.h.h.c.s.1.h.m.i.Y A d.$X&X;.z %.m.E.B.G G b 7 N a.d.<.Y } a. .V d.d.w.y.s.a.;.N %.E.m.y.X.a.i.;.N.w.;.G f Z S >.r.y.W.B...Y ;.b.<.7 Z N.J.} ` J.$XL.s.i.s.I. X X[.E.D.Y.).M.y.1.r.h.d.m.c.d.h.s.s.m.B.r.d.d.B.{ g ;.n.y.8.n.d.X.1.r.y.s.9.8.8.:.:.@.;.0.0.@.n.u.p c c K r.{ ' u 2 u g Q D.W.c.r.Q { y.d.} ' =...M r > M I M N s s Y c.d.8.8.8.r.i.y.w.1.=.B.} b c.Y.=.1.i.|.B.m.-.' M.c.1.R B.B.g U &XM.c.1...E t.1.r.6.s.s.p.p.p.p.p.p.=.K q ",
"Q r.B U -.E U ' ' O..X;X;Xv.L.i.V 7 u K :.O.,.r.P.k.g H k.!.;Xv.n.c.}.,X|.,.A U ' s.L.I ,.i.,.1.Q ' E.|.1.s.L.Q ..B.r.|.oXM.i.r.%.h.L.J.m.m.m.B.c.c.c.L.1.r I $X;X}..X.X$X$X$XY.i.m.>.r.B.c.h.B.c.c.d.d.c.m.J.L.n.c.n.y.=...1.Y.&XU.c.n.L.E.U.-X.Xs.;.d.s.c.'.r./ M B.y.2 u { s.s.s.d.S / d.U.n.D.Q.D.D..XY z  .y.=.z A f s.J.X.g 8.n.B.D.c.1.'.W.c.Y u I n.h.=.I [ ;.[ g x :.'.y.m z z p r..Xr.d.I.>.m p A W b Z b V N u ` J.N.b.c.b.c.s.h.h.i.h.J.y.h.m.h.i.r.9.` N %.h.a.N.J.9.Z N N ` +XQ.D.b.J.8.` Y %.N.F.W.W.@Xb.N.W.D.d.N.J.a.w.a.d.a.1.V g S R.;X{.B.w.b.b o > r m u u S Z y.<Xa.Y s.r.' d.$Xr.:.1.{ 9 { s.y.d.U.d.m / +X=X[ 2 r.E.E.).D.d.n.B.m.).=XR.L.' Y / N X...[ s.w.w.r s ..b.Y.s.b.d.h.y.B.$XN.;.s.a.1.=.i.d.y.d.h.a.i.a.D.$X&Xb.Y >.r.i.J.h.=.b V G %.L.b.h.i.%.h.=.` ;.a.N.a.y.y.' 6 s.@Xs.1. .8.<.y.<.A p b b s %.J.h.i.e.=.8.%.w.I.E.%.R <.W Y r.a. .m s <.'.).W.'.I.b.I.W.'.v.r.1.y.c.h.c.s.i.i.y.y.c.c.w.c.s.n.' 2 } ;.{ 8.s.i./ / C m z u.l.0.X.0.f.8.@.;.:.r.X.% 9 N / A 8.h...Y I m { &X{.c.Y u d..Xd.m.m.J.J...I b g g u V Y I Q c.L.y.r.8.w.r.r.i.i.s.B.=.9 w.c.Y R s.&Xs.c.,.$.s.=.A } i...=.c.E.L.,.| r.m.T.6.6.p.p.p.p.p.t.t.p.s.0.+.! ",
"-.c.E 1.i.U ' M.-.c.'.}.P.M.] U ' Q A A 1.] O.v.E.1.1.c..X,X.X,XL.v.;X;Xs.} p.L.,.B.c.A ....I i s ..E.1.V i.).c.E..X|.&XY.>.U p.h.B.J.B.J.B.v.m.m.C.m.J.1.s R E..XD.B.m.L.D.d.Y ' h.r.n.L.D.c.U.B.m.c.h.h.n.B.B.i.G m A R v.3X4XL.;.1.;.'.D.X.U.c.' Y Q 1.B.-X.X+Xn.Y p z m C { ;.' I u z r.L.W.D.W.b.'.D.> X.d.{ <.{ d.u.W.N.Q 8..X3XU.y.;.r.L.E.>.G u I {.c.z u z [ =.I G r.W.X.%.S g =.).J.%.d.Y.r.{ %.c.[.L.` G Q V % V D.D.N.h.a.a.g.c.h.w.<.h.w.i.i.w.m.g.a.y. .;.h.D.J.w.S f f D d.$X=.I _.Q.F.[.y.8.J.d.[ b.).d.b. XJ.<.w.a.r.y.a.s.h.r.` N Y U.).U.s./ 6 % 3 Z Z g S 8.s.s.i.R f  .m.h.f.c.U...G Z f m s.L.U.1.N.<.y.W. Xn.( 8.{.<X+X.X&X X&X-X3X&X'.b.h.y. .Q w.c. .).a.>.B...3 c.).%.d.8.h.D.N..X&Xh.w.h.i.8.=.h.d.a.d.h.b.b.c.J.I.b.S / c.h.E.N.W b s G s.y.s.r.8.E. Xb.=.a.r.8.w.w.y.w.b 6 y.).B.w.>.1.[ / b ` / z S z <.d.%.w...} h.d.w.i.>.} =.i.[ } m.B.<.Z z d.Y.D.D.J.N.Y.'.I.L.d.s.i.y.s.i.d.i.d.d.i.i.h.c.d.M.d.D.,.9 ../ M u z S M S 7 = . z [ 0.0.8.8.;.{ 9.y.X./ p N z c =.n.=./ =.{ g ;.{.r.{ A 7 ..G.D.B. XB.c.Y.,.I G A ` } Q ` h..XL.c.s.i.i.r.r.i.h.c.h.>.u ..h.` =.L.i.i ` M.'.'.s.Y.M.r.Q ..i.g.%.1.C.'.c.s.r.s.s.i.i.i.i.r.r.p.p.l.k.u.",
"i.E.M.v.t.t.B.XXE.E.B.L.,.I = g k.] V A 1.c.M.v...I M.'..X].-.i.}.}.L.@.A A c.M.Y.}.E.E.v.=.1.1.=.c.s.m U Y.B.M.E./.}.C.v.s.U =.G i.L.c.h.N.B.c.N.J.m.J.>.s ' E.D.r.w.,.r.s.r.I [ c.c.B.m.c.s.D.h.c.c.h.c.B.B.B.{ s 7 g z ..Y.).S a 1.s.d.p A L.{ p m A y.+X&XU.d.' c 9 i I { ..I ' 8.I 7 r.r.c.+Xn.{.d.p 3 / z G c.c.h.1.w.u.n.U.-X'.s.p.r...Y / g p 9 Y d.A M m p Z D g / y.<.b ;.w.r.Y.L...A <.h.s.B.+X4X4X XW.N.>.{ %.<.r.J.B.h.i.i.s.c.m.i.s.h.y.h.c.m.).i.N.J.y.e.D.R.f.Z z f f o.+Xh.D T <.f ` r.` j.I.K.N.I.;.G [ D.I.<.X.a.h.h.h.c.N.d.I I <.'.).J.X.9 . 9 s A A z  .8.=.D.1.f [ B.s.c.n.8.{ m r Z f T c.U.w.W '.'.U.n.=.=.G.4Xn.d.R.L.o.X.N.b.w.w.b.>./ >.y.E.h.h.).i.f d.s./ m =.Z [ ,Xa.D.D.J.3X Xa.r.d.d.b.d.B.d.y.i.a.b.h.r.w.w.<. .D.I.b.y.r 1 V f R h.w.i.y.;.h.d.b.i.i.y.a.=.c.h.[ p b %.L.h.X.w.' 1.8.w.[ [ S 7 Q =.s.>.h.J.N.h.J.m.L...=.B.h.W.'.$X=X}.b.y.J.L.s.B.s.w.J.J.h.c.r.d.h.i.s.i.s.d.c.s.r.i.c.c.s.s.y.B.8.u / Q Y g p u 2 u u g i 3 & a { ;.@.8.r.u.8.8.a 9 A p ;.n.8.s.d.U.E.{ {.E.{ z g z 8.Y.'.B.{ V I ..R i.c.i.w.=.i.Y.,X$Xi.s.i.i.s.y.1.w.i.r.n.1.s ` c.Q p.1.A m ..|..XB.-.1.i.r.=.' Q p.>.1.|.|.r.p.s.p.s.s.s.p.t.t.r.r.r.2.t.s.",
"L.XX&X'.}.,X.XY.s.r.B.v.-.V i Q M.H A i.v.Y.L.,.I ] L.].'.'.B.v.i.U u g u A c.=.E.T.E.}...' r.i.m.L.4.V ,.m.Q =.'.Y.M.B.B.1.I A g >.J.m.h.b.B.J.B.J.J.'.>.u ..Y.w.8.h.d.c.m.B.r.r.m.m.c.c.v.h.B.c.m.B.B.D.L.D.c.S * V r...w.E.r.A z r.U.r.7 1.1.u p g M G.-XL.B.y.m M / y.B.s.'.c.r.E.0.z y.S g '.8.8.u + f f 6 z r.n.f.c.r.X.r.s.+Xc.c.B.n.M 7 U 2 g A o.n.=.s.:.( ' [ I X.D.D.J.1.a.D.y.a.B.y.d.J.).}.+X}.J.c.;.b.). X;X=XI.B.h.h.c.h.s.h.N.m.C.L.c.w.i.J. Xb.N.N.a.a.R.D.W 1 1 r 9 o.'./ u D b Y r./ f K.5X X5XR.n 9 S y.N.;.;.c.h.s.h.b.b.i.` X.I.=X XI.S & 2 I M g A / m.c.s.c.r.J.R.d.h.i.c.r.Y m S h.9.=.<.f.8.I.U.D.u.1.[ c.W.d.0.:.n.c.z f A p p s `  .` f <.L.N W R. .X.a.a.y.8.y.a.$X). .<.X.` d.s.w.w.w.r.d.d.d.r.w.h.w.i.d.h.b.y.>.s.J.d.E.W. ./ I G ;.w.<.h.d.h.w.w.B.}.R.a.J.m.Y.<.f z A ' m.Y b 2 G { G R I z f a.y.m.).h.h.>.s.}.b...i.} b.E.w.).=X}.).L.B.W.[.E.r.d.%./ w.a.D.D.r.s.c.s.d.s.p.s.s.w.1.s.c.r.=.y.s.c.8.u z / 8.c.c.X.g 3 g A M S 3 4 Q :.9.X.) 0.:.o.z A [ r.<X+XW.r.;.r...' .Xs./ u m -..X.Xc.V 2 N %.;.' c.r.y.Y..X;XY.B.L.J.w.;.;.w.r.w.s.B.M.1.R p ..&Xs.r.v.v.,X.XY.,.A i } E.B.Y.3Xc.$.$.$.T.T.p.c.r.,.c.s.s.p.t.p.s.u.p.r.k.l.",
"p.|.3X.X|.}.L.c.Q :.=.V =.m 7 U p.' -.Y.|.|.].Y.i.k.v.L.T.|.|.v.v.A 7 g i Q p....Xc.r.-.V ,.-.A M.Y.M.1.c.p.U r.'.B.h.L.c.~ I A G >.m.J.B.m.B.Y.L.J.B.Y.' s w.J.} >.c.c.m.d.c.s.B.c.m.c.m.B.J.D.m.M.m.n.B.B.h.w.S g i.E.` X.E.X.M S B.&X.XB.D.I 3 S p Q E.{.B.G.{ I A m.D...c.+Xr.S c.r.S >.Y M X.M > o x m [ n.=.c. XD.'.I.c.R.b.).s.d.s.d.X./ B.Y A A { n.E.D.I.n.n.B.h.y.n.'.&X XI.h.d.J.c.%.b.b.B.=.W R I %.8.r.@X=XJ.h.c.B.a.s.c.c.s.h.m.m.w.L.a.n N [ b.E.J.I.Q.Q. Xf.9 1 x N n ;.a.n u D f.h.X.z z f.4XQ.D.D.&.N z 8.h.X.1.m.s.r.b.b.d.i.s.8.B.B.c.y.r u Y S f Z h.R.).c.;.I.s.W.).w.n.d.d.D.b.d.f.W.I.c.b. .M U.D.I.n.;.8.U.8.S y.d.d.h.m f m 7 z b '  .9 s y.h.y.;.G } Y.B.i.I.3X5X&XB.m z ;.c.>.;.s.b.i.y.a.y.a.y.s.h.a.a.J.B.h.m.d.d.i.w.X.y.J.W.J.r.s.J.b.y.J.L.Y.b.;.z Z <.y.Y.).d.z 9 A V %.r.r f m p 1 p g I G h.E.` 1.b.1.B.y.}.E.r.w.E.h.E.r.%.@Xh.<.h.B.c.W.-XW.h.d.<.X.i.J.'.B.w.s.c.s.s.s.y.s.c.i.w.d.c.y.8.n.B.B.c.I p ' c.B.E.B.8.M A m m S @.y.y.8./ Z I d.{ c :.I.{.<X{.'..X/ ' d.;.J.L.S 9 u c.'.Y.y.U 8 A ` w.D.s.r.D.).,XE.h.r.E.U.1.>...} 1.s.d.c.J.s.m u m s.3XE.c.&X.X,XM.A 7 7 u 7 L.&XY.C.' Q s.*.T.Z.$...i.s.c.i.i.t.p.p.p.s.l.l.l.l.",
"! P.}.p.s.r.s.s.U m A ' Y.v.v.s.A r.k.1.].;X'.M.,.,.p.c.k.k.1.Q r.c...V A 1.,.r.L.=.p.-.U L.E.E.Y.L.Y.M.L.Y.s.E.&X'.).B.1...} Q s >.C.c.h.B.J.B.B.s.%.' 7 9 s.c.1.s.B.v.D.c.c.m.D.s.B.c.m.c.D.n.B.D.B.M.B.D.c.8.A m m p u X.B.Y p I W.+X.X'.{ } ;.=.S c.L.D.L.' / ..E.{.I 2 Y 1.=.g c.h.=.c.n.;.T o 1 b S m B.3Xd.1.c.Q ;.8.c.[.5XE.n.c.d.s.n./ U.d.' { U.L.L.n.f.D.d.s.U.L.f.c.h.<.i.N.h.m.b.%.c.s.h.Q z b 3 b ..a.W.J.c.c.i.h.y.r.a.s.s.h.h.a.g.E.<.3 Y  .G A &.a.).E.R.%.% r S z S j.o.u I F.I.a.y./ b.$XJ.y.f.y.d.w.[ h.h.d.8.N.s.a.J.N.h.m.s.X.a.s.h.w.1 V Z f S ..d.' b Z b.W.I.>X[.w.J.R.N.c.n.W.'.D.w.` 8.B.9.W.{.W.I.n.c.I.f.y.{ / ( ' g m a.X.R w..X=.g I i.s.a.h.r.r.c.` [ $X$XU.s.S 9 Z y.$XB.;.h.h.w.i.b.s.d.r.d.d.h.c.J.s.1.i.i.s.;.=.X.X.a.U.<.r.h.r.s.} y.b.;.%.i.8.b 9 Q D.h.9 + V Y Z d.;.z W Y u S N s f X.D.} Z ` r.Q c.}. XL.w.J.$Xb.J.W e.>XW.D.b.s.c.B.c.N.D.N.B.B.I.W.N.i.=.i.b.i.i.s.s.8.c.s.8.r.y.i.c.d.c.d.B.X.u I 1.c.n.y.r.z g A ;.0.~.U.u.:.D I Q.G.S N y.u. XW.B.B.c.y.r.8.B.3Xs.p u Y W.B.1.;.A G 9 ` }.s.n.E.).&XE.s.L.D.d.-...X.' ..d.L.n.i.8.m 9 f Z s.=.A r.oXE.E.E...Q U g m C./.,.s.,.} c.x.i.,.1.r.s.p.p.r.t.s.p.r.r.t.s.u.u.u.",
"i @.I I :.l.T.-.B M n.{.&XXX~.!.s.E.v.6.1...^ Q m | ,.' P Q *.=.i.g.v.' ..=.-.L...m i.c.s.|.5X;X&X}.B.B.c.B.E.,X.X'.W.s...G ` G I ..s.c.c.B.m.,XE.V g r I c.E.s.B.B.B.m.n.c.c.b.m.N.B.B.n.n.m.B.B.l.D.B.c.G.B.8.A q g / A d.d.S N c U..XL.[ 9 N 0.s.:.U.W.W.U.f.y.W.W.r.M X.Q S y.r.B.n.D.L.d.D.;.z b Z A G c.;.f A =.[ ;.8.I.1.J.'.i.J.v.J.v.3 =.c.y.c..X4X).B.l.{.U.D.I.c.u.u...a N y.L..X;XN.8.c.B.w.h.a.X.N A s.R.D.n.c.a.r.w.r.c.c.s.h.m.i.c.c.I A i.r.G b V 6 } h. .% * A A m :.8.3 [ =X{.J.N.w. X$X[.a.e.f.a.f.h.h.j.b.h.h.b.h.h.b.b.j.N.w.w.h.a.a.w.Z D.j. .j.K.j.f.a.I.N. .).>X X[. X%XR.a.B.E.i.<.y.1.X.b.b.'.$XJ.m.c.J.D.<.%.&. .9 r z b d.b.f. X<X;.W D.w.h.L.I.).[.w.z R W.).h.s.%.N Q @XL.Y Y.D.D.J.b.i.s.m.d.a.D.h.N.I.b 1 >.h.a.%.R a.%.a.i.m 1.R.J.d.i.m.).<.N J.b.a.Y 1 %.Y * t R Y =.,X).i.h.w.` %.1.} %.>.A 7 b X.<.a.E. X;X).J.=XE.[ G y.s.).N.J.U.=.i.D.J.I.m.D.'.[.J.s.>.X.r.h.s.r.y.s.i.n.s.>.=.r.d.i.r.:.s.d.U.D./ T c.1.1.I M A Y Q :.d.r.d.r.=./ D.B.,.Y X.=.s.E.c.M.=.1.` s.J.$X+X` 7 g s.E.h.v.;.r.m.%.i.d.>.Y.4X,X+XY.).W.m.1.Q Q =.T Q ) u S / 2 > D g 8.r.p p 8.L.r.c.v.L.v.Q A ,.'.p.-.C.C.m.B.M.,.6.>.*.c.,.i.i.t.t.i.i.s.s.s.s.s.s.",
"C =.Q { V.].].p.4 ! E.s.l.G.u.v..XT.6.1.r.....p.r.s.r.^ P Q =.,.-.$.=.r.v.=.,.L.-.V A C.5XE.E.&X.XJ...s.'.-X&X$X}.J.m.c.s.X.Q z { M.B.c.X.u s B.>.7 3 z =..XB.d.h.c.m.B.B.m.c.h.c.n.m.m.c.c.b.m.d.l.B.B.D.G.s.o.a 9 Y G.) ) K z c { ~.~.:.p c ) D.D.D.n.c.Q.=X{.W.E.B...X.E.{.W.+X,X<X'.W..XU.D.1.W / G / 8.I.Y * S R.).=X[.).I.B.m.v.s.U.c.m $ w.B.y.d.L.s.-.1.[ _ L 9.f._ r.-XE.s.a.[.$Xb.' p r.h.d.y.a.W.R.=. .b.I.h.w.8.w.d.w.i.B.B.a.i.h.g.h.%.N R h.w.A m m + 9 <.w.g 9 Z S 9.D.d.H.^.U.d.y.X.h.5X[.a.&.h.h.a.a.a.y.a.f.y.h.j.h.h.b.j.h.j.N.h.N.d.h.9.f e.I. XR.&.[ a.@Xh.G X.%XJ.e.h.j.J.).).D.N.d.i.8.a.y.s.h. X).i.s.a.8.<.W ` W.j./ Y f  .N.J.R.%X).S ` ).J.E.[.J.y.[ 9 =.J.D.h.B.a.m G L.B.b z c.} ..J.a.b.N.w.s.B.y.J.}.' % + 2 G %.R n 1.w.s.$.p w.I.>X>.>.I.J. .N.d.8.d.y.G f 3 s G N ` E.;X/.c.r.N.s.i.y.e.h.h.w.G ` N..X-X4X=X).E.I.}.N.>.;.d.<.a.J.B.r...r.h.I.d.h.J.L.c.y.w.<.i.c.m.d.y.i.s.s.r.h.c.s.c.m.h.i.M.c.l.D.'.i.Y r.d.Q 3 7 m ..8.d.d.;.@.I ;.d.n...m p { ) ' W.'.8.1.8...1.B.}.8.b A d.s.y.E.Y.1.).;Xm.s.s.B.+X$XE.B.i.c.M.h.r.=.;.8.r.r.[ 4 3 a 4 p q a X.d.d.u.c.n.0.l.0.-.=.' r.'..XB.p.C.C.C.E.c.1.c.6.r.6.r.s.i.p.p.i.t.p.s.p.u.u.t.",
":.B.p.s.E.T.1.I = =.B.=.s.c.] T ..B.T.L.v.r.s.B.&X;X:X:X:X.Xm.=.4.} p.,.p.g...r.M.Y.s.c.|.i.c.L.1.i.Q 1.W.&X$XW.h.1.r.J.h.} M g 1.{.).'.h.I z G g . r G b m.s.n.n.n.m.n.c.c.c.c.c.c.m.n.c.c.c.n.B.D.d.d.B.d...I z g ' D.' @.0.s.d.U.U.X.a 3 N ( +Xd.~.n.y...:.l.0.r.s.9 ;.,XE.E..X.XW.'.E.s.r.y.r.i.} A a.D.Y.N.G N D.[.&X&XR.N.y.1.J.c.c.I $ * Q Q w.-X'.A 2 7 S [ ( [ 8.n.+X-X<X X{. Xa.G G R =.L.h.[.@Xi.R ;.E.W.D.r.8.y.h.J.h.i.h.h.e.y.b.m.a.N s Q w.$.V Y S V r G ..} Y p ' f.f. X+XD.D.d.;./ N.).w.w.y.y.N.h.h.j.h.j.N.j.h.b.h.h.N.j.d.d.N.y.a.N.K.X.6 8.D.e.W 9.<.9.J.a.w.N.W.%.w.J.j.N.E.W. X&XJ.c.a.i.h.i.d.R.c.>.s.i.J.&.3 f D.<.&.R.).>X>X).$X<X<.b / ;.W %.} b S X.i.@XR.=.[ ' S 6 N y.%.z S h.} Q d.w.h.N.d.d.J.R.'.w.u r I k * u 7 m  .} ..` p G 8.[ 2 e.{.J.Q { >.r.b.h.w.S s N Z 1.).,Xh.y.g.r.).[.J.N.'. XJ.h.N.J.&X>X{.).R.N.h.m.J.i.;.` ' Y .X'.L.y.Y W ` I Y =.N.D.d.y.r.8.i.d.c.s.y.y.p.s.r.n.c.w.r.c.m.c.y.s.n.n.Y.;.m s.8.r.1.' S c..XE.B.'.{...r.D.c.1.M g I M m y.D.X...r.....i.w.z 3 R y.w.J.).s.1.E.h.c.B.W.3X3XI.s.s.>.8.r.r.i.y.h.d.d.1./ A A M z I m { X.y.D.c.B.c.r.s.{ A I Q M.&XE.L.B.B.v.s.c.L.T./.g.1.6.x.i.i.p.p.t.t.p.p.r.u.u.u.",
"0.B.c.n.E.n.m * = 2.v.l.c...K m C p.A.c.x.B.A.s.A.'.&XOX}.'.&X,X&XB.M.Q } B.r.p.E.3X}.U m ,.1.Q U U.B.E.E.U.).L.s.w.d.Y.r.Q A ..c.c.m..X{..Xm.I s 7 b R m m.d.i.B.m.n.c.c.c.n.m.c.n.m.N.m.b.n.m.c.B.h.D.U.;.z 7 7 m 0.E.l.D.W.L.n.u.:.S T Y z 8.l.) f.S T { / m g { X.7 B.-X8.r.d...M ;.d...X.1.;.h.=.{ W.D.a.L.<.I <.D.'.L.;.` w.r.c.c.G X 3 A / ..E.}.Q b X.B.^.^.F.F.Q.{.=XD.c.s.W.R.A g y.B.b.m.s.I.h.a.I.'.h.c.h.d.h.h.i.w.w.w.h.c.g.b.B.h.i.V Q ' A g V a.w.8.m G W I Q [ / Q.~. X#.b.z.[ [ b w.N.<.w.d.h.h.a.d.h.d.h.b.h.h.b.h.h.b.j.d.d.a.e.f.N.J. .6  .` z f h.d.b.d.N.d.I.J.N.$XR.d.b.N.d.I.'.L.h.c.s.a.a.y.d.w.w.b.d.J.<.6 [ D.` n %.J.D.<.h.).D.W z Q <.>.c.h.8.N.}.I.s.I A ../ b r g 8.'.U.w.i.} } %.i.B.N.h.m.N.d.G 1 * g m V I G g V V m r 6 I Y..XR S ).J.c.s.i.c.).L.y.d.d.r.{ w.>X,XL.i.s.a.w.R.$X[.).;X$XB.y.d.R.}.R.N.c.a.a.y.w.8.8.s.=.y.).<XY.D.N.W s m b A Q %.1.<.w.s.d.8.r.a.a.y.r.r.r.1.s.s.r.s.b.s.w.,.c.D.n.s.M 2 y.D.s.s.L.D.'.E.s.G.,X<XD..X'.r.X.u m M A ;.L.s.I X.m.} 1.s...I s ' J.$X&XB.D.D.i.d.c.m.m.E.E.s.s.s.w.r.i.r.r.y.s.0.1.[ T A / I K ..Q X...D.L.s.U.c.y.y.) Q ....c.'.p.r.4.i.s.r.M.A./.c.B.6.c.x.1.p.s.p.t.r.p.p.i.p.p.p.",
"0.L.P.L.v.1.4 $ g ..0.0.:.' K K 6.c.x.c.c.c.M.c.'.`.`.'.|.|..X.X}.M.I Q i.E.,X|.c.E.B.} 7 I V V ..).U.).B.8.i.i.h.r.8.;.A g A s.'.c.L..X).'.1.m G X.b V 8.J.c.J.s.h.m.B.B.m.c.c.b.m.B.m.m.m.m.B.d.B.c.D.s.A 7 u z I d.B.n.n.{.'.u.W.r.z =.n.[ 0.f.) u.B @.n.s.) p T A X..XU.1.r.r./ 2 M i.n.D.8.d.s.c.d.h.8.;.>.b.d.y.c.w.G 7 p r.r.V m 2 2 Q Y V s..X>.p h.'..XU.D.D.+X+X[.+Xn.n.c.E.J.Q ` m.a.1. .w.y.Q W E.@X%.y.b.h.i.s.a.w.w.i.b.c.d.D.L.h.w.m G W V S / s.[.E.%.b.n. .S G ;.Q.y.S a 9.Y { N W J.N.w.h.h.j.f.a.h.h.f.f.d.a.h.h.d.f.j.h.f.d.a.N.D.h.j.[ 6 f p f S a.<.e.h.D.<.J.a.D.@Xy.y.d.8.a.w. .J.b.a.i.w.d.w.8.s.s.d.h.h./ 3 ` h.` G W [ W + S / f b t G D. X[.@X3X=Xy.` G g W h.L.s./ S h.D.` X.h.` y.=.b W w.` S G p 2 f s I f I E...A I A ` [ R e.).D.[ B.,X.XL.%.S W %.1.b.R.=X;X[.}.;XJ.1.h.r.w.y.m.E.[.).E.Y.h.<.%.L.N.y.N.m.w.r.c.w.<.w.h.} { h.J.I.m.b.%.9 m y.X.%.w.s.y.y.d.h.y.i.s.s.a.r.w.w.i.d.s.i.s.s.i.r.n.U.c.B.n.g o I y.s.d.~.{.D.X.' r.r.Y Q n.y...{ / A I c.,X&Xd.X.i.d.Q 8.c.i.w.Q r..X}.s.=.1...1.).h.1...;.d.d.s.y.i.h.c.s.r.r.1.B.-.A Q Q B.1./ ' ..s.L.-XW.L.E.c.s.i.Q } ,.Q Q L.p.r.r.g.i...1.>.^ V c.c.x.r.r.p.s.p.t.t.u.s.u.s.u.s.",
"c.G.c.B.V.P.] c T B ' H I r...1.Y.B.x.B.B.c.B.A.M.B.B.M.c.B.|.,X.X|.p.C.}./.c.Q ,.c.*.p...g 2 =..XL...i.d.r.h.n.D.B.s.Y 7 g ...X,X<X;XW.c.8.p 3 Q 1.S ' J.J.L.L.n.m.M.m.b.c.h.h.c.n.m.m.n.n.m.B.D.D.c.s.I * q A g / n.c.B.n.s.I [ G.1.1.y.K / <XW./ S c u.~.W.n.' T y.D.s.r./ =.y.8.S / d.L.L.;.w.y.B.b.;.Z S w.Y.c.h.B.A r b g >.J.' u p R Q / ;.B.L.i.h.).8.r.r.0.y.f.[ X.n.r.8.d.s.a.i.g.J.L.w.>.L.I.y.` 8.d.J.J.B.s.w.h.B.h.n.d.h.b.m.L.c. .S f R <.c.J.d.y.<.a.w.b.1.u > p I ` 9 { n./ { n.<.R.>XN.<.N.b.f.d.f.j.N.j.j.b.h.d.h.a.a.h.h.a.a.N.a.a.h.h.G 6 r W ;.f.R.I.d.[.j.` J.K.).W.%.w.%.w.d. .9 Q >.i.1.y.a.w.a.B.d.8.a.` 6 9  .R.W W ` d.G Z N f n n [ N.[.$XW.D.h.s.` ` { 1.I.W.J.D.s.[.@Xd.f [ n. .c.d.b 3 b m m Y / h.B.g.C.C.R.$Xs.a.s.<.r.Y.c.s.Q r W ;X{.n.d.` z w.8.w.B.}.3X=X@X[.L.h.1.w...r.y.h.h.m.J.J.c.=.A  .E.U.c.J.c.8.r.<.w.d.h.N.8.r.N.J.J.b.h.X.p / d.a.b.W.'.D.a.r.y.s.i.p.s.s.r.i.d.c.m.h.r.w.w.i.v.c.B.8.n.U.I * u / d.n.L.U.d.S g Y S u / n.;./ / =.Q c.+X'.B.y.8.y.=.{ >.1.h.i.;..X.Xc.=.X.../ B.m.8.8.1.r.c.c.r.s.s.i.y.w.r.h.r.r.>.....Y n.s.d.W.U.{.+XL.D.&XE.l.c.d.) ..1.U U ..} =.s.L.g.' ~ E k s *.p.6.r.r.p.p.p.i.t.s.s.p.p.p.u.",
"@.L.L.s.B H m c m ] 2.=...n.B.~.OXL.r.s.B.B.A.c.L.M.x.s.v.M.v.s.Y.;X,X}.E.}.=.Q s.s.Q Q 1.Q 7 r..X1.M } >.r.h.m.h.B.n.Z s ' h.,X&X-XJ.1.' Q b A ..r.i.B.J.U.E.1.J.D.B.c.h.d.h.c.b.n.n.c.c.c.m.B.n.n.M.n.Q p S m I r.B.c.b.D.X.2 :.B.X.0.n.=.S Q I X.1.r.8.{ Y T D.v.+XB...;.Q =.y.d.1.y.c.s.r.@.G ;.b.D.h.G s y.a.w.c.E.%.<.X.W %.E.Y.=./ G Y h.Y.m.d.r.=.g I d.{ Z B / x S U.W.w.c.h.c.r.` %.c.'.i.Y.h.=.[.<Xd.).J.N.m.b.N.b.8.b.s.N.R.D.r.W 7 7 } I.@X.XW.B.b.c.Y u S X.S x S T <.S f.Q.0.-X X X_.W.).y.e.y.N.y.y.d.h.d.h.j.h.d.h.d.h.N.h.a.e.j.&.8.N.y.r 9 Z ` b.D.h.e.I.W.` f.K.[.W.8.W d.N.b.r.N % 9 =.h.y.a.y.a.h.b.s.8.w.W r n ` K.` W  .y.N y.;.e.I.<.J.$XL.L.m.=.N W ' ` y.R.$XR.w.8.s.s.a.s.>.w.y.<.c.b.Y.w.S  .I. X)..XL.N.h.J.'.}.,X3X[.b.w.w.A 1.h.I %.'.L.h.L.w.G h.y...Z y.W.b.i.J.h.s.i.w.a.N.w.g.r.w.g.B.h.[ m ..I.[.).J.w.8.r.w.y.h.w.<.8.D.E.J.d.y.a. .z X.1.J.R.'.J.w.;.w.a.r.r.i.d.s.y.s.c.r.c.n.s.s.s.y.i.1.y.w.s.D.X.9 u z s.W.W.s.' S =.-.Q p M ' Q m m 7 X.-XL.X.y.1./ 1.8.1.i.1.i.i.s.L.Y.s.>.' w.m.c.c.s.h.i.r.s.i.r.h.s.1.1.w.y.d.>.` R S z ' n.,.X.T I ;.W.W.&X&Xy.1.p.l...1.c.1.M.|.C.B.}.'.c.1.~ Q ..=.6.,.6.p.6.r.p.p.p.t.p.p.r.1.1.2.",
"l.P.l.0.I @.) i K G.v..X*X#X-X'.&X.X.X,X}.x.c.M.x.M.B.B.v.c.p.r.r.|.C.-.~ -.g.|..X'.L.V Q Q 7 1.m.8.1.b.s.c.m.c.B.L.J.Q >.'.;X3XL.w.Q =.S 9 s m ..&X<Xd.G ..d.B.c.n.M.B.B.N.m.n.n.m.n.c.c.c.M.B.B.c.c.D.=...y.S 1.B.U.&X'..XM.y.1.D.L.c.d.U.8.{ ' I g n.'.d.s.'.-X5Xs.y.c.=.s.c.c.c.8.r.n.B.d.1.<.d.L.J.B.b.1.y.8.W.c.a.J.J.z ` ..m g Q w.} i.L.} i.&X'.w.s r...u 4 K r.=.u.'.r.B.a.h.D...m 1.$X'.}.>XU.s.$X@X>XY.c.c.B.b.b.N.h.J.B.I.D. .f r u W B.'.W.D.w. ./ ;.<.=.A /  ./ m ..n.B.8.@.n.d.{ w.a.D.$Xh.h.h.h.h.h.j.j.d.d.h.d.h.j.h.b.D.b.y.w.a.a.J.N.` 1 f S 9.h.a.<.z N.8.%.W. .w.J.h.&.y.e.i.r.p N c.>Xc.d.s.y.c.s.8.s.d.<.9 n n Z J.).a.&.f.[ %.d.[.R.J.D.b.a.r.W m A } G / ).[.r.>.s.n.a.h.i.8.y.b.d.8.X.r.L.$X).N.Y.).N.h.e.G b A <.[.E.c.J.E.w.<.F a.c.8.h.y.' Z S N Y y.N.c.I D.D.Q z ..w.w.s.4.a.h.g.r.s.r.y.h.r.=.4.[.[.R.D.<.{ r.i.d.w.d.d.a.a.b.r.s.h.w.w.>.u S >.R. X@XL.r.8.y.w.y.y.d.m.h.r.r.s.s.m.d.1.i.v.c.s.y.s.c.r.c.r.g p Q D.L.y.r.L.n.y.m.s.8.Y g g 9 z / s..Xd.;.;./ 8.=.c.%.i.p.1.s.w.r.m.r.c.1.r.W.D.d.s.y.>.r.s.r.d.y.s.r.d.c.s.1.S g V A g B.-XJ.c.L.U.~.-X'.E.c.r.=.8.y.{ -.r.-.Y.m.$.1.}.E.g.s.' E g.Y.&Xr.x.1.s.0.i.p.p.p.p.r.0.r.r.t.",
"i.}.E.r.g I I i ..&XB.'.XXv.l.p.v.E.|..XE.c.M.B.B.M.M.B.A.B.M.c.g.B.r.} =.i.c.}.v.-.p...Q V u Q m.c.U.m.D.J.B.h.D.h.m.h.J.=./ s.' u M Q B.=.V m %.L.8.} g -.L.D.c.B.B.m.c.c.J.c.m.c.c.Y.D.m.E.m.b.m.i.h.r.D.E.m.d.d..X&XE.` 1.B.D.D.p.c.n.d.B.c.L.i.8.+X).v.E.+X+XL.r.1.8.8.r.y.c.B.s.s.d.y.B.Y.B.I.h.J.y.r.` G J.).N.D.W.i.Y A ..n.` Q s.c.d...s.s.h.L.E.s.>.r /  .u.D.D.E.).r.h.N.d.h.} A h.$X.X$X=X>X.XD.y.<.X.w.b.b.h.m.B.h.b.c.X.z 9 z D g Y U.U.n.U.B.s.:.h.D.c.8.8.:.8.n.y.c.h.f.D.h.z A Y w.d.K.b.9.h.h.y.h.f.N.N.a.h.a.h.j.b.e.y.f.w.8.h.%X@XN.t , Z Z d.a.y.e.y.D.d.K. Xy.R.j./ w.N.w.s.<.g %.,X Xh.y.s.s.a.i.s.h.a.w. .<.<.D.%Xd.` d.D.d.D.h.N.a.X.&.J.}.U.r.h..X[.h.{.,XN.=.w.d.n.y.c.m.s.N.I.a...` h.B.).'.}. XD.d.J.r.r 3 7 u A %.C.g.i.y.%.E.m.1.a.D...S 9 A 3 R y.y.h.b.m.I.y.b %.w.h.h.i.i.s.g.m.=.w.i.%.w.' `  .Y <.<.{  .X.d.h.d.i.y.y.y.i.a.;.w.s.d.d.S R J.>X$XJ.r.8.h.b.h.i.r.c.D.s.>.w.c.d.y.r.i.h.c.h.s.r.8.c.p.B.Y p S 1.B.0.:.s.{.r...y.r.y.;.Y M M Q :.E..X,XW.;.8.r.c.c.w.s.c.y.r.1.} 1.w.d.s.Y.'.m.r.w.>.=.>.r.s.s.s.i.c.B.s.1.c.A g [ A G E.'.}.5X$X{.J.y.1.1.1.=...r.:.S ..-...p.-.Q Q E.L.s.r.m u C ..=.B.B.*.s.r.p.k.s.r.p.s.0.u.u.u.",
"s.L.i.p.7 7 O.A r.p.-.s.v.M.k.,.-.r.i.c.x.p.c.v.B.B.B.B.A.A.B.M.c.B.' r.v.1.v.1.I s m A Q g k -.'.J.L.n.B.c.c.B.d.c.n.s.y.X.M I g g s ..E.' m G >.c.Q S Q =.d.J.c.c.h.L.c.B.n.m.L.J.B.'.E.B.Y.B.h.s.s.J.B.h.1.R r.n.s.Q A } s.m.m.c.B.L.D.c.n.W.+XB.s.S I R B.+XB.s.y.d.n.B.B.B.n.B.s.d.c.n.D.d. .` V X.w.N.%.Z a.r.y.I.c.<.' 1.d.'.U.c.b.s.w.r.r.s.1.r.).d.I S w.;.c.{.$X@XE.d.i.D.c.b.m.Y.$XY.I.).W.J.B.c.;.I 1.a.b.h.a.h.m.h.B.[ g f a Z Z 6 ;.).I.U.{.W.I.D.l.r.l.Q.-X,X$XU.9.d.B.D.D.9.m ;.%.` %.I.h. .e.h.h.d.y.d.a.8.f.N.N.h.h.a.y.a.w.;.9.f.;.n 3 b S n %.N.b.a.b.N.<.D.Q. X_.` 3 6 N w.w./ Z B.>XN.a.b.w.y.a.i.i.s.d.d.j.$X>X>X_.%.%.y.Z a.a.a.` ` W n G [ 1.N. X;X$X}.).Y.i.w.d.a.i.s.h.D.c.h.d.%.y.b.i.J.J.h.B.D.y.8.i.4.p s m b 3 * ` h.h.Q 3 =.i.1.w.m.J.8.Z  . .G 8.b.h.h.).[.y.Q h.h.h.g.h.c.h.a.h.i.s.w.;.} m ` [ <.E.J.i.d.w.w.a.a.y.y.y.y.y.a.d.s.i.8.w.` 8.&X3X'.h.w.r.s.a.w.w.8.s.c.y.8.y.d.s.h.h.s.d.c.d.y.;.p.y.y.L.I 9 Y =.,.=.8.{ X.g m s.n.c.B.'.L.8.1.s.U.,XW.;.1.y.1.m.c.>.1.r.1.r.r.>.1.w.i.w.B.m.i.1.w.w.w.r.i.s.y.d.i.w.w.r.s.i.g 9 d.%.r.,X+X{.y.1.8.w.1.;.=.>.w.s.c.r.A ' A I Q ..I 1.Y.i.>.F d k A u E *.r.A.r.c.p.p.p.r.r.p.r.r.r.r.",
"s.B.' g 7 ,.c.} r.E.|.i.' k.s.s.r.r.1.x.M.M.A.B.M.M.M.M.M.M.B.B.m.E.=.=...-.}.c.k r.v.s.c.,.s.Y.J.c.n.i.B.B.m.B.m.L.B.c.s.).'.&Xy.` i.L.V 3 1.1.{ I u 3 m Q s.;.' c.B.B.=.h.s.h.E.E.L.).c...8.d.n.s.s.m.i.Q G m n.s.} Y { B.y.s.d.i.D.B.n.D.D..Xd.X.B.A V =.'.&XB.c.y.s.d.d.c.n.n.M.d.d.B.P.D.=.b g 3 b [ J.n.r.h.} G Y Y D.D.b.;X&X&XW.J.n.s.D.Q w.c.L.}.a.V r.I.N.'.+X.X).h.h.b.D.c.m.h.h.N.r.a.c.d.1.1.r.=.Y h.m.m.d.a.s.s.y.:.m Z 8.T x x Y U.=XJ.U.D.c.y.s.T { D.+X+Xr./ Z X.d.R.&X&XD...D.h.w.` ;.b.D.J.f.d.a.f.e.w.y.d.J.h.d.a.f.h.K.f.n 1 & 1 . 6 n b ` Q._.D.d.d.a.9.).[.N.X.b f 6 r d.d.8.y.'.I.8.y.1.r.i.s.d.d.a.s.h.h.J.K.a.%.b b N &.h.9.h.;. .G z A W <.I..XW.J.R.J.w.1.a.h.a.w.b.b.N.d.d.8.M =.N.r.c.i.y.8.[ X.m.c...r V h.h.r.%.2 f s 7 3 }  .' b.'.B.1.L.B.n.N.N.h.N.&X5XW.a.B.h.w.h.L.h.s.C.N.$.I ` ` R b G L.;X'.}.I.n.m.i.y.i.a.a.a.i.i.s.s.a.i.s.y.d.a.Y.3X).h.1.w.a.y.w.r.s.s.h.c.p.s.h.s.w.s.h.i.y.p.r.>.r.n.s.d.n.Q 7 p 8.;.;.X.s A 7 M 8.Q Q 1.=.I I ) E.{.-XX.I s.p.r.y.i.>.1.r.w.r.r.w.=.=.r.8.n.n.d.<.w.r.y.i.i.y.r.y.y.;.;.r.m.>.m b Q D.$XE.E.c.1.8.1.r.i.w.=.=.1.:.r.r.I Q 8 V m s i ~ Q s m e e P m.=.^ - 5 1.x.M.p.i.s.s.r.r.r.0.0.0.",
"r.-.P i g Q U ..E.5X5Xs.-.P.s.s.s.s.p.M.L.B.B.c.c.v.M.M.M.M.B.B.M.E.E.$.k } v.i.A M.r...c.v.B.$.R y.).m.m.m.m.m.B.J.J.m.r.D.'..X;X$X'.i.G A m ` W.i.X.r s Y J.%.r.).B.R & u u g / h.E.E.' * A h.L.n.m.B.B.w.M.E.r.s.m.B...A 3 %.E.'.+XW.W.'.n.r.z 7 y.n.1.{.&XW.L.n.s.s.d.c.n.D.n.v.d.d.G.'.c.I 1 r f A ` N.B.N.h.w.d.<./ a.B.$X,XW.L.B.n.c.p.d.w.r.E.-XE.w.A Q  X[.&XR.L.I.y.h.h.b.b.J.i.%.y.c.d.h.h.y.r.a.a.y.b.B.N.h.h.d.i.r.8.D S b.8.{ I =.I..Xh.B.r.8.1.r.f.f.D.W.W.( p z 9.Q.W.D.'.-Xb.a.f.D.w./ ` e.J.a.a.a.j.w.e.D.j.b.d.h.h.j.w.b.w.6 f p n f Y n f &.J.h.9.e.d.Q.D.y.8.W z t ` j.b.j.y.c.L.I.i.w.b.w.h.d.d.b.b.h.s.a.N.w.8./ ` b z / N.<.N.N.D.;.[ %.J.}.&X@X).J.b.h.N.w.s.s.a.h.a.c.n.d.a.c.%.& Z w.c.h.w.<.W g / d.J.' s G $XE.J.%.b s 2 t g Q =.I.N.$X .f d./ m w.s.N.@X;XI.c.h.y.y.<.1.i.w...1.J.R 1 g A Z V %.h.b.1.1.w.d.N.a.y.y.a.s.a.i.a.s.a.r.i.h.d.a.y.d.h.w.<.8.a.s.r.r.d.n.h.c.c.p.y.i.i.y.d.c.h.d.h.s.r.d.c.n.n.d.1.z i { =.1.I m ;...X.s.=.1.c.{ 8 7 M {.&XB.u I n.1.s.8.r.w.r.s.y.r.y.i.r.%.r.1.s.B.s.1.w.r.r.r.r.r.y.y.s.w.1.X.' i u Q '.Y.J.c.1.=.1.i.w.1.r.r.w.8.8.p.u.r.=.,.A r...' I g V e e g g P 1.1.c.,.I u ..p.r.i.s.p.r.r.0.t.t.t.",
"r.v.r.1.l g c..X,X|.M.M.A.L.p.c.p.s.s.M.B.v.M.c.v.M.M.M.M.M.B.L.B.g.Y.Q 8 A I U ' 1.A A s.v.C.r.' a.W.b.c.v.m.c.B.h.D.D.m.n.).E.{.B.L.L.s.'.L.s.d.s.B.=.i.1.).E.R.J.w.A b G g i 3 9 3 g g u ..L.L.c.s.h.B.i.m.J.s.y.c.m.J.m.8.W.$X-X'.E.).W.J.>.` R 1.W.L.<X{.J.n.s.s.c.B.n.n.c.n.n.n.B.U.L...3 6 s N Z / h.b.c.h.c.D.=.s.R.W.=X).E.I.E.B.h.c.s.B.n.W.;XN.s.y.r.}.).).B.E.}.h.c.i.m.B.B.c.b.B.d.c.N.n.d.a.h.h.s.s.b.m.m.D.n.s.a.L.u.<.N.d.c.=.u.n.W.h.D.8.u.c.n.[.Q.+X~.X.& > D Y S G w.c...r A j.R.).h.G b 9.).J.h.j.a.h.J.h.d.h.d.d.w.b N S 9 f G S N ` S / y.X.z 6  .j.N.8.X.Z r f G <.Q. XI.d.d.h.N.s.w.s.b.h.h.h.h.d.s.d.h.f.j.%./ [ p Z e.` S a.y.W.J.R.K.E.>X&Xn.8.1.>.%.y.w.b.s.8.w.<.w.h.d.d.h.` $ z %.r.i.y.%.W >.I.E.N. .s R ).J.1.A m Q I V f b ` J.>X4Xy.' s.X.[ a.h.'.3X'.w.8.w.' =.>.m 2 g 3 * G 1 p ..Z 3 V s.h.r.h.b.a.h.J.s.;.w.i.a.y.w.y.y.r.s.s.d.a.8.r.r.;.8.r.s.d.i.r.i.d.s.r.i.s.w.;.1.r.h.i.i.h.c.s.i.s.y.y.n.c.n.n.Y 8.d.p.r.A ' y.r.8.' n.s.d.L.1.X.D..X&Xy.m X.B.r.d.i.s.p.i.i.r.w.s.r.s...h.d.c.E.s.8.w.r.r.w.w.r.i.i.y.r.s...A r R L.&Xm.c.s.w.>.w.r.r.w.1.r.i.i.w.d.r.1.L.|.G.E...i.1.i.}.s.F g g A >.5.g.}.,XA . =.,.i.i.0.r.p.0.u.u.u.",
"..T.c.C C v.,X:X;X1...L.v.s.v.M.c.M.v.B.B.c.B.A.v.M.M.M.M.M.B.A.B.M.p.i $ s m i m ..=.-.v.p.M.Y.'.J.L.i.r.i.D.E.).B.B.c.c.i.J.m.c.B.c.).L.U.'.U.I m c.'.Y.=.U.$Xy.B.m.A 9 u u A G V 7 r 7 s r.{.1.r.r.s.v.i.h.B.s.s.B.h.L.E.).;XE.E.n.L.E.B.L.c.B.L.s.L.;X-XL.D.c.s.p.c.n.h.s.y.B.B.L.L.E.s.z $ b Z / Q %.J.J.I.b.s. .p B.5X<X}.'.'.E.'.W.Y.'.E.n.L.E.Y.d.s.c.B.I.L.W.W.}.).h.B.N.B.m.h.h.B.b.<.a.c.h.y.s.N.h.;.s.m.m.N.L.n.y.s.n.n..X3Xb.' I n.d.J.d.N.r.d.D.d.z.9.F.D.A 2 c S ;.:.W A z g p W D.J.;.%.j. .G J.[.N.h.b.D.N.d.b.d.f.a.[ 1 N N 9  .w.X.9.%.z ` d.J.j./ <.h.` N w.%.G Z X.h.y.8.b.B.c.d.h.c.r.w.h.i.d.h.s.y.a.b.D.D.[.W <.b.W %.a.Q.D.D. X$X[.=XW. X$XJ. .S Y ' ..8.a.J.I.B.h.s.B.d.d.d.s./ g Z Q N.B.R.i.X.h.Y.I.m.` 2 4.Y.s.' ;.e.g.%.G g N e.$XW.X.u Y s.h.y.i.[.<X$XL.N.d.8.8.s.a...s 1 7 r 2 6 n V u A 1.c.w.X.X...>.N.U.N.a.w.a.d.y.w.y.y.y.a.s.i.s.y.h.h.a.i.s.i.w.w.y.a.i.r.1.r.s.r.>.w.s.c.i.w.i.s.w.w.y.r.d.s.y.n.8.S .X-XU.B.r.c.r.8.8.8.D.8.;.y.X.1.L.U.E.d.;.1.s.d.i.w.r.s.s.i.i.r.c.i.p.%.L.E.Y.'.s.w.w.r.y.i.r.y.i.a.1.w.B.r.%.r.).E.' i.L.w.s.i.r.r.s.h.i.r.i.r.w.i.l.i.8.U A E..X&XM.p.i.=.r.r.4.U ' ,.'.|.|.M.1.-.2.p.i.1.t.k.u.p.u.u.",
",.A.c.A 6..XM.A..X=.| c.s.A.L.p.B.A.v.B.M.c.B.B.v.M.M.M.M.M.B.B.v.E.p.i u } ` V Q 4.L.s.M.B.g.c.n.r.M.w.Q G ..-.=.h.B.M.h.h.L.c.s.B.n.).'.'.}.Y.J.} L.}.} m y.D.B.r.A + 3 ..' ..I A g V m I r.s.i.b.s.c.i.=.;.s.w.%.=.i.Y.Y.'.}.L.U.E..X{.B.s.8.i.i.y.Y.,XW.r.s.d.s.s.c.n.m.B.L.D.B.D.L.L.X.3 2 b Y a.c.L.'.d.<.d.n.h.i.).J.J.&XY.m.c.n.D.Y.R.{.;X}.).m.Y.Y.1...B./.}.).L.b.h.m.J.h.h.c.d.d.h.b.c.N.b.h.b.J.N.r.h.D.b.h.D.h.y.b.d.I y..X8.N B f.y.y.9.f.y.d.B.8.o.y.z.8.9 4 x I D.E.d.<.W Z V } a.a.t 6 j.h.b Z w.w.e.j.N.h.b.b.8.[ %. .Y h.<.` y.h.h._.9.z %.W.h.<XD.y.J.J.b.@XR.R.a.w.D.N.w.&.h.s.d.s.d.b.b.c.s.b.b.h.b.D.J.N.D.a.r 8.J.X. .<.j.e.9._.J.N.W.@X.XE.<.m r f M G G %.w.h.c.y.s.m.h.s.h.s.G A Z ..i.w.d.=.w.m.<.1.%.N 7 m.R.} b %.w.c.a.w.%.` i.E.w.z u ..J.N.a.J..X-XI.w.d.J.m.s.y.e.1.R f R } m b m G %.w.i.>./ Q Z N >.).W.h.w.r.s.h.a.y.a.d.s.d.h.y.s.r.a.8.8.a.y.w.8.w.a.d.a.i.y.d.c.s.y.d.c.m.c.d.d.s.i.i.d.p.d.y.p.8.Q Y U.B.d.D.'.c.y.n.y.L.l.y.n.0...c.n.r.c.d.8.;.8.r.8.1.r.h.s.i.i.r.n.c...` n.U.Y.c.w.r.r.r.i.s.i.i.p.d.w.r.s.=...J.Y...s.r.r.i.1.s.1.1.w.r.r.r.r.r.i.v.r.X.U A A v.v.-.s.c.4.A 1..X}.Q B.`..XL.M.P.k.r.r.p.p.0.r.p.t.0.0.0.",
"6.E.L.6.| } x.'.L.r.1.s.x.L.x.v.B.B.c.B.L.B.A.B.B.B.B.B.B.B.B.B.h.r.} u } '.L.L.L.B.'.r.p.B.c.Y.D.s.'.{.Y.c.} 1 z s.J.m.>.s.J.m.n.r.L.c.>.J.).B.c.i.D.i.V m ..w.i.Q 2 2 G B.y.L.n.n.r.X.m m >.1.c.m.r.B.B.h.i.J.i.R b %.E.;X,X}.).Y.E.m.h.m.r.r.} V =.&X'.n.>.w.s.s.d.c.c.h.c.B.D.n.n.n.n./ 3 M Y / d.N.E.I.` p s.Y.I.E.}.L.b.D.c.1.c.s.h.m.i.E.>.R r.%.y.B.-.{ I..X'.m.s.c.N.i.b.s.c.b.d.a.a.h.J.m.b.c.h.s.d.b.d.m.d.a.b.h.d.I.I.4 x / S [ l.E.D.f.1.f.f.y.f./ A z.;.[ X.8.D S y.W.I.N.h.D.c.h.N.a.&.Y / <.` 9 6 / &.y.d.h.D.e.W % t %.8.R.a.Q.D.E.W.%Xw. .K.4X$X). .;.N.h.a.J.<X3X>X$X).J.D.N.b.w.s.h.r.s.b.c.N.D.D.D.W. XI.y.<.z 6 <.;.S f y.h./  .N.J.W.j.j.B.d.` p r s s u Z 8.w.r.h.d.N.B.c.a.B.h.u 9 A W.h.y.=.S d. XY 9 6 r b w.E.%.=.h.J.L.h.s.h.r.w.` b I ).$XJ.y.J.<X5XN.w.s.y.r.b.J.1.a.G u ..w.%.i.%.G ` c.r.m.s.G S G Z  .B.I.h.<.w.a.d.i.r.a.d.s.h.h.w.a.r.s.w.d.y.a.s.s.a.s.d.h.s.h.v.h.i.s.h.s.s.c.h.s.r.y.s.s.s.r.r.n...Y y.8.1.r.r.y.9 / E.c.|.E.y.p.y.p.L.d.8.L.B.1.s.n.i.n.c.h.c.r.>.8.8.B.X.2 3 } s.L.r.s.p.r.w.r.i.i.s.s.y.r.y.1.U I c.1.w.1.h.r.s.i.i.L.B.s.r.i.p.i.r.r.s.0.i.' ..A ,.' Q ' A c.c.c.}.' A T.|.c.M.B.c.p.0.,.r.p.r.:.:.-.:.:.-.",
"p.'.M.M.L.v.'.'.c.s.M.B.v.M.C.c.B.B.M.M.M.B.B.B.M.B.B.A.A.B.M.c.p.Q 7 u i.'.|.E...U } ~ p.m.c.Y.v.p.}.|.Y.;XE.Q V r.v.i.i.v.B.M.c.n.d.w.8.s.m.J.=.` M.%.s A w.B.A 2 3 m V I A s.d.m.Y.h.%.=.s.Y.n.m.B.c.B.J.B.W.1.g s %.B.L.&XL.J.B.B.h.p.8.m.s.M.E.L..X).1.i.m.b.N.B.N.n.c.h.h.d.h.b.N.).1.7 A  .m.h.I.>X .g ` m.a.X.w.[.J.N.a.h.h.h.h.b.d.[ r 2 m ;.s.B.;./ G c.W.c.a.y.h.h.h.b.N.c.d.h.m.B.n.h.h.y.<.w.h.N.c.D.d.N.n.d.B.c.D.s.O f y.z S c.Y ..U.D.c.n.D.c.a T d.{ y.D.f.;.Y Y &.b / ).3XJ.w.X.a.d.%.<.y.<.;.S r b f Z ;.j.G , t f t b D.3X .G  .J.R.D.%X4X@Xj.R.%.8.W.N.b. XR.a.J. X[.8.<.a.s.r.s.b.h.s.d.d.c.r.Y.L.' S V 7 r 3 m w. .A f R.N.R.).=X).E.B.B.c.%.m 6 z z G A w.3X` 9 r.w.B.b.B.c.m.%.6 p y. Xy.Y.J.D.<X[.w.m 9 m [ ).W.J.W..XD./ y.Y.y.B.{.b.w.h.,X).[ d.=X;X.XX.:.8.a.u.y.8.` Q N V w...Z Z X.' ` h.L.>XD.i.R.D.[ <.'.N.w.<.w.d.s.w.r.s.h.c.;.w.y.y.y.a.s.a.r.a.r.1.s.d.w.d.r.r.B.c.s.c.d.c.1.1.8.1.i.r.1.s.v.s.h.N...Q r.1.1.s.h.c.i.;...Q ..m Q s.w.r.h.` A M.s.r.n.d.h.r.s.r.=.r.s.8.d.c.p $ 7 p / y.c.8.s.r.i.s.r.a.d.i.p.s.r.r.Q ' c.B.s.p.M.r.-.B.E.E.v.p.i.p.p.r.r.p.i.r...A V g } >.,.U g r.E.1.c.$.*.E.A.L.v.x.p.c.r.p.Q g t.r.t.1.@.c 7 ",
",.E.M.L.E.v.L.A.M.x.c.A.x.c.A.A.M.M.v.M.B.B.B.B.B.B.B.B.B.B.M.v.M.U i 7 1.E.i.Q g 8 } v./.Y.B.E.B.'.'.s.-.-.Q i M m A Q c.E.v.M.m.c.c.c.c.c.m.J.i.i.c.w.>.1.L.'.c.G z m X.%.>.m.U.m.n.c.J.{.W.L.).L.J.n.c.Y.W.B./ u m J.U.h.B.1.w.L.n.i.s.s.1.X.=.1.L..XU.r.y.m.h.h.b.b.b.c.c.c.N.b.N.J.L.Q 3 V R c.).<X&X<.` b.'.L.B.Y.R.s.a.c.s.J.N.b.L.y.G s N G i.@X3Xh.[ / a.D.i.a.y.d.d.h.d.h.c.h.c.N.m.h.h.h.s.i.a.b.N.c.n.c.b.D.c.8.f.+X[ > T ;.M b a 4 I r.I.9.;.R.y.1 U.f.X.u.n.b.y.<.w.9.G 8.@XQ.G 9 N e.I.@X XI.h.N.N./ 1 1  .N.w.S N n f Y  . .X.G p G a.I.). XI.j. .h.h.).<X$X>X>X9.%.f.D.d.` X.f.y.w.y.a.y.s.h.s.h.c.>.g + * s f z p g y.<.W %.'. X<Xh.)..XL.Y.b.;.Z 9 N S } <.h.N.;.7 * A d.m.w.8.m.` + > Q h.J.I w.s.h.W.m.c.c.<.R D.W.I.E. Xr.S ` R.3X,X$XE.h.J.E.h.n z ' X.%.y...8.1.8.y.d.9.Z z p R a.a.8.' h.i.` [.<XN.s.Y.<Xh.c.I.d.R.8.w.8.w.y.a.s.r.w.a.8.y.d.s.a.y.r.8.r.%.i.h.8.w.h.a.r.h.i.8.B.D.1.i.r.;.8.d.s.r.i.y.r.p.s.y.` [ m.c.>.s.y.B.$Xn.=.>.w.I V >.n.d.i.1.i.n.).i.%.d.r.r.1.d.s.d.s.y.c.s.m u g Q p.y.=.1.1.i.i.h.c.r.r.h.w.h.h.d.Q i..XE.L.1.1.,.,.v.v.i.i.r.r.i.r.1.r.p.r.r.Q i u u F Q A g m A p.c...Q c.M.i.c.c.B.c.r.t.p.,.,.p.s.i.=.H i i ",
"s.`.c.s.x.i.B.L.c.c.B.'.c.B.B.L.M.M.M.M.B.B.B.B.B.B.B.B.B.B.B.B.m.e i I r.r.I A g I }.3XoX,X3X.X}.c.h.=.7 8 A 7 -.v...L.|.c.Y.i.c.h.h.c.c.h.d.d.n.L.m.h.c.W.;X>.Q r r ' +X<X$XE.).W.L.c.B.L.=.V i.m.b.L.).r.A r & 2 { U.J.{.c.Q w.Y.B.D.n.c...A m I Y.+XB.s.w.c.b.n.n.c.h.h.h.h.B.b.D.J.h.r 1 b ;.J.[. XL.E.).5X&X[..X[.d.a.d.b.J.D.N.D.d.R p b S <.'.>X@Xs.r.b.J.D.w.h.h.c.d.c.d.h.c.h.c.N.n.h.m.c.c.m.B.B.m.b.n.c.c.n.h.s.I.{.g 7 ( p > p 3 Y B.8.9.z b I 9 ` W.@.d.n.d.s.;.o.X.h.j.y.<.&.Z z z J. Xh.a.).j.a.h.a. . .&.e. .W f f  .W.Q.&.G f p b w.$X<Xf.W X.%.h.R.$X$X@X%XJ.&.%.a.e. .G 9.).J.d.a.d.a.a.d.d.8.D.} N / X.X.` Z Q [ s.B.I.=X&X).D.Y / n.L.b.B.d.%.Q Y =.$X'.b.d.[ m 3 m a.h.s.s.J.%.9 z z I S s G W { s.w.;.X.D.'.3XI.c.` G f 2 i.$XW.W.I.%.R 1.=.%.N z 9 p V 1.X.1.y.y.8.B.D.Y m A <.y.m.R.h.y.;.a.R.a.N W &X).c.$XE.' b.w.w.N.h.i.i.i.y.a.b.i.d.h.s.i.r.w.8.d.r.i.c.h.d.i.w.m.>.1.m.N.>.Q { v.c.i.B.m.h.L.m.c.J.c.>.M b 1.c...>.w.=.w.8.U.'.L.=.>.s.1.d.).s.>.J.c.=.8.d.i.i.p.y.1.y.c.n.s.X.M u z s.'.D.p.c.=.a.w.s.p.' ' 8.r.i.s.m.' L.&Xn.s.=...' ..c.M.p.r.i.p.i.i.i.p.s.p.%.g u g m V V s 7 m ' E.v.V U E.A.P.T.p.i.1.1.i.p.Y.E...,.r.2.c q c ",
"^ A.B.c.c.p.c.c.s.B.L.'.s.B.M.B.B.B.B.B.B.B.B.M.B.B.B.B.B.B.B.A.B.* u -.s.~ m ' .XM./.|.).}.L.-.m V R m 7 i V A I M.|.}.Y.s.s.M.c.m.n.s.s.n.m.c.L.Y.s.r.D.&X}.I } c.Y.}.L.J.W.,X;X'.Y.L.L.1.m g ..c.E.'.1.* . u u S i...{ '.h.1.J.B.J.Y.;.} ' M b ..+X&XJ.c.w.d.N.N.N.b.c.h.c.b.m.n.J.D.8.2 g S J.$X).>.X.I.E. X'..X>XJ.` a.b.a.8.a.'.Y.A * r b =.J.&X.XL.s.a.c..XD.;.h.B.B.c.c.c.c.h.d.d.b.b.c.N.c.m.B.B.b.h.c.N.d.D.h.n.).D.T * u X.N r D m 8.:.w.U.{ Q [ p 8.u./ B.d.8.8.[ N X.d. X@Xf. .t r n z n Z Z G 6 8.j.h.K.R.` ;.X.t p / 9.d.R.K.w.%.&. .h.@XR.` S a.a.d.d.b.b.J.I.w.y.a.h.a. .` h.@X'.b.s.m.b.a.a.c.a.N./ ' N.m.i.;.` %.s.r.I.$X).N.h.m.y.;.<.=...h.h.h.'.L.}.I.%.` a.1.<.X...[ 8.b.8.8.d.1.Y r ;.>.u X.h.m.L.b.<. .D.4Xa.s.i.N > r A w.b.d.c.` 6 A h.A b f S f / 1.a.u.r.c.c.y.l.r.& 3 %.}.U.N.1.` 8.` n.<.u 1 Z s. .=.d.J.B.y.d.n.d.i.y.r.w.y.a.y.d.h.d.i.y.y.i.s.a.d.i.a.s.s.h.s.1.s.n.,.A b b s Y c.m.B.h.1.r.%.s.r. .` m g 1.L...%.y.=.=...s.} >.Y.E.m.c.m.s./ } L.h.1.c.h.y.s.s.r.8.s.s.8.1.8.' z I W.E.n.c.r.r.d.r.s.;.A ' r.r.r.c.m.b ..c.1.-.=.Q A =.L.Y.c.,.r.i.1.1.r.i.i.s.I u U U } -.r.' Q Q B..X..Q s.|.L.B.s.1.p.r.c.B.E.;XM.m 1.c.:.I C K ",
"* 6.L.B.B.B.B.s.c.L.B.B.-.v.B.A.B.B.B.B.B.B.B.M.B.B.B.B.B.B.B.L.B.u g 1.Y.v.c.c.E.M.c.c.c.c...V 7 I r.U g U U Q Q v..XB.p.s.p.B.c.c.c.h.h.c.m.D.m.B.` I B.E...` L..XW.).Y.'.{..XR.}.J.1.p.s.Q m S Q d.r.2 . A ..g V Q Y v.}.B.B.).B.c.>.S r A m Y Y.,X.XE.c.s.d.b.b.b.b.b.N.D.J.m.D.J.b.>.z ;.8.L.>X$X%.=.s.r.a.d.D.).w.N <.y.X.G R { M % 6 G N [ n..X[.h.=.%.a.W.h.%.h.N.m.c.c.b.c.h.d.d.h.h.h.b.h.h.c.b.d.d.h.c.d.R.c.R.D.D X 3 z ` ' { S f =.Z { +XD.{ d.d.f.d.:.d.8.r.u.%.Z Z w.).N.%.<.W t n / / ` /  .n ` D.%.%.%., Y <.N G / ;./ W f.j.;.b.N._.R.w.X.<.N.b.h.8.<.e.f.a.8.y.a.j.j.8.<.f.J.J.d.i.h.c.h.c.c.d.h...;.a.8.y.w.g m W } J.D.s.s.=.w.Y / ` / J.R.b.N.E.c.D.` r [ E. X>XD.` 1.s.i.m.y.h.` p m R.B.I.$X$XR.D.c.w.<.J.m.I 1.I z f m N N Z ` >./ Z >.g 7 u A a.X.<.c.s.U.h.u.d.d.o.4 r b d. XR.R.h.).W.h.h.i.X.S Y 6 f / G W Y z ;.N.N.s.s.h.s.s.h.h.s.s.s.a.i.a.d.c.h.i.c.B.w.h.[.h.D.).r.m u s I 8.=.} >.Y.>.u R >.} Y g V I ` c.U...w.d.i.I.y.c.B.h.'.U.B.W.Y.i.` E.E.}.h.1.s.1.r.h.y.s.d.i.1.1.i.i.>.y.&XY.d.h.r.i.r.r.r.` I r.m.v.s.m.r.9 / i.>...=.I U M.}.v.r.r.p.i.r.r.p.i.r.m.I A $.A ..c.M.p.M.i.L.,.g r.,X'.T.B.1.i.s.r.v.B.E.Y.I i c.L.' g i C ",
"2 6.B.s.x.B.L.B.v.L.L.B.4.M.L.M.M.M.M.M.M.B.B.M.B.M.B.B.B.M.B.P.g.g s 4..X;X3X.X6X|.=.Q r.M.} g m U L.M.Q } i.c.'.,X'.M.c.c.B.M.B.d.s.c.v.s.d.B.c.c.=.N { i.A S s.B.E.J.'.E.c.=.=.E.J.} r.D.=.I i b U 7 X u A r g Q V / D.s.E..XB.n...V ` m g p / {.E.J.L.s.c.c.b.b.b.b.b.m.B.D.N.D.m.a.<. .R.E..X$X).w.c.a.i.b.d.y.a.w.;.h.d.%.' I 7 = 7 b m V ;.'.>XI.=.=.a.I.J.c.i.L.N.h.h.c.c.b.n.m.m.b.h.d.c.h.h.h.c.h.c.N.b.n.D.c.W.Y O < z N r W d.' S n.&X+X<XI.X.:.d.c.n.s.c.c.d.8.[ S b I.>X<.z <.&.t e.@XQ. XJ.d.d.e.w.<.d.N.n G [ ` &.8.Q.b.;.%.` ;.D.I.@XI.e.e.y.e.h.N.f.y.d.y.9.e.f.a.f.j.a.a.f.d.d.s.a.y.a.N.B.a.i.h.d.m.h.a.d.%.G ;.[ >.N.1.w.` s u 9 / J.+X3XJ.w.h.i.d.c.;.Z d.3X Xh.W Y ).` G h.y.8.G ` d.[.B..XN.<.w.N.W.m.m.).1.r.1.N z f m V V Y ` %.;.W Z 7 r A  .;.Z [ d.N.I.y.w.d.s.D + u Q D.h.I s r ..[ ` w.B.@Xh.Q G >.` b S & 7 ' m.J.d.b.L.n.s.d.d.i.a.d.d.d.a.i.s.d.m.8.G * 9 r.I.i.R u R 8...{ >.>.7 r { m b d.m.r.s.r.w.1.c.$X'.Q ;.h.i.h.h.{. X&XJ.c.).$X{.$X;X3X.Xy.X.8.i.r.r.d.i.p.r.s.c.r.1.i.L.L.W.Y.s.8.c.s.;.w.=.I ..B.m.h.B.Y.%.7 G ..G A I I p.;X'.s.i.s.c.s.p.s.c.s.p.m.Q $.i.} p.L.1.r.i.p.i.V u =./.E.E.c...r.1.-.s.Y.r.] u u m V 2 q c ' ",
"U m.L.x.v.B.M.c.v.M.Y.E.M.A.A.c.M.M.M.M.M.B.B.B.B.M.B.V.B.M.B.Y.i.7 g ,.'.'.E.E.B.r...v.M.=.A ' =.'.;X&XB...1.L.E.E.E.i.s.E.v.B.B.c.d.c.B.L.L.L.Y.Y.E.Q 9 1.>.R y.c.W.m.E.Y.r.' r.c.n.L.&XU.i.'.w.h.w.u 9 S g I I s.c.J.s.Y ' X.} ..g s } R m G 8.W.c.c.m.y.n.c.N.N.N.m.b.c.b.n.m.N.h.d.i.h. X X3XE.r.w.a.w.a.d.J.h.i.N.).R.I.D.W. XW.D.h.X.Q ;.J.$XY.%.G =.w.r.I.D.c.Y.b.h.b.h.b.b.n.N.N.N.c.h.c.b.m.m.m.n.b.N.b.N.b.D.B.> o S M S Y s.@XJ.s.U.X.U.U.8.8.d.s.r.X.[ 8.d.%.` N z f 9.J.R.j.K.j.` 9.R.W.D.w.e.D.N.J.N.h.a.N G  .w.&.y.h.a.J. .6 a._. X).f.8.e.e.h.w.a.j.h.h.j.h.j.N.h.a.h.y.h.h.j.d.a.a.a.s.c.c.i.m.h.c.b.h.d.;.m N y.h.N.c.a.m.Z 9 r b G b.[.J.8.h.h.r.b.i.%.<.;X<./ G g I ' s s.d.r.h.y.c.s...>.b.s.b.W.[. Xm.B..Xc.U.r.8.` Z %.c.8.c.).E.y.S r f r f %.c.w.d.N.I.n.8.y.c.8.z a b 8.E.y.N p X.N.[ [ R.I.W.s.V >.W.A u 1.' ' ` %.a.i.N.D.h.N.D.d.i.i.s.d.s.r.r.r.;.{ * + 7 7 9 3 * O & %.n.>.I > 2 u s $ = w.'...w.h.c.s.;.h.&X).{ X.s.c.y.s.w.r Y %.Q >.Y.1.=..X'.).g G c.r.c.s.w.i.v.i.r.i.r.i.r.B.h.1.h.r.%.p.c.r.s.} Q h.m.r.Y >.h.S 1 u m b g i Q }.;XB.v.s.i.i.p.p.p.p.p.p.p...g.L.Y.&X&Xv.Y.Y.'.'.r.1.v..X'.p.U A =.1.t.i.-.m 7 i g 7 g g g A @.",
"s.E.L.p.c.B.M.M.B.x.B.Y.B.M.A.M.L.A.B.B.B.B.B.B.B.M.M.A.B.v.B.Y.1.2 k -.}.&XB.B.m.-.Q =.Q m V ..i..XB.-.g i p.-.p.|.M.c.M.v.M...1.i.w.=.s.}.$XE.E.}.E.G $ X.m.B.m.J.Y.B.B.}.w.X.c.B.d.v.$X'.v.;Xw.R I 9 p A b 1.B.%.=.h.c.h.Y b 9 7 = s p r V i.'..XJ.L.B.i.n.d.m.m.m.m.b.n.m.N.N.N.c.N.B.U.}.).Y.r. .h.y.d.N.i.y.c.h.b.J.1.h.R.D.).[.m.w.i.d.w.D.[.Y.c.;.w.a.L.L.b.r.b.a.b.N.s.h.h.d.h.h.h.c.c.c.m.N.m.n.b.h.d.d.d.n.'.y.o x z I [ D.=X@X.XU.;.N :.d.:.;.s.r.X.S 9 m S a Y b p Y ;.&.w.<.j.R.b.w.f.$Xa. .b.h.J.h.h.D.N.X.j.$X$XK.f ` b.j.N.w.w.R.3X@Xw.e.N.d.N.j.h.N.h.y.j.N.h.h.h.f.N.y.d.a.h.b.1.8.c.c.y.i.h.h.i.c.J.U.D.X.b p / J.W.w.1...& 3 Y N ` ).).E.>.8.b.m.1.y.d.c.} A 9 V m s.B.$X).%.' d.a./ p 2  .s.B.).[.R..XR.[.D.L.'.N.<.m Q  XR.N.B.B.I.'.I.b.=.N.[ ..$X$Xh.a.c.n.s.a.f.8.a z <.I.U.r.Q  .3X,X).).&X$X'.W.E.'..XW.N.d.w.d.m.Q S G N > & ` N.s.s.i.i.a.r.8.8.r.d.' 7 s m m / I g s g =.1.g g ;.>.L.s.z p / { } s.8.;.w.=.h.&XY.>.y.r.s.s.y.>./ m ....=.w.} } r.L.r.G } y.r.h.y.n.1.w.r.s.h.r.s.h.1.;.' s.J.m.M.i.w.r.G ` D.r.` u 2 3 $ S 8.i.1.Q i } |.'.v.B.-.r.i.p.s.p.p.s.c.s.r.E.E.E.E.E.E.Y.,X&X'.4.p.'.3XE.s.1.p.v.,.p.,.t.{ m V C U } h ! ) +.",
"c.E.B.B.c.M.M.M.v.B.A.A.M.c.M.B.B.M.M.B.A.B.B.B.M.B.A.M.c.L.L.k.V 2 k ../.Y.i.i.,.Q I m m s V V A Y..XB.} A ,.B.E.L.M.M.v.M.1.7 1 / ` m s s.&X$X,.>.{ $ r %.L.c.L.n.d.s.m..X..Q h.d.s.s.B...Q =.m R >.A g ` d.n.c.-.%.s.b.D.U.%.m s S } } V ' &X4XB.s.D.n.c.B.c.b.c.c.c.b.m.N.N.m.J.h.d.J.N.i.d.i.` =.b.h.b.D.i.V / Y.c.w.y.h.B.[.W.1.A Z I b s.&XW.Y.B.I.J.Y.B.w.c.w.N.J.y.b.N.b.c.b.b.h.d.h.N.m.m.N.c.s.h.c.h.c.h.D.U.r.X z Z Q .X3XD.<.X.3 ..8.d.y.r.8.=.f.z a u 9 m g u x S X.R.)./ n a.).J.$X4X[.I.[.).W.@X$XR.$X@Xh.$X<XW. XJ.%.a.b.b.h.h.[.R.&.&.b.N.b.j.h.h.h.d.h.N.b.h.f.h.N.N.j.h.h.j.h.b.b.h.i.y.i.d.a.y.y.h.d.d.A 1 G D.R.J.w.Q 3 & m z Q a.J.I.N.a.a.d.c.w.;.h.w.g %.d.D.}.$X@XY.;.W { / g 1 b Y y.D.L.W.).L.D.N.h.h.U.I.G 3 2 N.b.` d.D.b.B.).W.J.'.,X>.I.).e.;.r.D.J.8.y.w./ c :.).I.m.X.z D.5XR.=.w.).L.J.L.).[.N.m.....h.h.s.c.' . 3 1 3 A s.w.p.s.i.s.h.c.s.r.B.s.u A z 1.$Xr.s g z m m 7 ...X-Xi.g g Y g 1 3 A A I 8.h.B.W.=...y.i.w.s.i.r.c.' I ..B.m.-.>.m.s.%.X.i.c.s.y.r.r.i.i.i.y.r.r.r.g.s.>.` c.1.A r.Y.i.Y Q c.8.r.m b p 2 g R n.L.m.'.c.}.;XB.i.r.p.c.p.r.r.i.s.s.s.p.s.p.r.i.s.g.p.s.v.Y.L.1.B.E.E.t.-.s.v.r.B.'.c.c.p.I 7 U =.] ) c U ' ",
"s.L.M.M.x.M.B.B.c.M.A.A.B.M.B.A.B.M.M.B.A.B.B.B.M.v.v.v.M.B.x.=.X 8 V =.L.1.U U m g A P ~ } 1.w.1.s.r.} A I B.}.E.M.p.B.M...V i s R I >.V M h.;.2 = 7 2 z / d.L.c.B.c.i.>.E.r.%.n.B.d.1.;.Y ' m.=.G i.%.w.v.U.U.c.J.m.m.h.J.L.y.8.E.-XE.h.E..X&XB.8.%.s.Y.n.y.c.N.b.h.h.b.N.m.b.N.J.c.d.B.m.a.h.b.1.a.D.b.m.B.d.1.w.D.m.1.=.b.}.[.h.y.w.=.[ ` Y.=X.XR.L.D.D.D.I.J.m.d.h.h.h.b.b.N.m.m.m.c.h.b.B.h.h.h.h.s.h.c.d.B.s.n.W.f.> z Z ' I.I.%.9 z M ..D.c.X.M / ' A Y m {  .X.z G S Y  .a.D.h.e. . .N.R.h.y.h.D.N.N.I.I.).$X ./ [.b.9.R.@XI.J.j.N.5X>XQ.` & Z f.a.e.h.h.h.h.f.f.d.a.e.y.a.f.f.f.f.f.d.s.d.d.d.s.d.h.c.h.w.d.J.w...[ s.J.}.[.c.D...3 N Z m / h.I.J.N.n.J.c.s.w.<.a.s.%.+X=X&XE.b.%.Y b g 9 7 g f b S b.).Y.J.b.w.8.y.a.b.I.s.b r g [ Y g } N.@X,X}.h.<.c.m.Z y.I.b.h.c..XR.y.y.h.W S n.I.I.i.i.N.).d.;.N w.Y.B.B.J.d.N.R.d.} ;.I.).). X;.s Z m Y ' y.h.i.i.i.y.s.d.s.r.c.d.V m R p.,.g s z b 7 u ...X).{ s u ..w.I u r 7 2 } -.' U.).` ` w.p.r.p.w.,.i.;.Q } i.s.;.=.1.X.=.8.y.r.y.i.y.p.s.i.s.s.s.i.r.g.1.=.%.s.G g h.W.B.>.I r.1.....m ' ' s 1.i.7 I i.L.'.v.s.i.-.s.i.p.p.s.s.p.i.i.s.s.s.p.p.s.p.1.4.B.B.B.E.M.' Q -.1.1.,.r.c.V.Y.2.H u U Q E -.=.{ :.p.",
"i.A.c.M.c.B.C.A.M.B.B.A.B.B.B.B.B.M.M.B.B.B.M.M.B.M.M.A.L.Y.B.p.u g A r.c.I m g A m } c.'.Y.L.M.M.,...Q A U M.M.S s.D.v.=.7 * V S r.1.` A Q I 3 * r Q A b %.U..X).$X.XD.M ' [ 1.c.b.1.=.;.=.1.L.w.s i.1.h.B.R.W.}.c.%.B.L.c.1.s..X}.h.R V E.;XE.8.I g Q d.c.h.Y.B.b.h.h.m.B.N.b.d.m.h.d.b.h.y.a.b.d.b.B.b.b.b.h.J.E.D.c.1.w.d.w. .Y ;.r.d.J.).,X)..XJ.N.D.).b.a.%.8.m.c.y.c.b.b.N.m.m.b.c.h.b.B.b.h.h.h.h.m.B.h.n.d.n.D.X.> a A o.d. .Y g =.L.y.s.h.<.m f g p d.o.u.r.c.f T ` r.D.D.K.J.h.9.w.Q.h.G ` a.f.h.h.D.$X).).%.a.@X&.n ` w.h./ a.>X>XJ.d.w.G G w.D.N.w.h.h.h.d.f.d.f.a.a.a.a.f.f.d.h.h.h.d.a.s.h.b.b.h.a.b.L.y.V G 8.{. X$X.XB.).y.A m f b <.D.s.a.N.d.b.d.w.<.y.N.D.h.W.8.%.G A p z / N z u g b M / R.[.L.N.d.8.<.w.y.y.h.h./ Z W ` [ ` h.$X,X}.n.y.a.i.<.p ..c.B.R.).'.b.d.y.s./ ;.L.h.U.c.L.>XR.N & Q E.E.h.N.R.i.J.N.1.1.m.).).).=Xm.W M z y.Y.N.a.y.i.i.r.i.p.s.s.r.v.1.V =.v.A 7 p z I 8..X}.B.{ u S Y r.-X).%.} Y r.E...g r.d.I >.s.s.i.i.r.r.h.s.>.>.p.s.i.y.r.r.y.s.d.c.v.c.i.a.i.i.i.d.h.i.r.w.B.h.>.B.J.B.J.h.i.s.;.s.;.i.{.B.L.3Xi.%.R 7 I V A } =.=.r.r.p.r.p.c.c.s.i.r.r.1.r.r.i.s.c.c.i.i./.B.i.L.4.} c.c.s.r.r.s.r.' I u g m ,.i...p.n.].L.l.",
"6.B.M.A.B.L.A.B.M.B.B.A.B.B.M.v.B.B.B.B.B.B.B.M.B.c.M.A.B.B.Y.T.1.Q >.B.,.U U 7 g } B.s.~ m -.E.s.v.Y.B.1.Q ,.....}.|.L.v.8.=.-. .s...s ' U.r.R s V R G Q .X3XL.'.'.}.U.' m.1.%.h.h.=.8.s.m.d.J...3 r.U.Y.J.h.8.r.L.B.Y.i.B.c.c.{.B.Q p b E.[.c.=.b G r.c.h.n.c.b.c.c.b.N.B.N.b.h.B.B.N.D.b.a.s.d.c.c.h.h.h.h.h.d.D.c.d.r.N.d.;.%.} w.<.d.J.R.D.N.h. . .w.y.Y z N >.m.h.d.c.c.b.b.b.c.c.h.h.b.N.N.m.N.m.c.m.D.b.d.c.D.c.I > u B h.W./ 9 > W h.1.y.c.c.a.Y A Z A 9 o.9.X.2 w.W.>X4X X_.N.e.E.$X).a.G X.a.f.b.f.N.J.d.J.R.J.8./ r t f ;.h.$X=Xb.D.a.b.d.y.a.a.a.a.a.f.d.h.h.h.b.b.h.d.d.h.b.h.h.b.n.h.s.s.h.h.s.i.h.N.h.` A r.J.h.D.N.y.n.L.D.[.d.i.U..X).N.b.c.y.s.a.1.>.a.h.d.d.1.V >. ./ b G 8.W X.[ G V N  .).E.N.c.h.a.y.i.y.i.a.c.S g <.D.).=.).<X).s.w.y.h.r.w.R 1.i.d.L.).U.<.B.D...z =.B.J.N.D.).E.s.Y 9 8.W.m.8.b.I.c.W.d. .<.h.d.y.h.).X.[ X.Y d.}.R.h.i.i.y.i.p.p.s.c.c.h.1.A M.-X1.Q G w.B.B.c.I u 9 V 1 ' L.i.i.B.r.y.c.%.V u { c.r.y.p.r.1.r.r.w.i.s.w.r.s.s.y.i.i.B.i.w.d.B.c.i.s.i.y.y.i.s.s.i.r.i.s.w.w.Y.L.B.i.r.w.h.B.i.} v.h.' s.U.r.A 7 ' n.E.L.Y.E.p.p.p.1.i.p.s.s.i.i.i.p.p.i.r.1.r.p.i.1.i.C.r.A A g ..'.E.r.-.=.} Q H i A A m ..B.E.&X,X].n.1.",
"6.B.M.B.B.L.L.A.B.B.B.A.A.B.M.v.A.A.A.B.B.B.B.B.L.M.M.B.M.M.L.E.v.v.|.E.p.E.'.r.'.}.Y.Q 7 e =.c.M..X.XL.1.Q 1.s.&X&XE.L.'.}.'.L.E.J.r.r...I i.s.R b S 1.n.,X'.1.i.c.J.%.R <XY.8.c.B.s.d.s.c.h.L.i.3 Q }.|.L.w.` ,.Y.Y.1.m n.-X$Xc.W.i.' ...XE.c.` A =.Y.J.s.c.m.c.n.N.N.N.m.b.b.c.m.N.m.b.h.a.s.d.m.c.d.b.m.c.b.d.d.b.s.8.b.s.I.{.D.N.b.L.y.8.c.b.;.Y I X.G f m  .J.h.a.N.c.h.d.h.h.h.h.h.c.n.m.h.c.m.b.d.h.n.b.d.c.B.N.Y 3 a S r.n.{ M Z 1.d.[ { d.W.Q.9.h.N.9.9.0.a.y.=.@X<X+X%XD.J.J.h.I.R.f.w.&.d.a.d.b.w.f.d.8.f.h.f.` S t S S ` ).N.e.I.N.h.y.e.f.d.e.e.j.a.a.f.d.d.d.h.h.h.d.h.j.b.h.d.h.b.h.s.a.a.i.y.w.d.h.d.` Y 8.s.;.i.8.X.J.J.h.m.c.).4X;X X;XN.Z r ` / R ..h.c.a.h.` 3 '  .r.d.;.Y b 1.).$XR.;.X.h.B.b.m.c.y.r.s.d.h.J.a.r ' ).$X XR.&X[.a.1.y.a.w.w.i.r.m.a.w.s.m.d.B.U.X.9 u X.8.D.w.D.$XY.1.;.;.X.<.;.>.D.D.J.R.B.=.;.r.%.Y G W p G h.h.J.[.L.y.i.p.p.s.p.p.p.s.s.s.r.} L.&XE.M.r.s.U.m.' 9 m b m ;.1.G R } A b y.=.I m b B.).' 1.r.r.r.r.w.8.r.s.8.r.h.s.w.w.w.d.i.r.h.m.y.w.c.i.a.a.a.i.i.y.y.y.;.>.i.c.=.;.>.y.r.s.d.8.%.1.I s S R %.S [ L.h.Y.,X.XD.i.p.r.c.p.p.i.i.r.i.y.p.i.r.4.4.i.p.i.r.i.B.-.A } U } p.r.O.' U g i m A m u ,.|..X.XT.c.l.s.l.",
"r.B.c.M.c.B.A.A.B.B.A.A.A.A.B.B.B.A.A.B.M.B.B.B.L.c.c.B.B.B.A.A.s.L.'.Y./.,XL.c.Y.B.B.1.I g } v.E..XB.c.c.s.L.Y.}.E.B.M.M.B.Y.c...1.J.Y.i./ w.U.>.Q ;.E.L.n.{ S >.s.c.' R '.B.i.c.B.m.m.c.c.c.D.J.7 m '.'.M.y.w.m.h.Y.+XL.&X&XE.D.E.y.Q Q h.s.B.s.i.i.L.'.B.d.U.b.N.D.D.m.c.c.c.m.b.c.d.s.s.d.h.b.N.c.h.m.N.b.b.D.m.m.%.%.N.c.W.W.D.y.w.a./ Q h.8.1.;.R Y r u z 8.'.h.a.B.s.h.h.h.h.c.h.b.m.m.b.i.s.b.c.a.s.b.b.n.n.N.D.G $ z X.Q.c.1.{ ( r.f.I z c.-Xf. .s.c.).+Xd.n.L.D.U.I.W.D.f.y.f.j.w. .w.<.f.N.a.h.N.e.h.K.9. .G X.` 9 z &.).y.9.d.N.f.D.f.h.h.w.a.J.b.y.N.j.h.h.f.a.y.a.d.f.d.j.h.d.a.f.h.d.s.a.a.a.a.s.d.n.s.A z W ;.8.X.} Z b [ 8.Y N.{.w.[  .` S N S 9 r 6 N d.'.h.` f b w.` ' b.J.h.1.N.L.h.<.[ w.m.r.d.B.N.s.a.d.a.d.B.W r D.W.J.).4X&XB.1.1.a.d.h.a.s.h.h.a.y.s.b.1.h.{ * > G ;.r.b.a.c.b.a. .' } S I ` ..s.8.d.a.m.r.%...G g Z N z p <.R.@X$XB.>.p.p.s.s.p.i.r.r.1.c.v.p.p.r.B.c.R ..s.n.i...r.c.s.B.Y.y.>.X.M m >.r.8.m g J.c.s.1.r.i.i.1.1.r.d.a.1.w.c.c.i.r.r.i.d.p.s.d.w.=.8.y.y.i.y.w.w.w.r.4.y.h.w.y.r.a.r.s.1.s.r.i.=.R s.=.m m R ' ).B.m ,.r.r.M.1.1.r.r.p.p.i.i.i.p.y.i.-.,.4.i.s.c.g.s.,.L.} Q M.,.F R ..,.I i m i u ^ ' ,..X.XB.c.,.0.0.0.u.",
"r.B.c.M.v.B.B.B.M.B.A.A.B.B.B.B.B.A.A.M.M.M.B.B.c.p.x.M.M.M.M.c.Y.E.L.}..Xv.V m m g $.M.M...1.B.L.E.v.'.Y.L.L.v.}..XE.L.Y.L.c.} g ' L.c.E..Xv.s...} w.m.c.r.I p 8.h.i.h.).{.h.r.n.c.n.M.J.N.m.m.d.g >.<X.XB.r.h.d.i.Y..X).}.U.m.E.c.r.1.r.c.c.Y..X}.{.;X<XE.s.s.N.N.N.m.b.b.n.N.D.N.N.m.c.m.B.N.m.b.b.b.b.c.h.c.c.b.w.G X.L.E.I.m.d.Q m b f M %.J.Y.I.d.%.W G G y.N.c.c.h.s.n.n.h.c.b.b.b.N.n.c.s.h.m.b.d.h.m.b.b.D.h.B. .p X.r.[ 8.c.b.<.` ( z I L.[.y.L.[.J.E.=.d.E.;.D { X.8.D.h.w.<.e.%.` f.w.d.h.f.j.b.j.N.j.%.G p f N f [ y.;. X).9.y.9.8.h.a.N.b.h.h.a.a.J.N.h.h.h.f.a.f.d.a.d.j.h.a.a.h.h.d.s.a.s.d.h.c.c.b.=.u N ..>.>.' X./ p ;.r.6 R w.f p Y b s [ d.R A p z ..w.W 2 I <.s.I ' d.y.a.c.h.w.` Z m =.1.8.8.w.8.w.i.<./ =.%.3 V h.1.d. Xm.h.y.y.d.a.a.b.h.h.s.r.s.h.c.J.X.9 % > S S :.L.D.h.;.m V I / S =.D.L.m.h.a.b.b.a.r.A s r N s.h.Q A w.W.}.E.i.y.p.i.i.p.p.i.r.r.s.v.i.p.p.w.c.../ ` M m 1.p.h.s.y.m..Xd...c.m.r.B.{.-X}.D.1.r i.r.8.8.1.%.%.1.y.1.%.1.i.y.w.w.r.r.p.w.1.1.` Y =.y.r.w.4.4.4.4.4.y.4.g.4.y.w.<.r.v.r.d.i.>.S p n.>./ } ..E.;X} A @.u m B.i.i.c.1.p.p.i.i.i.i.i.r.r.i.p.s.s.i.r.r.M.E.} ..B.r.Q ~ t.p.H 7 I Q ' v.E..X'.c.L.V.1.t.V.n.s.",
",.M.M.L.B.L.B.v.M.B.B.B.M.c.v.v.M.B.B.M.c.M.B.M.v.M.L.T.B.v.M.M.L.B.-.1.' g 7 7 m g Q -.v.m.M.p.Y.E.c.B.A I r.Y.'.|.L.v.c.-.U g M %.{.+XL.D.-XE.I r.'.).m.s.>.%.1.E.s.c.}.B.B.B.L.n.B.c.B.h.D.L.s.G L..XU.c.=.1.s.w.c.D.W.E.m.L.J.s.J.'.}.&X&X.XB.n..X3X'.B.J.m.B.n.h.h.c.N.D.J.d.a.h.b.c.b.b.d.m.h.m.B.b.h.b.b.L.D.<.I X.8.D.I.h.;.f u z ` y.W.{.s.1.I.N.y.8.B.'.h.c.c.s.B.J.c.h.c.b.b.b.m.c.d.c.c.m.m.h.c.b.h.d.n.y.D.R.b.[.y.X.Q.E..X&Xr.[ / I.,Xs...B.h.d.{ z I ..Q X.{.R.F.R.y.e.a.w.&.&.f.j.f.y.j.h.d.N.N.K.w.N z r X.K.N.a.b.Q.f.h.a.w.h.d.e.b.h.a.h.d.b.N.h.a.d.h.h.b.b.a.a.f.h.f.y.a.j.c.d.y.y.i.s.s.s.a.m.s.A Z g f G <.%.[ [ [.L./ X.G V 9 b ' N N N.J.X.Y Q m & & b ;.D.y.R 8.m.y.[.R.d.m.W.N.[ i.b.d.%.I V Q %.Q 3 m R f s.c.y.W.D.w.w.w.y.d.a.r.a.r.i.h.i.n.B.h.D.x O u z Z Z b.c.y.[ / V S / %.I 1.4X3XW.a.i.a.d.y.i.b r b ` B.r.r.1.m.).}.L.;.1.r.w.r.y.p.i.p.s.p.m.i.s.v.c.Y.r...g V >.1.G =.B.L.d.Q r X.D.8.s.i.h.1.i.>.' g ' c.r.w.r.r.r.1.=.>.8.s.s.,.=.8.i.r.s.s.p.%.b G B.s.y.w.4.w.w.w.1.$.=.m.4.i.g.r.h.r.r.1...A u s A p 2 h.&X.Xs.I m v.{ I v.i.r.r.1.s.p.p.i.r.r.r.i.r.i.i.i.i.i.i.p.c.4.F ,.s.s.g.i.c.c.,.] =.2.c.E.'.k.r.M.L.c.p.l.l.n.n.",
"1.B.L.L.c.Y.B.v.M.L.L.M.M.M.M.B.A.B.M.v.M.B.A.A.T.L.B.M.M.v.v.c.v.-.7 V i ..2...1.].V.c.B.c.XX'..X.X~.1.V g ' s.'.}.=.M.M.g 7 7 c X.l.;.s.E.].E.G.,X.XB.0.s.U.y.i.s.m.i.h.B.s.m.n.m.h.h.c.s.s.L.=.p L.B.Y.Y.r.L.'.J.c.c.B.n.m.L.8.X.Q ..U.W..XU.y.B.B.B.{ 3 1.L.m.m.m.h.a.h.c.s.r.B.U.B.c.c.c.B.N.c.J.h.d.J.b.h.N.d.w.f z Y Q ;.d.w.=.R / h.c.c.'.h.h.B.'.J.s.).d.` w.D.a.h.c.b.c.m.b.d.i.s.h.b.n.h.h.h.y.r.c.D.b.b.c.a.m.W.W.[.W.N.a.L.'..XJ.[.>XN.A > f N } h.e.&. .h.d. X XR.<.8.h.f. .W %.w.y.j.b.h.h.d.a.d.a.h.G r W K.@Xy.;.).J.h.y.;.y.h.e.h.b.b.h.h.b.N.a.h.a.e.y.h.h.y.e.a.a.a.f.h.h.f.h.h.a.y.y.a.d.d.w.D.9.G W G N / h.8.N A J.a. .<. .` G / i.c.d.D.d.9.r.%.[ / <.X.r.h.r.' b.m.s.B.%.1.m.e.` Y b.Y.J.i.S ` / S S M 1.;.d.J.c.).E.c.w.i.a.i.i.i.i.y.s.r.r.d.c.i.8.8.9 2 Z S s %..X[ p z p 7 ' D.;.y.E.-XW.B.s.c.y.n.E...r ` L.s.c.s.L.).&X,X.XB.i.y.r.s.n.b.d.y.y.s.s.h.s.d.d.8.I u 1 3 B.-XG 2 ..h.' ` 1.A Q c.>.y.8.X.` I s i.8.Y h.1.M.n.,.r.h.c.B.d.w.1.r.w.m.B.y.8.1.r.8.M r.c.w.r.} w.=.' 1.r.%.} c.R ..i.r.d.=...>.R p 3 m m g M s.B.s.m.>.I M.,...1.,.r.r.p.s.s.p.p.i.i.r.r.p.i.i.r.r.r.p.p.c.-.Q p.c.-.} r.B.L.Y.k.r.t.M..XL.M.B.c.Y.r...n.s.r.s.",
"2.L.M.V.c.c.B.M.c.v.B.L.L.L.B.B.B.M.B.B.B.A.B.B.v.c.c.v.M.M.M.M.B.O.2 B V } -.k.E.E.' =.P.}.&X*XY.B.M.m g ,.Q } v.=.Q 1.,.u i ' ' =...T r.0.8.r.Q 1...c { n.B.0.h.w.i.i.p.s.r.s.c.B.m.c.n.c.c.n...Q B.c.h.d.y.s.J.;.i.=.%.%.=.<.=.p u d.L.W.E.d.c.s.s.s.A   g =.J.m.g.a.i.c.B.m.L.c.s.n.J.c.i.h.h.D.h.m.I.b.h.c.a.Y.>.& 6 [ ` p ..Q s.c.y.B.n.h.D.c.}.}.c.=.X.d.V r %.w.b.r.a.d.c.c.h.s.d.b.n.c.s.r.a.m.m.h.d.a.y.y.d.s.h.h.r.a.s.` ;.s.r.8.y.d.[ u u r Z W %.m.j.b.h.b.D.@X).e.&. .` W S G ` &.D.j.d.h.h.y.8.y.f.y.W Z  . . .;.[ I.N.d.a.e.h.b.h.h.h.a.y.a.h.h.N.b.h.y.a.h.h.y.a.h.b.h.h.h.f.a.b.b.h.a.a.f.a.y.d.h.X. .` Z ;.J.W.b.Z A r.Q 9 =.=X@XY.J.W.E.B.c.' o.y./ h.-Xn.y.;.;.<.%.c.m.h.h.R G g.h.>.a.[.).c.w.R.I.I T m ;.'.).c.c.L.[.m.d.a.d.s.i.i.a.d.d.a.y.a.h.h.i.r.y.W >.y.w.=.J.Y.N g 3 I D.Y.d.....L.,XD.y.s.s.c.B.;.r 9 ' i.w.M.M.;X&X.X'.L.c.i.r.d.f.u.y.y.y.y.y.r.r.r.u.d.X.m b s.s.U.B.%.' >.N.r.1.J.w.} i.s.B.Y.c.w.{ V 1.i.s.>.G ..;.B.r.i.d.1.%.m.r.' { i.E.h.J.B.s.n.g m s.r.r.1...m G %.L.E.Q * 3 d.s.w.=.m m >.c.d.Q A A L.i.%.=.L.d.A } -.Q =.Y.p.,.r.s.i.r.r.r.r.i.p.s.i.r.r.i.p.p.r.1.s.r.=.s.-.A m Q M.'.].v.v..X&X.XB.k.s.] i...} 1.s.l.n.",
"i.L.s.B.L.B.L.B.E.L.L.L.M.M.B.M.B.M.M.B.B.B.B.M.v.v.M.M.B.B.M.M.v.1.g m i g g r.r.c.Q ..'.3X'.L.p.c.-.g ..|.Y.Y.-.g A m g 8 I M.E.E.l.' Q g { ;.C u p A n.B.r.U.v.i.s.L.B.c.s.i.c.m.B.n.c.B.N.s.%.r.c.B.s.1.d.1.=.Q D.1.%.%.R z z 9 ' &XE.d.D.U.c.L.n.} z M =.X.v.i.y.g.h.m.m.h.c.M.m.c.s.y.y.c.b.R.` Q d.L.).h.R.J.A 9  .N.<.g Y g Y } J.-XW.&XL.Y.}.s.m 7 m r.c.=.d.w.c.w.r.b.c.d.a.s.b.B.B.c.h.s.b.B.h.a.d.h.y.y.h.h.s.<.`  .;.{ h.d.;.G b 3 r > V u V a.B.i.9.e.d.f.d.e.<. .` ` G b b Z G ` y.h.h.f.a.j.N.N.j.J.X.r 9.j.;. . .N.b.a.a.a.b.h.h.h.a.y.a.h.h.a.b.h.y.y.h.h.h.h.h.b.N.j.h.h.h.h.h.d.a.a.f.h.d.a.y.N.d.N.[ b e.J.r.G g <.m. .u y.4X+XR.I.).W.y.I ;.c.n.D. X@Xc.1.%.8.y.%.i.E.I.i.<.' i.h.J.&X;X.XD.@XB./ 9 =.( { b.J.b.I.W.L.r.y.d.h.d.s.a.d.d.d.a.d.d.d.d.s.s.d.).=XB.B.W.=Xr.& r.X.' D.E.;.z 7 3 { c.'.U.c.L.Q & 8 m b V m =.,X+XY.B.B.c.w.1.r.a.y.8.9.8.8.r.y.s.w.r.r.s./ u G ;.I -.>.U ..s.a.s.d.i.>.w.w.>.m.c.L.m.%.=.B.J.n.=.1 & g w.w.s.D.r.=.i.A g p $ r } ' Q Q s.G m J.s.1.=.m m i.=.../ u 3 / Y.s.=.G u u ' i.y.I g Q B.' %.c.y.A g 1.1...s.|.i.;.r.r.i.i.r.r.r.i.i.p.i.i.p.s.s.s.i.r.i.i.i.v.=.Q ..p.E.E.v.,.M.<X.Xp.s.v.v.A Q I ,.B.r.B.P.",
"1.L.L.B.B.M.B.L.B.M.V.Y.B.B.B.v.B.M.v.v.v.M.M.M.M.B.B.B.B.M.M.c.B.M.I 2 * u g s.L.' -.B.p.-.-.} ..B.i.g U p.B.3Xc.Q Q m A g V =.' I s..XG.Y :.Q g 7 S n.;XL.X.n.m.J.n.m.c.h.i.d.m.c.c.c.d.m.B.a.Y } ` s.w.X.>.Q s I Y.B.B.L.w.R m I s.U.W.c.U.'.P.c.;.A p / B..Xm.s.g.B.J.J.B.c.c.m.h.y.s.h.d.s.{.d.3 1 G %.b.d.D.c.N r [ J.c.y.r.b Q m V d.B.w...;.Q 2 $ z Y s.R.y.s.d.a.h.a.N.c.d.a.d.N.D.N.h.c.h.m.N.a.y.h.B.m.c.m.h.d.w...=.r.d.B.w.' p 6 m Q A ' Q X.m.W.D.J.J.N.h.w. .S Z z / ` Y G Z Z W N.b.b.j.h.j.b.h.d.f.<.G N.j. .X.a.N.h.a.a.a.h.y.a.a.a.h.h.h.h.a.h.y.w.y.h.h.h.h.h.h.a.e.y.a.a.a.a.a.y.a.d.j.j.d.h.N.8.<.[ [ b.d.%.6 / I.s.X...W.$XJ.h.D.W.}.m.Q X.r.D.4X{.n.d.;.R =.i.w.h.B.%.V r.c.c.L.3X&XN.N.n.;.A =.o./ ( c.).R.I.'.d.w.y.d.a.d.h.d.s.d.d.a.a.d.d.s.s.d.h.h.).h.b S w.b.X.r 1.Y.y.Q T 8...g g 7 r { L.+XW.2 $ m S g ' ..d.3XL.B.c.h.d.i.i.d.:.8.r.r.8.8.y.s.s.y.d.a.h.Y 2 A I M 1.i.V ' L.w.s.c.r.s.J.c.c.B.D.W.D.>.B..X.XW.W.r.A 9 p i.Y.c.1.7 g p ' B.=.u & > p 7 u u ' L.r.>.>.G I s.Y g 7 3 J.$XY.c.,...S u s i p 7 u ..Q 3 { s.G m =.c.r.M.|.}.,.,.i.1.i.p.p.p.p.i.r.r.0.i.p.p.i.r.i.s.p.i.p.c.-...i.M.L.c.s.1.t.Y.L.v.c.B.M.O.p.p.v.v.s.'.].",
"s.v.c.1.c.'.E.P.E.L.L.B.v.n.B.M.B.M.v.v.v.M.M.M.v.v.M.M.M.M.M.M.B.P.} 2 7 V A t.|.V.M.2.p.A u V g } -.8 A p.A ' U ..c.p.M...' r.T 1..X{.=.c =.I * m { L.E.E.{ c } L.E.L.U.W.d.m.Y.n.c.c.s.h.B.c.i.s.1.D.B.c.X.m g X.d.m.s.r.I M c.c.U.d.r.1.s.y.1.M 9 p Y d.E.'.m.s.g.c.c.c.c.c.m.c.h.c.c.u.c.W.D.g & b N p { W.U.;.f 6 A >...c.D.h.h.m I s.' 1 ' I ' ..m A ' Y.J.1.m.J.r.h.h.h.h.d.d.c.N.N.n.h.d.y.d.N.m.c.h.a.N.N.m.s.h.b.y.r.h.b.c.w.Z r M N. XW.a.y..X,X,XL.N.J.a.h.b.W.a. .` d.I.J.D.N.K.@X@Xa.w.K.R.h.a.h.D.h.D.;.9./  .J.E.h.e.a.h.a.h.a.y.a.a.h.h.h.h.h.N.h.y.h.b.h.h.h.h.h.a.a.h.b.h.a.b.j.h.f.d.h.h.a.9.h.N.w.W Z &.J.3X .} ..%.N.@X>XW.h.h.D.D.R.R.d.B.D.@X[.r.8.I z b S W <.B.1.m G s.R.m.[.,XJ.h.m.y.Q f.D.u.W.-X XI.'.I.J.8.w.d.a.a.d.d.s.a.s.d.s.d.d.a.i.a.h.h.h.m.%.V W r.r.w.Y M m ;..X&X&Xd.T 1.8.S * g M m u m b g R h.L.+XY.Y.E.B.r.r.m.m.r.<.w.a.s.a.i.s.h.w.r.h.s.b.Y 2 b L.&X).L.B.E.3X}.B.s.s.c.' { L.d./ S b M y.s.h.h.Q >.` S m Y z 2 g m Q X.L.Y.B.L.1.A M I A m w.Y.L.d.d.D.B.D.r.h...I '.E.y.h.r.c.y.Z u 2 2 u S h.1.%.>.>.;.s.s.;.-.'.,XE.,.1.r.s.i.i.i.p.p.p.s.s.s.s.s.s.s.s.c.v.p.p.s.s.-...i.s.E.s.p.t.r.r.1.i.t.c.s.s.B.B.p.-.s.~.U.",
"I H V i Q c.!.V.L.!.E.B.V.L.B.V.M.M.M.B.B.B.M.m.M.M.M.M.M.M.B.B.c.P.-.i g m Q k.k.|.p.i c.-.V U m g u 7 =.c.A 7 2 r.E.s.M.p.s.c.G.].l.I g p c 2 u M / D.L.G.) 9 Q B.).J.D.W.1.s.E.D.M.n.h.h.m.B.L.L.M.D.L.Y.' 7 } B.L..XE.p.A G r.1.D.n.z M Q I p u 9 u { -X+X8.i.i.s.c.d.p.a.i.w.c.D.n.d.l.D.'.f + p G V R [ 8./ & + s X.<.S  .%.&Xm.z E.,X%.V 1.r..X.X/ ..s.E.a.%. X[.B.s.J.b.h.h.c.m.b.h.h.h.h.d.b.D.b.s.a.i.d.h.h.y.h.B.a.y.h.c.N.w.m [ a.J.b.).>.G X.[  .A f.j.a.).@X5X>X X$X<X<X XI.D.J.W.J.e.y.b.j.h.b.N.h.a.8.z f / N. X).e.;.a.a.a.h.h.h.h.h.h.f.a.h.h.h.a.a.h.h.h.h.b.h.h.h.h.N.N.h.y.h.h.h.a.a.a.a.e.h.y.h.h.` r G N.U.E.=XL.E.$X,X Xd.<.w.h.h.b.b.w.y.I.u.( M b u u S R G  .i.%.V %.J.c.8.'.E.B.[.N.=.u.-X4X>X$X+X;.A J.N.a.s.h.s.y.d.h.s.y.y.s.h.c.s.a.y.i.a.s.s.s.b.8.;.r.B.d.8.7 z s.,X-X~.+Xc.{ y.L.p.A u * o 2 A } ' } Q z y.'.{.L.h.d.b.n.s.8.a.y.w.r.a.s.s.i.a.y.i.8.i.A f G m.s.G ' s.;.;.=.>.r.i.s.' / c.i.} M u S B.E.J.>.3 ..8.n.;Xs.b 7 9 r ..E.{.n.M.1.r.s.;.Q A Q B.-Xc.r.>.M.J.B.i.r.X.m.m...%.i.y.s...b ..y.Q M m %.i.s.r.8.1.} / ..M.|.'.M.i.i.0.s.p.i.r.r.i.p.s.c.v.s.p.s.v.v.s.i.i.p.i.1.-...v.E.E.r.1.r.r.r.} A ..1.-.t.r.r.,.,.l.L.k.",
"= m A V g B L.B.g =.p.c.!.}.L.L.v.M.M.B.A.B.M.M.B.A.B.B.M.M.M.B.B.Y...7 u V i.Y.c.=.O.' 2.,.c.t.,.-.m A Q Q ,.1.i.}.E.,.i.B.i.Q y.=.i 2 7 7 g =.Q C ..n.W.y.K Q r.1.1.Q g ` b ' h.B.B.c.c.c.c.m.c.c.n.c.J.E...m S 8.B.L.L.).s.d.U.d..X;X{ Y A 7 m S M M A y.L.c.a.h.m.B.m.m.c.s.r.c.h.y.B.E.u.Q . 3 S p S D.r.b * & V =.R..XJ.s.Q L.D.Q c.m.r.' } E.$X1.A E.).i.G Y W.[.W.m.B.c.h.h.b.N.b.d.d.h.b.b.D.B.a.w.a.b.a.a.d.s.b.n.r.w.c.n.h.Q z w.'.W.D.[.J.s.>.g Y d.$X@X$X5X@X X)._.R.J.J.J.D.J.R.R.a.a.e.[ Q w.d. .` G p 1 f ` h.N.I.<.;.f.a.a.h.h.h.h.h.h.h.a.h.b.a.y.a.f.h.h.h.h.y.a.a.a.h.h.y.w.a.f.d.a.a.a.y.e.a.e.h.h.S t y.=XW.W.W.E.@X,X}.N.y.8.y.h.h.N.h.;.n.+Xc.9.X.A ..} X.d.h.b.b.i.Y Q d.<.<.).B.n.D./ Y I.[.W.D.;.=.' ;.'.h.w.i.a.s.b.s.d.d.a.a.d.c.h.s.y.i.s.s.y.y.d.L.s.;.w.h.B.y.6 ...X.XW.W.n.Y p { r.f.s./ m M m m G m I h.m.{.3XE.n.s.m.B.h.y.i.d.a.r.r.y.i.y.w.d.a.w.8.w.f V W } u V =.Q p r u s %.1.c.L.s.w.y.c.1.' { i.L.m.V V s.s.1.h.y.X.I A 1.L.|..Xd.8.[ R y...7 ` ,X,Xn.=.d.d.i.>.w.` g A .XL.X.8.s.h.r.X.z >.d.m V Y >.s.i.d.d.=...c..X}.'.M.v.i.p.0.r.p.p.i.i.i.i.p.p.r.1.1.r.i.i.1.-.p.p.1.=.-...s.L.i.,.s.c.t.i...A U } ..p.v.s.p.1.P.L.0.",
"2 V i A i = ..i O g A I 1.v.v.Y.M.M.v.M.M.B.B.B.M.M.B.B.M.M.M.B.V.M.U * g A =.H r.Y..XXXXXV.L.L.B.B.c.=.' 1.M.E.Y.L.}.'.Y.L.s.s.B.l.{ I I 1...{ A Q n.=.l.@.m } ..r g u . s 1 M %.h.m.d.h.c.h.c.J.n.c.c.n.r.I b =.s.L.' Q U.Y.D.=.-.'.'.c.=.../ S A g I / s.D.d.s.s.s.i.i.h.m.h.i.h.c.B.L.y.M o 6 z A m r.4X$Xd.>.N Z w.).J.N.w.=.L.n.{ i.} I s h.,X[.w.` { m >.b.m.).).D.m.r.h.h.h.b.N.b.d.d.h.d.y.a.c.h.d.h.h.c.d.b.b.N.h.8.y.n.B.h.I N G w.[. XW.R.R.,X+X[.@XD.D.R.J.a.f.j.w.w.;.y.D.J.J.J.N.w.X.G r z ;.<.f  .<.G f n ` b.I.E.w.y.b.a.a.h.y.y.y.a.h.h.h.h.h.a.h.h.h.a.a.y.y.h.h.c.h.h.h.j.b.a.h.b.h.f.a.a.e.e.f.h.j.` <.<XR.B.[ / I.'.[.J.8.w.s.h.r.<.y.s.w.d.D.&X'.I.D.D.1.B.W.$X3X@X'.h.c.h.N.D.W.a.r.=.S Z / D.J.c.b.{ d.3X X1.a.a.y.h.s.w.i.d.h.h.h.d.s.a.y.a.h.a.w.w.d.y.y.X.y.i.h...> z ;.r.W.U.1.Q u ' l.=.8./ u g m A } E.}..X;X,XE.y.m.h.%.} 8.s.r.a.d.h.d.a.y.y.i.w.w.w.h.s.9 g b Y Q ,X;X%.' ..>.J.}.'..X.XL.L.).s.m.'.&XW.L.m.I =.>.r.B.z 9 Q 1.h.}.,XL.h.c.c.` R 7 i G c.&Xi.' =.y.p.8.8.m.} s } E.m.1.8.y.h.i.} s r.U.X.c.c.1.y.m.i.>.s.'.{.c.s.c.B.L.1.r.i.r.r.i.p.s.s.p.i.i.r.p.s.s.i.i.i.p.1.r.1.1.c.r.p.s.v.2.s.v.s.i.Q 7 V ' -.,.,...k.B.~.B.@.",
"* g =...1.,.U V i =.r.m i A E M.L.Y.A.M.B.B.M.M.M.v.c.c.v.M.B.A.v.Y.Q 7 B U ..E s.i.-.2.s.,XL.r.c.M.Y.v.1.E.E.L.L.M.|.}.}.E.E.M.n.&XW.s.l.:.Q X.C ;.D.G.c.m i ..w.} s r m V V G 8.}.s.c.c.r.h.s.d.L.p.w.d.,.I z B.&Xi.I V w.E.m.A ..L.S u v.U.D.n.8.-.1.d.D.D.d.i.s.c.n.m.m.d.r.s.W.D.L.D.@.p g f M ' [ I.}.i.%.w.Y 9  .D.%.R <.E.E.m.{ >.1.R d.,X}.Q I u u 7 =.'.N.W.W.J.c.J.a.;.E.D.a.h.s.c.B.J.c.s.c.n.i.w.h.N.D.h.s.N.d.<.w.h.J.h...W / B.m.8.B.W.[. XI..X).N.d.d.N.N.d.e.e.a.8.<.e.j.d.;.` / f z f S / z r w.` S b Z  . .D.b.a.h.h.h.b.j.b.h.h.h.h.j.b.b.h.a.a.d.h.h.h.h.h.b.h.h.h.h.h.h.f.w.h.h.a.d.h.d.j.a.N.h.f.w.a.%. .V G N.[. XB.d.<.d.d.s.r.w.a.w. .A A A G G G R ` '.3X.X$X[.D.J.X.{ f.n.X.S ;.X.Y 9 9 S d.b.r.n.D.m.).c.w.d.s.y.d.d.a.y.y.a.d.s.a.s.s.d.h.h.h.h.c.m.a.1.y.a.N.` 3 A A M =.c.;.S p Q d.L.n.r.:.=.g m I p..XE.J.{.d.r.i.w.I m A w.s.h.a.h.m.w.w.h.w.r.y.w.J.a.r G ..B.3XL.i...d.&X&X.Xm.s.E.'.W..X).=.s.+Xm.D.{.B.%.%.s.L.w.L.>...{.&X.XE.n...X.D.m.G V 1.'..X}.r.%.y.s.y.w.y.I.%.m L.+Xs.r.r.s.r.r.U u r.c.%.c.Q R c.r.%.' L.'.U.Y.v.v.M.v.p.i.i.r.p.p.s.p.i.r.1.1.,.i.p.r.r.p.p.r.s.i.1.,.' I -.L.v.,.c.E.s.U 8 u g B A h A -.c.B.c.r.=.",
"i } M.v.E.E.v.1.U A ..B i V m i.L.B.M.A.A.c.s.M.B.B.M.M.M.M.M.B.V.L.r.0 i r.E.M.'.,.r.r.Q ..r...B.}.Y.v.L.|.Y.v.'.L.M.M.L.L.}..X+X].G.c.n.p.y.P.;.E..XG.d.s.0.n.'.d.>.s.%.Q =.G >.}.m.1.>.s.L.s.h.a.U.1.>.n.>.r.3X).=.r.h.J.).E.;.8.i.{ z ,..Xd.B.B.n.c.n.n.d.y.r.s.c.v.b.n.c.c.E.L.G.D.'.9.9 c W b / =.d.1.1 G E.1...D.W.J.I.$XE.m.h.X.c.3X X.Xh.c.g 2 9 g b >.h.%.y.D.b.8.h.<.S S u V 8.J.E.D.a.h.b.n.b.y.8.y.h.b.a.i.b.h.w.s.D.L.a.h.W.I.$X[.N.D.E.m.D.).'.h.h.R.).D.y.w.a.a.w.y.b.D.d.w.;.[ b p r n b z 9 z %.a.b r N G <. Xa.w.a.f.a.h.a.a.a.h.h.h.h.h.a.e.h.h.N.J.J.N.h.h.d.a.y.a.h.h.h.a.j.y.w.y.f.h.h.a.a.j.h.b.e.Z 9 t 6 X..X@XL.y.1.i.a.s.d.s.s.h.r.X.u & f r s a.R.Y.<X{.J.D.n.h.%.3 / D.r.K 9 D I 7 N / W ;.y.y.y.1.V m.D.8.r.h.b.d.h.h.d.s.a.a.a.i.s.s.d.d.a.r.i.s.h.h.d.h.y.h.X.N M ..8.n.B.;.....1..X{.+X+Xs.=.{ I w.{ ` ' i.h.1.r.1.%.G r * G r.w.r.$X=.u =.w.i.r.m.y.B.%.3 <.r.B.E.Q r u 1..XE.w.A 1.B.D.L.=.I w.D.D.w.y.B.B.G A m.y.=.&X3X3X'.L.c.y.1...1.c.i.w.B..X.XE.L.%.%.1.y.d.s.i.B...z s.....8.i.r.M.} 3 7 Q A A 8.>.s.=.h.B.L.'.{.}.M.s.v.B.v.p.i.r.r.p.i.r.r.i.i.i.r.r.p.p.i.p.s.p.0.1.i.r...Q Q -.p.1.-.r.=.m 7 0 U A I Q ..s.L.v.t.s.r.,.",
"B m B Q ' m I =.g B I g m h 0 -.Y.A.B.L.L.L.L.Y.B.B.B.M.M.M.M.M.L.M.s.u U Y.L.c.B.t.-.} s.Q A ..L.p.} E.3X.XB.B.M.E.c.v.M.B.E.|.r.r.n.].#X'..X3X<X'.n.s.r.Y.n.P.y.m m.-X..r..X=.J.J.s.w.d.n.L.h.B.c.L.r.{ w.U.,X}.s.' c.E.E.L.w.1.r.B.U.;.c.-X=.c.n.d.c.L.D.d.y.r.h.m.c.h.h.b.n.B.B.W.9.y.Y + m R G W d.N.s.s ' b./ <.$XW.R.'.=X XB.B.r.c.,XY.=.I 7 m d...A h.).J.L.J.b.s.h.N.W g b 2 p >.b.h.w.<.h.N.m.c.s.a.d.h.c.a.i.b.c.s.b.h.h.<.h.b.=.L.$XR.J.).a.<.r.s.s.a.D.D.a.8.a.d.y.b.w.d.J.h.&. .` 9 N ` h.d.<.&.n a.j.S W &.y.N.h.e.;.y.h.h.b.h.h.h.b.N.b.b.b.h.h.h.a.a.y.a.a.y.e.d.a.a.a.h.h.a.y.f.a.h.h.a.j.h.%.a.a.f.b.y.f N [ r..X$XB.y.h.i.N.c.h.d.d.h.c.d.w.m s I p ..&XW.[.W.U.).B.=.Y g a I 9.b.U.9.S a Z x =.( o.1.8.y.d.=.J.B.d.c.d.a.i.i.i.s.s.s.a.a.d.s.s.d.d.y.w.y.d.d.y.8.r.r.c.%.f S n.'.{.n.{ X.8.E..Xy.T m ..E.s.v.w.s I S m V w.1.1.%.I G m g 7 Q G >.b $  .J.B.s.g.w.w.Z * A p Q Q 9 u m X.h.=.} ' h.c.B.r.g R h.m.s.8.r.c.n.A 1.L.=.>.'.'.Y.8.s.s.c.h.i.c.h.s.r.m.B.c.J.E.w.d.1.y.h.s.s.B.} p G u u / r.;.1.S g s ' { ' =.s.J.n. X=.w.$X.XJ.n.M.B.c.i.r.i.i.p.s.p.p.p.s.s.s.p.p.i.i.i.p.i.i.0.1.i.1.....-.,.-.g i 0 * 8 m A U Q p.E..X.XE.c.s.r.1.1.",
"E ' B V V m ..1.-.Q C I B ..v.' -.s.B.c.p.s.v.x.M.M.m.v.v.M.M.M.v.B.-.i B.].r.P.c.g =.i.v.'.!.] v.r...}.|.r...U } E.B.B.B.L.Y.B.) y.E..X].U.B.B.n.Q Q r.n.P.s.l.=.V r.Y s =.%.r.E.>.>.s.L.m.m.c.D.J.d.' ` c.$X3X;XE.h.Y.J.E.Y.a.=.;.U.8.A d..XB.E.U.n.D.'.L.r.r.h.m.B.c.s.s.s.d.n.W.n.q 7 9 < ) .XR.%.B.b.d.w.w.h.N ` R.y.1.s.).n.r.c.w.%.w.' g 7 I ;.m./ A B.).h..XD.=.w.L.b.m r [ Q Q m.I.h.b.w.h.m.h.d.i.d.N.N.m.d.s.b.c.h.N.J.d.b.).' 3 ;.J.D.Y.L.;.>.<.8.d.a.8.&.<.y.f.a.y.N.a.e.d.f.%.Y S N d.K.J.b./ y.;.a. .p G b.@XW.I.e.;.y.h.a.h.a.h.h.h.a.a.h.h.j.j.a.a.a.y.y.a.f.a.h.h.h.h.h.h.a.y.a.N.D.b.h.h.h.h.h.f.d.h.%.G f.R.).).8.W Q n.y.8.b.h.a.i.h.h.b.B.r.I Q Q h.a.W R.B.B.b.y.%.m p o.d.z.W.u.@.q.I o.8.8.Q u.N.s.8.w.h.a.;.y.m.y.w.h.y.y.a.d.h.d.d.h.d.d.d.d.a.i.d.c.d.8.;.w.s.n.=.7 3 / { ;.;.Y Q I -.:.z 7 Q y.L.E.8.=.Q d.>.G 9 2 1 u p u ` p.1./ & 1 3 3 2 p %.Y.i.%.<.R p p s V %.1.} { I S ` A I [ 1.B.'.p.R X...S ` ..>.m.B.p.,.r.h.{.&Xn.%.w.c.s.c.r.1.s.r.s.1.} ' 1.m.B...1.r.w.w.w.p.B.=.s S ,.,.m.c.w...} m r m..XU.d.d.} ;.%.{ L.'.R.Y.L.Y.M.r.-.r.p.i.i.1.r.p.i.r.1.r.i.p.i.i.p.p.r.r.i.p.r.1.1.i.s.,.} ..-...A V I H V Q c.'.|.'.v.r.2.r.1.1.",
"s.v.i.L.V.r.B.E.P.s.} r.Y.'.P.U E ,.M.B.s.c.A.A.M.v.v.v.M.M.M.M.L.T...g !.M.=.|.E.K ,.v.V.Y...A ,.,X&X'.1.A m 8 Q L.s.c.B.Y.L.v.E.,X-XE.G.l.r.d.@.I r.L.}..X{.U.Y.i.c.Y ` c...h.1.} r.i.c.b.B.n.m.c.s.V >.4X'.J.n.h.L.3X.XE.Y.L.-.X.D.8.1.'.c...y.d.c.L.W.d.1.s.b.m.m.c.d.d.s.s.n.n.M % 3 z c o.+Xa.%.Y.J.i.Y.D.d.[ i.@Xh. .%.s.B.B.D.%.A A g g Q s.h.c.R ;..XU.w.c.Y s / ..S 6 2 A } ;.h.N.d.b.c.c.h.s.a.w.r.b.D.m.h.d.c.c.c.m.D.W r..XS = I S <.W.a./ n.J.h.w.a.8.9.a.a.w.e.d.y.J.N.a.a. .b f G I.D.R.K.W X.h.D.b.Y <.).w.Y D.N.a.h.j.h.h.a.h.h.a.e.e.a.h.h.h.e.h.N.N.b.h.h.a.h.h.h.h.h.h.h.a.w.h.8.w.I.b.w.D.h.b.b.a.S ` N.d.L.a.I f 6 8.h.b.s.d.a.a.h.h.h.D.w.s.L.i.B.J.b.D.B.s.;.;.X.X.c.{.[.^.W.( N z.n.+XQ.d.c.3X&XB.f.a.%.w.8.w.s.y.s.h.h.d.d.h.b.h.d.s.d.a.a.a.d.d.h.c.i.a.d.c.h.c.d.G A B.E.'.n.=.s.d.=.Q m I y.y.I A ' i.y.a.d.s.1.A s 7 u s g M A } b p b Z Z p p w.I.%.Y k F ` N $.}.).r...>.y.>.s g A i.Y.c.y.1.Q ' A A I G } 8.s.%.i.R..XY.r.%.y.d.1.w.>.8.h.r.r.r.` %.B.L.L.w.i.w.,.1.1.i.n.w.m A L.;X-Xd.r.h.h.R M E.J.c.L.E.s.' I r.;X).J.D.L.c.p.r.r.p.p.r.r.i.i.i.r.r.1.r.i.i.i.p.s.p.r.i.s.p.p.c.r.1.1.Q A } r.r.=.........c.XX&X'.B.i.s.s.s.p.i.",
"' E.L.s.r.B.E.p.p.P.v.v.XXi.g -.'.v.c.B.M.c.c.s.B.B.M.M.M.M.M.M.B.B.1.} }.M.c.L.:.Q V.E.c.B.U i 1.3X}.L.-.u u U -.c.,.p.E.Y.M.v.'.'.c.0.s.0.:.l.r.=.l.B.B.M.'.L.i.r.J.Y.c.L.W.M.=.=.s.s.h.B.J.c.n.D.d.1.L.'.i.>.i.1.w.n.y.d.L..XM.s.d.d.n.y.Y m u M ' y.D.c.y.c.c.n.c.c.n.m.n.c.n.@.o 9 Y Y [ u.b...I.@XW.h.D.c.J.c.B.m.` S w.N.h.B.s.S r i u g =.I I B.i.E.3XR.J.y.z 2 b S r p A W L.$XN.d.b.h.h.d.s.h.c.a.i.b.m.h.d.d.h.h.c.n.>.% p %.3 > b 9 G N.y.%.J.i.8.s.f.a.f.d.d.a.a.d.f.b.b.D.j.G 3 r / w.y.Q.w.h.D.a.a.e.%.%X@XW / J.D.a.b.b.h.h.h.D.h.h.a.h.b.b.h.a.e.s.h.h.f.f.a.y.h.h.h.h.h.f.a.y.w.h.Z 3  .f.;.8.w.d.a.%.N 9.h.%.m.y. .S > W 8.c.s.b.h.h.m.d.8.w.=.w.=.8.;X).D.E. Xd.<.[ z [ U.n.y.;.o.q.9.l.W.1X[ Y U.3XL.8.y.y.y.N.h.d.d.s.h.h.h.a.y.d.c.d.s.a.d.i.y.a.s.s.a.a.w.i.h.h.a.d.J.[ y.,X+X|.W.c.d.' A 2 z { ;.8...M M h.s.8.c.r.w.i.r.A b A g b m ..w.F ` ;.p b 4.G G N r ` a.;.` w.E.c.=.8.}.$XJ.{ r.s.W.1.V I A M R %.R %.....m.n.E..X.XW.h.;.s.r.w.1.i.i.r.c.D.U.E.y.i.m.c.J.w.=.r.r.h.s.s.s.r.A G L.Y.1.r.>.s.a.g Y '.B.Y.L.d.n.n.s.c.J.J.J.s.c.p.1.r.s.i.r.p.c.v.s.r.r.i.p.i.r.1.1.r.i.i.1.r.p.1.c.B...A I g i B U I Q -.-.=.=.E..XE.s...' r.p.M.c.p.",
"} M.c.p.-.t.B.L.Y.B.E.v.O.B H V.M...} r.c.M.L.M.L.A.B.M.M.M.M.M.L.c.c...1.U H u U p.E.p.i.}.r.i Y.v...r.Q 7 A ,.c.s.0.i.E.L.c.v.P.n.s.s.c.d.p.l.s.p.s.G.s.r.Y.n.w.'.E.L.D.L.{.J.>.1.y.B.D.J.B.h.M.Y.d.'.W.=.1.>.m.B.c.h.r.c.c.v.-.;.y.B.;.u > u 3 A =.i.n.B.c.s.c.b.c.c.n.B.B.n.W.0.3 a T T l.{.;.8..XJ.N.U.@X.XB.c.m.y.Y b c.i.V b g 7 7 M Q } 1.i...r..X3X$XE.h.X.R S R 8.` Q G 1.,X<XB.a.a.h.s.h.d.h.N.b.h.c.h.d.d.h.h.h.b.b.R & 3 g 1 f Z ..I %.;.8.c.` ` B.f.d.f.f.h.j.j.d.D.a.j.J.<.r 3 n <.a.J.<.3 <. XN.J.%.e.@X%.G d.N.a.<.y.h.a.a.a.b.h.h.h.h.h.h.y.y.h.h.h.y.a.h.h.h.a.a.a.a.a.a.a.y.j.J.S O z w.y.y.w.w.<.Y ` d.9.%.h.J.L.B.<.a.<.8.s.h.w.1.h.s.>.;.e.m.S 7 '.=XY.).E.X.Y D Q n.~.b.[ x 3 _ d.W.I.X.o.S R.'.B.h.s.1.b.d.w.s.c.h.c.c.a.r.y.d.d.a.i.s.a.y.i.s.s.a.y.y.i.r.y.y.y.a.J.W ..,X&X'.E.L.D.Q 7 M / D.E.1.,.y.v..Xs.>.w.i.c.J.L./ S R U 1.w.c.C.w.h.C.Z Q  X<.p N W a.<.N Z i.} I V Q y.' Y } Y.E.w.G Y I m Q i.E.s.Y.D.r.h.r.r.1.m.c.r.=.y.1.r.i.d.r.R I 1.i.` A M Y >.J.r.1.i.i.c.c.s.r.i.A ..B.>.R s.r.1.%.m } L.B.L.s.>.i.>.w.D.J.s.c.L.r.p...-.p.,.=.r.p.....=.,.0.r.1.,.1.1.1.0.r.r.r.r.r.s.v.U 7 g u g ; g u g H I ..k.'.s.' ..] ..c.i.B.c.p.",
",.E.E.Y.r.1.r.c.,X&XL.k.i.p.B.L.,.,.v.T.M.v.L.B.A.B.M.M.v.M.M.M.c.p.V.} ' A } ....Q * m v.p.1.M.}.r.....8 Q '.c.M.c.s.1.M.B.L.E.E.c.v.n.s.v.L.n.c.P.c.p.I T v.v.X.s.m.1.1.'.+XX.I 1.s.L.n.B.B.c.v.h.c.D.h.i.h.s.s.c.d.h.h.D.h.n.y.Q { d.n...g g i X.D.B.y.d.n.s.m.m.c.c.c.n.B.n.l.d.Q c I T n.n.A <.d.%.<.a.'.'.-XD.h.w.Y b W.d.Y 9 7 g m Q r.B.c.Y..X'.;X.XE.i.Q a  .f.8.b.} Z W ).3XJ.c.h.<.h.d.m.b.d.h.c.s.y.h.s.h.c.h.h.b.b.9 r f u z G g s.=.S G / y.<...s.f.f.h.h.h.f.h.N.h.N._.b.f > N ` ;.D.<X9.<.j.J.h.$Xj. XN.f  .j.f.h.e.h.N.c.h.a.h.h.h.b.b.h.a.a.h.h.h.f.a.h.N.h.a.<.8.w.e.a.h.h.b.8.N.a.&.d.N.d.b.b.a.<.Z 9.8.n S } d.B.D.J.Y.r.r.1.>.Q Y >.i.w.r.h.s.R r D.$X).U.8.S 9 2 ( 9.S [ [ p x o.d.=X'.r.@.G W.B.a.y.y.d.a.s.y.d.c.h.c.s.c.d.d.h.h.i.y.s.y.i.s.h.d.a.i.a.c.h.h.h.s.a.D.G p E.U.d.n.L.B.z A c.L.U.' Y U.8.L...s w.B.I.c.1.=.S =.c.-.y.r.v.h.m.w.Q ;.<.Z  .w.N f F f k G L.i.' f V d.%.V b M ` Y c.Y.w.B.).Y.E.m.).'.n.>.i.;.G B.>.} =.=.i.r.s.n.h.S > 1 X & 1 3 A r.L.>.w.1.=.1.w.y.y.h.S u A I 1.1.d.s...A 1.W.R.L.B.m.} z r.r.i.W.c.h.1.r.I Q 1.=.} ..Q u A } 1.i.i.i.p.i.r.r.r.i.p.p.r.v.i.1.A 7 g g I -.2.E H I Q p..X'.t.} :.' U i.p.L.v.s.",
"p.Y.s.}.*XY.v.E.V...' ! 1.L.}.t.E 1.L.s.c.v.B.L.c.B.B.v.v.n.M.B.B.c.l.T g g :.'.v.U A O.x.E..X&X}.L.=.I ..}.i.8 Q E.'.L.E.E.L.Y.g.s.s.c.v.c.c.v.s.s.B.v.,.,.c.v.,.i.M.i.} '.i.m Q p.L.M.B.M.c.v.n.m.m.m.B.B.m.m.c.h.c.n.m.c.c.c.n.=.V '.D.i.A p A s.L.r.B.c.i.m.B.s.c.B.c.n.n.r.;.d.n.L.n.D.B.M % S r.<.[ B.%.y.I.a.r.8.z %.E.s.X./ T D ..s.y.B.$X+XQ.D.n.d.R.=.Y D / L.b. .D S D.D.c.9.<.;.c.a.d.s.a.d.h.c.h.d.N.b.c.s.B.a.R.<.* 9 D y.8.S m a.J.1.m ( d.;.s.c.d.i.m.r.m.m.c.R.[.i.y.z % N Y X.%X$Xh.` W h.;.d.R.w.W.f.W N.h.y.N.h.f.a.e.a.N.N.d.d.f.d.h.h.h.h.h.h.h.h.h.e.D.w.e.a.h.f.f.h.f.a.a.a.h.N.N.j.d.a.e.h. .S Y Y n 9 Q y.h.e.<.w.h. .F p b %.N.h.h.J.h.h.w.I.>XD.a.D.[ u a z a N 3 p x 9 '  X-X'.).c.d.B.W.b.y.h.a.d.s.d.s.d.m.c.a.y.a.s.h.h.d.d.d.h.y.s.h.h.a.y.a.d.s.s.h.a.s.c.c.s z W.N.r.a.d.X.6 c.>XJ.=./ >.%.h.;.S X.c.L.y.` b R w.y.y.` w.&X=X>.;.%.} X.R r f } b p r m ..I s.L.,X}.L.B.i.I V ,.1. X3X).&X'.E.B.c.s.r.r.>.%.i.r.h.%.R Q } r.r.h.h.J.r.b A r.h...3 m w.{.'.;.r.1.i.r.1.1.i.i.Q s ' =.r.r.;.1.;.=.c.+X&XD.s.n.z q y.s.r.B.y.;.s.;.Y r.s.r.Y Q p ' 8.X.r.8.y.s.y.h.B.B.h.i.i.w.1.r.} b 8 g ..r.w.s.i.p.1.M.E..XE.B.2.k.r.c ' s.s.k.2.@.",
"-...A M.'.&X|.v.' g ' 1.] B.}.-.-.-...I A ! ..p.E.B.v.M.B.M.M.B.c.u.v.B.V.v.B.'.V.i.A =.E..X;X'.E.s.} A ,.B.p.=.v.&X;X&X;XL.s.M.v.v.c.s.s.c.M.v.B.M.C.L.M.B.L.B.Y.v.'.-.c.Y.U i =.M.Y.M.M.M.c.v.B.M.m.m.n.c.c.h.B.m.m.m.c.s.i.i.c.i.A ,.w.n.=.A V s.Y.s.m.c.c.c.D.n.c.d.s.B.B.8.%.L.B.E.+X<Xy.p z I r.a.y.;./ b. .%.1./ b 8.i.;.Q f.w.Z b.L.d.u.a.X.S a Y 1.=.Z z u [  XD.B.f.r.c.I ' [ 1.d.a.c.c.h.h.b.m.b.d.i.s.b.L.r.s.n.).;.r =.E.L.G u D w.;.f.d.u.s.r.D.c.s.W.D.B.J.E.R.8.N g r 1 V R S N.h./ b r W [.N.N.W.$X[.[._.K.;.X.b.r.8.e.d.j.d.r.f.f.f.d.h.h.h.h.h.f.a.f.h.e.f.a.a.h.j.j.h.h.h.a.d.d.h.j.h.a.y.y.a.b.Y 6 p f 9 S ` w.w.e.a.N.D.y.Q  .a.E.E.N.j.J.h.h.h.I.R.y.8.w.G 9 a Z T o.D x m G <.h.I.D.>.a.R.W.).N.a.h.i.s.r.s.s.s.h.d.y.a.a.d.h.h.d.s.s.s.h.h.h.d.s.a.d.b.B.i.w.h.a.b./ * b J.s.1.w.8.X.N N.I.W S 1.w.;.d.d.E.=X,X}.y.s.h.i.;.' h.h.s.y.' =.c.c.w.s.} w.Q R 1.h.%.=.i.} y.m.E..XB.<.h.Y.m..XoX'.i.%.c.i.s.i.>.;.1.w.w.w.c.s.w.} I Q =.1.i.B.c.r.m = V .X;Xr.' m.).'.'.B.i.8.r.w.r.s.h.-.u V S Q 1.i.>.1.w.8.B.'.L.c.r.X.u A y.y.=.A z X.y./ { d.n.c.1.s.s.s.c.d.{ 1.c.A X.E.h.} ' >.1.1.h.1.V 7 7 V B.$Xs.1.i.r.c..X}.Y.}.G.t.r.0.:.k.v.B.v.t.:.",
"1.v.=.B.i.V.Y.s..X!.E.}.Y.}.E..XL.=.u 2 2 u 8 m 1.=.O.-.t.P.'.B.p.s.l.n.P.L.' q B ....c.|.c.6.A.M.p.>.} M.M.c.L.E.,X}.Y.Y.c.i.p.c.v.c.i.s.B.C.m.M.v.v.M.B.B.M.c.B.Y.E.' L..Xs.S ,.n.B.c.v.m.v.M.m.m.m.m.n.v.c.c.h.h.c.m.n.c.b.N.L.B.' ..r.i.i.r.8.n.m.w.i.c.L.c.d.c.n.c.c.n.c.s.B.L.n.{.W.I * I  .Z w.d.a.w.c.8.A 1.=.I ' h.8.` m J.c.{ L.y.o.{ S N z m y. X/ > 4 p u.3X X'.n.h.;.A 1.a.y.a.a.B.h.h.h.b.b.h.y.8.c.c.B.1.i.J.I.G 9 A g m ..d.w.r.1.d.J.y.8.d.I.d.D.J.a.I.J.B. .& % 6 W w.b.h.8.i.Z > f G w.b. .b.$XD.a.e.J. X<.8.d.y.e.f.h.d.f.u.h.h.h.h.h.h.h.h.f.f.f.h.f.a.w.h.a.h.h.h.h.h.f.y.e.e.w.w.<.;.<.8.w.j. .z f  .[ W ;.h.%. .<.(.).R.>X$X.XI.e.<.e.y.h.h.b.J.f.9.8.X.n x 9 ( '.Q.X./ T / d.a.=.w.w.8.W.I.D.a.w.w.<.1.1.a.s.a.a.y.r.a.a.d.h.h.d.s.i.i.h.d.a.y.r.y.d.c.h.8.<.a.c.c.m 2 W D.y.w.w.8.1.;.W.y.s b %.=.y.8.i.s.X.1.d...y.d.` W Y y.s.s.8.Y A N m.m.c.y.y.h.E.E.w.V [ i.i.b.&XE.1.` W L.&X).E..XJ...%.s.=.w.>.' =.a.h.s.e.s.>.=.r.>.>.>...i.m.c.' 7 2 1..Xp.1.L.=X).+XU.r.1.r.r.w.i.h.c.=.7 9 G ` b b =.s.r.8.s.B.8.r.X.A m y.r.s.c.' Y :.I M { r.r.8.;.r.c.r.1.;.' I I 2 3 m 2 $ u %.Y.L.w.I 7 r V m ` =.G >.c.p.r.1...=.E.c.,.r.p.c.n.B.V.k.0.:.",
"-.].E.v.-.s.v.'.V.c.T.,X*X,X'.'.*XE.c.M.B.1.g g Q m g m I ,.M.c.2.l.s.u.s.s.A 8 } ..c.B.p.V 2 s.}.M.=.Q c.|.'.E.}..XL.v.m.c.v.v.c.m.v.c.m.L.C.v.M.B.M.v.m.v.c.M.v.M.1.L.{.'.M.I ,.v.m.c.M.M.v.M.n.n.n.b.c.c.c.h.d.h.c.n.c.c.c.m.E.B.X...B.y.i.D.D.n.i.1.8.B.).B.h.c.c.v.n.c.d.n.B.L.'.E.y.o 7 =.d...a.i.y.c.Y.Y [ L.%.X.d.h.d.R ' 4X8.;.W.{ u 1.a.c.u.d..X,X[ z X.o.D.D.8./ N Q X. .w.b.w.8.c.>.h.d.d.d.h.d.y.8.B.b.h.y.h.B.B.g a b z X.W.,XL.b.n.d.B.f.n.b.h.d.L.p + 3 7 u & + s w.D.E.).;.g z Y ` 9.;.d.%.` [.h.N N / <.w.z ( b.j.f.a.f.f.f.j.b.j.h.h.h.h.h.h.a.h.N.h.<.j.a.h.e.y.f.h.h.h.a.y.y.e.e.w.8.9.e.d.N.h.Z 3 Y W.J.w.a.e.Z G ` h.N. X$XJ.h.e.<.g.N.a.a.y.a.h.a.a.y.&./ 9 S f.d.=.D.D.u.E.y.y.I.).-X>XR.D.c.s.y.y.y.s.r.d.h.s.a.i.y.d.d.d.h.h.h.d.s.i.s.i.w.w.w.r.i.a.w.w.s.w.b.%.N f 1.L.w.w.y.i.d.h.b.W.w.d.$XR.d.D.Y.1.S Z A p >.W.R.J.r.a.r.d.w.` %...a.}.s.<.h.m.h.} N Z w.s.c.s.J.).' Z m } R 1.}.).c.>.w.i.=.h.1.' >.h.h.r.>.1.r.w.s.i.8.=.>.D.c./ * 3 I L.c.=.>.n.c.r.L.{ I s.d.h.s.s.s.c.h.{ M Y w.>.' ..=.r.8.8.y.8.8./ Q ..y.8.'..Xs.B.+XD.8.d.v.M.y.i.0.0.r.r.y.d.' g u 9 3 * u g u I } g 2 r V I V s s b =.s.c.p...s.E.;X=.K 1.s.t.c.U.k.0.:.@.",
"E.}..XB.v.c.1.c.....r.v.,X&Xr.1.r.v.'.E.T.O.g m U g m A 0 7 =.~.v.v.l.c.:.U 7 c ! U p.V.L.s...L.Y.Y.s.R g >.C.}..XY.m.E.E.s.c.L.B.B.M.B.B.B.M.M.M.L.B.M.M.v.v.B.c.c.' L.L.M.p.Q c.L.L.M.B.M.c.v.m.n.b.c.h.d.s.i.i.d.c.c.h.h.c.m.c.c.` b c.L.m.d.r.s.c.r.s.{.E.w.n.n.d.s.c.n.c.c.p.s.D.B.{ > Y m w.h.a.s.N.d.i.8.i.I.<.w.h.8.h.} <.[.X.9.1.I =.Q.n.E.D.-X,Xb.W { u.S [ m z x ` u.:.<.y.f.X.8.B.w.N.c.d.d.d.d.s.a.d.J.h.h.d.h.J.Z 6 m d. Xs.U.<X=XD.D.D.h.n.o.[ N.1.& > s f 9 f I N.}. X@XY.} G [ J.$XW.X.8.N.).d.b t 6 ;.e.f & Y F.c.e.8.f.h.a.y.h.h.h.h.h.a.a.h.f.j.N.%.G h.D.f.e.y.f.h.h.h.a.a.a.a.a.a.y.e.f.j.h.j.f 3 a.N.r r J. Xa.[ w.3X$X).I.e.;.w.w.a.a.&.y.y.e.e.d.f.w.y.` u Y f.X.z :.r.%.b.;.b.3X>X+XR.a.y.w.r.w.w.a.d.s.b.c.d.h.h.s.d.s.d.d.h.h.d.s.a.s.a.a.a.s.a.a.i.y.h.h.d.s.A g m h.L.8.8.r.a.a.a.r.s.I.,X$X@Xm.L.E.;.>.X.N z d.3X XE.d.h.w.s.h.h.h.m.c.h.Q ;.c.w.e.%.1.i.g.r.m.e...c.` b b u s B.&XJ.h.r.r.,.1.c.h.=.w.h.i.r.i.c.c.s.1.s.s.1.i.m.8.I u u r..Xs.i.h.1.1.d.Y.-.' s.i.s.y.r.1.s.m.w.' ..U.;X.XB.r.c.p.y.r.y.8.{ y.1.u Q W.l...U.}.D.B.d.d.D.r.d.y.X.0.B.D.r.;.I u C m b V A s 7 7 7 u m A b V ' %.' J.'.).'.'.3X&XB.' B @.1.t.V.U.0.0.0.2.",
"' g ,.v.v.i.r.s.M.=.T U E.2.g -.s.V.E.c.v...' i.' m d g g g A U h M I @.0.' i V O.k.c.c.v.Y.}.A.m.L.E.E.v..X|.'.L.c.s.L.B.p.v.M.M.c.c.m.M.v.M.C.m.v.m.B.B.B.M.c.c.v.=...s.B.c.p.M.Y.L.n.B.v.c.B.c.c.c.b.b.n.c.c.i.d.c.c.c.N.D.J.J.E.X.z r.E.L.D.h.m.B.1.c.,Xr.m  .y.B.n.l.n.B.c.U.d.c.E.S 3 Y M ;.d.a.b.c.h.d.B.m.d.h.y.w.w.d.a.y.h.Q Y / X.W.8.c.a.X.U.U./ / 9.X.9 T [ :.0.W.U.a.;.D.N.<.c.c.J.B.b.d.s.s.d.d.s.s.I.h.w.a.N.m.m z I =.;.G r.I.y.r.J.U.D.N.A x ;.N s b V z z s.N.L.D.I.E.a.=.1.=.D.K.w.G  .).>Xz 9 9 f Q W S b ( 9.d.d.w.f.d.u.a.h.f.f.h.h.a.h.h.f.h.9.n t w.J.e.a.a.f.h.f.y.y.a.f.f.d.f.a.e.y.f.h.N.Y 3 <.h. .D.$XJ.f.).$X$Xh.h.a.<.w.y.e.y.h.h.f.h.h.a.a.w.;.f.X.<.=.n. Xf.9.r.%.y.W.<X>X).d.=.i.s.i.h.h.d.m.N.a.h.d.a.d.d.a.y.s.a.a.s.d.s.s.a.s.d.d.h.h.d.a.i.d.h.w.J.8.N z G D.J.8.w.y.s.r.w.y.y.w.c.N.d.Z y.8.Y y.D.c.m.).Y.J.E.N.s.w.c.h.y.s.h.}.h.w.J.J.h.i.a.h.w.1.J.oXh.w.>.Q u m u $.;XY.s.s.i.r.1.s.i.s.8.i.s.i.r.r.c.y.h.w.h.c.1.i.a.>.G Q Y W.E.i.r.r.'.U.w.s.d.=.c.y.r.1.w.w.a.s...9 w.$X.XE.Y.h.w.y.y.1.8.8.y.E...Y 1.s.9 u D.E.B.c.;.8.B.r.d.c.r.c.E.c.8.8.=.8.Q Q %.V u ' ` s m R g V Q ..L.&XB.Y.3X;XE.Y.M.....:.2.t.1.k.n.u.:.0.r.t.",
"7 7 -.!.L.s.B.Y.v.C } s.v.i.=.c.c.V.V.c.c...Q i.-.v.v.} A U U g 8 q c K 1.@.B m ' P.E.L.B.B.M.' A ..B.}.oX&XE.B.1.r.g.C.v.c.Y.M.s.c.v.v.v.M.B.L.L.v.B.L.C.L.L.v.M.s.p.p.Y.v.s.s.c.B.M.v.B.v.c.L.c.c.n.m.m.B.B.B.D.J.D.M.n.m.n.c.h.m.I 3 m ' R >.E.m.h.=.h.{.G g I ..c.L.c.d.c.c.y.s.c.0.p m Y ..c.s.c.N.r.b.n.y.m.d.D.8.w.h.N.c.D.+XI z a.D.h.I =.a.y.D.y.A G x c D =.D.-X.XU.n.n.;.y.h.d.U.a.i.h.d.i.i.s.d.d.a.m.N.d.1.h.I.%.r p Y Q  .r.D.8.X.X.d.D..X[.G 9 z 3 u g G W ;.W.I.r.R.b.w.b.X.f G D.h.<.;.f.). X` t r S f f &.G r G r.b.y.u.d.f.c.h.a.a.h.h.a.h.b.a.j.[ f G e.j.9.e.a.a.a.e.w.e.f.h.d.d.h.d.a.f.d.d.d.9.p / d.I.$XR.b.I.$X=XE.<.<.e.y.h.b.h.y.y.a.j.f.b.a.;.;. . .[ ` <.b.8.d.Q.D.N.$X}.R.R.w. .a.r.s.r.a.a.y.d.y.w.d.a.r.a.s.i.y.d.d.s.a.s.s.a.i.d.d.d.d.d.s.a.a.s.y.i.h./ S G R m.h.1.i.s.a.w.a.m.y.a.m.i.8./ =.w.;.J.>X,X X$XJ.U.W.b.y.b.@XB.X.4.h.e.a.w.` ;.=.m.J.N.s.h.Y.<.f r.1.' m g b ..L.).h.r.>.1.-.s.s.1.1.r.r.r.1.=.w.s.h.r.w.8.1.i.m.r.g m i.'.r.i.B.D.J.M . A s.G ..v.s.y.h.c.n.s.' 1 s..XY.d.=.' ' 1.;.1.;.r.c.D./ g -.1.m A r.s.;.{ A Y r.r.r.y.s.d.s.{ ..=.1.E./ Q w.' V >.h.1.i...m Q r.w.w.=.V Q J.'.p.1.....s.s.l.u.0.t.l.2.:.0.0.p.",
"< Q ..L.P.v.M.s.' ' M.!.L.'.p.c.t.B.v.v.r.) m 1.L.L.,.A } k.-.i I B C g H q 7 Q B.E.B.v.L.M...I Q } ..I =...U I ' ' i.'.Y.s.v.c.c.L.E.L.B.L.C.m.L.c.B.B.s.c.C.c.s.B.c.M.p.M.|.-.p.M.B.B.Y.M.c.B.B.N.m.n.c.c.h.d.n.m.m.c.m.B.B.m.m.L.I 3 u Q m Q B.8.s.1.s.h.p ;.8.Q ..n.n.y.s.d.y.r.B.1.1.r./ 8.b.a.d.h.h.c.s.N.h.B.d.;.s.D.R.8.1.D.8.s.S %.W.b.` U. X;.u 7 ` z X. Xd.u.U.9.9 D s.h.y.c.w.i.d.a.i.y.y.a.h.h.h.s.b.a.B.s.D.I.S p Z S [ B.J.d.<.r.8.<.:.D.c.a r z / g A >.b.$XD.a.d.d.y.y.s.G 2 I a.N.a.a.D.9.Z z p [ n b  .w. .Y z =.y.9.f.n.j.d.a.y.y.a.y.e.y.h.f.D. .G j.b.f.9.e.e.a.a.e.w.y.h.w.8.w.e.y.y.a.f.j.a.w./ ). XD.J.h.b.$X$X).J.a.h.a.a.y.e.a.h.d.d.b.<.f.8.[ X.` b D n ( <.o.c.W.I.+X&Xm.I.N.1.b.1.d.N.s.h.h.s.h.r.w.d.h.a.d.h.d.s.c.h.d.a.s.s.s.a.h.h.d.s.i.y.a.s.h.i.I...f b R V w.<.X.y.y.w.8.c.w.h.y.>.w.r.h.E.s.w.w.J.R.s.).[.J.J.h.r.;.8.` R i.<.G b * 1 1 ...X&X[.).).B.G m r.r.b g b w.1.B.E.h.w.w.h.1.i.c.s.h.s.r.s.s.r.c.i.r.i.w.g.B.r.r.=.%.=.-XL.J.).s.>.z $ & = 7 = >.c.i.w.s.s.s.r.Q A L.L.r.,.%.8.h.8.=.r.r.d.d.8./ m =.;.8.y.;.{ A A p z =.c.s.8.l.c...Q A ;.d.r.8.g.s.h.L.).Y.y.` n F =.L.&X'.w.G g ..M.i.1.r.c.r.s.' ) :.1.G.v.2.0.t.s.",
"V ..B.B.....-.Q g r.}.}.,XE.t.k.B.M.i.U E ..' c.Y.v.1.V ,.L.p.1.r.T i c i g H s.E.A A =.M.L.,.s.E.;Xv.V m V 7 g g A v.E.v.v.M.C.M.M.M.m.M.B.B.m.v.g.s.v.B.B.M.M.d.c.L.c.M.B.E.v.E.&XM.L.|.B.L.v.B.B.h.m.s.c.i.i.n.c.s.c.s.B.c.B.M.L.m 1 Q >.8.,.'.h.v.r.y.Y V d.E.) 8.c.d.i.d.d.d.c.c.s.r.s.d.y.d.h.b.c.h.d.h.c.b.J.8.N.c.b.s.A z { a.D.h.D.Y Z n.b.9 X.f.S r S d.n.n.D.y.x 3 m h.a.;.=.;.y.D.b.N.b.h.d.h.h.8.} y.h.J.r.J.=.3 N S M N.+X' ' w.;.=.o.X.J.8.f 6 c.Y.R G i.b.N.y.<. .=.G N r + r } N.j.b.&.D. .9 6  .D.%.Z X.N.N.X.N [ N.e.8.8.y.d.h.a.N.h.I.h.y.J.e.N.Z &.%Xh.;.w.a.e.a.h.h.w.w.f.w.d.;.e.a.<.h.j.y.G  .y.K.b.h.D.h.D.E.Q.8.f.h.w.a.e.a.f.e.e.d.h.a.f.8.X.[ / Z 9 S b Y d.F.d.N.b.N.h.D.L.c.i.s.a.h.h.d.s.s.d.h.h.d.d.m.c.h.h.y.y.a.h.d.d.b.h.a.y.h.r.i.s.r.y.h.d.h.c.).3 & W w.c.R.i.1.r.w.r.a.i.r.y.i.a.y.y.d.N.J.w.m.[.J.c.m.i.h.B.s.8.' ..>.N.[.'.b.4.a.1.B.;X$X)..X$XL.A G J.w.}.E.G m h.s.)...=.i.h.r.i.h.r.r.w.w.h.m.h.i.r.s...h.h.s.L.s.r.1.J.).D.r.` m s g 3 = / 1.2 = =.).r.s.r.1.r...Q ..c.h.8.r.h.J.J.r.1.y.d.y.y.y.=.,.B.B.B.n.8.=.Q m 9 Y c.B.d.y.r.s.8.1.B.n.E..X{.'.'.E.B..XL.>.Q g I c..XJ.....i.w.>.1.,.r.p.r.i.l.' B @.B.XXl.-.u.u.t.",
"} '.-.] ,.m V ..V.E.|.XX,XL.B.T.B.s.r.=.,.=.' M.B.c.M.-.1.E.T.n.n.) I s.1.:.I ! B m g ..}.&XM.A.M.E.}.E.B...g A k } `.E.c.B.v.s.v.M.B.M.m.M.M.m.L.M.c.v.M.M.v.v.v.v.c.L.B.M.p.} ..p.p.B.Y.B.'.E.L.c.d.m.s.s.n.L.D.B.c.m.h.B.d.s.J.h.7 7 Q w.h.h.W.} i.Y.i.G Q s.L.r.E.d.s.v.y.U.c.s.d.d.s.s.d.s.b.c.h.h.h.h.h.h.h.h.b.d.m.r.' r ..=.` S I.<Xs.=.E.X.` W.{.a.y.o.@.;.d.d.U.[ 9 I I o.=.X.X.y.J.m.N.N.b.h.h.c.h.s.N.b.m.h.B.` 9 f g T d.h./ X.f.8.a.d.h.n.8.2 ' 3X[.).a.y.X.` A b A u 3 & b 8.A Y e.d.b.<.h.a.w.<.W.%X<.&.d.R.R.d.G ` %.8./ :.X.y.f.h.J.f.h.b.J.E.<.Z + [ J.%.<.J.e.9.w.a.a.w.9.e.h.y.h.J.a.f.N.D.<.p  .9.%.a.J.f.h.J.R.N. .8.h.h.e.a.a.9.<.h.N.y.f.r.X.( D f r f D ( X.<.9.h.W.J.B.c.Y.}.J.y.y.d.r.r.r.r.y.i.a.s.D.c.h.y.w.i.i.h.s.h.d.a.d.d.r.w.d.i.y.r.r.a.c.h.d.b.=.1 b b.+X'.c.y.r.a.y.r.i.i.h.s.a.i.y.w.r.i.y.w.D.I.r.>.y.y.d.;.n.8.u w.5X=Xm.J.E.E.,X5X,XB.Y.$X).'.c.<.I.y.B.E..Xr.} J.).E.%.=.w.w.w.i.h.s.s.s.s.i.r.r.r.i.=.w.s.1.C.J.w.s.B.s.a.d...3 . = = s b m V 3 G ' m.y.r.r.w.y.A g A s.m.r.r.h.c.r.s.r.s.s.8.8.r.1.r.s.d.u.d.c.p.y.8.S Y s.n.i.r.s.r.s.s.D.d.d.c.s.c.Y.L.B.i...} s.i.1.J.'...* s i.h.w...V ,.i.-.s.r.I A 2.P.,XP.t.u.p.u.",
"1.E.-.1.v.} =.Y..X3X,Xs.:.s.E.v.c.p.k.k.c.1.' s.L.V.'.B.r.k.r.0.v.V.B.V.=.~.B.-.1.] ' }.;X'.`.|.Y.v.Y.&X3XoXv.i.p.E.,XE.h.L.L.L.c.M.B.B.M.M.B.B.J.M.c.c.v.v.v.v.M.v.v.L.Y.E.' g u 2 u I m i ' B.m.v.D.d.i.B.Y.s.h.B.m.B.c.D.D.J.B.;.1 i b } r.m.R b w.E.h.1.c.c.D.5X+Xs.c.d.n.s.c.y.s.c.c.d.c.c.N.b.h.d.h.h.h.h.m.h.D.%.y.d.Q b ;.'.=XD.W.{.D.{.).[.=XE.s.I 1.D.l.f.U.I.W.X.Z D { r.n.D.h.a.b.s.c.h.h.d.h.b.m.m.N.h.s.b.h.S z z / { D.y.o.8.y.y.b.D.D.D.d.* ( L. .X.Q B.b.y.Y r 9 I G <.R.D.b ' W.Q.K.f.h._.@X).).).[ / a.d.e.S N 9 %.j.` S 8.n.<.h.D.N.N.N.I.N.W 3 r <.e.<.a.a.y.a.h.h.f.e.e.e.e.8.j.N.b.J. .` f Y [.R.f.N.j.j.j.K.J.y. .8.d.f.h.a.a.e.e.h.D.F.d.n.9.D a u u a N N ` b.N.d.J.R.L.I.'.[.N.8.8.y.s.s.s.d.h.h.c.c.s.y.s.r.r.s.a.h.s.h.s.y.a.i.w.8.i.s.y.w.i.h.h.h.m.J.s 1 Z N.E.>.%.8.y.a.a.y.r.a.s.i.y.i.a.a.a.s.1.1.y.a.w.w.i.y.c.N.c.I 7 / J.N.R R s.i.s.J.b.' y.J.J.h.%.Q R ' '.E.h.w.h.R m L.h.c.s.i.i.s.s.h.w.h.m.h.i.r.r.1.s.i.h.s.B.w.>.1.r.;.w.v.n.p.s.c.V V A s s g c.B.c.c.w.p.d.m.A b =.y.r.r.y.r.h.B.B.d.s.s.r.8.r.r.8.=.8.;.y.B.s.B.E.n.y.i.r.1.1.0.r.r.1.s.s.y.1...s.w.%.i.>.I b ..s.L.;X}.>...h.E.s.M.E.U U =.1.=.E i i H ] v.k.:.0.2.1.",
"p.p.L.E.G.B.Y.|.E.M.'.c.1.l.E.B.Y.B.v.r.t.i.i.E.L.!.E.E.L.B.r.!.'.G.s.s.2..X-X,X|.E.L.&XY.T.E.c./.&X,XY.L.}.'.'.;X&X;XY.g.c.p.M.c.m.B.B.B.B.J.L.m.c.c.v.M.B.B.B.M.v.Y.c.Y.Y.i 7 A u g A 7 . * ,.B.=.h.'.+XW.).M.s.n.c.B.m.B.D.c.L.I 1 s A p.B.Y.s.y.m..X3X3X.Xr.W.'.I X.L.8.n.c.d.y.d.n.c.d.c.n.m.b.h.h.h.h.h.c.c.N.b.1.%.=.b / .X XQ.Q.d.D.r.y.N.D.8...D.;.=.b.d.L.+X Xo.a ..I I Y ;.E.W.d.h.N.h.s.y.d.b.m.c.s.c.h.b.N.c.R A Y o.X.+Xr.{ a.8.d.h.n.d.U.c.1 g { b 3 9 >.R w.N.I.<.<.c.J.[ r 9 %.3X XW.J.J.).8.` R. .r %.J.w.S z 9 b.+Xh.J.;.S G a.w.` %.N.h.<.Q , b D.R.%.;.h.w.y.h.N.b.a.e.a.h.h.a.f.h.Q.X.& f Z <. Xd.e.b.8.N.N.b.<.Y G &.8.&.y.w.y.a.w.e.h.b.8.r.` f 9 z N S X. .<.D.W.).@X).J.W.W.n.w.w.r.8.a.a.a.s.s.s.s.s.w.w.d.d.h.c.s.d.d.h.s.y.a.s.y.r.w.d.y.w.h.n.d.i.b.h.1 g Z h.h.I W ;.r.r.a.i.y.d.y.r.r.a.d.s.s.d.y.1.;.8.d.b.d.a.i.D.>.g r m %.V 6 g =.F b ..i.a.=.>.y.a.} s & $.B.=.s.>.-.=.>.c.v.m.s.r.i.r.1.w.1.r.i.r.r.s.h.h.h.h.i.1.m.>.i.1.r.p.s.i.r.M.L.s.i.G I ' ..' 8.y...1.r.h.r.h.1.c..XB.1.r.i.w.c.Y.n.y.8.8.r.y.y.y.s.y.n.L.+X,X&X<X~.&X+XD.s.r.r.r.8.1.X.r.s.8.r.y.h...I 1.e.` m Q E.$X;XY.<.B..X}.'.E.,X&XL.X.U i 7 i c i B ] T A 0.1.:.",
"k.E.|.L.M.V.M.E.,.m -.r.p.L.L.B.L.B.B.B.V.s.O.O.Q ..Q Q ' =.=.L.1.p.B.L.L.l.r.V.&X,X,X}.L.A.,.1.v.;X;Xc.i.s.r.s.s.1.p.g.m.C.c.B.M.M.M.B.B.B.B.B.c.v.v.M.B.J.C.B.v.B.L.v.E...= 7 i g g g m V m v.=.s s S ' =.B.J.B.B.h.m.L.M.c.1.} 1 u g U d.w.y.m.b.L..XY.r.X.Q 1.A $ z c.G.s.d.s.d.n.n.c.c.v.c.h.c.b.c.h.h.h.b.b.N.i.i.%.Y W W.$XE.c.J.d.E.c.d.8.b.n.D.;.g o.n.G.U.D.d.A { E.d.h.w.c.$X[.r.w.c.b.d.s.c.N.b.h.s.y.c.B.h.N.} b I I d.Q.I W u.s.h.d.y.d.D.s.7 I c.y.d.E.E.} Y.).$X Xh.D.N 7 p f h.@XJ.).).[.[.G / D.[ 6 [ 9.b.z 9 y. X&.` j.e.9 m / &.Z Z ` b & + + G ).J.%.w.a.e.e.y.f.a.y.y.f.h.j.y.a.J.J.> & <.f.8.w.` %.h. . .d.f.<.`  .<.&.Y [ 9.a.e.y.j.d.X.T m 9 3 9 p S 9.j.d.j.).@X%X>X).c.D.b.w.8.s.d.i.y.y.a.a.a.a.i.i.h.d.b.d.d.c.s.c.s.h.a.y.d.h.s.a.y.h.y.8.d.b.a.y.B.;.1 G Z n.d.` / <.r.w.a.d.a.d.d.d.d.d.i.w.w.w.s.a.r.a.h.i.r.h.>.N.I 3 N I 1.I f ` ;.p A h.c.r.w.w.>.i.A 6 G $.' 7 ..} ..L.E.c.h.h.w.1.r.r.>.w.r.s.h.h.i.r.r.r.c..Xs.` L.c.s.i.s.i.s.p.r.s.c.y.B...=.r.d.D.X.=.;.{ =.w.1.w.i.c.r.1.%.1.r.r.s.p.i.r.8.8.r.r.r.y.8.y.y.D.E.L.U.E.U.W.'.'.W.B.d.c.r...Q 1.m.i.y.s.r.=.>.1.1.' w.).3X3XJ.I 7 >.L.h.h.Y.v.E.s.I g A B T B c +.-.K K u.p.t.",
",.].'.Y.!.'..X.X=.Q 1.A A s.L.M.Y.c.s.V.E.M.r.2.=.r.s.r.-.v.Y.n.g l..Xl.l.s.p.c.i.i..XL.,.=...c.L.B.c.c.E.B.-.1.E.M.L.c.s.B.c.s.C.M.m.M.B.m.c.c.v.m.M.M.M.M.v.c.c.L.c.'.Y.7 2 g I =...,.s.i.Q v.} z 2 + $ m w.s.B.J.m.B.B.p.L.L.;.u A g ' Y.B.E.B.i.B.}.y.' A g ..=.z u T s.d.8.d.c.n.n.d.c.c.c.d.c.n.b.h.h.c.m.c.L.s.%.8.[ r.I./  ./ [ B.R.d.8.w.U.E.I.T A d.D.f.l.f.X...Q.9.' '.W.'..XB.<.i.N.c.h.c.b.c.s.d.N.w.h.N.d.L.1.G ` y.@X{ a 8.d.c.d.h.w.D.c.n.f :.W.R.$X$Xh.1. Xc.Y.` X.>Xi.z Y R.,X@XN.b.8.%.%.N y.D.a. .n 8._.b.G ` T r x &.D.e.Z N &.Y f f 9 1 f t  .K.y.%.h.a.a.j.a.e.y.f.h.a.y.e.9.h.K. .O N 8.a.b.h.d.D.a.S ` y.a.d.<.;.<.;.W S ( X.8.h.F.y.( 9 9 p x b S X.d.d.a.j.W.).). XW.s.s.y.y.d.d.a.d.a.s.d.h.h.h.h.h.d.a.h.s.s.h.s.c.i.d.a.y.d.h.s.a.h.h.y.8.i.h.s.i.Y.} 6 G V N.r.%.=.y.s.a.d.d.d.d.s.s.d.h.d.i.i.s.a.i.a.d.d.8.8.h.h.1.r 3 G I >.h.s.J.c.' m.'.s...=.e.<.I 2 3 G e.;XY.C.s.B...g h.m.h.r.w.i.y.r.i.r.s.m.c.i.w.i.c.B.m...' J.i.w.w.r.w.i.y.w.w.r.r.w.Q R ` ' r.I %.J.1.1.i.i.r.w...A I { r.1.{ } } 1.d.n.s.y.r.8.r.8.s.,.r.y.=.8.8.d.y.y.c.U.U.d.=.Q M S ;.d.=.>.8.8.>.i.1.>.%.L.3X.X'.' 1 2 s.L.w.h.%.7 i u A V i 0.' g h s.u.) ..t.r.0.",
"..M.G.E..X;X,X].B.Y.'.r.} ..v.E.M.v.s.s.1.U h i r.c.L.V.P.}.'.r.0.U.&X~.E.B.-.' g g i.A y ..c.c.Y.v.M.L.B.4.} -.c.s.E.B.p.B.L.Y.B.M.M.M.M.v.c.c.v.m.m.v.c.v.c.s.v.M.B.|.=.= m A A ..,.'.,X'.=.d.>.z r I A 9 z X.c.B.B.B.d.{ r.d.z 3 z ` B.;Xi.=.m.Y.{.M.` U m Y L.L.Y z M S ' s.D.c.d.d.d.d.c.c.c.c.b.c.h.h.c.b.d.I.s./ X.[ / b 6 M S Y 1.r.r.s.D.[.L.h.r.d.d.9.X.8.u.( X.-X'.<X$X<X>X'.d.<.d.m.d.a.d.c.d.r.a.N.h.m.N.N.B.;.w.n.=XW.Z Y b.n.c.s.d.d.n.c.n.m y.N.N.I.s.Y z Z 2 A N ..8.=.w.c.@XU.J.w. .S b ` f.>Xw.W G Z D.y.).d. .I n W D.y.N._.<XR.` p r n p z / D.%Xf.%.e.a.N.D.f.e.h.j.h.y.e.a.h.b.D.n . b f <.K.J.Q.R.<.G e.a.&.X.G n S X.[ f p n ( o.o.W z 9 z ( Y S &.j.f.D.D.h.y.<.d.I.b.1.y.y.a.h.s.r.d.a.a.a.s.d.d.s.s.w.w.s.s.d.h.a.d.y.s.a.i.d.d.y.r.b.s.a.a.s.d.h.a.h. .z I [ E.i.y.8.r.h.c.d.s.s.i.y.r.y.d.h.h.c.b.i.w.w.y.a.a.a.s.c.6 3 N N %.d.B.B.J.s.;.B.b.>.} G I ' e r g Z E.=.w.} Q R g g <.m.i.r.r.r.w.w.1.w.r.w.>.w.h.B.L.R u 7 I r.w.1.>.>.r.r.w.r.y.y.i.p.I V 1.i.w.} r.n.L.L.B.w.8.y.s.>.X.=.r.' g m A ' r.s.y.s.s.y.r.1.r.1.8.r.8.8.y.r.;.;.1.r.d.r./ 7 g { 1...A ;.c.r.1.1.1.1.r.h.c.J.1.u g ' L.h.w.i.m m ~ i u g H c.@.! ) c.s.@.@.:.:.-.",
"1.s.v.t.Y.P.=.2.-.E.;X,XE...-.-.p.B.c...V g U } B.B.s.s.&X~.s...V.B.l.1.] r.k.V.,.I ' i ^ x.B.M...$.c.s.' V g u 2 g s.Y.s.c.v.m.M.M.M.B.M.c.c.M.v.M.M.v.v.M.M.v.L.c.|.E.9 4 A C Q =...s.M.E.c.M.c.G s ..' z g =.B.B.h.B.s.b u = $ s m ' ' ..b S W.'.8.m M T g =.1...Y m X.r.7 Q E.d.r.s.d.s.c.n.m.b.h.h.h.h.b.b.D.B...S z M m Y D S / n.y.c.h.d.W.N.L.D.b.h.c.'.B.l.n.:.s.@XQ.d.R.[.'.I.y.1.h.b.h.r.r.h.c.a.y.d.d.h.s.c.%.N d.'.).%./ =.;.B.n.s.y.U.y.d.=.z h.L.N.i.[ V g / ;.d.y.w.<.G [ E.B.} h.<.W S p S 8.<.` G 6 %.y.Y ;.&.8.u.j.@XD.f.D. Xd.G f z p G Z G Q.).Q.e.9.h.a.h.e.w.e.h.h.y.e.h.f.h.w.J.S 3 t Z b.y.e.[.D.w.w.e.%.Y ( N f z / S f n N f p b z > z a Z D Z X.b.f.$Xh.9.d.&.N N G ' w.i.w.a.d.a.d.h.h.h.d.d.d.s.s.s.i.h.s.a.h.a.h.i.d.s.a.d.s.w.8.h.y.d.m.h.h.h.y.%.=.G R 8.E.<.1.1.1.d.n.s.y.a.w.d.y.r.i.s.a.y.r.y.y.a.y.w.a.h.s. .r N f `  X8.a.h.I.h.%.1.;.%.Q b r s u b m %.r.7 I s G R %.h.i.h.r.i.h.i.r.r.>.w.i.i.s.c.h...m 2 s 7 s r.L.w.=.8.8.>.w.i.8.1.d.s.z r c.&XE.{.}.).-XB.s.>.s.1.8.;.=.' I p 7 z u 9 K / { i.B.d.r.s.y.c.y.y.y.X.=.s.=.0.c.8.X.:.1.S A ' X.X.{ d.d.r.r.w.s.>.1.=...1.r.V m } E.h.>.R g ..} U T U G..XL.L.0.2.t.B.n.0.1.:.",
",.v.v.r.1.} H } v.P..XT.r.B.s.' M.s.p.P ,.p.Q ,.L.x.s.B.L.M.B.E.p.=...V g 1.'.}.}.c.v.} } L.M.Y...q -.Q ..i.I u A ,.p.s.v.c.v.v.c.v.M.B.B.M.M.M.c.s.L.B.g.L.Y.v.U.E..Xu . A S m ' h.Y.L.I.c.L.J.E.r.V ..` ' =.L.U.s.d.c.s.I p p m p u o.{ ;.=.8.U.n.r.G.L.D.B.D.c z d.:.8.U./ c :.p z u.n.d.n.d.c.n.d.s.c.c.c.B.U.r.S 7 Y 1.;.M.'.J.>X+X@X;X).h.s.h.s.y.d.R.=X3X=X.X$XU.$X}.s.;.I.W.w.r.8.%.<.d.f.u.y.s.d.d.d.f.<.d.J.a.w.<.y.;.8. .b W a.y.a.c.h.b.y.c...1.R.E.Y.X.Q p 6 >.R.B.b.Q Q ..s.$XW.` A Z p N X.X.` %.B.g S i.L.h.;./ S d.f./ [ Q. X X=.n r f S 8.[ &.@XE.J.w.;.e.e.h.h.y.y.h.h.w.<.y.a.a.w.N. .f z / J.9.h.w. .&.W n n 9 Z t n ` / T d.+Xj.S z 9 2 N N N W Y ;.8.d.D.;.3 ` b.w.N p s f ` J.d.r.a.h.d.d.h.c.h.d.s.s.d.B.i.h.m.c.r.>.s.a.s.s.a.i.r.i.p.i.h.c.a.d.U.D.{ / R.[ M a.n.[ w.r.a.s.i.y.i.i.y.i.y.y.d.d.i.a.h.c.y.y.b.w.w.b.%.Z s b G a.` r 8.h.I.}.J.i.1.X.%.G g p z b V z 1 >.w.L.n.'.).c.J.c.-.' i.c.1.r.y.w.w.s.c.h.%.u . u V V 7 V r.m.i.s.,.1.y.1.s.w.J.y.b g 1..X&XW.$X&X|.'.d.8.s.1.I m A Q y.G I ` Q m z u 2 7 u m 1.s.B.d.0.y.r.1.y.y.0.8.r.r.1.;.=.K 7 A ;.1.d.M.d.r.,.r.r.s.s.=.-.i...A V E.B...A m g c u =.t.0.~.L...c c 0.L.0.l.-.0.s.",
",.c.s.r.p.1.] -.L.'.V.B.,.t.-.L...d l =.T.E.Y.=.-.A.E.L.M.v.p.x.E.E.Y.,.=.M.s.} } p.E.p.,.Y.E...u Q s.i.'.v.I A B.{.Y.p.i.p.n.B.c.v.v.v.v.c.v.v.E.v.c.M.L.L.v.c.c.;Xw.* 8 V m S 1.L.Y.).{.J.B.=.8.' m ;.y.s.U.'.U.s.s.s.y.Q m m B ( Y @.d.D.n.D.n.{ u.<X=X=X.XD.9.d.G.[.Q.l.u.8.K 9 g l.+Xd.u.l.c.c.s.s.c.n.n.B.s...o ..{.{ { -X.X.XE.m.[.).J.b.h.h.s.d.B.'.$X&X@X).=X=X[.w.;.h.I.>.Y w.d.<.r.b.c.f.s.d.d.d.d.c.D.s.b.B.c.w.>.} ;.w.} X.i.a.d.h.b.w.N.J.).E.N.c.c.S z f z ..%.Z Y W ` E.3X X@XN.W b u 9 G W.=X8.r 6 ` s.D.h.X.f T f.d.{ X._.+XQ.F.D.u.[ :.K.D.W.).J.b.e.w.a.e.a.a.y.a.h.h.a.y.y.a.h.h.J.<.G <.).J.a.8.W b b r r x a x X.;.&.( b.$Xj.( &.d.8.( D N [ y.;.i.n.B.b.=.[ I  .<...A f p Z 1.w.d.a.a.h.h.h.c.h.d.a.s.d.i.w.s.s.i.r.w.h.h.d.i.r.r.r.r.i.d.8.:.w.n.n.{ 9 W =. .r.Q.%.[ b.w.a.d.a.i.a.a.y.w.d.d.y.y.d.s.r.h.y.8.y.d.h.d.=.z =.%.b Z g N X.b.' a.w...y.<.1.Y N m N b S  .;.>.` L.L.Q p m >.;.r./ m Q w.c.h.m.J.c.i.=.b 3 V s r F Q * b  .=.......s.i.y.y.B.r.* g X.i.r.%.h..Xc.r.1.r.y.Q 7 * b 1.c.>.w.v.).&X'.h.' M u p { y.8...{ ,.8.1.0.y.r.r.r.y.8.1.1.=.g S 1.1.8.y.r.,.r.s.1.,.r.r.v.1.A u ..M.' i u 7 m A ..t.2.c.B.s.K c c _ 0.-.p.G.c.p.",
"-.k.k.s.B.v.s.B.B.=.} i.] A I L.r.d m ^ 6.,.Q ^ A.s.p.`.T.A.M.`.E.M.M.r.=.s.v.1.g 1.B...V -.1.7 M E.|.M.c.I u A Y..XU.c.c.M.B.M.M.m.M.v.c.v.m.M.c.B.v.c.s.i.c.L.Y.L.i o 3 M V Q c.&X)..X<X'.m.n.{ m g =.1.X.'.+XW.c.c.d.L.c.=...r.z I B.&X&X.XD.B.=.{ y.W.-Xr.A y.,X=X,X&XU.~.c.L.d.I ) L.B.D.d.l.l.s.s.B.B.n.n.y.z 3 D.X.u c.+XL.W.J.B.J.m.E.d.i.d.d.d.b.D.D.N.J.E. XL.;.I <.B.r.>.y.).W.i.m.n.h.f.s.h.d.s.d.n.y.s.b.i.` ..w.1.8.d.8.w.b.m.h.y.m.y.B.w.8.Z ..J.[ z z b b =.b.s. .a.B.J.+XY.J.R.n.8.r.B.R.}.J. ...N I <.%.z W y.d.u.h.b.N.b.a.[ N W D D j.+X@X@XI.b.a.<.w.a.e.e.a.y.y.y.a.h.a.e.a.a.h.D.<.p Y w. .` N 9 f b z n S G J.D.F.b.8.[. X;.z 8.N.d.X.W Y ;.s.;.w.y.%.Q D.w.` c.d.8.w.w./ >.c.a.s.r.w.c.h.h.h.d.a.i.a.s.y.s.v.i.r.i.i.h.s.i.y.i.s.s.s.i.a.n.h.{ A g p M G m W a.U.W =.u.8.y.a.a.a.a.i.r.r.h.h.i.y.d.s.r.y.i.y.y.d.<.S g m %.Q Y y.y.h.8.1.y.Q b p X.R.` I =.w.[ R <.n.d.G r..XB.} I m ..r.r.n.>.z u g r ..h.1.w.h...G G } R I i.G I u 3 Q ' R 1.i.r.s.w.r 3 m I %.A 9 Y m.>.1.s.i.%.b 7 g I 8.8.c.Y.D.E..XE.L.D.D.r.' X.c.8.X.=.1.r.8.8.r.0.r.r.r.8.1.8.;.' n.'.y.X.;.r.p.i.y.r.r.i.i.s...u A r.U g I ..' A Q n.XX].n.].P.T m H ..B.].,X].c.-.",
"-.n.B.M.V.B.L.'.M.A ,.r.A i s.XXv.U A A =...y V c.L.E.L.' r.c.s.|.'.p.' =.s.M.E...Q ,.' m m 7 7 1.Y.M.s.i.p.Y.}.}.|.v.y.c.c.c.c.B.B.M.M.m.m.M.B.v.M.s.s.c.M.L.g.A u & r S R G %..X3X,X;XW.c.;.s.Q p S '.W.1.{.+Xy.d.L.s.n.B.L.+X-XQ ;.&X<X+X.XB.B.E.~.{.<X[.S M E.{.E.D.L.s.;.s.0.y.{ d.U.r.r.c.d.c.c.c.D.B.c.c.s.s.L..X;.;.D.D.R.J.m.d.r.w.E.D.8.s.c.h.y.w.r.r.s.L.D.w./ ' m.B.h...Y =.D.s.J.N.d.u.s.h.d.s.s.c.s.m.c.r.` s.B.i.i.s.y.d.B.b.s.a.h.y.y.s.w.s 8.B.N > s ;.b.R.J.<.J.[. Xc.W.I.c.b.B.). X}..X[.h. .X.N 9 R i.1.d.c.F.f.e. .` ` T % > z ( %.b.f.b.J.E.J.h.e.y.h.h.a.a.a.y.y.a.a.e.w.b.w.a.R.D.r r z S p 9 S Y p p Z S W.I.b.1XN.W._.j.Y S @XD.G G J.Y.J.N.d.N.B.y.8.d.i.r.D.c.d.h.s.D.&X Xa.r.a.i.d.d.d.d.a.y.y.a.s.h.c.B.s.i.h.s.h.r.i.s.h.c.c.s.y.r.N.8.Z z b x Z X.8.d.d.D.y.Q.u.8.w.y.i.a.i.y.r.d.a.i.a.a.i.a.s.B.;.W m N b 2 6 g b r M 8.1.s.y.d.W.w.z b r.R.h.' ..8.y.w.1.w.y.s.c.Y.;.I }.,XL.w.=.c.1.b u 7 2 . V G ' >.>.c.J.E.).m.L.} =.R b V } X.1.1.8.r.;.& I V R r.b u g Q m m G g 3 * s V 1.i.-.w.d.n.}.W.B.d.1.=...1.W.d.y.y.s.y.r.r.8.p.y.y.y.y.y.p.s.X.' r.;.z z { 8.M.p.r.i.p.p.,...g I p.1.Q ,.v.}.!.v.L.#X*XP...L.].r.0.c.~.,X,X-XL.0.{ ",
"1.L.V.B.M.c.B.L.} u ,.O.I ..'.p...} Q r.L.T.E.c.L.A.r.i.1.A.=.m r.s.A g c.}.B.L..XY.E.L.M.,.m A 1.s.Y.E.Y.E.E.v.}.E.s.s.M.c.s.c.v.v.M.m.m.v.m.m.B.c.g.v.M.E.m.Q * 3 u s I G >..XL.c.'.J...1.R A ' p Y -XW.r.U.M.1.r.B.s.L.B.,.1.{.E.W.E.n.n.y.i.+X3X.X-.Q ..S { {.'.E.d.c.y.' y.8.=.Y c.B.c.d.d.s.n.n.B.D.n.d.c.y.L.E.U.D.B.=.-.i.d.s.h.J...W 8.w.d.n.c.d.d.h.b.h.h.a.N.d.s.I.I.J.N   6 1.Q =.E.c.d.d.h.h.d.d.c.m.c.d.c.w.N.m.r.w.s.b.h.s.y.y.h.i.r.a.D.w.G 1.S > 6 %.'.B.=.w.c.).J. .a.W.r.N.i.a.h.D.B.L.+X}.y.}.Y.w.1.L.R.'.N.f.a.d.f.a.w.f.` N [ b.F.d.8.N.h.b.b.d.y.y.a.a.y.h.f.h.h.h.y.e.y.N.a.j.I.e.& W J.I. .[ j.<.n W y.9.a.W e.f.%.d.8.b 9 T F.Z x w.4X.X).J.h.y.y.8.d.b.h.1.' a.i.1.D.@X3XR.1.w.N.c.y.s.s.s.a.i.a.a.s.i.y.d.s.d.c.s.h.s.h.c.c.d.i.r.w.s.r.M p ..y.<.o.y.$X).y.=.u.D.:.w.w.r.y.i.i.y.y.d.a.r.y.a.s.s.a.=.N V Y ` ` N b z m G G 8.s.a.a.a.>.W ..%.I I Y %.s.h.8.w.B.B.a.c.1.n.w.Q B.s.I A r.8.S >.Y.i.r.-.s.c.Y.c.=.h.b.c.J.}.).' 1.B.` m 3 3 m 1.c.%.G z b p %.c...w.=./ V M ` Q I p M ' B.=.=.8.h.B.'.'.c.8.1.r.p.y.n.p.r.y.s.8.1.8.r.r.r.r.r.r.r.y.y.8.Y ..-.' ..X./ ..1.s.p.r.i.8.' u r.,.A ,.B.E.'.0.1.-.Y.L.v.L..XT.T.'.XX<X3X.XP.r.1.-.",
"r.B.v.M.B.M.L.v.1.-.v.Y.Y.|.E.r.B.|.T.B.A.x.^ A =..XA.=.1.B.1.=.-.m 7 } L.|.;X{.Y.E.p.v.L.s.,.' A -.Y.Y.L.v.-.' B.M.p.c.Y.M.v.B.v.v.M.m.v.v.v.m.s.m.E.M.C..Xr.1 2 m S I I Q '.).Y ....b ' B.Q m Q z / c./ S y.s.r.s.l.A p 9 z 8.r.s.n.s.8.c.X.R '.W...7 p I p I U..XL.=.{ Y S ..y.L.'.-Xn.c.d.y.s.n.B.B.B.b.d.c.n.B.U.'.c.1.B.B.y.r.b.D.h.G Y m.h.h.h.c.n.B.B.N.s.y.r.D.D.B.D.J.N.` > V %.7 u a.c.n.n.c.h.c.n.n.y.w.X.' } i.c.h.y.h.B.i.w.s.s.a.h.s.D.a.b f G 2 7 Z ;.d.>.%.y.w.8./ p =.m.r.c.s.d.a.h.R..XI.d.h.h.J.R.N.h.=.y.b.@X+X@X>X@Xa.d.c.[ %.y.;.8._.$Xy.w.a.y.a.a.e.y.w.h.a.h.j.h.y.y.h.d.a.h.D.%.X W ).w./ %.h.a.h.R.).y.( W D X./ D d.` 9 G I 9 J.$Xo.<.J.).b.<.w.1.s.N.r.a.=.h.a.d.[.&X&Xn.r.r.d.d.a.s.s.s.a.a.a.a.s.i.1.y.s.d.d.y.s.d.h.d.i.r.r.r.i.n.a.z A w.c.W.+X{.3XI.y.X.y.r.r.y.r.y.a.s.s.a.a.s.h.d.r.s.n.d.=.r f %.N.m.r. .Q Z G <.>.I..XD.L.y.a.<.N...Z L.R.s.s.a.d.h.a.s.N.c.m.'.h./ I 9 u p 1.h.w.n.B.s.L.3XE.i.r.1.i.B.1.i.i.w.' A >.$XY.X.z b g M p > 7 g g G =.w.i.s.m.%...=.J.J.s.m s ` B...8.;.8.m.E.c.d.B.c.y.r.s.L.n.c.y.8.8.0.y.s.8.8.1.1.1.8.1.-.Q p } n.r...Y M u Q 1.i.i.n.c.Q I r.U Q ,.1.E.r.Q q ! P.n.v.L.L.L.L.n.c.L.~.B.0...:.r.",
"-.v.c.B.L.B.T.M.B.E.L.M.E.'.B.|..X,X.XE..X|.U l M.A.v.v.p.....Y.M.A U v.1.,.Y.M.p.' U s.L.c.E.'.c.s.c.-.c.M.c.,.c.B.s.p.c.p.v.L.B.B.M.M.v.v.v.M.C.C.Y.v..X,XQ . ` R Q { Q i.&Xi.G r.' u r.E.%.A g g y.c.S g y.E.{ U I > 3 9 9 ..s.X.s.d.D.n.' z ' S 9 A { Q S d.,X'.n.i...u m n.E.D.{.|.L.s.r.d.c.B.n.c.c.d.s.d.r.L.D.v.r.Y d.L. .h..X>XW.w.D.I.b.h.s.d.h.c.h.d.a.d.y.y.y.N.d.c.J.h.` >.w.A r N =.s.B.n.c.c.b.h.b.w.` Y <.m.B.c.h.d.b.a.s.D.b.d.D.h.B.b./ A =...;.B.).[.).}.E.{ S ' ..c.N.J.d.b.y.B.N.b.B.a.;.w.>.h.N.[ ` ;.r.;.h.+Xy.Y ` 8.b.j.b.h.b.y.y.@XW.y.a.b.h.b.h.a.h.y.h.h.a.y.a.a.a.h.d.e.8.Q.J.r p r 1 f <.b.J.).W.W.9.` 8.;.d.<.@XI.G N n.8.x X./ 1 z %.r.=.X.m.B.J. .;.m.D.B.R.'.D.&X[.d.h.r.w.y.d.d.s.s.a.i.i.y.y.s.r.s.s.s.s.r.p.s.p.i.r.w.r.i.s.h.c.A ..B.c.{.W.n.s.;.r.8.s.=.s.i.r.y.s.d.s.a.s.y.h.d.i.s.h.-.A z [ <.8.=.}  ...' 8.W.b.D.N.y.E.b.w.b.s.1.m.w.b Y w.s.8.y.h.8.' %.} J.=.9 M R z } =.s.B.1.G ..B.h.h.s.w.r.c.s.} =.c.w.Q I ' L.E.1.` ` ` / z f M s R ;.r.=.1...>.s.s.i.U.n.r.A Q 8.>.V ..s.D.L.c.d.y.d.r.,.;.X...c.B.d.8.y.s.y.s.y.y.y.p.s.y.1...Y u / y...Q ;.c.Q I A ' ..-.,.A ' ,...M.1...p.Q B m P.&XT.c.:.l.l.1.=.-.1.0.@.m O.1.r.",
"..v.M.L.M.k.Y.M.1.r.Q i r.T.G.v.c.c.p.L.v.T.&XY.'.,.6.L.L.A.c.| s.L.B.L.M.c.B.c.i.=.v.M.c.&X3XE.L.M.Y.s.c.p.G.-.Q s.M.B.B.v.c.x.L.B.M.v.c.c.v.v.L.s.B.Y..X1.. 8 d.n.W..X$X<Xw.G =.i.d.y.c.B.c.s z p n.d.A 2 X.L.=.S A p / Q u K L.W..Xs.L.' 7 m u g Y 1.=.L.+XD.,.=.B.Y.v.=.{ ).r.n.&Xy.r.1.0.y.B.B.c.s.d.s.y.y.c.8.{ M S g / Y I [.Y.b. X'.=XD.d.d.h.h.d.s.s.h.b.b.d.i.i.N.w.b.w.b.h. X'.y.G p Z =.n.B.c.c.d.r.c.d.b.J.).e.>.b.c.y.B.J.m.m.b.Y.D.B.d.W.w.p B.3X=X@XE.).R.E.'.c.8.>XD.'.d. .8.h.b.w.m.D.8.8.s.X...r.N.` ' c.J.a.K.1X` 1 N e.j.a.I.y.f.J.W. Xa.h.b.N.f.a.a.y.h.y.b.h.a.w.e.h.h.a.y.h.y.J.y.3 p t z b <.f.%.b b D.w.8.b.F.I.@X>Xh.z [  X8.W X.b D / ` V u Z h.D.J.b.w./ h.W.Y.W.,X$XJ.%.r.w.a.h.a.s.a.a.y.y.r.w.w.i.y.d.y.r.i.r.s.h.s.y.r.r.r.r.r.r.b.M  .c.p.W.r.g z ..n.n.c.X.s.y.r.y.d.h.s.i.i.w.8.r.s.d.1.I 7 V i.w.1.d.<.R f m w.[.a.w...m S ;.y.<.a.n.i.8.` N ;.h.D.{..XB.>.s.r.i.g g =.r.=.E.).a.w.s.r.s.s.1.w.r.r.h.s.=.=.h.h.%.G r V r.' ' r.n.v.i.I G g A m / E.,.8.s.=.s.s.r.B.y.>.R 8.J.r.%.w.c.m.J.m.y.r.y.=.) @.r.c...p.s.8.y.y.1.r.8.r.y.y.s.r.X.Q m 9 X.E.E.W..X+X}.' 8 u 7 * g g ' p.-.=...=.g I 0.-X.X0.l.p.r.0.=.! O.0.O.-.r.Q 0.r.i.",
"] B.B.M.v.L.E.}.2...1...M.'.L.M.B.c.x.s.c.x.M.;X&X`.x.B.1.1.'.E s.}.'.E.}.}.' g m Q r.v.Y.c.1.I A p.M.=.=.B.s.' Q v.M.c.B.v.s.v..XB.Y.v.B.M.s.B.E.L.}.M.V . X 7 = A Y..XL.r.Y } c.,.h.B.J.D.%.u p M B.d.{ g S Y z A 1.' y.Q A S J.U.I ' %.* 7 %.I A Q n.5X5XJ.R b } h.c.s.>.n.L.' L.m.8.-...s.n.c.c.d.D.0.) 0.D.n.' I I g I Q ;.).).n.R.R.c.w.h.s.h.b.c.s.a.d.c.h.b.d.b.d.c.s.d.b.a.b.s.L...A S 9.8.n.n.a.1.:.h.h.d.N.J.a. .' >.b.h.B.<.;.r.L.W.E.8.y.D.[ W <X$XR.D.b.B.J.N.h.a.J.8.8. Xa./ z R Y %...` y.s.1.Y X.[ G b Y h.8...R.8.f / y.X.b.a.J.e.y.h.N. .%.J.b.N.h.a.a.h.h.y.h.a.e.y.h.h.a.<.y.h.a.K.&.3 p b G n %.b.e.G <.).d.J.J.Q. X3X[.K.e.f.9.r [ d.b.h.=.` z u [ d.` s.S ;.).$X8. .w.).'.w.8.w.w.d.i.s.d.<.y.d.1.a.1.r.y.r.n.n.v.y.c.y.c.r.r.8.s.8.W.=.A ;.z ..c.D.U.U p Y r.c.n.{ z p.1.r.r.r.s.r.>.8.p.h.s.B.i.Q S g [ i.<.w.8.A z s X.E.a.p <.w. . .' ` s.h.r.h.).h.m n.>X;X$X).J.Y.L.1.1.J.8.8.d.h.n.` r.c.1.y.c.L...m 1.s.m.1.1.w.1...A g g ' J.B.1.h.E.1.w.i.;.' X.' c./ V s.i.i.r.y.s.y.i.I z v.w.X.1.r.E.'.E.B.s.=.8.' Q =.r...3 M X.1.8.y.1.;.y.0.1.y.y.,.{ M u 1.'.'.-XE.U.E.} ..-.g c u g g V ..-.' A g U p.c.' g I *.I ..-.=.' i.2.r...,.,.p.p.p.",
"-.s.Y.L.B.E.r.} g 2 t.'.T.V.E.B.p.B.Y.v.s.p.p.E.c.1.-.Y.c.s.x.i.&X.X&X3X,XB.I I U U B.B.p.,.A A s.Y.1.i r.L.v.1.=.E.c.B.r.c.v.}.M.' r.M.B.v.C..XoX|.v.e   * i e b >.}.m.' g / y.w.c.i.M.J.h.%.m g A c.y.c.r.u S Q u g =.T u A '.{.c.m 3 r s A b A >.E.$X}.J.w.} =.8.h.c.s.%.r.h.Q L.D.8.r.r.i.p.B.B.c.d.;...y.c.B.8.X.' S 3 A +X'.=X[.I.r.y.a.r.h.h.c.h.h.h.c.c.h.b.h.b.s.h.d.h.b.y.J.L.E./ z Y r.'.u.8.s.X.d.B.w.s.d. .m k Q a.w.` h.b r w.w.<.W & R D.s.Y.J.b.y.r.i.h.J.J.d.=.R V y.L.N ` %.S ' ` Z z 1.d.<.} ;.[ s 9 ..d.a.h./ 3 f / w.X.a.N.K.[  .).9.Z I. XJ.h.a.a.a.y.a.h.s.y.y.a.h.d.y.e.f.j.j.R.f.r r N ;.w.y.a.f.J.a.%.a.3Xf.<.W.K.y.f.h.N.b.%.a. X<Xa.%.8.;.Y ;.s.s...%.B.I.%.Y <.d.R.I.y.y.y.a.N.c.d.b.N.h.h.;.w.c.b.d.d.n.y.s.s.M.d.r.r.;.y.8.G.;.m S S 7 I n.'.c.1.Q ) s.L.y.a I s.r.c.i.r.i.8.w.i.s.8.;.r.} A M A A f G I Y m r >.J.r.`  .' n.d.b.<.i.h.a.B.h.y.%.J.;X@XN.b.B.c.d.1.Q ` ;.R X.B.i.r.p E.-Xn.y.c.m...%.c.h.m.s.s.1.} Q R I G 1.L.h.R Q / %.r.=.p.r.r.B.Y.8.r.'.).v.i.i.w.=./ =.Q m A 1.E.;X{.r.>.%.{ T Q m I I z 8 m K p { 1.;.c.y.8.s.y.1.y.s.{ p X.E.Y.'.c...y.=.=.A } } m A A V A ' A 8 g =.r.1.' I i i B u I } r.-.p.2.r.,.i.,.2.2.2.",
"p.T.V.L.v.U X = 4 g m V '.&Xc.c.B.M.v.c.v.s.,.s.1.| I M.B.x.s.&X|.E.|..XM...I =.Y.M.M.B.s.p.1.-.=.m A I p.B.Y...-.B.M.Y.E.L.s.I g = ..'.Y.E.2X|.Q 7 = = 7 I Q R Y d.{.1.A p ;.w.s.c.B.E.s.m.%.7 u ;.y.8.&XU.[ ;.n.B.d.{ z / E.&Xw...b 3 g g g I c.'.&X).s.1.w.y.s.p.s.s.s.1.r.=.' B.s.%.8.i.i.J.n.B.d.8...X.8.=.{ M d.r.z { {.c.>.<.a.R.h.d.b.d.b.h.h.h.c.b.c.c.h.b.h.b.d.b.c.m.D.h.N.h.I.r.>.y.I.G.X.c.d.u.r.b w.h.c.%.` =.h.'.I.h.h...` V 1 6 6 % 8.I.r.N.=.i.i.y.w.1.a.h.8./ Z w.b.W 9 m.&XI.%.f Q 1.a.a.w.%.W m z z } h. XL.<.b r n d._.J.h.y./ ` ).b.h.3XW.e.w.e.f.h.y.e.e.e.e.e.a.a.y.y.a.N.N.j.N.N.Z t Z a.j.e.d.N.=Xw.` / y.8.&.h.f.f.d.<.y.%.w.D.a.%.n 8.$XR.d.J.c.W.N.=Xw.>.V f w.E.L.m.i.h.d.a.s.r.w.8.r.;.c.a.y.d.w.s.y.y.r.s.8.8.r.;.:.X.0.;.D.9 > m K m I -.=.m Y C g g T ' u 0.B.,.c.r.r.p.r.s.s.v.1.1.c.=.I g Q Y f G f b I V h.r.Z I =.>.s.;.r.y.d.r.;.m.J.U.R.).Y.a.<.w.<.X.;.y.8.s.d.X.} c.r.} B.'.i.;.J..Xw.` C.).s.1.1.-.I ' =.Q g } s.h.L.8.Q I s.'.B.B.r...h.%.' h.}.'.1.1.h.i.8.g V V z } }.&XY.` g I A A m m a A p 7 m X.d.c.c.r.y.r.y.r.r.y.8.s.r.Y S D.{.W.U.=.y.d.;.m A 1.p.p.v.@.} I A I ..1.=.,.L.}.Y...Q ..! } ' ..-.c.c.p.p.k.1.r.r.r.",
"r.|.p.L.c.u = i m B B Q M.}.c.s.B.M.B.B.M.r.*.r.M.c.E M.T.x.T.,X}.Y.'.E.i.-.0.L.d.B.i.B.E.|.'.Y.I } =.L..XL.} m m ,.p.1.c.i...O m = 2 r.|.m.=.@ X . 2 i m A } 1.G 1.B.=.Q -.L.d.L.i.c.-.Y s.V > V 1.&XW.s.z r.P.r.c.B...Q ;.E.X.u r + 7 %...{ L..XY.s.1.>.w.y.s.i.h.c.r.s.c.c.Q G J.c.y.d.d.h.J.c.B.B.s.8.y.s.1.X.;.D.=.A v..XI s 9 b y.h.d.d.h.h.h.d.h.c.b.c.h.h.c.d.b.c.B.c.b.h.h.B.s.D.b.a.a.E.I.=.s.c.c.m { U.m.d.1.a.N.s.N.D.d.W R ' u p W W  .D.b.a.y.s.y.r.s.h.h.b.d.%.G A b.<.G 8.E.r.G 6 r 8.[ V [ [ r  .;.a.X.i..XR.R d.d.S G w.j.X.G ).%.<.y.9.R.h.` ` ;.y.h.b.N.h.e.e.e.y.h.h.a.a.h.N.b.d.a.D.Y r b  .h.N.j.;.&.Z %. .N a.e.<.d.d.y.D.b.&.h.D.<.G W w.w.` W.W.%.w.Y.$X' d.y.Q 1.[..Xb.w.w.a.s.r.w.i.r.b.d.m.a.d.d.r.i.s.y.r.s.y.1.8.r.8.r.y.n.p.* u c I g K ' / C m m 7 * 3 q g s.....p.1.i.c.i.p.r.r.s.B.B...g g B.=.y.a.%.Q Y =.R.w. .B.c.h.N.B. X).E. X).).[.=X{.N.a.;.;.1.%...8.} =.r.d.s.} 1.8.w.m.1.} b Y.3X%.} ).h.Q g R ..} i.J.w.m } h.b.;X}.B.'.}.E.c.>.1.m.Y.s.c.'.&X$Xs.B..Xn.L.s...R ;.'.$Xr.Y p S Q m A S S u m M ' c.8.W.&XW.d.v.;.1.y.8.s.r.r.;.Y 8.{.U.B.D.s.U.L.n.A A i.,.L.Y.Y.'.B.v.p.c.B.s.p.L.T.E.1.s..XE.i.' U E ' =...,.p.1.1.1.1.",
"B.}.v.E.s.=.p.] ] m ^ P.1.2.i.c.x.M.L.B.v.1.U U ' Q g =.B.s.L.Y.E.p.M.B.p.1.i.M.M.M.M.p.p.c...B...Y.|.;X.Xr.V 7 Q L.p.Q 7 m A 7 ..-.7 U 4.= . * u A I A k k Q -...=.s.8.' h.N.B.b.B.y...;.w.& r A c.{.I / / =.s.n.d.n.U.c.y.;.7 3 Q Q =.Y..X&X&Xh.1.>.r.c.h.s.s.h.m.B.d.c.B.m.R G Y.h.s.i.c.D.s.c.c.B.n.d.n.D.B.|.n.=.d.'.{.1.z A } ` X.8.d.s.s.d.h.h.h.h.h.h.h.b.c.s.b.b.D.d.a.d.i.N.b.b.y.a.J. XD.8.r.n.[ & f.d.y.b.h.s.} b Q [ A z f Z d. X).b.L.J.h.b.r.c.w.y.s.h.n.m.h.w.;.h.D.y.r.;.z p 1 z G X.m b u 2 b =.Q Y r.>X XY W $XK. .Z G ` a.D.e.b <.b.&.h.&.&.`  .;.<.w.a.a.y.h.a.f.h.b.h.h.h.f.a.f.N.N.n 3 Z ;.h.N.w.e.<.` w.N.e.N.;.y.b.e.e.h.h.J.E.d.E.J.h.W.c.c.W.I b y.b. .b <.n.R.'.W.m.d.a.w.y.s.y.r.w.w.h.m.c.n.W.w./ ;.d.s.8.r.d.y.r.r.y.r.r.L.1.2 m A A M I g u 7 2 7 A 8.1.u 9 Q u 8.c.i.1.r.,.i.c.1.p.r.,.} g i L.W.1.N %.I.I.m.<.}  .).).w.R.'.$X3X;X<X XR.D.I.b.N.B.r.' ` >.r.w./ Q r.c.c.h.L.p.n.w.m.w.m 8.R m h.&Xm.1.=.h.Y.'.).Y.E.i.=.L.&X,Xm.s.D.B.s.i.i.E.&X'.)..XW.L.U.h.m.'.n.E.3XE.i.c.B.r.Q I A } ..1.=.1.1.M A X.s.s.r.d.T X.1.1.d.s.8.r.c.1.8.r.X.n..XU.X.n.D.;.s.y.,.g i.M.p.} } Q 1.v.Y.E.}.E.M.B.p.6.U =.`.'.T.L.,.E d l g A *.=.6.6.6.",
"O.,.i.v.c.Y.L.L.E.V.,.s.i.T.B.V.B.c.M.c.,.V 2 g C 5 d ' M.E.E.'.L.L.|.Y.v.v.Y.U.'.B.c.s.p.r.i.;X&X<XY.1.s.A } B.E.|.p.V u u g g ..=.u I $.7 V R A g u A U A Q =...Y ..i.,.m.1.c.h.L.c.E.L.' 2 b A {...o A s.d.n.d.d.c.=.p.M.J./ b Y.J.s.)..XE.h.r.w.s.J.J.c.s.v.B.h.m.b.m.c.c.` =.c.w.B.r.s.J.c.c.s.n.c.p.s.h.D.8.-.d.;Xn.Q g 9 / J.I.N.d.c.h.n.d.h.b.c.h.h.h.b.m.b.s.m.c.N.y.8.b.d.c.i.a.h.d.d.W.r.a.n.Q.N S D.R.r.8.8.i.' 1 p G p 9 ..w.N.W.r.s.d.r.b.s.y.8.c.b.h.a.y.w.r.y.i.B.). XE.;.9 I Q >.d.h.R ` ..R G J.R M c.}.c.W m.w.G e.[ %.;.N.<./ ` y.J.h.<. .a.h.h.b.N.N.h.h.b.h.h.h.h.h.h.s.y.j.f.d.I.;.1 3  .h.d.w.8.).J.b.b.E.3X).e.a.h.h.a.<.b.).J.h.=X=X$X.X3X3Xr.p b h.w.m r [ r.%.W A r N ;.s.d.a.w.r.w.c.i.b.I.J.a.N b 8.s.d.B.d.r.;.r.;.y.;.8.n.8.4 u Q z I I q K { n.s.G.s...} Q p i ..i.M.M.s.,...r.,.1.1.r.i.A 7 } s.X.X.s.).@XW.I.E.i.y.' w.'.=X3XE.I.i.[ =.<.s.J.d.d.8.X.=.s.c.i.V V Y.E.8.W.3XM.s.r.r.{ i.r.b 7 L.}.L.E.).'.B.m.B.s.c.B.Y.,X,XY.D.n.;.h.h.<.r.m.1.M m R I / %.X.Q Q ..h.E.c.h.m.=.w.B.L.c.s.w.c.|.E.'.c.s.r.8.1.8.;.z 3 z A ..r.r.0.s.r.s.p.r.J.L.c...r.s.=.8.8.1...B.3X&X'.L.c.1.p.M.Y.p.U U p.M.r.U 6.E.E.Y.`.|.L.x.x.-.Q r.M.i.i.i.",
"' 2.i.t.v.s.} M.Y.'.M.i.s..X'.1.c.B.A.i.^ d 7 P | U A E 1.A.c.Y.M.E..Xv.s.M.E.W.E.B.L.&X}.M.L.r.I u I ..Q A E.&XL.p.' 3 =.' A m g A Q 1.s.' I V A Q A V A I -.c.Q V A %.i.L.d.n.B.h.i.c.' s V Y U.8.> m A =.W.s.L.n.n.Q 8.r.c.;.c.|.J.r.E..XB.s.s.s.s.h.d.s.h.c.m.s.m.m.c.c.c.` ` ` i.).w.b.B.m.J.d.B.n.p.y.y.B.L.&X{.U.8./ Q Q ;.J.W.[.N.s.s.b.h.c.b.b.h.h.h.b.b.m.h.B.h.b.a.y.c.c.m.a.d.b.` 3 N S m M ..> [ @X).N.d.` R A p %.c.W A E.R.8.=.W / S z =.h.N.d.B.d.h.h.s.d.s.<.' b.D.b.' >.=.y.a.h.8.a.a.s.w.a.1. .R ` 8.`  .D.B.Y ` b.f.h.y.d./ %.h.w.%.h.w.w.J.h.h.J.I.N.a.w.e.a.h.h.a.a.h.a.e.j.D.h.D.N + f ` [ e.h.h.j.` w.J. X3X).N.e.w.h.w.y.h.e.%.;.h.J. XE.Y.r.r.I.r.s.b.d.I Y a.1.=.8.` z ' %.y.d.r.a.s.E.m.s.h.' 9 1 ` d.c.B.U.y.8.:.y.8.y.8.y.c.r.9 u i g / 8.0.l.1.:.A C < p P.P.T z m U r.c.h...g V A Q s.M.r.g V ` V G y.h.a.d.a.E.'.D.r./ W.&X XR.y.r.<.` ..;.c.R.s.w.r.h.N.D.D.b.=.8.,XB.S 8.;.A r.B.)..X.Xm.;X;X}.'.E.E.).E.i.r.1.w...w.)..XJ.w.w.m.y.L.m.=.X.c.n...V m g g s 7 V 7 A s.s.d.d.c.J.i.{ Y ' =.i.i.D.y.8.1.s.X.Q ..y.s.y.N A m m / 1.1.r.r.8.1.r.n.d.{ Q 8.1.n.r.y.1.p.,.=.} 1.L.E.s.-.A i g V ..Y.`.r.C *.x.v.A.`.L.Y.'.}.s.A ,.p.6.6.6.",
"] v.s.v.B.B.c.M.L.v.c.L.,X'.L.v.x.L.p.Q ,.T.1.l 1.A.^ ' 1.L.L.T.E.c.v.s.L.M.M.D.} A E.&XE.E.p.u i A V m 7 V c.B.c.p.I 8 ..i.I } Q s.Y.c.E.~ 7 s.B.B.1.1.1.=.s.E.h.i./ A ' y.B.B.y.w.1.I u p V { 1...M M M I w.D.=.d.c.s.d.n.` Q ).B..X).c.L.B.i.i.c.c.h.c.M.M.c.c.c.J.m.c.B.B.U 2 u i.1.u h.B.h.n.y.B.n.s.y.r.c.'.{.B.r.c.D.,X,X,X$XW.R.y.i.b.d.h.c.c.c.c.h.c.c.c.m.b.D.b.N.h.c.B.h.c.c.h.i.G 2 b > . 9 3 g u.c.b.;.' G r.J. .=.E.m w.I.' <.W r z b s [ B.y.N.w.d.h.d.i.h.D.i.' N.8.s.I >.y.y.N.w.b.d.>.s.N.}. X8.X.=.E.w.3 [ %.;.h.n  .h.a.h.b.N.h.h.y.h.h.N.b. .w.h.h.h.h.y.w.e.h.h.a.a.b.h.a.w.I.b.j.r 3 Z f 9 &.f.a.&.n <.D.=X).y.y.y.h.w.a.a.w.w.h.w.w.b.<.d.y.Z >.h.w.a.D. X).1.d.h.i.h.J.$Xd.I X.b.r.>.;.' Y 1 3 2 * 6 b ;.B.n...m ;.d.8.p.;.s.y.c.X.3 g M i.0.c.c.d.d.=.I Y 0.r.r.1.P.n...m i 7 i g * g g 8 I ....A p.1.} N ' D.W.h.w.c.h.B.b.D.i.@X[.b.y.;.c.a. .;.E.W.J.D.c.r.8.h.b.s.W.'.,Xp.%.E.>.8.E.5X$XL..X{.L.Y.h.c.L.J.L.J.w.w.r.i.1.w.>.=.r.%.8.s.a.s.s.1.m [ c.E.B.c.s.1.=.' u b >.).c.J.s.m.w...G / =.Q w.r.s.:.S z d.U.d.d.E.'.D.L.&X1...Q ' y.s.X.Q X.d.r.h.M * B.s.r.r.1.s.r.s.-.V i s.,.A b i V ..-.r.B.B.6.Q s.M.c.v.A.p.1.r.i.,.m =.-.r.r.r.",
",.B.B.v.v.M.B.k.L.V.Y.}.}.L.,.h A 1.....'.L.-.I L.}.E.Y.|.&X}.].B.p.Y.M.v.B.L.L.U U } s.B.}.Y.p.i.i.p.,...m A ..B...g m V s.-.s.c.i.i.v.v.c.B.'.L.-...1.c.E.Y.p.-.n.m.c.i.;.w.w.,.w...z r V b Q s.U.Q X.d.1.n.y.X.c.B.y.B.E.n.s.Y.Y.L.s.r.w.B.i.h.c.h.d.h.m.B.m.c.h.h.B.h.N.L.%.7 V L.m.I s.v.s.d.Y.D.J.i.%.m.L.).c.i.i.r.s.J.Y.'.;X+Xn.8.r.d.d.d.c.n.B.B.n.d.s.c.c.d.y.r.i.d.h.n.b.h.c.b.d.d.D.} r u A =...d.D.h.} ' s.L.c.b g Q G y.%.[ J.$XX.=.1.8.m.h.c.h.r.r.s.c.a.b.a.[ X.R.h.8.8.a.d.h.c.L.d.s.s.c.J.a.[ J.} / ).;./ b Y >.m. .N r.d.h.J.=XE.y.N.).J.J.}.h.J.h.h.N.m.h.i.h.h.a.i.h.b.h.h.j.N.h.&.1 p b Z ` f.d.d.d.;.Q._.R.a.<.y.h.f.y.f.a.a.h.f.e.y.8. .a.%.u V Y ;.).$X;XE.B.h.i.y.i.N.D.).D.Y G n.8.1.> . r p p b V b ..Q.1./ ;.=.r.s.r.8.8.d.y.z * M Z L.L.w.d.m.%.d.c.N.%.;.s.Q J.Y.w.8.` 2 $ u p u u r s b b 1.i.%.c.=.R ` ' i.h.c.w.n.s.n.J.-Xm.i.w.;.1.s.i.<.).).%.>.y.=.;.d.i.a.i.s.{.&XB.+X$X'..XI.).L.L.Y.8.y.h.m.i.s.h.h.>.i.s.r.y.s.w.>.i.J.d.w.y.r.p...r V ` { Q >.h.B.L.r.s.E..X}.}.}.8.s.>.-..Xv.s.` X.s.w.N u p r.c.J.J.Y.'.' m.B.m.L.c.{ g A 7 3 ;.v.d.d.3 M U.X.:.s.s.r.p.s.Y.,.I } V U s.B.M.v.v.L.E.}.c.c.v.p.k.B.s.s.p.s.s.p.i.v.A U k.Q ",
",.M.B.v.v.v.v.s.L.XX,XXXc...Q 0 g 7 m ..v.=.A Q .X3X3X,X5X<X|.|.s.s.}.L.v.s.s.B.-...,.i...Q g I p.v.s.M.i.,...=.A m ' 1.,.L...i.'.L.s.L..X3XY.1.I g m Q p.E.B.i.w.M.M.D.y.r.c.c.>.>.=.' A u g J.s.I Y c.n.X.1.D.c.d.n.U.c.;.s..Xm.E.E.c.h.i.m.s.c.c.c.h.c.m.B.m.c.c.c.B.c.m.L.y.V g '.3X=.Q s.c.).L.m.D.s.y.W.}.c.s.s.d.d.d.s.i.L.U.n.w.1.s.c.d.d.d.d.d.d.c.d.s.b.b.c.d.d.c.m.m.N.c.h.c.b.b.B.J.m r b ' D.B.J.J.y.i.i.r.{ m 2 A m.&XL.S } ;.R Z y.J.N.d. . .<.s.s.m.D.h.h.s.>.s.W.b.} %.D.d.;.h.d.w.h.L.y.w.r.S 9 ` ` / } d.y.w.;. .i.=.h.J.c.b. .W Y.5X=X>X>X&XJ.b.g.b.m.r.r.h.a.h.s.a.h.c.h.a.9.a.D.e.% f  .W h.N.b.h.j.a. X$Xa.e.w.e.y.e.a.d.a.a.f.a.y.a.y.;.s.;.f Q }..XE.i.r.} ' ..m.B.h.;.W b G z f ..h.B.;.G N b m G b u b.N.Y b X.c.J.s.a.m.a.w.p 6 7 z / b.;.<.8.%.=.r.d.s.8.B..Xd.D.%.m %.Y.c.} g 9 1.X.Q m G 1.J.c.r.B.w.i.c.s.v.h.c.J.d.c.Y.{.U.w.1.%.d.>.r.d.w.[.m.r Q s.w.;.i.y.y.w.8.L.Y.>.r.i.r.c.L.B.} ' Q A %.m.i.;.E.h.>.h.r.i.y.r.r.r.r.y.i.' i.s.s.y.=.m %.r.m 2 r ..n.c.E.$X-X.X{.D.D.s.i.I h.Y.1.8.%.%.r.8.....I Y I V I I b 1 m ;.....h.c.s.;.I { y.,.d./ 7 D.s.1.v.=.;.1.i.1.=.} ,.v...p.E.c.1.L.|.|.}.|.'.!.E.c.=.2.B.s.t.i.s.s.' O.i.r.p.m ",
"r.B.B.B.B.M.M.c.B..Xv.=.I h =.v.Q V V U ' A 7 ..3X.XM.p.B.Y.L.Y.p.r.B.c.L.L.B.E.,.=.B.L.Q u g p.s.B.c.}.|.E.Y.E.1.} s.p.' ' A L.&X;X;X;XM.} g i V V =.E.L.I u ..Y.B.h.U.E.&X;XU.} s u g m 1.c.Y.{ > Y n.y.0.d.n.d.L.n.c.n.E.W.8.X.D.n.>.r.y.c.n.c.c.c.h.c.m.m.c.c.N.n.m.n.n.L.J.m b n.w.=.I ' w.=...y.J.N.B.B.i.s.c.h.d.c.n.h.s.M.h.r.w.s.n.B.c.n.c.d.d.h.c.n.n.b.b.c.h.b.N.N.n.c.s.d.c.h.B.J.c.A A / s.+X'.L.Y.D.B.r.i.y.} m I N.Y.[.y...[ W b  .m.D.I.N.c.d.h.a.c.c.s.c.b.b.E.B.N.m.D.J.J.m.m.w..XL.r.=.>.m.y.a.s.w.1.b. .;.$Xs.y.D.r.[ 8.w.D.d.X.&X&Xn.W.I.D.B.} } c.Y.c.i.a.i.g.s.s.c.c.s.i.f.j.N.a.6 z 9.%.N.f.h.a.h.N.R.b.<.a.h.d.a.h.j.h.f.a.a.a.y.f.d.e.h.%.u J.3XY.G r 6 6 g g ;.e.B.h.1.G g z >.d.J.J.I.c.>. .V f z ;.).{ 3 3 f m Y X.L.$X=.z 1 Z G A W w.X.y.i.a.N.h.8.i.b.J.Y.1.X.u 9 X.{.L.d.' g 1.c.1.' r..XL.w.c.c.=.B.W.}.{.J.n.>.i.$X{.Y.>.=.1.w.d.d.b.w.Q ..m g S %.%.X.w.a.h.c.c.U.c.' =.r.w.r.i.' m ;.I r m ..w.1.J.h.1.s.r.r.i.r.1.8.i.1.} M <.y.B.v.R 3 } c.a.y.=.w.c.n.&X3XL.1.B.c.c.m.{ I L.L.r.%.;.>.w.L.D.B.i.X.} m s ' ` / I h.=.Q =.8.L.D.B.E.8.M A < / [.r.r.y.s.r.i.c.l...Q l.}.M.s.c.=.,.L.L.M.Y.v.c.c.E.t.' -.1.M.M.v.x.p.m B }.'.r.7 ",
"i.B.B.V.L.B.B.M.B.E.r.Q i 7 U A V s.1.U A C g B.|.B.,.=.p.v.M.B.s.=.s.c.L.E.E.L.....E.c.i u g ..p.L.c.M.B.g A v.' Q ' m Q E..X;X3X'.E.c...7 u A ' }.;Xp.......s.L.m.E.'.E.}.&Xm.>.{ ` I ' .X).,.s.8.U.E.8.c.'.s.d.n...X.D.{.D.C Q E.Y.r.h.h.d.c.c.c.c.c.n.m.n.c.c.B.n.c.B.v.B.E.' g c.Q z m m u o & g Q w.J.B.s.c.B.c.s.n.c.d.v.n.c.c.n.B.M.n.n.n.c.c.c.c.n.B.B.h.h.h.d.h.b.h.s.i.w.d.c.d.N.b.;.M.c.Y.3X,XL.c.E.}.E.m.U.E.r.I A y.Y.U.y.J.&XR.i.W.=X X-X>X}.c.a.N.m.d.y.d.h.d.c.a.a.B.D.i.a.c.a.'.<Xw.Q d.E.I.d.1.>.D.B.h.w.h.1.=.B.8.h.w.R.).>Xh.c.$XD.i.c.X.=.` n } J.m.r.w.s.i.h.h.s.c.h.s.s.y.h.8.a.G 6 p z J.d.N.h.D.@XR.<.;.w.a.y.a.h.d.w.h.f.f.a.y.f.d.y.i.I r W.Y.w.A g b V G F r.a.c.e.$X Xh.a.R.N.s.1.d.w./ G ` ' >.).J.X.m 3 u g > $ %.w.b 1 b M N z Q y.b.i.w.B.8. .b.d.y.r.m.8. .R g ' s.1.d.s.%.1.A ..r.B..Xi.,.c.s.X.W.[..X.XL.c.B.L.+Xc.i.>.i.s.N.8.J.i.Y Q Y b Z } y.;./ >.L.}.c.L.E.y.{ s.D.r.>.=.Q ' c.M g ` G } h.v.s.i.>.i.r.i.r.>.1.i.1.[ r.m.m.h.1.u u %.L.L.i.i.y.8.s.1.{ ' } c.d.=.1.>.c.c.c.h...=.%.' J.|.,X<X+XY.Y.B.r.h.%.m ../ s.m.n.r...8.s.y.r.{ Q W.c.d.8...d.r.i.i.c.-.} s.L.B.M.v.p.M.Y.s.r.1...E ] i.U ! r.U =.=.,.r.V.-.U E.'.=.2 ",
"i.M.M.B.L.B.B.v.B.k...B 7 } Y.} -.E.c.i.1.' Q s.c.c.s.p.p.s.v.U.-.Q v.v.,.,.1...Q -.L.c.8.B.,.-.v.r.L.M.} ' v.' A ..,.p.}.5X3XL.B.1.s.p.E.r.i.,.L.v.' g A Q ..B.s.r.Y.c.s.M.'.r.J.$XW.D.&X;X>.>.s.D.{.y.' s.U.B.W.'.1.1.D.c.8.Q 1.;X}.s.s.d.s.c.m.m.m.m.B.m.m.n.m.B.c.h.B.n.h.L.` p w.i.G 3 g S A g u A y.B.s.n.c.m.c.n.B.i.1.r.n.c.n.B.n.c.d.d.d.d.d.d.c.c.c.l.d.d.d.s.d.h.d.a.a.y.h.b.d.b.h...' X.n.W.s.=.s.E.i.>.8.n.L.w.` { a.i.X.X.a.X.N %.B.W.L.$X=XU.y.a.b.b.a.a.h.d.s.y.r.h.h.i...A  .}.=XN. .[ h.[.$X<X'.$X}. X,Xb. .;.N.b.<.N.W.@XY.B.%.J.'.b.c.d.%.<.} A 1.J.c.h.s.a.s.c.h.a.s.s.i.a.f.h.y.N.X.b ` w. Xj.N.D.R.>XR.e.<.w.e.y.f.d.a.w.h.a.a.a.a.f.d.y.h.V 9 ` a. .<.Y Z w.h.d.h.b.'.;X<X}.J.@XL.d.d.%.>.' z 3 ;.h.I.R.d.c.a.[ ..X.g p > & 1 m V p V S } d.N.c.b.D.w.i.i.s.s.r.<.m Q  X' X.n.m.h.;.8.w.R m..X).J.8.8...G Q E.L.B.J.n.B.J.m.c.w.r.i.r.y.N.d.r.g > G S N G G N 9 f w.).D.h.m.c.>...i.c...V z g A Q 2 ` E.r.R s.Y.s.r.i.s.w.r.r.w.r.i.i.w.1.c.d.=.b 7 z I &Xi.{ i.s.1.1.I 2 R } { >.' R r.R M =...V b Y ,.&X.XD.J.D.=.L.h.Q 1.n.B.J.i.E.Y.s.c.n.n.X.;.{.{.'.E.r.s.1.y.:.8.i.-.i.,.1.D.B.M.s.v.M.L.B.E.'.i.O.1.r.-.m =.M...u 7 g i A A h p.}.r.I ",
"i.B.B.B.L.B.v.p.p.r.U g I =.s.s.v.Q A M.M.-.c.'.i.y.i.r.1.i.c.B.,.} M.s.....-.Q -.v.Y.'.,XE.Q 1.Y.Y.c.p.1.l.@.A I ..i.;X,Xc.v.c.,.Q -.=.v...c.B.p...A V } -.,.M.B.w.y.I R r.J...r.h.;.8.'.L./ s..X'.U.A I c.;.s.&X3XW.L. XE.y.I s.).m.y.i.d.d.m.m.c.c.c.n.c.c.c.B.m.c.s.n.m.s.m.%.I Q L.h.G s.&Xh.' M >.'.Y.v.E.n.c.c.B.B.i.r.s.B.c.s.d.c.d.d.d.d.d.d.c.c.c.c.d.d.d.d.s.h.c.c.d.b.h.N.m.h.b.h.<.8.c.J.;.V G r.B.w./ 1.s.h.8./ Q b.D.N. .N X.X.N z G ' J.'.D.y.d.r.d.d.b.b.h.N.b.h.b.D.b.;.X.N.3XR.1.N N b.$XW.[.c.w.h.i.G [ h.a.>.G N.Y.'.J.m.b.J.{.I.d.w.w.i.>.$.V } w.w.s.r.<.h.m.h.i.i.r.w.y.y.e.a.w.z Z I.>XE.9.w.D.R.W.a.8.8.e.a.h.f.a.a.d.a.e.y.a.a.d.h.a.c.` 9 R w.S m s W D.N.h.h.J.}.=X=Xm.X.b.a.=.<.h.>.G g f r.w.I.I.c.h.;.S I Q I 1.h.w.S N V ;.%.<.h.m.%.d.i.`  .a.s.w.;.a.a.A ` =XU.J.,X&XE.h.c.r.B.W.'.}.I.i.d.;.7 G B.c.s.n.d.m.w.h.s.r.r.y.I z ' 8.z 1 s M z b g r r g g / h.c.s.;.' G G I ' A s s g g g s i..XL.w.>.s.h.y.c.i.i.i.r.i.r.r.r.r.b.%.M b $ z R ..y.' 8.r.>.y.y.r...r z s 2 W s.S 1 p =.I V g R L.Y.y.' =.y.` D.i.Q r.$X).c.h.B.c.c.E.E.'.E.D.D.r.B.8.i.8.8.s.8.r.i.1.p.,.r.L.L.L.Y.E.E.M.=...-.A U k.r.} Q i.r.i.Q m g y ; 7 g 1.i...E ",
"i.L.L.L.L.B.s.-...} m 7 B U Q v.c.g I v.r.' c.E.c.c.c.c.v.B.M.s.v.p.B.p.c.L.M.i.r.M.E.;X.Xs...E.}.v.c.Y.c.} V c.Y.}.E.}.'.L.L.c.i.,.c.B.E.s.M.E.,X&X.XY.s.c.v.L.B.B.n.Q g %.%.b m M z V ..=.G >.4XW.8.g 1.+XB.+X{.B.B..X&X{.n.X.s.1.} h.J.J.n.n.v.h.d.c.c.h.h.c.B.c.c.i.h.B.d.c.n.7 s s.1.>.Y.r.c.` S y.B.8.y.s.N.c.n.m.c.c.B.J.D.n.d.d.c.c.c.c.n.n.c.c.c.c.v.c.h.c.h.d.h.c.b.c.h.b.m.n.b.c.h.i.M.).h.s u I s.)...I m.c.y.s.w.1.w.i./ p Z d.s.8.;.%...b.N.d.y.s.b.N.h.m.h.i.c.s.J.y.a.d.a.I.E.=.<.[.J.h.&X&XB.m.f r Z b 1 N a.c.[ ' .X@X'.b.a.d.R.E.B.c.y.y.h.%.>.} N.J.1.....h.h.b.h.i.i.i.y.s.a.f.b.%.z Y b.D.h.<.8.I.W.K.9.&.9.e.f.d.a.e.y.a.a.e.e.y.y.a.h.d.i.%.A I.b.I 6 u W ).W.i.i.w.y...[ Q u u m s p G W 7 6 N 1.8.W.W.a.{ s 9 =.;X3X@XR.B.S p ;.4X'.[.B.s. .h.i.;.h.B.%.i.h.J.c.8.D.$X%.%.).8.y.N.8. .w.%.R r.h.w.y.w.A -.B.B.s.i.%.1.L.U.r.=.r.>.9 = * 3 O 6 N s p A S p m 8.a.w.y. .' V u 7 u 7 m s V ;.c.s.1.,.B.W.s.s.%.} h.s.y.r.i.y.r.w.r.r.1.=.=.u 3 9 u g b I ....>.} 8.)..X,X}.L.R 7 b 9 7 2 g z I s m s z S m V { ,.' s ' X.=.Y.-XB.r.;.c.s.c.U.B.d.c.s.p.s.1.r.s.r.1.X.8.1.1.0.i.,.-.i.s.c.M.v.r...I g g i y U B m I ] m -.r.P i m B U g A I B V ",
"r.L.Y.V.B.v.2.Q ..E 1.! A s.'.Y.p.A =.M.'.}.Y.i.c.v.v.s.p.v.B.v.s.c.M.r.L.'.c.r.i.L..X{.r.v.}.;X|.}.|.r.s.s.1.G.}.,X;X.XL.M.c.s.r.M.Y.B.M.L.L.v.E.'..Xv.,.M.E.c.s.D.D.s.>.{.=.* u M p S M.n.b I '.8.r 7 X.1.1..Xv.-.c.L.c.W.,X.X}.{ u ..r.s.c.J.B.c.h.c.n.c.c.m.B.h.c.i.s.D.c.n.B.2 V w.E.}.;.r g u I B.h.1.B.y.h.h.m.m.s.c.D.N.B.D.D.B.c.c.c.n.n.c.s.p.s.s.d.c.b.b.b.d.d.h.h.c.w.d.c.b.m.h.a.s.D.).=.= b R r.).n.' L.r.=.n.r.%.=.D.d.X.} i.i.Y.I.J.c.L.d.y.a.h.m.c.w.s.d.s.N.a.d.d.i.r.w.;.Y u ` D.J.'.;X+X{.h./ G S z Q 8.D.b.D.[.d.s.D.E.h.r.w.B.D.b.h.a.s.h.y.=.Y.).;.b r Q i.c.c.s.h.h.h.c.d.d.<.G G %.w.y.a.h.h.R.Q.Q.a.<.d.j.b.j.h.j.h.a.d.y.e.y.e.a.h.d.y.%.1.;XJ.` I p ` s.} m N..X).R r 9 p u ..N.y.r 1 r m b m } E.D.L.R g  .I.$XI.%.A 2 b ` b.W.w.>.B.y.s.a.%.h.s...[ a.a.1.%.B.W.} s M I.W { r.I [ 8.8.Z Y Y S f 2 z >.h.c.=./ A  .>.8.1.r.i.A * V i.W Y ` f z M I z z N W W  .8.G p u u u b g I b u <.W.$X,X,X'.Y.1.G >.>.i.r.=.i.1.w.1.w.i.g.w...' b { u U u V Q =.8.I ` c.B.B.L.m.s.Q 1.N.Y R V A m Q Q g 9 I b u 7 A G 7 9 Q p.h.$XY.m.h.A d.M.c.d.s.r.8.1.=.=.i.r.r.1.8.y.8.y.s.1.-.r.p.r.r.r.p.i.A 8 i g i 7 m i u g i m 8 1.v.-.A m g B g A v.s.s.",
"i.B.v.L.c.M.1.v.i...' g ] ;Xp.-.E.i.i.p.&X}.M.,.1.s.c.s.v.L.B.s.v.B.c.s.c.p.,.1.L.L.L.p.i.s.s.E.E.E...8.p.v.c.'.,X'.E.E.B.c.v.s.r.L.c.M.v.M.p.Q ..Q p.c.,.-.B.c...J.m.c.,XE.S m m ' 8.,.,Xy.r A L.{ g ..+X{.8...../ ..=.d.n.1.c.{ 7 u Y ' y.L.Y.D.c.h.m.B.m.c.v.B.c.s.d.c.c.c.L.r.2 r ' '.Y.......w.%.J.i.' =...=.s.;.c.L.n.s.m.n.U y.W.8.r.D.r.p.c.s.s.D.D.d.d.d.d.s.s.c.N.h.r.d.h.c.c.h.d.s.i.M.n.' * s I ,.-Xc.s.c.i.r.c.r.1.1.a.w.d.=.1.D.I.N.J.@X'.y.i.c.y.d.h.d.d.h.c.h.s.d.d.i.w.d.h.=.A 9 Q  .h.$X[.B.d.y.` m X.s.m.d.m.r.X.G D.+XD.y.%.d.=.8.<.s.w.w.i. .F ` =.` k 7 u N w.}.;. .r.w.w.e.e.Z n ;.e.<. .W N.d.h.D.h.X.;.d.h.h.d.d.h.d.a.h.y.y.a.f.f.a.a.<.;.8.u.S m S S / X.S X.E.3XE.[ X.S p G R.5X XB./ p %.w.w.h.J.E.{.c.8.{. XJ.A g 7 u d.d.Z a. .%.J.` a.c.h.w.w.N.E.y.%.d.J.d.%.Z W G L.` N Q Y [ [ w.y.` f I g 7 g >.w.r.G g g m.r.y.i.B.w.b 3 i.&Xd.J.W.;.f y.w.w.} 1.h./ ` y.G s s g p Q V f A m G A i.).L.s.s.d.1.c.L.s.1.r.1.i.h.h.c.h.<.=.%.' A u p Y V } d.h.r.=.r.8.i.=.m u 2 b s./ >.Y.s i A r.h.R A ..1.} } ' G u 7 Q n.h.r.r.r.Q R s.c.B.d.s.1.y.1.;.X.1.r.s.8.8.s.p.i.p.i.r.r.1.1.r.r.s.U g m g A Q I g m I i m g i ..O.s.E.v.2.1.U :.&X}.L.",
"=.L.c.c.s.L.V.v.r.] i V B..X=.=.p.r.s.Q i.=.' =.s.v.M.M.v.v.v.n.v.v.p.i.c.s.1.,.M.E.E.i.1.s.s.v.s.1.,.|.E.B.L.}.E.s.L.M.i.B.v.L.L.L.c.s.c.L.-.A A g 1.i.' ..p.c.'.3X.X+XW.L./ } ` { ' J.W.;.' g X.A ' L.D.s.;.L.X.M -.c.c.8...s.X.Y r.Y.B.m.L.L.B.c.h.c.m.c.c.v.h.d.s.h.m.c.h.B.` + u ` 1.X.%.).B.B..X$X%./ Y u Q =.} w.r.=...1./ 7 { '.'.B.B.L.l.s.s.n.d.d.d.d.d.d.d.d.d.d.c.m.h.b.N.N.b.h.h.h.c.c.-.7 G '.5X+X;.1.B.y.} 8.r...>.%.w.J.n.c.c.W.).&X5X'.r.y.c.c.h.h.h.h.h.b.h.s.s.d.d.h.D.N.%.m b > 9 1.I.d.y.d.c.=.a.$XN.i.D.>.y.}.<X).a.h.<.X.` ' b ` [ Y [ } A } b R F Q } G N } Q 3 s ' c.y.e.y.w.y.w.;./ r  .J.J.h.w.<.` w.y.a.a.a.a.a.a.e.e.;.a.b.f.j.N.a.=.T { X.u 9 ` r.a.c.s.B.n.d.r.f.8.8.>.y..X}.y.b.8.%.w.w.[ ;.m.R.I.J.U.).s.Z r u V b D.y.r.J.J. XR.;.8.W.d.>.w.h.S =.s.d..Xs.a.N.i.X.J.Q f Z G m %.N.h.d.y.<.` f b M ;.i.A 9 M i.S g >.=.Q A g =.d.m.I.).<.G h.y.h.a.E.m.J.b.i.w.` M Z G ' [ d.$Xi.} Q >.-.Q I w.h.J.&X;XB.1.w.r.y.w.%.s.B.r.=.} / R ' A %.d.r.s.r.d.8.` i.1...z u 3 A ' [ B.=.A ' B.B.r.r.r.8.n.E.L.s.=.' { =.w.h.c.i.` r s m.).W.v.c.s.r.-...S 8.8.y.8.y.y.i.8.i.i.r.r.r.i.i.p.Q u 2 m ,.1.s.B.P.r.v.1.=.-.=.-.r.E.'.'.v.i.Y.<X*XE.i.",
",.L.t.r.i.v.M.' ' A i 1.!.v.' } Q i.M.I =.} Q ..1.p.M.M.v.c.c.c.M.c.i.i.v.v.i.-.s.B.Y.s.p.B.M.s.M.i...W.;XE.i.M.M.s.v.s.Q =.1.p.v.p.c.M.M.L...Q ,.p.E.s.-.L.Y.E.$X&XY.d.%.B.n.m.>.s.i.&X1.I ' r I / X.8.A S Q E.c.9 s.L...{ y.1.Y.B.{.$XE.Y.L.m.n.h.h.c.c.d.h.c.c.c.h.c.B.c.h.m.} * s I ` I Q h.' w.L.U.1.X./ V m W Q ..R A S R / u g 1.D.r.=.D.n.y.y.B.8.r.y.y.d.i.i.d.d.s.h.B.s.h.b.b.h.d.d.h.D.r.s.h.U..X$XE...i.J.i.=.8.1.=.1.E.$Xb.y. X.X=X<X<X$Xy.X.r.d.s.d.h.h.h.h.c.h.s.h.s.y.s.B.B.>.S >.G V } a.N.m.s.b.h.D.N.r.D.>XE.s. X,XR.y.d. .Z g [ G y.} A u p ..$.=.w.b.J.w.<.).` * e ..w.a.w.8.e.f.J.W.X.9 b y.K.N. .[ h.w.w.y.a.d.a.a.a.a.y.e.;.d.D.a.j.N.%./ G X.` a m u.'.D.R.'.@XU.d.W M  .<.B.'. X..r i.h.>. .w.X.r.J.I.=Xi.G N b r m g g G w.z =.r.G N 6 9 G '.1.=.d.s.Q %.h.n.s.G ;.I.w.[ j.S b  . .Z &.w.<. X$X[ %.1.{ Q 8.S r ' m.Y.A z ;.g $ 7 s u ..J.D.L.[ Z r.a.a.d.@XB.[.r.8.b.1.....[ =.c.+X&XB.m.c.' r z m ` w.h.L.L.h.r.i.s.r.s.G m } =.=.I A ..U G =.r.c.1.d.i.p.M.r.r.B.n.} R ' 8.Y.{.b ' r.E.Y.y.r.i.i.h.}.E.B.s.s.h.n.B.)..XL...g M s.w.s.D.y.1.y.=.Q =.s.y.s.r.d.r.s.y.i.i.i.i.i.p.s.s.1.Q } i.L.c.v.B.r.=.M.!.}.p.,.V.'.'.|.E.L.c.t.r.V.r.E ",
"i ..=.} A A ! V u i H v.p.I m ...X;X|.B.Y.i.Q U -.p.c.c.c.v.v.s.B.v.s.c.L.Y.p...M.L.Y.M.c.v.c.i.i.v.1.v.'.E.s.E.p.Y.M.L.' } B.s.c.c.B.Y.c.p.-.i.M.B.v.i...' } }.E.'.E...} m.U.1.g } s.c.A A V I 1.p.Q ..c.W.E.4X=.Q 8.z 7 7 m Q ` s.&X}.m.B.B.m.d.d.h.c.c.s.h.c.D.B.c.h.c.c.h.c.1.A A S 8.n.h.m.s.1.g G %.>.s...9 b S Q g g m V u 9 7 r g 7 9 X.d.c.d.B.y.B.c.s.s.y.y.h.m.b.h.d.i.s.h.h.a.r.i.d.c.i.h.B.{.J.y.>.1.s.m.y.=.1.8.=.X.D.h./ [ [.}.R.).R.h.I [ d.h.s.d.d.s.a.d.h.h.d.h.s.y.s.N.N.w.' w.h.N.=.Q [ %.a.%.` %.>.).3XW...[ [.L.w.X.i.r.g d.[.}. Xw.>.G %.R 1 b I h...Q B.1.N A R w.B.i.h.a.y.9.a.I.%.r ` w. .Z 9 W W.h.%.a.h.j.h.a.a.a.a.d.e.d.h.y.y.%.z a m / A z m 8.Q.{.+X&XD./ S p f %.a.I.J.}.R.' %.;.G [ r.Y / s.B.W.%.f b b X.y.a.i.X.1.>.w.r.g 6 > > p a.' w.B.w.B.m.d.N.G r Y c.<.[ h.b / J.d.y.f.b.h.R.N.Y I.>X}.s.1.b Q B.i...U E.m./ } A A =.D.W.h.m./ z w.s.d.a.d.[  . .}.L.c.B.i...>.L.|.B.h.%.;.8.A u r S h.c.r.1.r.i.r.r.i.B.G 7 g m m 1 I w.%.M.E.r.n.w.i.1.;.w.Q h.B.Q } r.>.c.U.m.V %.h.} b b ' y.c.c.' ' =.B.).W.E.).J.U.B.=.Y ....V ..s.@.' ' Y S r.r.y.y.1.r.:.s.y.p.p.p.i.i.i.p.p.c.r.M.Y.-...,...m i Q ..] m ..,XE.,Xi.r.,.U E.1.A m 7 ",
"0 u g i A } U u g A } k.i.A g M.'.-.A v.E.U.E.L.Y.B.c.s.s.c.v.v.M.v.c.M.E.E.i.U ,.M.Y.M.s.d.n.n.v.v.L.E.E.}.}.'.p.Y.v.B.=.%.v.,.B.}.L.M.1.i.c.c.d.Y.v.v.I 7 } &X.XE.B.%.r.N.B.i.w.-.w.G 3 r 9 ' B.c.N m ..} 1.n.I ..8.9 7 V ' X.I 8.W.Y.B.B.n.c.i.s.c.v.c.h.h.c.B.B.c.s.d.d.s.d.i V Q Q s.B.i.s.c.} b Y I Q s.A I Q ' Q u u u r z z m g g 9 > u X.B.B.c.d.D.c.s.a.d.h.h.m.B.c.a.a.s.h.h.s.r.y.d.y.h.v.y.s.y.c.d.i.B.B.1.` -.i.X.r.W r =.E.).m.b. .} ' p / a.d.d.d.d.a.y.a.h.b.c.d.d.h.N.J.N.y.=.y.X.b.b. .G b W / f S d.{.J.B.X.r.B.=.<.=. . ./ b.[.[.D.8.d.s.Y.G I ~ >.m.m R i.I.J.&X'.b.m.i.N.h.a.f.8.a.D.e.<.8.n t S 8.).a.8.y.f.h.f.a.a.a.a.f.h.a.e.d.9.n + p M b r A / J.4XQ.' x a z =.;.<.=.} s.L.W.N.X.w.` p ;.8.R =.Y.R.w.A p s b w.D.).J.y.c.i.I n.d.W m u Q y.X.i.s.<..X@Xw.r.' X.y.3X$X).J.Y 8.h.a.D.h.9.e.e.%.Z f.h.W.>.d.n.1...Y i.1.=.u G 1.1.;.1.}.J.y.d./ g y.w.<.1...z b i.$X%.%.s.%.X.m.}.Y.r.=.s g n.h./ A I s.m.s.1.w.r.w.r.s.s.V u b u s s ..B..X-X$XE.B.U.h.d.d.w.c.y.y.R ` ;.i.'.s.Q V 1.r.w.} ..y.r.i.E.r.Q A ..B.).E.U.Y.J.B.1.R s.=.;.d...T Y u A ..;.;.y.s.y.y.1.d.s.p.i.i.i.i.i.r.i.1.1.c.Y.' =.s.B.Y.1.k.1.A I L.,XL.r.u 7 g i 1...B m 7 ",
"g m B A ] v.i.=.-.I ,.Y.B.r.} E.Y.I 2 Q ..E.5X;X.XL.c.M.B.c.c.M.v.c.v.B.Y.L.,.g u s.E.M.s.v.B.M.M.s.p.s.B.B.s.n.&X'.'.v.y.p.=.I =.1.g = = ' v.p.p.L.E.L.A A L.E.'...b Q i.B.h.U.).s.m.c.>.` >.m.D.D.=.A 2 2 Q I u ;.3XU.S Q |.+XJ.m.m.c.J.D.s.s.p.d.c.n.b.c.c.c.c.M.c.s.h.c.h.h.A %.h.p.B.r.=.i.B.s.h.1...i.E.B.s.s.s.;.A I A V A A S A A I M z ' B.E.l.c.n.s.i.y.h.b.d.a.d.h.s.s.s.d.h.a.r.y.h.m.8.h.B.i.;.h.1.} {.s.m Q ;.>.y.B.1. .$X5XW.N.J.%.I S 3 ` d.s.d.h.d.s.i.s.c.N.m.h.h.h.m.n.d.y.y.w.b 1.D.c.N.W = * m g h.R./ ;.` <.n.>.I ' r.I z d.J.y.1.%...8./ N c.c.r.=.<.N..X,X$XY.L.i.h.I.I.e.h.h.e.h.J.f.<.h.a.b.R.W._.h.h.8.e.a.y.y.a.a.a.e.j.a.a.D.a.Z 1 9 { [ [ r.n.'.c.G u 9 z b w.D.c.R a.$X.Xc.8...' S V m.s.a.=X5XW.%.g b A a.B.c.X.2 3 W h.E.U.w.X.8.Z G A I <.8.c.Y.%.Y d.m.b.D.W.f.a.S n 8.G [ ;.d.y.[.).y.S 8.j...s ..B.r.m.J.'.w.{ V b 2 g A Q s.i.h.s.A u 8.w.i.s.c.8.1.J.;.M 1.&X'.B.m.c.8.' u u b y.d.s.s.X.r.h.r.>.w.r.r.h.s.i.R b G R Q ' ` E.}.L.c.J.L.B.n.w.i.J.d...1.s.s.=.s.m.%.%.8.B.c.m.J.E.W.h.} G ' r.J.L.n.d.n.L.Y.d.r.' G c.i.L.=X8.m u 7 M ' ' =.r.0.d.s.r.d.y.r.r.r.r.r.r.i.i.1.s.i.L.s.r.r.'.Y.r.V.|.].~.&X'.@.7 A g m V ; Q =.' B ",
"} } B ..t.L.c.p.c.Q l.'.s.B.M.Y.M.U I A A s.E.i.L.M.v.B.B.v.c.v.c.c.v.B.B.M.=.u m L.'.v.v.n.c.p.s.B.v.p.M.c.i.&XE.s.v...1.;.A i 8 g 7 7 g -.i.-.U.v.B.Y.i.-.Y.E.r.m s } d.c.r.y.c.c.+X5X&Xc.c.m...8.s.1.=.E.E.....D.D.d.r.r.L.s.X.s.D.c.d.i.1.h.h.c.c.c.c.c.h.h.c.m.h.i.s.n.n.n.s.y.c.s.i.1.s.D.h.c.B.h.Y.L.h.=.s.c.m.r...r.r.d.c.'..X8.m g C / X.:.l.d.L.v.n.d.i.s.d.a.y.y.a.d.a.y.i.d.s.y.i.h.c.w.r.h.c.w.%.7 z s.S = I =.8.L.h.W.$X,XI.b.b.D.Y.X.[ b 8.D.b.b.h.h.s.a.d.c.n.b.n.h.s.d.a.y.i.h.w.8.$X$X$X>X1.Y %.w.N 1.L.;. .Z ' h.y.%.;.} m %.L.D.8.s.d.m.W.w.m B.Y.h.w.J.J.Y./.}.s.W V h.}.h.y.j.w.w.h.<.W Z w.).$X[.J.R.h.a.w.e.a.a.a.f.f.a.e.d.d.h.J.N.;./ X.r.T [ Q o.d.z > 9 D o.{ D.{.h.;.s.m.I.b.[ Z f g r..XN.h.@X).1.` S z A w.=.h.X.` w.w.s.<X X<.[ b 6 7 9 X.E.s.a.<.p Z W.h.i.;.Z f t 3 N b.a.b.d.a.w. .G [  .9.[ p g >.w.r.).-XB.c.3Xs.Q r...b ' y.d.d.8.z f X.h.d.a.h.b.h.i.W } L.Y.' [ d.'.c.A u i G r.1.1.i.c.Y.L.h.r.r.i.r.a.s.m.h.} } w.;...` E.D.m.s.s.c.1.J.h.w.c...i.c.>.d.i.r.S Q ).,XL.i.m.).{.U.c.i.r.1.r.h.J.).{.W.L.m.y.1...8.U.).).W.d.Y g I M g A ;.=.Y r.r.8.8.1.0.0.r.r.r.r.i.i.r.p.r.i.s...Q 1.g u Q V.&XP.B.s.Q i m -.B.M...2.B.v.r.",
"M.E.t.Y.i.T I ,.v.B.}.Y.2.L.].,Xc.A s.1.i.M.s.-.i.M.M.p.i.M.B.c.v.v.M.M.M.v.=.u -.'.B.r.M.B.B.L.B.s.c.i.p.v.c.M.r.1.,.Q -.Q A i m m A V m } ..s.c.L.M.i.B.v.M.W.=.' s.1.y.i.J.s.i.s.c.r.w.w.;.c...r.B.c.s.&Xr./ c.L.1.=.{ 1.L.=.A y.B.w.w.h.i.h.n.v.c.h.h.h.h.d.c.n.s.1.r.h.m.B.s.=.h.n.d.h.J.s.m.d.d.J.w.I =.m h.B.B.w...i.s.M.d.-X,Xr.Y ' { X.Y 9 S =.D.s.B.s.c.a.i.d.h.d.a.s.s.y.y.d.d.a.s.b.1.m.B.B.n.Q R / m s 2 7 m 1..X XL.R.=X@Xb.B.c.J.J.X.w.' s.b.d.b.h.h.d.s.d.h.c.d.d.a.d.m.c.a.i.h.1.i.W.W.&Xi.9 y.L./ A ;... .G p %.@Xc.y.s.%.<.).5X).)..XR. XL.r.` h. .y.J.c.,X&X).h.=.N Z E.Y.a.d.e.w.d.a.d.a.n  .h.a.a.a.N.h.a.y.a.a.a.a.a.a.y.y.e.a.h.h.b.D.h.y.( f c.;.Q y.p A x Y I.E.'.I.Q <.D.;.` X.[ W g G R.J.w.h.E.1.m 9 Y s  .1.` h.r.c.y.b..X=X).h.=.g ;.;.z b [ f f y.c.w.D.I r.r.;.N 3 S Z d.[.D.8.w.a. .` 8.` ;.c.<...=...Y.W.).h.r.B.G } }.i.s.s.E.h.Q I r N G w.r.h.c.'.&X&X,X@X$XY.>.D.E.'.Y.8...R X.s.r.i.1.m.Y.L.B.c.i.r.r.i.h.s.m.>.=.c.B.'.L.J.B.s.r.c.>.c.p.M.v.i.B.s.c.h.w.y.s.c.'.E.J.1.} i.=.w..X).h.}.N.s.c.W..XE.m.c.s.h.p.>.c.i.J.8.Q ..y.d.B.=.' ' c.;.m 8.r.r.8.i.r.r.r.r.r.i.i.i.p.1.p.-.p.-.p.p.=.} L.&XM.,.r.A g m ! 1.s.p.Q ,.,.i.i.",
"Y.T.s.M.! m r.XX#X.X&X..-.*X'.'.t...v.E.c.E.|.c.s.c.c.s.s.c.v.c.M.v.M.M.B.B.r.=.Y.E.g g Q p.B.Y.h.c.b.m.c.s.i.i.s.c.s.b.).w.V ..i.r.=.g k ' Q =.r.C.r.c.p.B.,X&X,.=.v.c.r.=.L.p.c.i.} Q A Q A c.m.B.c.r.c.Y.' G m.c.r.1.} s.c./ R D.U.w.w.d.s.d.s.h.c.c.c.c.c.c.n.c.c.y.a.B.c.s.=.` }.$X.XE.U.B.h.'.L.=.J.s.s.d.L.w.,.E.J.w.%.s.d.U.I 7 8.1.L.d.b { { p =.L.n.n.w.N.d.i.h.h.c.d.a.r.8.y.h.h.s.h.8.b.c.D.d.` [ %.[ I [ N N 8. X).R.R..X}.L.D.y.{.d.1.r.b.c.h.h.d.i.d.s.s.b.m.d.y.s.a.h.N.b.a.i.h.s.Z X.b.m.w.W >. .N.B.;.Z 2 V m N. X' X.8.c.,X+XY.m.D.).R.N.n.B.h.N.c.'.@X3X%XR.h.<.Z 9 <.@XN.h.8.r.r.y.h.n.i.%.%.=.J.N.J.N.s.w.w.s.d.d.c.c.a.a.s.s.d.d.d.h.c.m.>.=.W.<X).J.r.B.w.g Q U.&Xn.b.h.b.c.<.N.w.c.<.m.).R.r.Z S ;.f u ' h.h.b.W ' N.w.h.s.c.N..X<.X.=.h.c.I I 1./ 2 z h.=.d.%.r d.v.i.e.=.A Z w.B.h.e.i.J.J.s.y.>.>.g.L.&XW.E.L.<.[ S b W N ;./ D.}.h.p.).Q 3 I A G r.r.m.}.}..X}.$X'.}.E.'.E.J.J.v.c.E.U.J.>.r.c.1.c.X.c.L.s.r.i.s.s.8.r.h.1.w.E..X&X5XB.;.y.s.s.c.w.c.r.s.W.&XY.E.s.c.U.r.h.X.b g p p i...X.U.1.G ' I ;.Y.}.Y.h.w.r.s.w.;.=.r.c.1.A A 8.c.D.s.A 8.E.W.n.s.B.y.y.0.8.8.i.i.i.i.i.i.r.y.y.w.1.=.1.h.J.L.G.s.@.U ) m u g B 0.P.T.) A :.r.,.=.",
"r.M.v.M.c.M.]..XE.L.P.T.&X,XY.B.p.v.k.s.L..X&X!.M.B.L.B.n.M.M.M.B.M.B.M.m.B.r.1.E...1.,.A U =.p.s.c.m.m.N.J.B.m.m.c.h.J..XJ.>.B.Y.E.m...} p.r.' } 4.1.-...i.i.1.p.r.s.M.p.i.B.c.c.,.} c.,.U g r.n.d.>.m.B.n.I S B.h.B.8./ Y.U.E..X}.v.r.h.c.s.h.B.n.c.n.c.h.c.B.n.c.c.i.s.B.h.s.c.h.,X}.)..X$X&X;XL.A 1.c.c.J.n.=.{ c.U.D.8.h.L.,X8.g z 8.{.,Xc.Y =.A p { E.n.s.s.n.c.c.b.h.d.h.a.a.a.d.c.a.w.y.8.c.J.s.[ V I G R =.i.Y p G ` Y b y.d.` Q R.@XL.G 1.D.m.y.y.d.i.a.h.h.a.s.i.i.d.N.N.n.d.d.b.c.s.r.G g %.N.c.%.b  .;.N A r.G r f w./ f w.W.+X@XD.8.d.b.c.B.Y.a.G W N..X.XR.R.b.<.` Z f G R.3Xj.&.y.a.a.y.s.h.r.X.s.E. X=XJ.J.i.m.N.h.s.s.d.r.y.b.h.h.h.d.d.s.d.h.=.;.=Xm.G c.N.<.} [ r.1.Y S } f Q r.h.w.I ' 8.I.N.J.r.Y M 1.%.G / J.I...Q D.D.y.h.w.8.d.Z r V [ G m 7 ' s.s.{ G i.' J...z %...y.s.1.y.d.>.<.c.L.).Y.h.y.h.s.c.a.[.).I.+XY. .Y b u 9 b w.;.i.;.=.B.' g Z A g } L.}.&X3X&X=X.X'.Y.J.c.c.h.h.h.i.h.B.Y.J.i.s.s.y.m.B.U.B.8.>.r.i.i.r.>.w.1.i.U.'..XD...1.v.y.8.r.s.r.w.w.n.).m.r.%.s.%.A %.X.Q / ' c.h.m.E...7 g s A y..X{.J.v.i.1.y.8.>.8.s.h.1.Q X.n.s.d.c.c.D.n.L.E.W.Y.y.r.y.s.w.i.i.r.r.i.i.y.1.w.w.r.r.i.h.c.c.1.! g 7 i i g i { B.].~.=.s..Xl.Y.'.",
"..c.L.c.L..X*X'.v.B.v.|.,XE.B.M.1.t.2.B..X.X.X'.c.v.v.M.M.B.M.v.v.v.L.L.v.B...%.r.s.,X1.A V g m i.....r.s.1.1.c.h.m.m.s.B.B.c.L.B.B.B.L.c.m.L.i.Q V F A I ' V Q Y.B.p.B.s.B.B.M.M.r...c.,.' =.Y.B.c.w.m.h.D.R ' m.B.h.L.m.$X3X,X.XD.p.h.n.s.s.v.n.h.d.c.d.r.i.b.m.c.c.i.d.B.h.i.h.L.,X}.'.).L.Y.}.I V Y.E.$XE..X'.h.L.` u 1.$XJ...A S A { $XL.m M n.8.=...g 9 n.B.w.r.N.D.i.1.h.s.d.s.h.h.r.8.y.D.c.Y.r.G 9 z S V %.J.=.b h.'.%./ d.1.Z f s.L.' z ;.c.y.w.d.h.a.c.h.i.a.m.N.b.n.y.h.h.y.w.a.c.c.w.f g [ d.d.G s z N 2 G W.1.Z I X.u Q {..XY.b.m.R.D.c.s.a.y. .b 9 ` 1.` / ` G b N t G J.<XR.e.h.s.h.d.a.d.h.y.;.I.[.b.J.D.I.d.b.y.i.s.h.s.y.a.h.d.h.h.d.d.d.d.h.W b Q z ` >.A <.N. .` y.X.p W ' N B.).G 3 g %.1.;.X.X.1.} a.W.b.8. XY p y.r.G Q ;.L.8.8.[ W p N U 1.' r.h.r.r.s.c.i.W.>.h.n.%.w.s.i.c.m.s.m.L.c.N.L.&XB.r.y.N./.+XJ.c.'.[.L.B.X.S S X.s.r. .f X.h.' %.=.A Q h.'.$X,X&XJ.J.c.h.h.s.r.r.r.h.d.r.c.m.c.=.;.h.b.c.d.&X|.B.r.i.h.s.r.n.p.h.s.8.8.y.B.1.g } s.r.w.>.s.y.c.8.} %.y.i.L.W.>.Q r.i.s.s.c..X}.J.r.A 7 A G } r.D.L.m.s.s.s.y.s.s.y.i.r.} V =.1.{ =.=.;./ { D.L.L.c.y.1.r.y.w.r.r.r.r.r.i.i.a.i.i.i.r.1.=...' ! 1.:.! c i m { n.1.' -.p.'.B.,.l.B.",
"B -.B.v.}..XE.c.c.c.=.c.E.1.=...-.U =..XB.=.B.B.M.c.k.v.L.P.L.v.v.c.L.L.B.B.' } 1.v.=.V s.B.c...1.R U >.i.=.1.J.c.m.J.h.i.c.J.).E.m.g.L.h.g.L.}.Y.=.R m I =.-.Y.|.'.p.M.c.L.B.L.E...z Q Q ..-.r.n.c.W.W.B.L.I / L.'.E.5X5X&X.XB.w.1.i.m.c.s.c.c.c.c.m.B.n.s.s.c.B.c.v.s.c.B.s.r.s.D.}.U.L.>.X.r.=.u B.5X,X;X.X3XW.s.B.1.g >.s.} A m { B.~.c.z 2 r.D.c.B.U.g 3 { h.w.c.D.c.w.>.d.h.d.a.a.d.i.i.b.J.m.m.R f 3 9 N p %.$X'.' c.W.r.N.d.y.;.G ;.a.} / 8.a.a.h.c.d.h.s.c.c.h.d.a.i.h.d.d.h.c.s.y.a.c.} 1 r Z 8.b.I V i.1.' Y Y A <.D.R.%.b.$XB.X. .h.B.y.y.c.r.` G S m N A z / Y f p b <._.3X@Xj.y.w.a.d.h.s.d.h.d.y.Y.D. .Q D.b.i. .%.r.c.h.a.h.h.r.a.a.s.d.h.h.c.b.` 9 ` b.$Xr.G I.@XI.8.Y..Xh.D.m.w.E.h.G ;.>.;.[ Y z Z  .} y.}..X[.$XX.%.h.i.h.8.D.5XR.i.@Xa.g z c.L.} 8.m.D.).E.r.{ >.c.'.B.U.B.Y.;X,X$X&X$X}..Xa.` r.` '  .4.5X[.).R.R.B.N.R.N.h.%.b.E.Y.R.h.y...y.m.%.%.E.&X&X&X Xc...1.w.r.i.i.i.r.r.c.i.;.d.r.y.w.i.B.L.U.).&X).h.w.y.i.w.1.d.y.d.d.1.=.1.s.Q 8 I w.w.r.8.8.%.i.s...' h.m.'.L...{ s.n.Y.n.c.s.L.X.I =.X.R Q r.c.D.E.L.s.r.1.>.i.y.8.r.r.' b Y ..1.' 9 > p d.'.B.M.n.D.r.8.r.r.i.i.i.y.i.a.s.w.4.1.1.w.w.>.=.I C 0.B.v.=.:.k.-X].=.U } @.l.n.L.M.c.",
"u U ..' v.P.v.s.v.,.U } =.A A 1.i.' p.&X=.B k.v.B.v.c.c.M.B.v.c.L.M.M.B.L.c.U Q r.i = p.5X.X,X3X;X.X/.Y.L.B.c.c.B.s.B.L.m.m.m.Y.M.c.c.M.B.Y.r.c.B.v.r...r.).&XoXE.E.s.s.M.B.B.B.v.g 4 m g m A r.-X$X3X3X'.s.=.d.D.'.5X<X,X{.m.i.s.w.s.v.h.c.m.s.h.m.B.m.c.c.c.h.m.c.n.h.c.B.i.8.h.n.v.} ' u Q i.' ;.&X&X).B.$X.Xn.' 1.E.1.` ..U.d.B.D.D.1.> 7 d.&X{.,X+Xi.I / 9  .c.W.N.y.y.a.h.c.d.i.s.h.h.h.B.s.I.8.& 3 b f V %.R.h.V g i.B.B.d.<.m.a.I w.b.h.>.h.J.J.N.a.r.h.d.d.i.y.h.m.m.B.b.s.a.d.h.d.d.d.s 2 f r.b./ f z >.w.R.J.1.;.[.;X.X[.[.I.%.z Q m.h.w.r.a.w.;. .` m ` <.` W z G y.K.@X$XR.w.<.f.a.y.s.d.s.d.c.c.h.D.N.%.S B.r.<.Y i.d.b.d.w.a.h.y.y.y.a.s.d.h.h.h.G z / 1.d./ G w.[ 1.X.8.=.;.y.Z %.[.8.N y.b.>.[ I W >.i.J.&X3X3X>X1.Z W s.N.a.i.R.d.=.} w.I W ..}.1.A y.i.8.w.V p V d.M.I ` B.=.$X XI.N.d. .Y %.' / R p ` h.I.>XL.N.1.%...R / =.[ L.@X.X[.h.w.s.8.p.r...n.>X.X'..XB...A -.i.i.1.y.i.y.r.s.w...r.n.8.r.w.n.L.r.r.$XE.d.1.w.r.r.i.s.w.1.r.r.r.r.1.g u ` s.w.1.i.1.c.i.h.,.I 8.n.Y.r.A ` m.D.B.;.=.r.} S =.E.L.s.s.r.)..XE.c.r.i.1.i.y.>.=.r.w.} Q r.Y.+Xr.' Q { d.y...' ' ;.;.s.v.i.i.i.s.s.s.s.s.1.1.1.1.r.i.i.s.-.h U 1.c.i.v.E.B.-.B Q s.Y.B.Y.v.c.k.",
"A -.' V O.p.c.L.s...m B O.=.-.T.&XM.,...A T M.B.k.c.v.v.k.s.c.M.B.v.M.B.L...u i 7 g ..Y.Y.|.}.L.J.B.J.L.J.J.m.c.B.c.J.m.v.J.i.` g A ..i.v.B.} i.s.L.E.'..X$X&Xm.1.s.c.s.L.B.B.s.V . 7 V V I ..}.'.$XL.B.8.A s.J.U.;X|.v.D.B.B.y.m.i.s.M.c.d.c.c.h.n.c.i.i.h.n.h.c.h.c.d.h.c.y.w.d.c.i.Q G u =.b.1.c.'.s.1.L.E.B.r.V d.'.1.{ L.h.p 8.d.i.8.X.n.E.L.B.L.E.r.D.D.Q S ;.<.r.c.h.b.n.a.i.i.d.b.d.i.d.d.B.G + p I A %.h.c. .m %.$X Xb.N.1.N.w.S y.m.d.8.b.D.c.a.i.s.c.b.b.y.>.w.b.J.I.b.D.c.w.<.y.a.r.z S w.J.d.R s Y a.h.[..X).n.b.a.;.I.I.s.>.Y %.c.i.;.X.<.y.a.<.` W h.Y.B.d.r.Q.3XK.N.J.R.j.<.<.e.i.a.a.a.a.d.h.d.N.c.` S 8.w.<.8.B.y.a.h.y.w.i.a.s.a.a.a.a.a.i.y.G z g m M g G X.G u Z w.R ` N.=.=. X<.V <.d.h.L.W..X3X,X3X$XW.W.c.r.M I N.1.=.L.d.G s Y =.d.).W.E.' u =.w.=.s.c.s.s.B.} M 8.;...J.` b m z g f 9 m 8.G V  .h.}.c.d. .r 1 f z u b Q a.R N R S 8.[.p.i.s.c.E.{.B.s.i.w...Y ;.r.i.w.w.r.r.w.i.i.1.i.c.d.Y.s.1.s.i.E.'.E.m.s.s.y.y.d.s.s.r.i.r.w.r.=.R ' 1.h.w.1.s.r.s.w.m.s.V m ` ..b 2 G h.i...I =.).y.8.E.-X).L.).).-XY.;.b s 1.J.h.1.} >.s.r.8.n.|.+X+Xv.W.{.B.r.A g z M / 8.d.;.r.r.r.i.y.r.r.y.r.r.i.i.r.r.r.y.1.g A -.p.i.c.P.~.1.A ] !.,Xp.Q A ' =.",
"-.'.v.i.c.s.i.c.r.T 7 U E.P.,.-.B i g ' p.Y.!.E.v.v.B.B.B.v.B.Y.c.v.M.B.M.g = 7 g I ,.n.v.c.,.c.m.h.c.J.J.c.c.B.J.J.L.h.h.Y.i.G } =.4.B.M.}./.3X3X;X2X,X|.Y.E.p.} r.v.v.G.B.M.-.i 7 A } i.L.L.G.d.B.s.p...G i.L.3X5X%.=.i.y.c.>.y.y.c.B.c.s.h.B.M.m.c.s.d.v.B.n.c.s.c.s.s.c.s.s.n.r.} 1...' i.r.>.1.J.r.1..XB.h.i...c.r.b %..Xm z s.B.E.L.B.D.n.=.y.r.y.r.y.=.s.I } b Q h.h.N.m.y.a.d.c.b.i.8.w.h.;.> 1 m Z S m.U.X.i.).).J.D.N.L.d.N.y.G 8.D.h.r.y.a.r.w.d.n.c.d.J.h.' Z G [ ;.B.b.r.X.%.w.r.;.3 m ` 2 z h.%./ w.i.J.J.L.a.X.G ' r.r.;.N.b.s.>.S G  .i.c.a.%.Y %.c.a.).<X3X=Xf. .<.j.a.e.f.e.f.s.s.a.i.a.d.d.s.D.8.m b Y =.1.{.B.1.8.c.s.y.a.y.s.a.a.a.s.a.y.r.m 6 ` a.` / %.8.8.W ` d.w.U.,XW.h.X.9 S d.r.h.).c.I.).I.b.;.d.J.} >.I  .B.J.{. .%.>.W =.Y.;XY.w.G g 9 >.L.c.1.i.=...y.y.w.} i 8.` p 3 9 r V  .=.D.8.m w.y.r.J.h.i.` f 7 p z f z [ X.;.w.r 1 =.1...c.E..X$XE.c.8.%.1.i.8.s.i.s.w.;.;.w.w.i.s.1.=.1.X.=.} =.m.Y.{.B.B.h.y.y.r.1.8.1.y.i.s.r.1.s.i.r.r.i.r.w.y.y.y.s.y.>.A & > Y ` 3 r R s.s.y.d..X$X{.).'.'.c.=.>.d.Y.Y.L.;.m S I Q ' ..y.J.B.B..XL.D.c.s.B.U.W.&X.Xs.' A z :.D.s.r.w.w.w.w.1.w.r.1.8.w.r.i.s.s.s...g A r.r.s.L.&XL.' i -.M.-.E =...2.s.",
"M.,Xv.B.E.s...-.s.' i -.Y.Q i H E u I s.v.r.i.B.B.v.c.M.B.M.v.c.v.B.n.c.s.8 u U U 1.B.L.B.s.p.s.h.c.c.s.s.m.L.J.v.w.i.h.m.m.i.w.L.|.E.E.c.;X,XE./.E.;X/.m.M.Y.-.} p.M.B.M.B.c.' s.E.E.B.M.B.E.P.L.=.r.i.' Q } .X5XE.A %.i.D.1.n.s.h.v.c.h.v.b.h.n.d.s.s.h.d.d.s.c.h.c.s.s.c.c.m.J.Q 1 %.} ..=./ ' ,.m.Y.J.L.E.i.r.L.s.s. .r.c.V X.B.8.D.{.'.X.' M I { A S g m r.W c.G b %.s.I.c.a.h.m.B.N.a.w.i.d.[ . r m A / R.a.w.U.'.[.J.B.N.c.R.}.B.A } I.J.r.w.d.N.h.d.c.c.B.d.` z V / I f } b 2 g ;.B.h.<.> m A A >.I.L.s.y.d.W.c.8.w.a.%.r.h.N.>.i.h.d.w.X.h.).).B.c.a.;.>.I.m.}.I.b.N.X.G Y y.h.j.a.&.j.h.h.s.a.s.d.d.s.J.;.S N m G  .,XJ.y.r.s.y.s.c.r.a.i.i.s.d.d.d.a.z / } %.L.[...w.m.D.r.y.m.).c.;.y.>./ ..h.a.N.;.Y b.W.m. .b  .Y z M Q X.N.h.%.b ;.R.). X<XW.>.W s s I y.s.D.B.p.Y.=...%.>.s.s.8.d.[ m G / A Q N.c.` ` h...r.w.;.B.A b ..1.[ S N X.D.a.s.;.G G ..>.}.{.$X<XJ.>.=.r.w.s.s.B.c.r./ %.X.1.1.8.8.` V r.8.=.=.8.c.L.c.L.D.s.,.8.r.r.y.p.i.w.d.s.w.s.r.1.;.s.1.w.s.;.i.s.c...7 u Q r.Q b G I %.s.)..X-X-XL.B.v.r.>.=.;.1.n.s.m.B.c.h.} g X.d.B.Y.D.s.h.c.d.8.d.n.D.M.W.+XL.B.f.I ..r.-.s.i.r.r.r.w.r.s.r.w.w.e.i.s.s.i.-.m I t.r.s.v.P.k...m r.i.E =.'.B.v.v.",
"P.|.E.Y.E.L.p.A A 7 Q E.-.2 B ,.p.r.,.L.i.I V E v.c.v.c.v.M.c.c.B.v.v.L.g = 7 g } |.;X&X'.i.i.B.s.s.s.m.c.m.r.=.V ' s.m.L.i.r.i.c.M.'.;X;X'.E./.'.'.}.i.p..Xv.U r.c.v.L.v.B.8.V A ....I } Y.}.d.r.y.s.=.R Q &X'.{ I u ..w.i.8.L.r.c.B.c.h.b.m.c.s.d.h.c.B.m.c.h.v.B.B.s.w.s.m.c.B...' s.m u V I 1.=.L.J.%.>.h.J.B.J...I B.}.).c.D.M.n.s.1.I z ' S N u 9 g Y n.1.' E.>.W N b y.8.y.d.h.h.d.d.s.i.d.%.> N } J.}.b.W d.R.).J.R.J.L.$X XL.N.Z z D.b.s.b.B.d.h.h.J.i.s.<.z V ` X.G m 9 3 S B.@Xd.w.' p p G ;.b.$XX.' I.y.d.N.a.s.>.J.$X>Xb.=.>.;.w.i.L.).E.b.r.r.>.W.>X4XL...h.m.d.9.8.w.R.K.a.f.f.d.i.i.s.h.d.a.i.s.L.y.I N N G y.L.G X.y.s.d.s.y.s.y.h.a.y.b.r.h.r.f A u Y w.<.' 8. X,Xi.w.b.w.7 b I N.c.' ).J.Y.I. X@XB.s.%.R { Q f S m m h.h.%.[ y.}.,X'.h.[ m N g A m 1.i.s.} %.' R d.h.m.h.s.B.-X X).y.{ S X.r.X.z N G b ;.w.%./ ` B.'.}.I.L.N.r.d.w.b.c.s.w.8.=.'..X.X'.s.8.r.d.n.d.n.n.;./ I %.>.=.' >.` i ' r.-.' Q %.d.B.B.E.n.y.r.i.y.y.i.s.y.r.w.r.i.s.s.1.w.r.w.w.r.y.y.i.c.I i m A 1.z b M R r.L.).'.D.m.s.r.y.r.r.i.y.s.1.i.w.%.i.M.v.J.E.E.J.c.d.r.1.8.d.B.n.M.1.s.B.L.r.{ c.E.'.8.y.r.i.i.i.i.w.w.s.r.r.w.w.s.s.r.i.6.C P r.s.p.r.-.1.Q U s.1.B.,XL.c.v.M.",
"M..X&X&XB.2.1.] m A c.} i 0 } r.i.i.-.M.B.c.-.Q i.i.l.v.v.c.c.M.L.M.M.1.8 g Q =.p.s.} ..E.L.n.i.B.s.h.m.i.r.h.>.` 1.h.B.h.i.i.s.E.}..X.X|.}.E.L.E.E.p.Q -.4.A Q p.v.M.M.v.B.=.V Q i u g V i.1.Q 8.1.' V Y J.,X..3 9 A y.s.B.d.s.h.h.h.s.d.n.m.c.s.h.c.m.n.c.h.d.v.m.m.d.r.h.B.c.m.r.N.E.....m.c.r.L. Xy.I %.r.{ ' I u V W..Xs./ L.W.d.B.d./ =.D.s.1./ X.c.D.E.p.E.R./ ..w.S } m.w.s.d.a.y.a.s.h.[.D.8.X.;.R.<.}  .X.J.,X'.).Y.{.h.d.d.8.M m w.m.b.a.d.B.h.i.a.d.1.N b %.<.c.r./ S Z R.R. .} <.I } S [ N.w.%.I a.h.d.w.r.s.s. .i.W.s.;.w. .` r.X.D.W.;.w.y.G r R y.8.X.[ B.b.h.a.b.R.R.d.a.h.a.f.i.y.a.d.d.d.h.m.d.i./ b G a.).m.R ;.a.a.r.8.w.d.a.s.a.i.h.<.a.w.A z z =.i.X. .R.y.;.h.N.N.n.>.h.J.1.r.'. X%.w.W.J.m.1.i.a.8.c.n.<.S 3 z  .a.d.;.B..Xh.Q z r S W =.Y ;.L.B.s.I 1.E.}.,Xm.s.r.s..XW.D.8.Y / =.s.r.o.b D <.{ X.c.n.p S <.h.N.B.R.I.D.b.w.c.y.r.s.b.y.L.U.B.r.s.D.y.Q u S M u u 3 S ..{ m m b u ' r.` s r Q r.h.n.J.L.d.w.r.r.r.r.r.w.w.r.i.s.i.i.y.;.8.r.r.r.i.i.i.r.p.` 2 g m m I ' i.Y..X+X).L.s.i.8.r.c.c.d.s.y.r.r.1.;.r.i.1.i.m.B.c.r.1.w.y.i.s.c.n.B.;.A / ;.A m Y L.U.'.L.=.%.r.r.=.=.w.r.w.1.w.1.r.h.d.r.r.1.P P =.1.1.2.1...u A 6.L.,X2XL.s.c.v.",
"r.B.1.} m =.L.L.i.=.,.7 8 A p.B.' i.k.B.v.B.Y.Y.r.k.B.M.c.p.i.r.s.p.c.Q * =.i.i.v.p.I ' c.c.p.s.i.c.m.c.s.w.B.s...>.w.h.=.=.w.c.E.E.L.B.L.Y.L.m.s.E.s.Q r.r.U ,.M.B.B.M.M.L...U v.U A ' U =.U =.B.} z b } }.&Xr.M g >.m.r.m.J.b.m.h.s.s.c.m.m.c.d.c.m.m.c.h.h.h.c.v.n.h.s.n.B.h.s.d.J.U.c.s.Y.J.U.'.B.;.>.B.n.I 3 1 s Q %.s 7 } E.r.{ r.1.r.L.X.n.L.D.&X<XU.n.n.[.@Xy.w.I.L.b.w.i.h.N.n.h.h.c.c..XI.y.Z p Q z } R.B.@X$XB.R.Y.N.w.1.a.%.W / ' w.h.b.N.B.r.h.i.d.8.Y ` h.'..Xh.y.i.R.J.' { R 7 r [ [ [ a.a.B.d.1.=.m.y.;.%.A u %.y.=.Q N N b u b ..w.s.h.A 7 z g g $ f y.W.%. .h.<.R.D.8.y.w.w.f.r.r.y.s.d.d.h.b.a.a.d.D.W.=X$Xa.r.d.d.a.d.d.a.a.y.a.s.a.d.i.a...z I w.J.d.m.m.c.[ u / 8.y.[ y.).1.` y.).` V y.E.D.8.W >.d.w.s.i.1.u 6 S [  X&XW.'.E.8.S r G h.b.J.=.m.}.W.B.s.'..X;...Q Q i.h.%./ z 9 M r.c.f.8.r.1.J.$X.X[.+Xc.[ h.<.a.).E.m.D.m.D.c.s.X.r.B.h.c.8.X.:.r.s.=.p 2 * 3 p u p m 9 ' b & 9 7 b s.w./ u b w.Y.J.B.E.m.i.1.8.r.y.r.r.r.y.s.d.s.s.i.y.1.r.a.i.s.s.s.s.c.c.8.z G { ..D.|.,X.XE.E.Y.L.h.i.8.i.B.B.h.i.r.y.h.r.i.L.X.g X.1.r.i.r.8.w.w.8.;.r.y.D.;.A Q / A c z c.'.D.c.X.I A I >.i.4.=.>.w.r.1.1.r.r.>.=.p.1.s.'.&X|.E.E.=.A g.L.OX&Xc.*.r.i.p.",
"r.-.u 7 g B.,X|.E.s.U U } 0.L.B.B.V.B.V.c.p.p.k.c.M.v.M.M.v.v.c.c.p.c.} = g i u -.|.Y.c.=.r.1.p.h.h...=.h.r.} s s 1.L.m.=.s.J.J.v.i.1.i.s.p.p.c.g.E.B.-.p.c.,.s.B.M.B.v.M.Y...' s.L.s.-.r.v.1.B.B.Q ..B..X|.B.p.b r y.L.c.c.m.m.n.h.h.B.D.B.c.c.c.c.n.n.v.c.c.n.c.c.c.h.d.m.m.i.c.c.y.J..XL.m.U.@Xm.' >.L.Y.s.R 7 b S g Q %.c.&X..2 Y L.c.s.B.n.B.r.X.s.s.X.r.W.&XJ.w.X.=.I. XN.B.N.b.h.h.c.c.c.B.L.w.h.N.s.>.b.3X=XL.%.Z X.d.=.a.s.B.w.;.s.c.W.;.w.s.y.8.B.s.<.;.X.1.s.E.h.b S $XJ.` W %.{ / M =.;.} L.$X).8.S } s.y.d.y.A b 1.a.W } N A 8.W A / } =.G 1 r b ..=.G W ;.>.X.Y Z G R.I.y.w.w.a.w.y.y.a.s.s.a.a.a.d.8.h.R.L.L.J.w.a.a.r.w.s.a.w.w.y.s.d.i.d.c.>.z g L.).N.i.b.<.b X.d.X.} s.[ >.W g 8.}.N.S i.=XR.a.<.} <.a.y.a.w.s = M Z / }.W.E.R.w.W f z Y R Q =.S m A A I L.}.8.R d.B.X.r.B.=.D m S =.d.r.8.d.B.;.w.{ ' r.E.U.I.,Xb.h.h.8.w.m.I. .` J.b.r.8.%.X.r.8.;.=.Q g 7 z Q A S m z Q z b r m A s I =.' V b ' m.L.M.B.J.h.r.1.w.i.i.i.r.s.s.s.i.r.r.y.i.r.s.s.s.s.s.s.s.y.r.>.S G 8.m.B.W.E.s.r.c.B.B.i.s.1.r.c.c.a.r.r.i.i.w.h.B.V & %.c.h.p.r.r.i.s.s.s.;.A / z p S m u { y.E.'.c.d.8.w.=.} } %.w.i.w.1.r.r.w.r.r.w.w.r.r.r.M.'.|.|.&XT.m.,XOX'.B.' Q ,.1.1.",
"r.O.A r.B.&X!.r.=.E.E.E.}.}.E.c.v.p.k.B.Y.B.v.M.B.L.v.M.L.B.s.| p.s.L.c.7 7 g U p.s.s.Y.c.U m ..i.>.' h.>...A 3 s Q c.L.).E.Y.c.c.i.r.p.s.i.i.c.v.c.' F 1.p.1.C.M.v.M.c.v.L...' ,.p.=.1.'.B.L.|.d.1.E.Y.).B.d.h.G A h.M.B.v.d.b.h.c.M.L.D.c.c.m.n.c.c.c.c.v.v.c.c.h.h.h.d.c.h.r.B.s.>.E.E.U.L.{.B.;.A %.d...A u z G I G B.,X;XY.=.B.,X-XW.B.r.p.d.>.i.d.Y p 1.,X@Xh.8.I b ;.U.).J.h.8.<.w.s.d.s.i.R.r.D.R.s.D.>Xm.D.w.w.w.<.b.y.h.N.b.>.Q %.N.J.f b ' %.w.8.%.I Z W w.a.D.d.Q { b.X...s.X.} >.N ` c.J.@X).<.} c.1.1.;.y.m.y.y.c.h.R m A r.[.I.E.R.I r g u V W d.B.B.J.N.` ;.W b Y f.h.w.<.d.J.w.d.s.s.i.i.i.a.i.a.r.d.8. .r.d...%.w.i.y.r.8.w.d.s.s.a.a.y.8.G 1 <.)./  .[.I.;.[ J..XX.;.W.B.J.a.b.[.[.w.a.}..Xd.R.[.W.N.y.8.y.w.W N b b y.R.;.S z N p R c.i.X.8.n.>.' I g u ..Q u b ' X...b.E.J.@XR.d.s.c.N.h.f.8.f.u.S r D y.X.>.}.'.R.<.X.d.D.J.S m d.a.<.r.y.Q s.B.X.z 7 u A m A B g M m u S G I ' ` ' =.' s g A 8.E.Y.L.W.).i.r.8.r.i.s.i.y.p.s.i.r.w.w.r.i.r.i.s.y.r.r.r.y.d.d.r.S Q Y.L.r.U.B.y.i.c.c.c.r.r.;.1.i.s.r.y.i.s.r.1.i.i.R I E.L.m.i.w.r.i.i.r.c.Q * u 3 3 g 9 7 g 8.B.1.X.r.r.J.c.i.=.' ' .. .U %.1.w.w.r.i.s.p.i.,.1.M.L.E.oX.X`.(.Y.B.M.r.c.i.p.p.",
"-.c.c..X&X}.s.' i p.,XM.P.B.s.c.L.L.E.B.v.c.v.L.v.E.r.H U ,...* } p.M.-.7 ..s.i.v.s.i.' s.-.Q u Q g } B.7 2 u b R ..i.h.E.m.c.c.g.v.m.c.s.c.c.g.c.v.A r r.B.p.Y.M.M.v.v.v.B...Q i.' A ..v...M.E.s.=.w.' h.D.m.w.h.d.L.s.n.M.m.B.c.c.M.B.v.s.c.B.m.c.h.h.c.c.h.s.c.h.c.h.s.d.h.y.c.1.r.Y.} 1.B.D.d.s.w.s.m.r./ g S 1.B.W.$XL.B.s.d.E.U.'.D.8.c.d.n.r.E..XU.s.U.E.h.U.c.A b ..w.c.d.w.8.r.d.h.s.r.w.J.b.h.B.n.B.,X;X@Xd.y.a.;.b.N.c.d.[ G z z R z r ` h.d.w.'  .G Y %.%.Y =. .S ..<.w.d.8...X.A Z m.D.1.G W ` G %.w.c.Y.c.a.d.d.=.d.a.Q h.@Xd.N.;Xw.I W d./ ` D.Y.=XJ.i.X.9 Q  .w.$Xd.w.N.h.e.f.e.d.a.w.8.8.r.a.a.d.a.h.<.X.y.1.I 1.y.s.d.s.r.w.s.d.y.w.d.i.X.g p J.=.> R w. .} X.h.Y 7 } h.N.R.5X@XJ.r.<.;X;XW.I.W.).I.d.a.h.b.d.h.h.` w.=Xb.;.p p N G y.1.X.)..Xn.>.m.B.i.=.X.Q A ' ..Q G B.,X{.U.1./ X.8.d.8...f.U.u.1.Y b ;.S b D.r. .h.n.y.d. .Z A w.r.N.R.h.c.y.L.c.S a N A p ..{ ..1.{ Q ..y.i.' } h.M.w.A A G w.E.L.J.Y.Y.w.w.r.i.i.i.y.y.r.i.i.i.i.y.i.i.w.r.y.r.r.r.i.a.r.i.-.* A +Xs.d.'.B.w.r.a.d.v.r.r.1.r.s.i.y.i.i.i.r.y.r.a.s.m.$XL.m.s.r.i.p.r.8.;.g > m M u g A Y A A z 7 g M ' ` V R w.w.} I m A %.r.r.w.1.1.1.1.6.,.1.s.s.6.i.g.M.s.A.B.A.M.Y.Y.T.E.",
",.}.!.E.E.Y.c.=.I 1.B.-.G.M.v.|.!.B.M.r.c.M.M.v.L.B.I = 2 A ' 7 m Q ,.Q m '.|.v.B.M.s...s.M.p.' s.` 1.s.s m V A ' Y.E.1.1.c.M.M.c.v.m.c.c.v.m.v.L.'.4.' c.E.v.c.M.B.M.B.v.B.,.U ....Q U =.,.B.s.m %.L.J.D.w.1.i.s.i.c.c.m.B.D.c.c.c.c.c.h.h.c.v.h.h.h.c.c.h.s.s.c.c.n.c.s.s.c.h.c.i.s.B.} ..s.p.8.y.c.c.B.n.} g b c.W.L.i.{ c.m.I / ..=.I { L.r.r.d.'.c.J.U.+XU.r.a.X.g z / X.d.1.w.s.N.D.m.d.a.b.a.%.} d.D.s.L.y.<.w.>.w.r.b.d.b.8.z s m f N m 1.E.E.N.%.Y %.Q R X.G u [ ` Y %.X.W R G f Z Z %.3X` g N h. X%.[ w.J.>XB.d.b.y./ <.8.I.<X8.f / Y 3 w.N.d...w.W. XI.y.<.` X.&X Xf.<.n G w.e.<.w.j.y.y.w.8.w.a.s.a.n.w.w.;.;.1.' G y.r.8.w.a.y.1.8.y.y.8.s.h.1.z N W g M [ V [ b.N.y. .X.b.R.@X$X$X$XE.E.J.$XI.a.d.@XD.y.w.i.s.8.>.1.N.B..XD./ %.W z V h.E.1.r.R.h.N.1.h.B.c.s.d.s.Y.Y.U.B.1.D.c.G m x Q f.1.9.r.d.l.:.=.L.n.8.u.d.=.J.Y > %.<.G } / g G ).;X.XD.;.y.:.D.d.K M Z a B n.0.r.8.[ d.y.h.v.i.w.d.h.r.i.r.1.D..XW.Y.E.B.1.w.y.i.i.y.y.y.r.r.y.i.s.s.s.i.8.r.i.i.i.s.d.s.r.i.;.3 I &XD.)..XL.m.B.c.L.{.B.y.y.s.s.i.i.s.i.1.8.r.w.y.h.s.c.L.c.r.1.8.r.s.h.' p u g M z M } { W.y.M 7 i u I s 7 s G ` =...b ' i.B.h.r.w.>.>.p.r.1.,.5.1.>.1.>.r.s.B.M.s.r.i.4.r.r.",
":.Y.B.B.!.v.1.} A ..A ' B.M.v.'.s.=.,.=.c.v.k.k.|.r.B ....i i i A i ' Q g ,.A g ..v.p.,...Y.B.v.J.B.N.%.` y.} ..m.h.` =.E.|.s.p.B.v.c.B.B.c.c.B.L.m.m.L.M.v.B.M.c.M.c.B.c.M.r.I } Q Q r..X|.E.;Xm.L.L.Y.Y.n.r.i.s.=.1.m.c.s.m.h.m.c.h.h.c.m.c.s.i.d.c.m.n.c.h.h.c.c.B.n.s.s.n.m.s.s.8.i.B.i.y.c.s.i.L.U.B.y.G u U n.E.'.y.u ' 1.z 7 K 1.s.n.D.U.L.E.D.m X.d.n.[ =.} I r p %.c.a.<.r.h.N.c.s.h.m.h.s.=.[ ` g r S [ m y.i.i.c.c.h.D.y.z 3 s 9 Z d.[.B.G / m 9 V z W b b Z / ` ..Z W [ ` c.1.b / [.1.b D.[.E.D.I ' L.y.%.g %.[.).D.b.J.,Xh.p g I Y ..s.B./ z I.&XN.J.w.N.8.1.r./ 3 t W d.e.;.a.y.w.y.a.s.d.h.c.h.a.h.a.n.c.n.m.=.` 1.w.w.w.y.w.r.h.r.h.8.w.b.c.b r p z b u R W.D.i.c.D.c.}.<X@X$XR.D.c.J.<.{ ..i.J.R.r.1.s.c.y.r.m.d.>.c.D.I R ` b y.%.i.A ..W.X.<.[ ..' r.r.1.J.d.i.c.=.1.i.8.m 2 g z [ y.X.s.N.s.:.:.D.@...,X+X@X;X}.I.%.` N m S } =.h.@XY.B.b.r.8.E.~.{ / n.d.) d.;./ 0.W.+X'.n.c.>.B.r.r.a.' s.r.i.Y.W.B.J.L.r.>.r.s.s.i.y.y.i.r.r.w.w.r.y.r.r.1.r.i.i.i.s.s.s.r.h.i...%.{.}.Y.}.E.L.r.S Q s.w.>.8.y.r.1.r.s.s.s.i.i.r.y.1...8.{ } ..%.=.%.X...u 7 A z Q ' Q ..L.U.8.B.X.m A w.R g g V s u b m ' r.h.r.1.4.w.4.g.p.i.i.r.4.4.r.c.1.6.=.6.1.,.,.=.>.1.",
"} }.i.,.r.} m y u | x.v.T.A.1.1.} F B.L.m.p.4.|.&X'.}.3Xv.,.>...U v.M.m ,.p.g V -.v.Y.B.E.3XB.c.i.c.M.m.v.m.M.v.-.i.m.g.B.L.p.s.M.M.B.B.M.v.v.B.B.v.c.v.m.v.c.g.L.M.v.B.B.M.r.A r.E.E.&X,X,X5X,X-X5X.X&X3X.Xs.r.s.s.s.c.n.c.h.c.c.h.d.h.c.m.m.c.v.c.c.c.c.c.h.s.h.c.c.c.c.c.c.c.s.s.s.h.s.s.d.c.h.c.m.L.c.` g p ..D.1.A b i.X.S 3 z 8.~.G.d.D.W.+XW.:.S d.W.8.X.i.>.8.} >..X.Xm.{ s.h.r.h.h.s.n.c.c.>...b b R Q ;...r.w.m.h.s.B.W.{ $ m X.X.8.'.h...Y b 1 A s Q  .b %.r.8.i.Y.b.8.X.B.[.[ Q b.%.r z a.` Q } 6 X.D.J.B.Y R J.` ).'.m.<.V g s w.B.w.$.h.r.=.[.N.%.S Q Y h.U./ f z X.,X-Xb.y.y.d.y.s.r.s.y.B.d.d.D.c...9.r.8.a.8.;.d.D.8.y.s.8.a.r.i.a.y.d.a.'.<.A >.n.w.G Z ' Z ' s.E.=X=XW.N.d.a.8.r.h.z ` s.s.w.s.b.a.a.a.1.r.N.c.N.d.X.3 r A w.U.+X+Xd.y.r.r.` Z 6 p r 9 s.J.h.>.' A ` h.;.[ z u =.w.b.[.B.' a.a.;.Y Y / [.'.R.Y.'.E.E.L.' A r.%.y.B.Y.L.B.D.L.U.&X.Xr...y.c.;.a.c.L.,X;X{.'.w.i.i.r.1.c.8.s.Y.w.r.'.).m.U.J.r.y.r.w.r.i.i.r.w.1.r.s.h.s.i.r.r.y.s.s.i.r.r.r.y.y.w.i.p.c.L.;.m.W.i.>.i.c.h.y.8.r.1.8.r.8.1.r.i.;.8.r.r.r.w.R 1.} 1.<.>.X.A R p u Q g Q s.1.r.p.M.A ,.s.-.,.-.c.=.c.1.Q Q V 7 g 1.E.C.r.1.i.p.r.r.r.r.1.6.r.1.r.6.,.r.r.r.p.1.-.-.r.s.",
",.,.A B 7 7 I P A i.A.c.M.=.A =.' ' E.x.L.}.r.c.B.'.}.L.i.Y.B.=.g m.4.I E.v.I } L.&X3X.Xp.} A =.'.B.c.C.E.B.r...,.Y.&X'.B.c.g.L.M.M.M.M.v.c.c.M.B.c.c.v.M.m.v.v.M.s.M.v.v.v...I E.;X;X3X-XY.L.i.v.Y.v.E..X).s.i.c.h.h.c.n.c.c.c.h.h.h.c.n.n.c.h.c.c.c.n.m.m.c.c.h.h.s.i.s.d.c.c.c.c.c.n.c.c.h.c.h.m.m.s...m s V r.'.d.A Q ,X.Xc.V X.B.U.W.d.{ y.8.G.D.u.U.W.y.) B.Y.Y..X&X&X&Xc.%.w.i.s.c.d.y.s.i.s.w...Q 1.c.c.i.w.s.i.m.c.h.r.y.z 3 8.Q.U.E.D.>.3XD...b b s..XX...c.E.L.<X,XL.r.D.'.).b.b.Y.D.r.>...f ` %.g 8.D.{.y./ %.<.I I.&XQ ` I N V w.N.b.L.y.m.Y.h.R g b { D.{.9.Q [ ` b.).E.U.D.w.8.s.s.8.d.c.9.L.h.o.m 2 Y d.a.w.y.8.h.>.w.y.s.8.w.r.w.s.1.B.a.c.&XN.4X4XR.h.r.X.Z ` W.$X@XJ.s.a.r.>.h.a.y.Y i.).1.2 b 1.d.r.r.y.a.w.d.s.r.;.4 z ;.D.=X>X8.1.r.d.r.c.w.X.Z g N S Z ' w.r.N.h...R.m...S <.d.b.y.W Z w.a.[ D.b.J.$XR.L.i.i.d.L.E.L.E.&X3X}.c.r.i.c.B.B.&XE.m.y.r.J.B.} w.B.'..Xr.G Q I h.B.8.w.i.=.r.1.s.c.E.U.L.'.D.r.r.r.r.i.i.s.i.r.s.s.h.s.i.y.i.i.r.r.r.r.r.r.r.y.w.1.r.r.1.w.=.B.J.r.>.i.d.s.i.r.1.w.1.=.1.=.1.%.r.X.y.>.} ' X.1.r.d.>.r.r.} / / Y.k.U ..M.c.B.E.E.1...U { M.Y.}..Xc...} -.>.=.-.'..Xm.>.1.r.r.r.r.6.r.i.s.i.1.i.1.x.c.2.r.x.p.p.c.s.r.",
"Q U g A m ..c...g p.L.c.c.Q u ..x.r.=.i.m.p.Y.c.Q 4.M.1.' -.' Q ' r.>.=.c.$.Q 1.E.L.1.Q g 7 A c.E.B.s.s.m.B.g.4.E.|.'./.}.E.B.r.M.v.v.v.c.c.v.M.M.v.v.m.m.m.m.m.M.s.B.s.s.s.} ..Y..X.X.XB.,.i.s.r.i.>.s.c.d.i.d.c.c.h.c.c.c.h.c.h.c.c.m.m.c.h.d.c.c.h.c.c.c.c.h.c.d.s.s.s.s.h.c.d.s.s.h.c.h.d.h.h.n.v.i.{ z 9 s =.i.B.J.m.B.` ` z y.-X+X.Xc.A Q A r.[.U.;.N 9 S L.E.J.E.W.L.B.=.1.B.L.p.w.c.m.i.h.%.i.b.B.c.w.w.h.s.s.s.c.h.r.G 9 > 9 =.U.Q.R.=.=.i.[ ;.8.A w.).N.'.+X.X8.J.b.a.w.Y.[.D.D.[..X$X X).;X}.b.%.G =.&X&XB.>.1.b.Y. X .I Y.w.%.b.m.e.c...<.b.h.>.f g  .[.,X8.g =.N.b.y.{ ' n.R.u.8.d.y.a.w.d.I.D.g + * f m ` D.d.X.c.w.>.d.h.w.w.i.r.w.N.i.X.=.y.1.3 y.B.c.)..XR.B.W.$X.XL.y.8.r.y.w.s.w.y.a.r.;.Q f 1 1.D.d.w.i.h.y.s.u.r.y.g z  .c.+Xd.A Z ;.w.B.[.E.w.V Z ` z b } d.h.a.X.y.b.%.%.b.r.8.w.w.} 1.E.h.B.Y.[ D.$XD.c.i.r.m.J.h.n.W.'.m.d.r.r.s.d.s.r.d.;.h.'.'..XE.=.).).U.J.} 7 3 = Q =.1.s.s.c.B.s.J.Y.U.B.L.Y.i.>.r.r.i.i.s.s.i.i.s.s.s.i.r.r.r.i.r.r.w.r.r.w.r.w.s.s.s.i...X.r.Y.i.=.=.1.8.1.1.1.%.8.-.=.r.;.w.8.%.G } A S V >.i.1.=...p.>...} s.1.} U i.E.L.v.M.r.s.;...p.L.E.&XE.V k p.c.>.r.v.E.}.s.,.p.r.-.1.6.1.4.p.p.r.t.c.L.=.Q | p.6...r.r.r.r.",
"| ^ 5 m 1.A.1.u *.L.B.E..Xc.=.*.L.Q 6.B.M.s.v.v.r.v.E.,.g 7 g i.}.v.E.B.4.A i ,.M.,.g 7 V $.v.E.M.c.i.r.i.i.i.i.&X&X'.|..XE.L.p.v.v.v.m.m.M.B.B.M.M.M.m.v.v.v.v.B.v.M.s.v.c.1.v.|.'.v.d.s.p.v.c.s.s.d.D.n.y.s.s.c.c.h.c.c.c.h.c.h.c.n.m.n.c.c.h.m.c.h.h.h.h.s.s.c.c.c.n.c.c.h.c.c.s.s.c.n.c.c.c.D.B.m.m.r.I s g 1.i.s.` A G 7 s / d.<X{...p A D.{ B.U.Q 9 N g { m.B.B.;.1.d.` g ' >.i.h.n.s.r.h.1.` D.c.w.s.h.h.s.h.s.c.h.s.>.3 s m g I d.a.d.w.8.1.X.X.` R ;.` y.@X;XE.[ d.a.a.b.8.d.w.<.L.R.c.` b %.a.;.1.c..X[...r.J.I.D.L.E.V u ~ N %.h.s.B.I.w.c.g.y.<.F ;.;XD.{ u r w.y.r.r.[ X.B.I.d.y.y.s.n.y.d.n.9 X 9 p m u 2 ;.W.8.:.J.h.;.c.b.h.r.i.y.c.S b N.[.>.b Z w.J.D.B.J.B.L.'.N.y.y.i.y.i.h.i.h.d.a.W / <.%.` a.a.w.w.1.r.s.y.s.d.w.z f m r.L.' m > ( R.'.{ { p N %.i.1.c.n.i.E.d.` 8.I.[.w.r.c.R.I.d.` s.=XL.}.1.` I.).c.<.y.y.m.m.1.<.i.r.=.8.i.s.y.r.r.r.>.X.s.Y.Y.E.W.J.;X<X&XE.%.z g s g M s.d.=.c...%.c.s.i.m.B.L.h.i.i.i.i.i.i.y.y.i.r.r.i.i.i.i.i.i.i.r.w.r.r.w.8.1.i.i.r.r.' } c.B.y.1.1.r.w.1.8.w.1.w.>.1.i.1...8.c.Q z V c.s.i.8...X.d.m.%.X.} ' g 7 7 ..E.L.,...V Q U i.E.c.c.E.' m ..Y./.'.}.Y.c.Y.p.1.s.1.=.1.6.r.r.r.,.1.c.B.=.d * 7 Q r.p.p.p.r.r.",
"=.=.P ..-.U P -.p.B.c.B.-.E v.'.,.$.L.B.M.B.M.L.C.}.;X=.u g ...X,XE.B.s.s...I B.|.E.i.=.r.m.B.i.L.-.A m V m V I L.Y.L.}.E.g.v.c.c.v.M.M.B.B.B.B.m.m.m.v.v.c.c.c.v.v.s.h.M.v.v.E.M.v.r.1.i.c.v.i.h.h.c.N.s.1.c.B.c.c.h.h.c.c.c.c.c.c.v.c.c.c.c.n.m.v.c.c.c.c.h.s.c.c.c.m.n.c.h.h.c.d.s.n.B.c.c.n.L.m.c.h.%.m b ' h.h.w.V ' D.m.d.n..Xn.Y 9 z =.y.1.W.y.M p m u I n.B.B.X...8.Y s m ' ' } i.s.r.c.W & =.m.s.c.d.r.s.c.d.v.h.c.;.2 m c Z :.n.W Y  .h.L.} R A =.E.}  .m.I.d.8.).L.r.y.Z / >.y.Y.D.;.p Z X.G Y r.y.B.' f z A ;.1.8...b u ` %.h.4.N.2X%.~ w.m.w.g.[.B./ 1 u g p w.m.b.y.i.Y.[.B.y.y.a.b.w.d.Q.` O g N G g ;.S z n.y.N s.).W.;.b.R.a.h.D.c.. Z m...S I p } L.=.[ h.b.I.N.y.8.y.s.y.w.y.r.c.a.w.f N s.L.[.J.;.>.d.i.y.i.a.y.D.;.9 / =.J.;.u 9 g S D.1.{ $Xy.L.B.i.a.s.>.D.$X%. .w.[.i.Q i.W.I.d.Y.I.E.B.m.' S w.R.i.h.w.y.y.r.i.s.w.=.>.c.s.y.r.r.r.r.r.s.p.w.r.s.s.s.M.n.E.Y.s.` A S V A A h.h...8.I / n.....B.m.D.N.s.i.i.i.r.r.r.y.i.r.i.i.i.i.s.s.h.s.r.w.r.y.r.w.w.1.r.w.8.%.1.L.s.r.1.8.r.w.8.r.w.i.r.w.w.1.y.b A -.I s ..B.r.=...} p.Y.r...Q V 3 g g g Q ,.' I =...' A s.|.M.c.i.k A ..r.c.C.L.B.Y.'.s.-.r.1.4.s.r.s.i.r.6.p.c.1.y * i A P ..p.c.r.' C ",
"1.Q Q A.A.r.r.L.T.1.s.|.s...c.c.B.m.Q I L.}.'.B.|.}.|...g Q s.C.'.L.>.v./.E.E.Y.=.=.i.c.B.m.M.M.c.r.Q g m R ' Q c.p.s.Y.C.s.s.p.v.M.M.M.M.M.m.c.c.c.c.c.c.m.m.c.s.c.p.c.M.s.c.c.=.i.s.r.1.i.c.c.h.c.b.h.y.1.m.D.c.c.c.c.v.m.m.v.c.c.h.h.c.c.v.n.c.h.d.h.c.c.c.h.c.d.s.h.h.s.s.c.c.s.c.D.J.m.c.m.m.N.n.r.G 2 g 1.c.s.c.c.'.B.=./ I '.y.g p K X./ m 8.A { ' g M } Y ....-...I A r I B.J.>.8.n.c.d...$ R v.d.i.w.s.c.n.s.c.d.v.%.9 z S :.L.8.m Y ` }.@Xm.w...[ 1.m.W.a.>.X.%.r.8.<.` R %.b.).).B.m.y.w.=X>Xc.[ Z [ [ r b N.W.8.N.<.s s ..N.).h.m...` ;.y.>.m.b.;.%./ G ` G  .J.c.8.i.d.W.).n.a.r.i.y.u.d.W.M 6 / 3 m ` d.X.9.c.M r s %.'.z y.m.` [ b.c.f W <.;.W R S W B.../ y.w.h.i.a.i.r.y.s.i.8.w.y.y.r.s g h.>X'.E.i.w.h.d.d.d.d.y.E.<.6 c..XE.=.x g z / =.Y D.W.;. .I %.b.r.i.i.{ p =.$XW.z ` i.i.1.h.d.W X.J.9 2 b M y.X.r.s.i.d.r.r.d.1.%.i.r.r.y.i.i.i.r.8.r.c.s.r.s.w.=.r.d.c.i.>.>.w.=.Y V V %.s.w.i.s.s.B.{ / J.c.c.h.1.i.i.r.r.r.r.i.a.s.i.r.r.r.i.s.d.i.w.8.r.p.y.i.y.w.r.r.r.i.c.W.s.>.=.1.w.1.8.w.1.r.y.r.w.w.c.m 7 2 2 i 1.G g ' ;.-.y.>.S I p I i...' A Q Q A ,..Xr.s.1.Y.&X}.E.=.U ......-.} ..m..X/.r.=.1.r.p.s.6.p.6.p.s.c.p.C - u 6.L.1.' Q Q m u 2 ",
"V m | E.B.M.L.L.:X-.c.v.' =.s.L.c.v.B.r.M.Y.L.'.;XE.B.U u ..C.>.-.' ~ L.L.s.,.I I m -.c.L.i.4.v.M.}..XT.C.E.E.m.L.M.Y.Y.c.s.v.B.v.M.M.m.m.M.v.c.c.c.c.c.v.M.M.c.c.s.v.v.c.s.p.i.B.v.c.s.c.M.v.c.s.M.J.m.B.s.n.s.h.c.c.c.n.M.m.c.v.c.s.s.c.c.c.c.s.s.s.s.c.c.h.s.h.i.i.s.d.s.d.b.m.n.B.Y.L.h.y.y.s.h.s.=.V 9 V 8.w.s.B.D.'.r.w.>...8./ / =...=.y.c.'.=.=./ ..r.1.w.R r s u u ' >.Q X.i.y.' M m A 7 } '.L.>.h.h.v.c.h.i.s.d.n./ 9 I 1.r.X.z A 8.w.E.1.r.h.).J.c.[.>X=.S I G Y ` 8.` d.B.I.E.c.a.m.d.N.$X[.m.&X4XJ.R.<.c.,XL.h.,XJ.` R 4.h.r.I w.s.J...J.h.h.N.%.' w.b.c.X.b.a.y. XB.J.}.E.b.d.w.w.9.U.y.Q 4 r A A I y.' ( .Xn.> 7 r 3 b > %.Y > 7 <.s.` s / N.;.;. .[ D.r.>.r.<.1.w.a.a.w.r.d.d.w.y.c.s.;.` h.'.D.1.n.s.w.r.w.y.a.d.h.y.' p y.B.%.r.f.r.b ;.h.y.8.R z 9 R Y.$XJ.[.J.X.a.J.c.r. ./ <. X}.b.[ { 8.[ 9 =.<./ W.c.y.h.1.s.y.r.r.1.w.J.s.c.c.h.y.w.r.i.w.p.i.w.w.1.8.s.1.i.i.>.>.1.=.} >.w.J.}.}.E.'.Y.1...} L.h.d.s.s.i.y.r.r.i.i.i.y.i.r.r.w.r.r.i.i.r.8.1.r.i.r.r.i.r.8.y.8.w.w.v.r.1.8.i.s.r.r.i.r.w.r.y.i.r...A u m s p i.....h.r.>.} V g g S D.4XY.c.r.L.M.1.-.A g i.M.E.}.Y.B.-.} Y.Y.i.c.Y.Y.'.E.s.=.1.i.i.p.r.1.r.1.p.p.s.r.l 5 } M.x.p.p.E 2 7 i V ",
"u m ^ p.r.v.'.,Xs.l p.=.' E.A.`.c.E.|.3X.XY.3X4.A R ..i 8 1.oX' $.Q ' c.v.=.A r.r.U 4.c.Y.B.Y.3X3X;X&X;X'.c.c.E.&XY.Y.s.1.c.v.v.m.M.M.v.m.B.M.v.m.v.c.c.c.M.v.g.v.i.L.v.p.B.c.v.c.s.c.v.v.v.M.L.B.m.r.} ;.>.c.c.h.c.c.c.v.m.n.h.c.c.s.s.c.c.s.p.c.c.c.c.v.v.c.s.i.i.s.c.n.c.h.c.n.c.M.D.s...I G ..} Y m g b G ..n.h.c.L.'...y.J.'.L.U.L.n.E.-X,X-X+X&XL.Y 1.c.{.{.../ ` ' ;.w.v.w.I I Y u u V s m E.&X=.I p.s.c.h.p.i.h.v.M.S 7 y.'.d.;.<.B.E.J. .r V N.J.G Y.3Xw.Z 9 f g ` ` W ' h.s.y.y.r.d.y.h.a.%.y.m.B.'.).I.;.b.J...N S [ %.r.m.y.i.Q r.$XY.Q %.s.1.%.h.1.<.b.D.' 8.w.h.J.r.L.=XI.y.i.i.b.d.b.Q X 9 b M X.N.U.D.B.8.M u p V =.m 6 9 3 r r A %.s u 1.X.` s.h.y.E.m.y.8.w.<.r.w.w.r.y.y.r.y.r.8.r.i.c.R.N. ...y.w.8.s.d.s.y.u.B.m 9 u M x 9 z f.I.n.:.d.n.f.<. .W N.@XJ.y.I.I.E.;.%.p [ ;./ L.[.J.m. .w.J.;.w.b.G <.B.G Z / i.i.y.r.i.s.c.B.i.s.s.s.p.p.s.d.p.1.8.y.w.w.r.8.w.i.i.1.>.=.....s.c.3X+XE.h.X.{ =.h.s.W.s.w.8.c.s.i.i.i.a.i.r.w.r.r.i.a.s.s.i.i.r.1.1.r.i.w.w.y.s.w.s.8.,...1.r.>.w.s.s.1.1.r.w.s.i.i.s.;.* g g %.=.I B.'.Y.B.%.Q A s m r h.4Xw.1.r.1.p...1.E.' g p.B.E.L.=.} ..s ' } ..C..XE.E.v.=...i.p.1.i.r.6.p.6.s.6.1.s.Q ..i.-.Q 1.p.I u i V A ",
"u g 1.c.r.E.OXx.Q ..M.p.r.s.T.}.Y.B.E.|.}.E.E.Q 2 1.r.m i Q A ..E.k m >.v.s.E..XL.B.,.E.v.s.oXY.c.E.E.L.i.,.v./.E.L.m.L.s.c.c.M.C.B./.s.v.B.v.v.m.L.v.B.L.c.m.c.s.c.c.s.s.s.s.v.s.v.v.c.M.c.1.s.c.n.1.G m ..h.J.c.c.c.c.n.n.c.h.s.s.c.c.c.c.s.s.s.c.c.M.c.M.i.c.p.B.B.d.n.B.h.J.c.c.D.B.r.R { =.} m A V V G Y i.h.s.c.}.E.I X.Y.D.w.W.c.s.h.J.m.b.m.h.s.=.n.E.Y.d.%.c.m.d.m.r.1.' } J.R 2 b V s M =.M M 2 { s.y.r.y.d.n.d.p.A > y.r. .c.I.1.D./ X.I.;XJ.;.w. X XS 7 R  .I D.G r S ` =.` 8.D.y.d.b.>.m ;.I.b.n.r. .s ` >.G 7 G Q s a.s.J.Y.m.c.}.L.G ..h.r.a.y.a.h.h.w.%.a.m.r.} n L..XJ.m.w.c.y.B.%.$ z 9.X.[ s.1.X.d.u.{ 1.a.;.G d.=.Q N f S s / R r b r.' ..b.8.=X=X8.w.w.w.8.r.y.y.r.r.r.y.y.y.y.w.w.y.a.8.%.<.r.y.r.a.a.a.h.9. .6 3 u 9 b 9 ;.=XI.D.L.I.&X3XR.w.c.&X'.a.8.w.h.s...i.8.8.` =.).R.D.W b r.Y w.h.<.G w.X.z [ N s.y.r.s.i.r.y.i.y.i.s.s.y.y.s.d.i.i.r.r.i.s.i.r.r.s.r.X...I S I ..n.B.y.i.' Q R { i.1.I -.i.i.w.i.i.r.i.p.r.w.s.s.i.y.y.r.r.r.i.i.-.i.p.r.i.w.w.w.r.y.r.8.w.r.y.8.d.r.=.w.r.w.i.>.c.1.c.I 7 g A i.d.r.m.8.' S s s 9 m b r.;X&Xd.r.v.p.r.....v.B.-.B.Y.Y.c.c.L.=.i m 8 m C.;XY.B.E.c.r.r.i.i.r.r.s.s.p.p.p.p.p.p.i.U g g C A C Q U g h ",
"y Q v.E.E.E.r.A m M.L.c.B.M.'.&XY.B.B.v.s.p.,.u V M.-.m Q ' ..E.}.>.=.-.r.L.'.Y.M.v.1.B.r.' ..u = s M.|.s.Q s.&X'.E.L.B.c.B.B.B./.,Xc.1.'.M.v.C.E.m.v.v.L.M.v.B.c.v.s.s.v.c.s.p.c.v.c.p.i.' Q ,.=.c.{ Y >.1.r.h.c.c.c.h.h.d.d.d.c.l.s.s.c.c.s.s.p.s.s.s.s.L.p.r.B.c.c.n.c.m.B.h.c.d.R.w.' } -.8.Q m m z g M ` c.n.m.+X.Xs...s.L.m.s.).r.-.>.s.p.y.r.y.B.n.s.;.y.r.w.B.h.w.c.c.i.g ..L.s.S A =.1./ Z z u m n.B.p.y.d.y.d.c.D.m p ) I X.L.D.y.d.S r.[.r./ %.,X$Xr.G A y.W.,Xm.g  .>.R.J.h.d.m.I.h.1.G 6 ..R.m.y.<.f p } N.G g 1...$.y.h.Y.w.e.m.i.R u ;.J.m.w.<.y.g.w.c.m.w.h.J.w.%.I.L.m.h.w.c.c.` $ 6 y.D.%.W I.$X8.y.>X,X>XU.c.I Q m b z N W r G Z u b ` ..h.b.J.>Xd.I d.d.1.a.a.a.i.y.r.y.y.i.a.i.r.w.w.y.w.8.r.y.w.y.d.s.a.h.{ 9 z z z S z T Q.W.c.Q ..@X=XD.X.w.).,X.XW.J.r.w.Y ` c.a.J.s.[ { N S b R >./ r.1.c.b.y. .` [ N v.h.s.p.i.r.r.i.r.y.i.i.y.y.s.s.i.y.y.i.i.i.r.r.c.s.c.{ G A u g } }.W.=.S z G 1.i.r.p.h.c.' ' s.r.i.i.i.i.s.s.s.i.i.i.a.i.r.r.r.i.>.i.r.1.r.8.y.w.w.w.r.i.s.y.w.-.y.y.r.i.i.r.i.s.s.r.=.2 p N s ` =.Q } u g 7 u ;.%...i.&X,XB.Y.c.r.v.|.Y.M.'.s.' M.v.v.Y.E.p.A g ~ A m 4.E.L.B.s.4.>.1.r.r.i.p.p.p.p.p.p.i.i.i.1.P u m g m C ,.,.t.P.",
"u 6.B.x.x.1.' | r.E.' Q 6.c.OX|.'.'.L.c.4.4.} g I c.=.U 1.c.'.L...Q >.M.L.'.E./.&XE.B.E.c.=.c.g.1.A r.r.} } E.,XL.m.s.i.c.L..X&XB.i $ g i.Y.L.E.1.v..XM.M.Y.C.m.c.v.c.s.c.c.s.v.v.M.v.c.p.I ..s.' ..m { c.X.>.B.c.c.c.h.d.s.d.h.v.c.c.c.c.c.c.v.c.s.c.c.s.L.s.1.B.i.Q w.'.L.n.D.B.h.$X' 2 Q } M s m b r I s.J.B.{.'.m.=.X.X.Q m.Y.).,XB.c.s.y.w.i.i.i.n.m...m r.=.` ;.c.c.v.B.c.m.h.D.' G r.n.$X&XX.;.p m D.B.d.y.c.y.p.d.B.u M 9.B r.=XD.d.u.;.y.' 9 9 m.E.).L.L.>X'.<X$Xm.s r.3X;XB.R.y.A ..%.{ z ;.}.B.w.8.R S m i.$X` / y.[ s.y.h.h.Z R h.1.n g %.i.m.h.g.Y.).'.Y.s.;.y.g.r.).[.b.h.h.c.h.=.7 a b / ' p / U.N.X.=.D.1.=.I Z b Y <.y.[ / w.;.;.1.Y S / c.=X@XW.y.Z Y h.s.a.s.s.a.r.w.w.r.y.y.i.i.y.w.w.w.y.y.w.s.s.y.y.a.d.c./ 6 z Z m I Y X.9.9.X./ c.'.d.L.D.I.[.'.D.D.B.a.=.G [ <.1.h.y.%.8.} >.=.Y.L.N.W.s.D.h.y.d.s.r.=.s.s.y.r.r.y.s.s.r.y.y.y.i.i.i.i.r.y.a.s.i.y.r.r.a.i.B.G 7 m g ..D.Y.{ S z 9 g s.r.d.).}.E.=.} =.w.i.i.r.w.i.s.i.a.i.i.i.r.w.r.i.1.1.y.i.y.y.w.y.w.w.8.1.w.r.r.1.r.a.p.i.r.8.8.w.8.=.p.=.u A A ..c.c.c.J.} =.' >.E.i.1.[.3X'...1.i.,.r.v.1.,.1.m ..E.B.M.Y.V.U u g 1.i.1.B.'.Y.C.r.1.1.r.i.r.r.i.6.r.r.i.i.i.r.r.B.r.*.p.*.| Q M.*X.X&X",
"U M.A.M.E.B.r.p.,XE.P | r.A.'.i.i.s...4...U A s } E.s...=.p.3XL.' A A M.'.'.|.,XE.v.m.s.r.1.E.|...Q p.} R s.'.L.M.c.M.B.}./.E.Y.i # 7 g U E.E.,.7 m 1.=.' I =.M.M.M.s.p.s.s.s.c.s.c.s.s.c.Q r.M.X.p.y.>.r.h.Y.m.c.c.c.c.c.c.c.c.i.i.p.p.p.p.p.s.v.i.s.v.c.v.p.1...I 7 ..L.r.i.E.m.h.c.g g %.Y p g b G Q i.D.} m D.w...G u Q r..X-X$X}.i.s.s.y.i.s.s.r.s.L...r ;.Q Q ..r.r.i.i.} s.c.).G R c.h.E.L.' D.' S d.r.8.r.c.d.d.s.d.A ' 8.D.=XD.z  .a.d.a.h.;.d.J.h.1.c.8.w.h.'.r.6 b .X$Xa.L.%.m S z ..{ M h.J.A N G 3 V r <.%.r X.s.y.e.a.w.w.` Q i.h.a.s w.,Xm.m.&X>X3X&X).E.N.h.s.J.b.Y.h.s.i.J.i.A f ( W A 9 & [ =.Y 7 z  .M 9 9 Y W ` w.i.>.%.s.d.y.D.[ R %.B.Y.J.i.R p ' s.y.h.r.i.r.w.w.r.y.y.y.w.r.r.r.r.r.r.r.8.h.d.1.w.h.s.w.( g M N Q 8.<.s.a.;.G [ X.%.S Z R.J.N.h.y.a.w. .A 9 ;.R.R.w...%.m.&X=XY.3X.XY.I.y.a.Z ` h.a.J.D.c.c.h.s.i.s.s.s.y.y.y.i.i.a.i.y.r.y.a.a.y.r.r.y.c.m.m.f 3 p A s.).L.Q m m V Q r.r.i.L.D.s...X...h.i.r.r.w.r.r.w.a.i.y.y.y.i.s.c.1.w.r.y.i.i.r.r.w.p.h.p.r.r.r.r.y.r.r.r.1.>.1.1.s.r.=.Y M I A J.r.=..X3X).+X+Xh.=.b Q B.h.b.m.i.,.1.Q Q U U ..' s.}.M.p.O.' u G m ,.v.C.'.'.B.v.i.r.r.i.p.i.r.r.6.6.r.r.i.i.r.r.-.-.1.c.v.B.M.XX&Xc.r.",
"=.Y.E.E.'.B.r.=...=.=.B.L.T.s.| i.1.g $...m A A m J.i.' Q I L.E.>.~ i i./.'.&XE.v.B.|.}..X&X&XY.,.i.M.,...C.c.i.i.C.E.1.Q 7 * * * A I A Q ..Q u % 7 g g g m r.M.B.v.i.i.v.v.s.i.s.v.c.s.v...p.p.c.).$Xw.r.L.Y.c.c.c.h.c.c.c.c.h.r.p.k.k.p.p.s.k.s.1.r.i.v.B.s.,.3 1 z %.m 2 X.d.1.h.` * m u & M I U s.B.s.R 7 { &X'.L.D.s.'.,X3XW.L.c.,.i.w.w.s.w.h.h.h.h.V r B.L.c.D.{.J.s.m.c.;.d.1.g 8.D.E.y.u * s.+XU.&Xn.y.y.s.d.c.c.c.c.8.a W.-Xc.S 8.r.%.y.I.E.J...m s u p z } m.} > Z d.U.a.=.N 3 S s.Y.b p Z z r b p r s Z a.Q Y B.).D.m.J.m.)..XB.m.b.r.J. XE.' w.<.R %.W Q } N <.C.a.w.J.C.m.w.h.$.u b m { =.r.Y m =.G g /  ./ G X.d.w.1.8.8.c.i.y.1.=.s.%.r.h.d.%.S I / V ` a.d.i.r.y.r.r.r.y.y.i.y.r.w.w.r.r.r.r.y.r.s.y.w.s.s.>.'  .m ' D r.W.W w.W.c.Z Y S W Z 8.J.J.c.8.w.h.y.` m I Y.d./ 8.[.B.%.I.=.A  .Y G ;.=.N.%.;.h.w.y.;.r.r.w.r.i.h.h.s.y.y.y.i.s.s.i.y.r.r.i.y.r.y.i.s.d.J.8.2 b s ..J.}.h...=.c.p.c.d.i.w.).;XJ.` X.h.L.i.w.i.i.w.r.w.r.r.r.i.y.r.s.c.r.w.1.8.w.r.i.r.s.c.v.s.r.w.1.=.>.=.,.8.8.r.r.8.=.r.=.%.r.r.} r.=..X;XJ..XL.A z S r { =.z I B.y.M.-.A Q I g ..v.Y.E.1.Q r i u } I -.s.c.M.C.B.M.i.r.4.r.i.i.i.r.r.r.r.r.r.i.p.p.r.r.,.E -.p.i.i.B h H ",
"E.;X|.E.M.p.s.1.^ c.A.x.B.B.=.,.M...$ g F u Q } s.'.M.4.-.1.Y.r.i.4...'..XC.E.i.1.r.B./.'.L.Y.Y.'.E.L.'.Y.C.Q I r.L.M.' A g i u m V g g $.*.8 e g U A R ..B./.-.r.s.s.c.v.c.s.v.c.M.m.c.B.s.L.v.E.E.J.Q r.c.8.n.c.c.h.c.c.h.s.p.k.c.M.M.v.c.c.c.t.r.t.r.L.P.i...i 9 r b u u A r ' 1./ r r r R X.g ..J.s.d.D.B.,XB.c.v.$X5X;XJ.i.i.s.s.p.c.i.r.c.c.m.c.c.=.* u E.E.i.s.m.m.Y..X.Xm.U.c.Q s.i.c.r. .p =.-X{..Xd.;.c.y.y.u.d.B.'.X.D W.n.=./ s.c.B.d.w.B.N.r.G / V ;.S g a.} p r [ w.%.6 p z W R.i.Y G ` G b V Z W  .a.J.R.,X$X'.y.I.I.E.$X'.i.s.>.h.r.<.4.G %.w.r.n p r Z Z g.C.<.h.m.g.g.e.%.F 7 g A o.r.y.;.r.h.f g Q z S ' y.8.y.a.a.s.U.r.r.w.i.y.N.$XL.s.8.z g r G y.d.s.r.y.r.r.y.y.y.y.i.a.s.y.w.r.r.y.i.d.w.a.d.s.8.[ W [ d.=.%.1..XE./ d.8.u Y n.Y y.D.W.[.I.h.w.w.i.s.a.' J.W./ Y B.W.G d.d.f 9 m 9 u w.b.b.h.y.i.i.8.d.w.>.=.1.y.s.s.s.i.i.i.i.i.i.i.i.y.y.y.i.y.i.s.s.w.B.{ 1 b V L.&X>.g p 8.,X).B.i.w.c.).s.Q S c.;XL.8.>.s.i.w.r.w.r.r.r.r.1.=.=.>.=.=.1.y.w.r.s.;.' Q I S Q =.8.>.w.r.1.=.=.1.w.8.r.;.X.s.i.>.r.i.D.).L.B.8.-.I Q ` ..h.y.} ' c.8.=.m V -.} Q v.Y..X'.r.' g A V m V $.s.s.s.B.L.v.i.r.r.r.r.i.i.r.i.r.r.r.r.r.i.p.r.p.-.d ..p.p.=.I { l.",
"E.E.p.i.s.p.r.} U ^ U m 1.B.r.p.,.A * 7 V A ..1.m.,.-.r.r.&X3Xc.L.i.c.&X'.r.v.c.M.v.s.B.i.-.v.oX&X}.E.,X|.m.=.r..X|.v.p.M.M...V I I i.1.r.L.V A I A ' L.L.C.r...1.s.c.c.c.s.c.B.s.s.c.c.v.M.Y.Y.Y.'.h.b 1.D.n.c.c.c.n.c.h.s.d.h.c.c.s.c.v.v.c.s.k.s.c.s.L.1.A A 8 Q Q m S V p z i 7 7 8 p } B.} r.'.D.r.Y.&XL.X.V > i.3XE.h.c.r.i.p.1.>.w.i.c.J.J.s.i.m.r.u S w.Q I Q b I m.c.Q s A ` %.L.D.>.{ =.z m @.{ l.D.n.d.u.d.y.u.G.n.z u '.I.Y z :.u.d.w.a.h.).i.h.a.1.%.R ` G N 9 { ;.V 2 g z  .L.%.N N G <.>.R %.B.L.<.d.a.W.$Xm.r.{ %.>.w.;.R b ..%.r.r.I u I >.m.R.%.R ` /.R.h.;.a.h.y.e.y.a.` f f S / 8.a.f X.<X=.A 9 A  .n.U. X&X.XJ.h.B.W.y.Y.I.m.B.}.$Xh.<.h.[ R r ;.[.a.y.y.i.y.y.a.i.y.a.h.N.h.d.d.s.i.y.s.c.8.d.a.%.I N I %.I S u =.D.[ / c.c.Q m p g d.'.R.D.i.8.i.d.8.w.m.[.J.I G D.N.} 7 a.<.Y ..=.W S X.G s { J.R.m.i.B.{.B.i.i.p.y.r.r.y.i.i.i.r.r.y.i.i.i.y.i.s.s.s.s.c.B./ r u ' |.B.G ' / =.s.' g s X.L..Xr.' w.}.$Xc.=.>.i.r.w.r.1.y.r.r.w.=.%.%.>.....>.r.} ' =.I 7 3 1 2 b ' =...%.r.w...%.-.=.;.=.} ;.c.=.b A R L.B.1.r.} / ..d...s.d.r.1.X.Q 7 2 = V s.c.c.;X.X}.|.s.1.,.1.-.U U ..p.c.s.M.M.i.i.i.r.r.r.r.r.r.r.r.r.r.r.r.r.r.6.p.=.g ..p.i.,.v.n.U.",
"s.A.r.r.s.r.x.r...g g U c.B.*.u 2 = g g U } ..=.-...s.'.Y.E.c.m.} g ..c.c.i.c.c.i.L.s.p.-.i.Y.E.E.M.c.L.v.=.' I B.Y.m.C.v.r...p.L.B./.|.c.=.g g A A r..Xs.i...i.E.M.i.r.v.M.s.i.B.v.M.v.s.v.M.Y.E.B.i.' s.m.E.d.c.M.B.M.h.d.n.L.L.v.k.v.L.E.L.B.c.s.v.v.c.u O 8 s I Q Q ;.>.U G b V m g I m m V r.L.r.B.J.%.h.)...G '.|.c.y.w.s.i.i.>.>.w.h.m.s.h.c.m.m.' 7 ;.M.B.} 1.r.8.1.A u ' '.m.{.U.r.m.n.y.8.0.{ z ;.c.u.y.c.U.n.u.W.9.4 q 9.X.g m r.y.u.N.i.r.w.} I h.$XN./ %.B.Q m =.d.s.G Z h.W.s.<.>.z X.a.s.c.J.c.%.Y d.R.J.<.%.I N g R G p f b w.m.1.%.i.%.<.a..XJ.y.w.R.2X<.;.y.h./.[.;X).N.G r V N r.d.9.<.c.o.S g Q n.W.U.E.[.-XR.h.h.I.h.S a.h.i.).$XJ.<./ i.r.s.h.@X[.w.h.8.d.a.d.h.d.d.n.I.).d.h.m.N.h.a.s.b.y.h.%.g r A `  .9 3 p o.8.D Z c.d.y.` ..d.r.'.E.R.B.y.8.r.r.r.s.h.r.G %.h.<.w.%.a.8.r.d.s.d.h.8.S 7 s w.w.X.J.}.@Xm.1.1.r.r.r.s.r.i.i.y.r.r.r.s.s.i.i.p.s.s.s.i.B.r.M z z B..XG A 1.=.c.M./ z r.y.s.B.c.m.c.L.L.i.=.8.s.e.w.i.1.r.w.1.1.>.1.s.m.r.=.=...s r A 9 V S G V M m 9 & i } 1.-.w.w.=.=.} ;.X.R I z g G s.D.c.=.-.} 1.} G w.1.1.1.c.w.m 7 g U v.M.{ ..1.c.B.-.1.B.B.'.'.L.i.r.s.p.c.M.v.>.1.r.4.1.1.6.r.6.6.r.r.6.1.1.1.r.p...V ' i.6.s.V.r.t.",
",.B.p.i.s.v.x.v.Y.A.c.L.M.p.v.u 7 A I g ,.i.g ' i.} m.=.c.' U c.A & ..v.v.c.s.v.M.C.L.i.,.g.B.M.Y.c.c.s.Q u m Q B.v.c.M.,.,.'.|.v.p.E.c.r.=.} ....-.s.E.E.c.s.Y.E.s.1.c.L.M.s.s.c.v.v.c.c.c.h.s.p.c.v.r.p.B.v.v.M.c.c.v.M.Y.M.B.'.E.B..X,X'.s.E.M.i.s.v.r.7 = 7 m m p w.5XW.r.' 1./ A g A R 7 ..c.r.I =.'.n.B.d...D.+Xc.s.n.;.8.n.r.w.h.B.n.h.c.h.m.s.B.I g '.,X).W.'.-X.X&XW.y.'.;.r.U.S Q ;.Q r.U.f.L.8.Z h.n.a.n.b.d.n.r.2 > b Z 2 g Q 1.s.h.y.y.h.i.8.8.W.@Xh.} B.h.y.' =.c.W.X.X.E.w.w.y.N.B.4.s.oXE.w.h.B.).&X).w.` p m p G r.u } %.G 1.B.m.i.h.J.e.h.[.).h.>.a.[ u Y J.h.J.B.E.).%./ r.G W R.B.I.n.8.1.Q X.[.+XJ.J.'. X{.N.b..X&Xb.r.d.w.` ).R.<. .G w.J.>X3X<X@XB.8.>.w.w.w.D.J.J.=.Y R b 8.c.y.w.1.w.h.w.s. .g b / Q Z ` R s ` }.>.G w.m.<.h.b.>.E.[.J.J.s.y.w.h.r.i.i.m.8.<.>.i.d.<.r.s.8.c.;X'.J.h.n.L.Y Z b.[.R.$X3XW.v.i.r.w.i.s.r.s.r.w.w.r.r.i.s.c.s.i.y.y.y.i.d.c.w.s 7 ;.c.' V Q } ..E.).D.h.X.%.s.W..X).1.r.B.B.1.a.y.X.y.1.1.8.1.X.1.>.h.m.c.X.=.r.g 9 s r g / }.m.A g Q X.m u > r V I Y >.} =...V b z b b 1.p.X.Q ' ..' Q Q V ,.s.-.p.&X;Xv.R R v.M.B.U 8 c.'.=.U } ..-.v.Y.Y.E.;XE.s.B.c.,.%...i.p.i.p.1.r.1.1.i.p.1.,.r.i.r.i.A g ! B.,.L.l.0.-.",
"1.B.x.M.c.s.p.B.A.M.M.v.A.Y.B.A g A U R 4.M.r.1.L.s.c.U Q r.c.L.Q i r.B.v.v.M.L.v.,.r.-.A } B.L.c.c.B.1.1.' g v.Y.M.v.B.s.v.'.M.r.c.Y.,...1.M.Y.Y.=.,.Y.L.i.v..X'.M.p.c.M.c.p.p.v.v.c.p.i.p.s.s.L.c.v.i.,.B.E.M.L.c.p.-...=.' Q r.Q } L.1.V g } s.i.s.v.E.M.s.i.B.).E.).m.A I %.B.Q G { r.U.r.y.c.m.y.U.c.S b m =.'.D.c.c.;.r.r.i.8.p.m.n.c.n.n.m.h.m.1.Q h.-XW.c.B.E.+XW.&X&XU.'.B.m 7 / d.d.d.f.;.f.d.h.y.[ 1.c.J.b.D.8.M 9 u b Y %.b g h.L.a.n.c.y.d.d.I G [ b %.m.i.N.h.d.h.[ Y %.Q 3 } E.h.h.h.Y.$Xs.} I.3X,X'.h.w.;.G m g R s.r.N.c.y.N.h.' 1.r.h.E.E.h.<.V G 1. .N Q h.<.c.c.c.i.Y R w.I m.N. .s.8.d.L.L.@X{.E.E.=X{.).R.m.<.<.1.;.c.'.L.b.}.b.Y Z ` [.<X>X XR.D.d.<...[ b W i.=.S r p z 1 m b u m >.d.w.8.b.J.J.U.J.w.` J.h.' } m...' c.s.c.i.w.e.'.'.i.y. . .X.r.w.d.h.a.>.<.y.a.w.<.y.a.h.R.L.a.[ %.y.W.s.J.$XR.N.E.[..Xd.%.1.d.s.y.d.s.i.y.s.s.i.r.r.s.i.i.y.i.y.s.d.1.%.p g Q Y g p =.+X'.&X3X{.i.=.h.+X)...I } h.s.B.n.s.y.;.8.8.r.y.1.} w.i.r.=.1.8.1.m.I 9 m A m 1.c.` g A / } A 7 z m M A ' s...=.8.=.G g m U c.c...A g g A ' ,...,.s.B.'..X}.E.B.E.B.s.=.V } c.s.U A I A ..c.m.B.E./.i.-.g.c.i.r.r.c.p.1.6.1.p.p.i.i.r.1.i.x.p.v.-.i ' P.~.P.M.0.0.0.",
"1.A.x.x.c.A.M.v.L...I V 6.L.p.| ~ m.|.Y.c.B.E.L.s.=.c.c.' L.;XM.I A m.L.c.c.c.c.p.c...m m V } M.M.B.i.p.,.V Q M.M.s.i.s.s.L.E.c.M.i.1.-.=...M.|.|.L.'..Xv.i.B.E.M.c.s.c.v.c.c.c.M.M.c.s.p.s.c.c.r.c.v...U i.'..X'.B.s.Q g 7 7 9 g u 7 7 $ = u A ..p.L.M.B.L.}.,X,X;X}.D.=.V r.).}.).-X3XW.B.s.B.c.D.s.s./ ..n.U.s..XL.r.r.1.y.L.c.i.c.D.h.h.B.m.M.1.m.h.=.y.s.1.,.X.r.D.c.v.r.{ =.B.s.=.r.8.y.B.D.b.8.n. XB.{ / S D.).d.I 1 g S Z =.I.8...8.r.E.N.b.h.s.>.b I =.2 [ r.h.N.h.c.N.B.b.b.` R / w.=.$.c.B.J.%.R m.J.a.m.>.;. .A A <.<.m.,X,XJ.i.g.r.y.i.s.a.B./.m.' u ` L.B.w.4.J.b.oX'.a.Q p G 1.` y.;.W 8.{ f.s.9.E.U.L.[.E.d.r.;.Q A Z Z S 1.L.D..X).w.G V %. X}.L.m.s.i.r.<.;.<.%.9 3 3 6 r m z u p r N 9 S 8.b.b.h.m.L.U.L.L.J.W.Y.m.m.N.>.w.h.=.m.=.s..X'.m.m.N.<.%.1.a.r.r.w.w.y.r.d.N.R.E.h.a.d.1.b / m W 1.%.%.%./ S Q <.h.U.B.i.w.s.s.y.i.s.p.i.s.s.i.r.r.y.r.r.i.i.y.y.s.s.y.G m u g R >.,X5XE.)..Xn.....Q c.L.h.8.d.D.c.L.U.1.r.8.1.8.r.-...-.h.w.w.i.h.;.w.;.b b V m / 1./ 7 M r.h.=.b A ..` s.E.B.i.8.c.U.n.w.{ m ' 1.,.r.r...g 7 m ' A 1.'.,X;X}.B.s.M.c...r.4.,.1.A i k 2 s m.}.v.m.m.B.1.` ..p.B.p.h.s.c.i.1.r.r.s.p.r.r.s.i.p.s.s.k.Q B s.E.G.'.~.].].].",
"c.E.B.c.x.L.Y.A.s.I g l ,.6.r.|.;X}.s.=.s.Y.c.s.=.v.M.B.1.M.L.C.U Q c.r.-.r.g.c.c.s.} g u Q C.|.M.s.B.B.Q 7 I B.Y.M.v.v.d.v.B.p.r.c.i.} A V v.'.v.}.3X.Xv.v.B.s.,.r.s.v.v.v.v.v.m.M.v.c.c.v.v.c.v.M.i.1.E.'.v.L.v.p.M.i...Q Q ' I A g A Q I Q c.B.M.v.c.p.-.,.s.).L.Y.U.B.n.&X;X,X&Xc.=.R b Q B.h.i.s.y./ =.y.' V s.d.;.y.c.d.B.J.r.d.J.d.s.m.c.m.v.c.1./ =.c.y...A { M.n.y.;.;.1.c.D.L.1.=.M.B.a.s.u.'.[ A D.9.m 3 S z > 3 Z g W 1.w.h.c.=.} N.%.X.Y.I.a.d.N.w.W W %.m.m.W..X Xa.d.d.s.W.>.Z 2 [ J.c.y.Q G 1.m W Q ~  .b  .m.E.h.h.c.=.I $.g.c.r.r.N.N.Y..X).y.h.i.s.y.J.}.3X3X).oXR.h.i.b.Y.h.a.c.D.W.s.d.X.` I.[.'.$X=.S M M p u g b A %.h.b.).I.i.;.;.d.'.W.y.w.w.y.i.y.y.s...p z f p b Z 6 m A b G 9 ' b.c.L.a.y.a.<.=.8.y.s.i.h.m.e.=.a.a.i.y.w.E.$Xm.e.h.a.[ ' 1.s.a.r.<.a.d.w.i.y.r.i.[ c.d.J.;.;.` s.h.r.8.Q } ;.I G X...1.d.s.r.i.s.w.s.i.y.y.y.r.y.i.s.y.y.i.i.i.r.i.s.m.s.%.I 1.i.s.i.R G M.J.s.1.;.I >.J.,X'.n.h.B.'.D.=.y.s.r.r.r.=.8.v.c.8.r.i.h.w.h.R 2 A ..r.+X4X|.{ z =.&X&X=.>.s.>.} Q } X.1.m.L.y.L.L.Q r.;.=.r.v.M.p.-...=.c.|.3X.XY.M.c.i.i.-.i.M.s.c...~ r.i.i.1.} U ..g.c.4.Q I ~ i.}.Y.r.i.i.r.r.p.i.i.p.5.r.c.p.6.s.A.E.7 A M.k.p.=.G.E.V.c.",
"p.M.s.p.} E | r.1.A 7 E L.x.M.;XE...U V Q ....B.i.i...=.r.B.s.I A } v.r.1.p.c.c.L.1.m g R 1.s...c.v.c.L.=.u ..L.Y.c.c.M.c.c.s.s.B.L.r.' m u ,.i.A ' ..,.c.c.i.i.,.p.m.m.v.c.c.c.c.c.c.c.c.v.v.c.p.c.M.L.c.I V M.r...s.s.c.s.B.Y.Y.p.{ -.M.s.M.,X}.v.1.s.c.,...,.r.i.c.1.` I =.{ V g 2 r b u G 1.+Xr.n.L.l.s.c.,./ B.{ ..s.y.L.y.1.' w.U.m.i.c.h.d.n.c.r.1.i.h.s.W.p.D.U.i...X.s.D.'.s.d.y.B.n.r.<.n.{.&Xy.X.o.<.X.W N 3 g z G ' c.i.1.h.h.R.b.a.h.1.R.X.G s.Y.J.R.D.).@X'.=X;.r g %.b.d.>.w.d.R G a.r.>.G I c.%.N I m %.N.&Xy.' a.J.} s u 4.m.a.s.h.h.>.c.r.} $.s.a.B.).3X XJ.i.m.).}.$X&X$X X).[.W. X{.U.y.;.N. XE.n.B.Q 9 S Q Z g s G <.D.).'.[..XB.s.m.).@X.Xi.w.1.r.d.s.<. .G 9 R X.R b G Q r.r. .;.V X.B.h.h.y.i.a.>.X.%.X.>.' %.r. .$.s.r.m.;.J.'.B.L.Y.i.;.Z N  .1.i.d.s.a.<.=.h.;.s z G 8.d.w...d.>.X.i.N.<.Q b.r.r b I g s } c.r.r.h.r.p.y.r.r.y.y.s.d.s.i.i.i.i.y.i.s.r.s.L.w.' B.d.1.Y u I B.c.M.M.=.} B..X$Xr.%.1.y.D.;...s.8.8.r.y.<.r.c.i.h.c.s.h.c.>.g s w.&X-XE.r...X.m.W.Y.c.=.s.>.J.L.A r g ..y.s.r.B.Y.;.c.s.M.p.1.p.L.}.;X3X-X}.Y.B.v.p.p.c.i.r.B.m.r.-.k ..p.$.r.p.' I ,.M.1.=.} U g } E.g.' 1.r.i.s.p.r.4.p.r.i.p.r.s.c.M.' 8 t.,.) t.0.v.p.1.@.",
"1.c.i.=.A A E Q C C g U 1...M.&X..u V g V r.s.g.c.C.=.,..XL.R g m =.T.L.Y.B.c.r.c.i.A Q c.v.p.1.v.E.s.L.U 8 L.E.E.s.p.s.s.c.c.B.L.1.Q } } A ....7 g g Q c.v.i.c.d.m.B.v.c.c.v.v.v.c.s.p.s.v.M.v.L.c.L.s.Q A ..c.} Q p.1.-.-.v.M.r.i.s.1.s.'.&XM.i.r.1.s.p.r.1.M.c.i.;.m 7 1 i g b b ..y.1.,.E..X+Xc.{.W.B.c.c.r.d.n...@.d.r...M m m =.L.D.s.s.s.m.s.s...1.s.1.'.L.y.D.p.=.=.r.s.c.L.X.s.d.n.s.i.+Xs.r.b.d.E.d.N.a.<.z / w.A Y X.J.s.L.D.b.N.%.'. .} h.' w. X X4X=X@XR.y.d.E.X.[ W.).D.b.X.>.b.y.1.h.a.g.[ Q J.J.Y.m.W %.E.$X' V w.).4.;.$.a.i.e.;Xm.c.w.g.>...>.L.R.}.[.).s.i.c.).E.J.N.m.h.h.B.J.D.D.f.L.b.n.W.b.f.r.` S r ;.X.N Z Y 8.W.$X X}.).E.8.=.B.3X+XD.<.w.y.y.s.y.%.R z s ;.R..XN.8.;. . .I >.[ %.b.m.w.w.w.w.1.w.a.s.y.` G } R %.h.i.$.} s.h.m.B.r.%.w.I A ....<.y.d.y.<.1.b.i.S A ;.i.h.' / D.b.%.h.h.1.8.d.m f b.d.A I 1.c.1.w.c.r.y.r.y.s.s.i.s.d.p.y.y.a.s.i.s.h.s.i.B.Q 9 / d.).;X'.E.&X|..XL.i.=.'.,XB.A S >.1.r.) ..s.;.8.s.n.s.} n.n.1.s.J.h.h...9 ' U.J.>...S / s.E.).'.B.' y.D.L.8.%.w...=.' ,.L.h.i.y.w.B.1.1.c.}.,X&X'.E.s.1.1.s.c.i.i.c.w.4.-.-.r...g A c.-.A u I s.v...A Q ..Q A i.Y.} A 1.p.i.i.1.4.r.,.r.p.6.p.B.s.Q . h !.A 4 B c.B.=.=.:.",
"t.E.c...Q p.c.| C m g A -.6.B.x.A i A g m g.E.m.|.|.;X.Xp.=.=.r...c.}.Y.Y.M.v.v.L.c.c.v.} ' L.L.v.s.E.,.* V L.|.'.M.M.v.v.v.c.M.B.B.p.} A i I A Q ,.i.l.Y.E.Y.E.M.M.m.v.v.v.v.v.v.c.s.s.h.v.M.v.s.c.L.r.' r.v.r.V U v.1.-.-.s.=.m i m m Q 1.v.1.i.p.1.i.i.s.1.r.h.1.Q s b s A X.E.Y.,X,X+X&X5X&XU.n.W.c.8.n.c.n.B.=.{ A ' 8.' Q s g Q w.p.w.1.=.V >.r.' y.c...c.8.X.d.;.=.s.s.1.d.=.9 I / =.B.G.'.B.` 8.d.1./ y.d.m Y .X .2 8.D.%.%.b.;.y.` b ).>.>.d.s.[.$XW. XW.U.c.r.i.h.y.Y.Y.' m B. XD.b.a.h.i.e.m.c.N.&X$X}.h.J.[.a.h.} p [ 1.%.s.a.w.i.Y.J.` B..X3X>X3X;X XY.m.s.B.J./.[.L.N.h.i.i.r.w.s.a.n.n.n.[.-X.Xn.X.n.n.o.N 9 { S z [ y.D.}.).J.L.h.>.{ 8.D.>XW.w.%.y.d.a.y.y.%.I p [ h.i.D.b.=.Q d.B. .X.a.J.L...8.y.r.w.r.r.w.w.h.` r f b >.Y.E.m.J.I.Y. Xi.} ;.%.I / y.%.%.8.a.c.c.a.y.s.<.X.h.D.a.D.I.i.y.b.r.s.h.).J.[ s.<XE.i.D.L.s.1.y.h.r.s.i.i.i.y.r.y.s.y.y.i.s.s.s.s.d.w.s.c.I 3 g L.3X+X}.E.{.'.L.w.1.d.W.W.%.u m 1.8.i.8.{ :...X.r.1.g r r.n.s.E..XL.h.r.M <.h.A g r.B.r.n.L.s.r.r.=.r.r.Q ' c.i.>.>.I r.U.d.8.i.r.W.B.p.p.E.+XE.v.p.1.p.s.i.1.r.p.s.r.r.-.1.i.Q U =.r.r.m.%.m 1.v.k g A Q ' s.,X&Xr.U r.4.>.,.-.1.r.*.6.p.r.s.m...2 u i Q i u 7 Q 0.1.1.0.",
"..x.-.I m 1.x.*.g m ^ 6.B.M.v...7 g V U >.s.m.Y.E.Y.E.g.I 1.L.L.s.E.;X'.E.m.c.v.c.L.v.L.Y.E.;XE.v.i.I 7 A D.'.i...-.v.B.B.B.c.v.B.1...Q A g ..p.c.M.E.~.Y.L.E.}.M.v.c.v.v.v.s.s.c.c.c.c.v.M.v.s.s.B.B.1.-.p.s.v.=.} 1.I Q r.M.Q u g m Q B.M.i.i.i.c.p.c.s.v.p.c.B.s...b V b =.3X.X.X'.i.J.'.E.d.s.8.n.B.n.W.c.U.D.L.d.8.r.B.U.s.G m z A { %.' S f Q g Q p.V 3 Q X.' d.8.;.r.y.r.8.s.I S ' ..s.1.y.S S D.c.d.f.'.W.c.X.W 3 m ;.a.<.%.1.b 1.d.N.y.9 Q b.J.8.' b.).m.y.y.b.a.y.s.1.G 3 R }.b.%.B.a.}.J.s.s.i.c.L.i.A <.g.h.h.<.p f G A Q w.N.h.h.B.A r >.J.3X XE.[.B.c.h.w.h.c.B.c.B.h.i.r.r.i.y.d.d.a.a.).+X>XW.;.Y c.r.d.z 3 a f ' s.m.b.J.J.B.I.J.r.N.+XD.b.y.<.y.h.d.w.i.s. .s G  .D.&X3Xw.G ;.R.'.<.>.h.a.N.a.1.y.w.8.y.r.w.a.w.` s A } Y.>X$X.XL.)..Xh.` e.=...` w.'.d.<.<.w.h.h.i.1.y.1.8.=X$X<XE.w.h.=.' ;.N.d.'.@X&X3X}.'..X}.c.r.c.h.r.s.h.s.y.r.8.1.r.s.y.y.s.d.d.s.i.i.r.c.w.I A G |..XW..X.XW.y.8.=.1.1.i.r.S g Q h.1.y.n.A M m g m 2 $ ' c.y.;X}.Q V c.%.g 8.m.1...' I I r.c...} i.h.J.i.r.m.>.' E.8.s.|.c.h.8...r.L.|.'.|.;X'.i.,.i.1.i.i.i.i.p.i.r.r...4.g.s.A i U c.p.i.r.1.c.M.p...` U U g..XB.p...i...' =.>.r.r.i.r.r.i.i.1.I - V m 7 g I s...1.0.-...",
"..P 7 8 U p.B.x.U s..X&XA.c.v.*.I V C L..Xg.i...$.-.r.B.M.B.c.c.L.s.c.}.L.M.c.M.s.c.v.B.E..X&X.XY.v.i A c.L.}.i.r U c.B.s.i.E.c.v.=.Q Q m A c.Y.s.v.p.v.B.i.L.p...M.B.v.p.M.s.c.s.M.v.c.v.i.r.L.B.L.c.....c.L.}.r.=.....c.E.B.p.I A -.L..XE.Y.c.M.s.v.M.i.p.D.c.n.{ Y G / 8..X}.J.m.D.m.B.E.J.s.1.1.s.B.1.)..X&X-X.X&X{.4XE.y.@.b Y c.h.=...r.' ..z I V g 3 7 G Q 1.n.1.y.8.1.s.y.c.r.' A { g } y.Y ` I.W.W.,X<Xh.X.c.1.M p 9.a.h.a.b.J.d.h.D.1./ g d.N.8.X.B.B.N.d.d.d.i.d.h.w.g r <.i.f =.d.b.J...w.y.c.B.J.m u f A [ ;.;.r b ` b Q m.&X;X X}.r.` g.$Xy.;.4.c.m.a.h.m.m.J.J.c.r.y.i.a.s.s.s.d.d.s.s.h.N.n.f.w.%.n.h.L.A 3 x Y h.$Xc.c.J.m.h.B.c.' y.h.V 1.w.<.w.w.r.r.y.y.8.=.J.Y. X).a.Z p / ;.`  .;.B.N.s.i.r.=.8.8.;.w.a.d.a.} f ` E.[.B.h.<.a.h.B.A [ c.c.w.h.$X)./ ;.w.` [ 1.d.d.r.<.w.m.'.$XI.D.;.w.J.a.).$X;X).m.B.D.d.'.J.1.8.i.w.s.r.s.d.s.w.8.i.i.i.r.r.y.i.i.y.r.w.i.p.m.=.* Q .X&X$XE.L.h.,.=.=.w.=.{ i.1.w.w.1.8.d.n.....Y ' A 9 p ` A b w.G & r ` Q R W.;XB.c.Q 3 M Y.n...8.=.r...' s.r.} I I A E.v.i.s.y.8.p.J.B.B.E.|.~.c.r.r.1.i.p.i.1.,.r.p.r.=.x.r.} m A p.s.r.,.1.s.s...U $./.E.L.|.L.r.p.r.1.-.,.s.M.c.1.4.s.p.s.i.r.A m m A m B =.&X~.1.r.1.-.",
"d C i *.L.1.....A A..XA.6.i.L.B.r.1.r.L.p.Q ,.s.s.i...p.}.'.g.B.v.m.i.g.Y.C.i.M.m.c.p.i.s.Y.'.}..X.XY.L.Y.L.s.Q g ,.B.M.Y.B.v.v.B.' i g A ..M.s.v.}.1.' } Q ,.m Q r.Y.M.M.p.v.D.c.p.c.c.s.M.L.p.p.c.r.' ..v.G.-.) 1.v.;X;XY.M.' I v.,X,X.XY.M.c.s.i.p.v.M.c.c.c.d.c.} I y.D.}.).).h.B.L.B.B.n.s.d.s.w.X.Q c.L.W.E.L..X'.B.s...u 7 ..{.B.s.d.i.;.;.W.$XX.b b M ` ' =.c.r.r.r.0.;.c.1.n./ $ p y.M.c.;.f. X'.W.'.f.S / d.b.8./ u.D.a.L.L...a.3X).s.h.W <.%. .%.J.J.c.r.y.h.h.b.h.<.m G ;. .7 z ..a.` I Y.m.h.h.m.i.~ u 1.E.[.w.F ' r.N.h.E.;X}.Y.i.;.s.5XE.A %.e.m.i.r.s.s.i.h.h.e.a.a.s.s.s.s.h.h.d.d.d.f.y.r.y.s.r.n.d.d.c.' b '.$X1.[ >.1. .a.X.X.w.h.%.` X.X.y.8.r.y.y.a.s.i.w.h.D.I.1.W b =.L.L. .V Y.>X;.=.w.1.>.<.i.y.w.i.y.g.%.b %.B.>.....R R ;.m.%.a.c.;.N Y / N z 1.%.p 9 W s.8.8.b.d.B.L.c.'.'.D.).d.y.d.W.).b.y.1.h. X).B.8.1.8.r.s.s.y.s.i.w.w.i.i.r.i.y.i.r.y.y.i.i.d.w.s.` 3 ;.'.}.c.h.s.r.1.1.8.r.-.' Q 8.w.;.y.8.r.;.=.s.s.=.m z R I s s > * V V A X.y.{.'.c.s.Y G ..L.Y.s.p.i.r./ S w.v.1.%.8.h.).m.i.i.y.1.r.c.r.1.i.v.v.p.r.p.r.i.p.i.r.8.i.s.i.=.~ V i e ' 1.1.1.M./.|.'.m.M.B.;XE.v.L.c.r.s.E.c.s.C.Y.c.1.1.s.i.,.6.p.r.A d A m ! V.~.P.i.l.,.r.t.",
"d P l M.M.y y l g s.M...Q ..c.E.v.L..XE.' m -./.'.1.r.B.L.B.B.p.4.1.s.M.L.s.s.v.c.c.s.i.p.v.B.B.s.M.&X}.B.M.} u g c.'.-.A ,.M.M.i.Q g g A ..v.v.Y...r.M.s.1...A i Q s.s.v.s.v.c.s.v.v.s.c.M.M.v.c.s.V V c.'.Y.p.v.M.B.B.=.Q Q u V -.s.v.i...' i.i.M.M.s.s.s.s.B.h.U.I z s.h.s.s.b.d.U.E.B.L.N.i.;.d.r.S m { 8.B.s.s.y.c.r.Q z m g ..8.z I =.A u c.}.c.' ' { Q =.r...1.8.0.r.y.s.s.B.8.2 u I n.1.r.B.c.b.B.;.I S 9 X.D.B.I.+X&Xb.i.).R.<.L.E.[ X.D.<.a.=.%.1.J.L.s.w.r.s.s.d.i.%.* S b.s...` >.).N.E.[.[ h.s.e.J.w.G ).J.' %.a.r.r.b.r.s.N.e.=.e.G J.;Xi.` c.b.a.h.h.h.h.i.i.h.s.s.s.s.s.s.s.s.h.c.d.y.r.y.u.u.y.r.8.d.1.h.r.[ L.I.8.<.W.J.b.w.1.%.<.X.Y a.w.;.w.y.a.s.a.a.a.a.i.%.w.a.G 9 r m. Xb.I.c.m./ G h.<.w.a.8.a.d.w.y.y.r.' r G R G w.e.<.m %.m.i.g.w.` z A G W X.i.%.%.Z b ' W ;.N.<.r.D.8.B.a.=.s.W / Q m.m.w.b.D.B.[.c.i.r.8.r.s.y.r.r.y.y.r.r.s.i.r.i.y.i.r.i.y.i.s.p.>.s...G B.Y.B.w.r.1.;.1.w.r.y.r.S r >.r.w.w.=.y.:.r.1.y...g A 1.A g b g G g Y s.m.B.L.L.n.w.A ..i.D.'.m.r.c.w.n.G Y r.w.d.E.&X}.B.i.i.y.1.1.i.i.r.1.1.1.,.1.1.r.i.i.i.i.i.s.v.,.u 2 u A F I A p.p.}.E.4.} ~ p.E.v.=.i.E.m.p.M.B.r.4.B.L.s.r.i.r.6.1.r.i.=.m g ..,.c.!.E.s.=.l.=.} Q ",
"l A U B...y ..p.A v.s.g u *.M.x.c.M..XE.4.=.i.E.} =.p.s.s...=.i.M.M.E.L.B.v.C.c.g.c.v.c.c.c.s.p.s.v.|.E.E.Y.Q i i p.s.Q 7 I ..V A u g U ..p.L.B.M.M.;X.X}.L.I 7 8 g Q p.c.L.M.B.v.B.v.c.v.s.p.L.v.-.u } }.E.B.Y.Y.v.L.} V ..g g ' -.' V g Q ,.v.r.p.s.s.c.v.p.i.n.i.s S B.h.i.s.s.L.E.c.h.m.s.s.c.d...z Y ' { ;.B.d.1.d.c.' / s.I 8.s.%.i.h.Q m L.E./ u M ;.p.L.D.8.8.1.8.8.r.d.s.B./ 2 p Y v.....c.f.d.a.z * z z Y n.W.+X3Xc.I a.h.` ..h.G 6 [ ..>.b.d.c.d.B.c.d.s.h.h.a.c.d.=.p d.E.D.N.W. XE.i.s.h.=.i.R r.h.Q V c.i.' B.s.$.J.` r r.'.>.b f 6 E.E.m.m.i.h.h.b.s.s.b.h.r.r.h.i.a.s.s.s.s.a.s.h.y.r.y.d.d.a.r.y.8.h.a.8.r.8./ 3 z J.5XY..X$Xn.m r r Z >.[ w.w.a.s.s.a.y.y.i.s.h.1.%.w.8.;.h.Y / V y.D.[ b.b.S <.a.s.i.d.a.w.y.h...b G ..m.;XY.1.g <.c.a.i.;.` / 1.w.%.1.h.d.m.<.Y Y G <.J.y.i.i.m.c.X.6 r W w.8.R.J.c.).).d.y.w.1.s.r.r.d.8.8.y.y.r.r.y.s.s.r.r.r.y.i.s.i.y.y.r.8.s.w.X.B.J.d.s.s.>.;.w.w.r.s.1.p z ..=.r.r.D.y.u.1.{ ' I g Q  .V R r.Y.h.V w.-XU.c.d.c.s...G y.Y.'.'.d.;.s.r.c.V A B.E.+X&X-X+XD.y.y.i.w.1.r.i.r.1.,.1.i.i.i.r.r.r.r.i.p.c.M.} * g m } $.A ,.p.i.Y.-.s e s } } } ..c.L.p.s.Y.i.,.-.,.r.1.,.,.5.5.r.s.p...l m ' =.c.}.~.1.I :.Q V u ",
"E -.c.|.s.s..X2XT.x.,.^ U =.B.'.E.L.'.'.}..XC.m.I =.M.s.-.U ..i.c.E.i.U r.M.m.v.M.M.v.c.s.s.s.s.r.c.v.c.L.0.m i U B.-...Q i u i u V ..v.'.3X,X}.Y.,X3X&X1.i.M.g } Q ' v.B.M.p.B.B.r.c.L.s.c.M.p.c.=.r.,X|.c.Y.v.r.,.y.A U p.i U 1.L.;X;Xi.-...' r...i.c.p.c.v.M.,.G s 1.J.s.1.` =.c.-.A %.s.r.B.y.s.1.Q ' I 1.{.L.c.c.u.s.s.+XW.r.E.E.L.h.p.Y.&XL.i.V g V -.h.D.W.W.L.c.d.B.d.d.U.:.= u A ..d.c.W.n.n.D.=.z b A Y 1.@XN.8.;.a G .XD.} <.n./ u Z } 8.b.N.Y.J.B.h.a.a.d.a.i.c.i.` [ i.} .X4X&XJ.m b a.1.b <.i.).J.g N J.>X&XJ.>.[.&X<.V ).$X=.V u %.'.Y.).Y.=.r.h.h.s.i.a.h.a.y.i.y.i.h.h.h.s.a.a.r.s.d.d.a.y.u.s.r.a.y.d.n.9.S Y W } W.=.[ %.W.d.W N Z 1.s.1.h.y.w.w.y.y.w.w.a.h.y.S z d.h.s.r.g s > w.W.%. .G W ` ;.a.8.y.s.;.<.r.` s G C.).r.>.` m b.m.a.w.~ m G I ..;.i.c.h.d.I ;.h.h.J.R.y.[ 1.r.[ W 9 r <.)..XE.U.W.Y.s.8.s.i.w.i.8.1.p.w.p.i.i.r.w.r.i.i.y.r.r.i.p.p.p.i.y.r.s.8.r.{ 1.L.J.h.s.;.w.s.r.s.s.c.m A ..c.m.r.;.=.r./ ..Y b m 1.r.=.-.J.s.R c.Y.s.i.c.h.r.%.Q ' U.&X3XW.r.1.i.i.w.` ,.-X&X&X$X}.}.B.r.r.i.r.w.r.r.r.r.1.r.p.i.r.r.r.r.r.r.i.s.c.Q u A k =.r.Q p.r.1.i.Q I -.1.i.' r.p.p.p.s.c.i.i.r.>.=.-.1.1.>.i.4.r.i.p...l l m ..P.;X|.@.q i H m g ",
"s.|.|.|.Y.Y.p.v.6.x.c.' ^ E.,XE.E.'.).B.L.L.i.s.M.p.C.c.} ..B.M.B.B.1...p.c.c.Y.B.B.M.v.v.v.c.c.-.v.c.c.v.Q u A 1.B.r.i...m Q } Y.E.&X.X&X3X}.s.'..XL.c.i.B.'.'.r.v.M.i.v.p.p.c.,.1.c.M.s.v.M.r.s.v.E.&Xv.p.L.s.i.,.V 7 V Q 7 ..-.-.B.E...' i.M...Q 1.-.=.v.v.1.g 7 R L.B.r...b Q s.' 7 ..D.r.8.B.l.y.r.c.r.U.,XB.n.r.Y ' ' B.d.=..X.X'.L.}.3X'.h.S 3 g Q i.B.m.D.c.d.d.r.s.s.B.Y.=.2 m V =.D.4Xc.8.;.8...Y ' [ y.n.J.S S D % I $XY. X}..XW. .I i.m.b.d.i.<.i.h.b.a.a.a.r.w.} z I S 8.@XD.r.b I J.=.b.'.3X2X;XE.w.G L..X'.a.J..XQ V g.m.Y F u e.&Xc.c.m.s.s.J.m.h.m.w...>.h.h.s.y.a.h.h.h.h.s.a.d.d.s.u.y.r.y.u.y.w.u.a.c.o.> I .XW.<.3 u 9 V G W X.} h.L.m.r.;.w.w.r.r.w.w.r.s.1.b m L.d.d.D.b.b ' 1.a.r.1.1.d.a.a.d.r.i.d.w.i.h...r N J.=.r h.%.I J.).N.} g m r.%.b.Y.D.i.s.N.d.).&X@XR.r./ m r.Q b Z b S X.W.@XD.D.I.d.1.y.d.y.w.r.r.y.s.s.n.i.i.r.r.r.r.r.y.s.i.y.r.i.i.s.s.r.h.1.y.' =.E.E.s.r.>.s.s.i.s.-.p r p Z R m %.1.X.0.S I s z Q s.n.r.s.s.} I c.1.A 1.L.c.>.....1.L.'.$Xd.=.y.w.y.h.r.d.}.).L.E.E.L.s.8.w.r.w.8.w.r.r.i.i.i.i.r.1.i.i.i.r.r.i.i.p...V m } C.i...i.c.v.1.I Q r.p.i.B.Y.s.1.p.v.v.r.i.,.=.1.r.r.4.r.1.5.r.=...A g P 2.B..XY.p.Q m K U m i ",
"i.c.-.1.,...m ' $.6.c.p.v.OX|.L.c.E.m...~ U I r.E.Y.c.p.i.s.c.Y.c.p.g.Y.B.i.1.s.M.M.m.M.B.B.v.c.i.M.M.c.r.A 7 U Y.v.Y.|.}.|.;XB.E.i.i.B.|..XL.c.}.i.M.r...L.1.r.Q B.E.r.s.s.s.s.Q -.p.s.c.c.s.s.i.c.r.} Q Q } ..p.1.8 g ' ....c.i.r.1.I m ..B.v...U ' ' -.s.U = 7 m r.).c.i.1.i.{.,X'.s.W..Xp.-.=.8.s.s.=.Q X...s.c.X.Q Q 9 A ..X.Y.n.s.B.+XL./ Q A S g ` E.,X.XE.c.D.D.=.c.U.D.L.z 7 m Y D.'.d.m <.f.D.L.u.d.'.-X%.[ ;. XD.W Y %.1.'.L.h.I.h.y.i.h.a.a.<.` =.s.R.b.b.m.8.` G b h. .c.` / J.S %.h.r.i.m.).J.c.B...R '.J...` L.a.b g B.r.I ;.b Y.).e.h.r.w.h.R.Y.s.s.>.} >.i.s.s.s.h.h.h.h.s.s.s.c.s.r.r.u.s.y.w.d.r.B.c.f.T 9 m %.Y b X.N b b p z X.r.L.W.D.a.b.a.y.y.i.r.w.w.y.y.z S U.D.d.1.[ ..I.R.W.D.%.y.w.).D.8.c.b.w.c.d.a.` r G r.G r h.' Y h./.m.Q V w.s.N.).c.D. X3X<X;XW.L.d.8.X.Q =.y.%.=.' A W X.@X).D.D.N.a.y.a.w.s.r.w.a.s.r.s.c.y.i.s.i.r.r.r.i.i.y.r.r.w.r.y.i.8.i.r.s...y.E.m.y.y.8.d.r.r.s.I 3 m I 1.y.R V g ..=.Q I A { >.c.8.w.L.c.s.m.%.G I s.L.s.1.-.1.r.h.b.B.=...r.1.r.r.>.,.n.L.d.m.c.d.w.1.r.y.w.1.1.:.,.1.i.p.p.s.s.i.i.i.i.i.p.i.i.Q e g -.r.V Q c.'.&XM.,.r.i.M.E.}.|.A.c.s.1.s.E.c.1.>.r.i.,.-.1.>.6.p.^ A u A 1.E.k.M.c.@.h U B.i.1.=.",
"' g - P g i g ..L.A.Y.E.&X.Xc.c.B.}.i.I R I U p.oXE.}.,XB.s.,.' Q c.v.E.,X,XB.L.M.c.s.g.v.v.v.c.B.c.M.v.p...Q 1.-.} v.Y..X|.E..Xv.} ,.E.Y.=.Q c.1.=.p.c.,...7 V / L.E.Y.M.r.Q 1.=.U ..s.i.c.M.r.i.....Q g 7 7 g ,.} = V ,.M.B.E.v.v.L.M.}.;X,X}.L.1.1.-.} m = i A ..h.s.` I R ).$Xn.c.E.Y...m / r.y.y.d.r.r.8.z I / =.L.y./ 8.d.Y.Y.i.y.r...u u z p ..w.'.,X'.Y.B.L.+Xc.m s.D.M 7 = M / &X{.Q 9 z <.L.J.o.Z 9.$X1.p [ D.W.B.J.` W d.I.8.Z Y X.Z w.r.w.I.Y.d.h.h.J.s.c.b.' p f I %.8.Y.E.@XI.} w...h.y.L.J.i.s.%.I  .N.Y.N.w.h.g.N.h.%.w.%.} Y c.s.m.i.e.N.i.c.h.i.y.y.m.Y.c.r.g.h.h.h.s.a.i.a.a.y.s.d.f.y.r.y.f.y.y.s.B.D.u u g S R W B.a.Y W <.;.X.w.Y.}.J.y.<.y.y.y.s.s.i.i.s.8.9 b 8.8...Y g <.d.N.8.M p r.r.r.X.b y.a.Y >.Q %.g b w.h.=.Q b s ` m.h.>.` Q c.b.a.y.1.'.$XB.%.b g ` Y  .y.=.d.i.d.r.;.%.d.D.@XB.h.c.J.N.s.c.Y.U.m.1.w.>.} 1.i.r.s.d.d.s.y.i.s.w.w.r.r.r.r.w.w.r.w.y.w.} m.U.r.r.i.r.s.1.y.c.V b g m } i.c.} w.I M ..d.U.L.d.D.).$X'.m.%.w.w.=.` h.m.i.8.=.>.1.h.n.c.>.=.w.8.y.s.8.%.1.s...1.r.w.1.1.i.i.w.>.1.p.i.r.i.r.1.1.i.r.r.i.p.s.s.s.p.' 7 ' c.p.$.,.m.$.i.' $.c.s.E.,X.X,XE.B.B.s.c.L.s.1.>.4.i.r.r.r.p.p.r.P m g ' B.=.-.L.v.1.A B E O.p.L.",
"u u l 6...U ,.}.'.L.L.|.'.L.L.M.c.T.i.I =.=.i.'.:X.X'.M.} M.E.1.' x.Y..X|.C.B.c.c.s.x.M.B.s.p.c.s.i.n.B.y.r.E.3XB.;.B.'.'.L.Y.U.E.E.Y.L.s.-.-.c.p.v.v.p...U A 1.M.s.Y.&XL.1.7 U A U i.,.c.M.1.-.:.T Y K A Q =.c g m A d.B.n.P.E.d.B.W.5X{.E.D.X.=.v.s...D u z S b } ' m g r ` 1.r.r.a.B.Q u u z r.c.n.r.d.d.8.1.} r.s.r.p ' B.W.'.s.m.).1.} %.u Q r.m.$X;XL.m.J.I.D.M.n.r.n.g = u p z n.n.Y =.8.y.r.n.;.[ w.D.Q.S 6 } c.B.I.h.c.D.[.9.7 W 1.D W d.d.D.L.m.w.b.a.;.} a.{ r 6 z b w.B.W Y.$Xh.Z I >.h.h.g.a.h.s.Y e } Y.L.g.w.e.G ..` } g.w.<.` c.s.y.i.y.s.h.i.h.a.s.h.d.y.s.h.s.a.d.d.a.y.i.s.s.r.u.u.u.u.f.f.y.f.y.f.d.r.z u m / 1.s.a.<.h.c.i.c.=.1.@XW.w.s.w.8.c.8.d.s.i.a.h.%.z z G m.r.Z X.w.M o.S x X.h.r.a.J.r.R m 3 f 7 m s b w.I.d.c.A r I h.I.w.>.} h.L.c.w.` ` G R g m R A A ` X.r.d.d.r.=.1.n.Y.J.v.=.d.s.;.c.n.D.W.%.>.w.X.Q %.s.i.s.y.r.w.1.y.d.a.8.w.y.s.r.8.r.c.y.r.r.r.i.y.r.8.w.8.r.w.w.d.c.9 s s s } >.X.m.'.m.D.L.+X.X.X).'.$X).{.1.1.W.'.;.=.E.E.i.1.=.%.w.1.s.i.w.y.d.s.i.1.,.-.,.-.-.-.,.,.,.1.p.p.r.1.1.r.i.r.1.1.r.i.i.r.1.i.r.r.r.1.p.=.=.Y.E.s.E.L.R U A 8 s.i.M.|..X/.M.p.c.L./.E.B.r.1.1.i.p.p.p.s.1.s.} 7 7 } p.,.7 Q |.'.=.U g g ..p.Y.",
"g m P c.A.c.x.c.B.T.E.'.E.L.Y.c.B.L.M.c.'.`.Y.A.`.L.' d C L.,X3X'.L..XOXc...=.A.B.s.,.*.*.r.x.M.m.r.h.m.s.c.E.Y.r.h.J.).'.Y..X'.;X|.E.M.s.1.r.M.p.c.s.8.Q V g ,.p...=.d.i...8 7 g ' B.c.v.s.,.r.p.B.l.A 7 ' p.r.Q c T c...u.E.' c.}.B.c.,./ S 7 M s.s.=.;.1...S m }.L.R V w.}..XJ.J.y.` g 7 R 1.X...} B.y.' Y D..Xr.r.n.y.L.&XB.;.s.c.h.s.E.;XL.).c.).E.B.L.h.B.B.B.n.p.' / 9 3 Y S Y / M =.W.c.c.W.d.8.n.-X4Xf.r Z i.E.L.c.h.N.8.T a p / ;.<.D.<.<.b.r.R b i.B.m.r.X.r 3 z I ` b.y.y.D.d.w.I 1 Q h.E./.B.s.>.V ` =..X).B.r.} V Z 7 R w.>.h.m.s.J.s.h.i.w.h.s.w.d.d.c.c.d.h.c.s.y.s.d.d.a.a.i.y.y.8.y.u.r.0.f.c.l.c.D.n.o.q u B } w.a.r. .1.r.y.s.s.J.I.<.>.i.a.y.N.d.y.y.h.d.8.%.2 A h.$XN. .y.d.=.8.{ r.r.y.D.R.3X$XB. .r p m b b p 8.@Xw.8.d.=.Y d.U.a. .Z r.;.X.y.8.;.S s m {  .>.1.} Z A <.c.d.w.y.L.E.c.>.%.R s z { 3 g z * * g %.d.B.n.i.i.w.r.r.w.r.i.w.w.r.8.r.i.d.y.w.r.r.r.r.r.w.8.1.r.%.1.i.h.w.I r u =.B.%.A >.E.'.&X&X}..X.X}.B.r.;.D.c.=.B.-Xs.` {..XY.1.X.>.1.%.p.h.i.1.1.w.8.w.1.,.,.1.8.1.0.r.p.i.r.r.r.1.1.r.r.i.r.1.1.i.i.r.1.1.i.i.i.i.r.s.i.' i.&XE.1.$.v.E.r.M.c.$.s.c.c.p.c.M.L.L.Y.L.c.p.i.i.i.p.i.i.i.1.i...' c.,X;XM.Q c.Y...U m 7 =.i.r.1.",
"* g U s.L.B.1.Q c.`.E.M.c.B.L.c.B.B.L.L..X;X.Xc.M...C g C v.E.=.A c..XL.r.r.r.1.*.E g ^ 6.E.B.v.v.i.v.J.c.c.s...Q >.%.B.E.L.W.L.B.M.s.p.s.s.p.c.M.B.M.c.' V A i.B.l.,.Q u 7 g Q } 1.E.Y.Y.s.} Q 8.c.s.Y u S K :.r.1.Q T A :.s.I Q s.' Q =.C p 7 M u.s.y.E.'.B.8.c.U.` { Y.Y.'..X'.M.I $ i Q y.i.{ I m n.8.g S +X.XD.s.1.U.D.0.S %.c.h.d.B.D.L.E.L.A w.J.c.c.w.n.s.n.c.r.s.D.r.I / I ..1.8.W.d.Y U.'.y.w.d.b.s.Z u i.b.8.a.m.w.Z > K m z 1.b.s.s.d.8.N.b.%.G ;.' h.b.r.M z p ' ).@X<.h.D.c.` r s h.).,X3XE.w.=.%.w.` I.h.B.Y.Y..X)...Q  .w.s.c.m.h.>.a.h.e.s.c.i.s.a.d.d.a.s.a.w.i.s.s.a.a.a.i.r.s.0.u.f.y.f.d.r.1.[ f.n.z > S X.m.N.c.J.L.W.D.d.d.i.L.D.=.w.8.d...R ..r.c.a.w.y.Q 1 ;.}.I.;.%.d.E.d.s.<.s.d.[.=X Xh.V / >.R N W m R / y.m.;.B.}..XY <.J.J.<.G a.n.X.;.<.h.<.G =.U.a.h.h.y.X.Z W c.n.d.r.i.s.w.>.m.1.G r.s.7 g r u g / i.n.m.m.c.h.s.d.s.y.i.i.1.1.p.y.s.r.c.y.r.w.w.r.r.w.w.w.w.r.1.i.y.B.s.7 3 I E.,...L.'.,X.X}.E.L.c.d.>.' I c.n.X.' ' G m c.,XY.s.8.=.1.r.,.r.i.8.>.1.1.1.r.1.1.r.i.i.i.i.i.s.i.r.r.1.1.r.i.r.r.r.0.i.i.i.r.1.1.p.p.i.p.i.s.1.} ..=.I R 1.'.Y.Y.1.i $.r.r.=.A ..s.p.4.1.-...i.i.i.p.p.i.i.p.6.m.m.4.-.r.s.s.Q m.$.g u m -.v.i.r.r.",
"g | p.L.E.B.s.s.T.|.L.c.B.L.L.B.s.c.g.r.M.}.Y.*.C m y V r.M.| d m E.'.E.L.,.=.U m V U M.L.E.c.B.c.c.B.B.c.w...R ../ G c.).E.L.m.r.i.i.p.v.B.v.c.v.v.B.M.Q g A i.c.B.c.-.A V ' U I -.E.E.B.r.} ..r.c.0.K Y p.c.p.T B.1.Y / =.{ ) ' 1.A ' c.S m A =.n.d.B.'.s.X.1.D.r.b S ).} ,.n.B.h.X.M b S y.J.L.L.s.E.L.S / B.s.D.d...D.:.m p 1.i.y.c.L.r.>.c.Q V r.h.1.1.y.>.U.L.W..X{.c.N.D.' n..X3X-XB.A { +Xn.:.w.8.X.m u %.D.s.8.J.m. .S y.G.X.=.L.d.1.8.a.s.c.i. .%.a.s.a.N.w.z S ' n.$XL.;.h.y.' 7 u s.,X,X$X[.J.h.s.a.w.} Y.h.J.B.B.[.J.J.).}.J.a.a.J.h...;.s.h.i.4.1.m.h.h.h.d.h.d.w.h.h.a.r.r.a.s.y.8.8.y.r.y.n.8.N 4 > x S 9 ( n.~.$XI.a.D.}.,X[.W.).I.).R.w.a.8.a.` Y <.%.;.%.[ Y b g J.{.8./ %.y.{ 1.c.J.c.U.+Xd.c.8.r f V g Z r.w.r.y.J.E.).&XJ.%.m s.'.J.' W h.c.h.s.%.<.%.} I. X).).Y.E.W.a.W ' =.w.s.d.r.1.w.Y.'.s.&Xy.m M g m } y.r.1.p.m.m.c.d.s.a.r.p.s.i.w.h.s.s.>.y.r.r.w.r.r.r.r.w.r.i.s.r.r.w.v.B.A I g r.A ..$XE.U.E.n.;.X...=.Y Q ' =.r.>.R r V r.&XJ.c.r.8.1.w.y.r.1.1.1.w.r.w.8.i.i.r.i.p.p.r.0.0.r.1.0.r.r.r.r.r.r.r.r.r.i.p.i.1.r.r.s.i.r.i.r.s.i.7 7 g e U g.v.Y.r.' V i.B..X..2 U >.=.=.1.i.i.r.i.i.i.i.r.i.i.g.c.C.-.g 7 i e g Q U m m U 1.r.r.i.c.",
"E ..s.M.c.6.s.E.E.Y.s.M.`.L.M.c.c.v.s.c.E.`.-.g i g C ..Y.B.=.' E..XB.M.1.^ ..U g m U c.M.A.s.M.v.L.c.s.c.;.Q ....S R h.B.B.s.s.c.v.p.i.s.v.v.M.c.c.v.M.U 7 A i.M.B.v.v.1...s.i...1.r.,...=.1.M.P.B.i...8.s.E.' A s.L.n.=.i.n.n.U.n. .1.s.z z S ;.L.L.L.Y...S X.h.s.R A r.z ..L.J.c.c.D.=.>.E.&X+X4XU.s.r.Q { 1.D.s.d.D.'.d...8.r.y.s.h.m.B.B.m.' ..B.r.} Q X.r.E.L.L.M.p./ ,.c.c.<X.XU.s.S C W.-Xn. .y.n.B.%.G ` s.N.h.h.` u Q B.9.{ I.$XD.d. .r a.{.[.<.r.g.).R.m.y.Q X.;.D.D.8.w.w.` 7 9 N W L.).).b.w.a.h.a.w.h.>X.X}.m.h.i.%.c.'.).%.m. XE.I.r...=.h.h.;.<.m.s.a.d.d.h.h.a.c.h.s.y.y.a.s.s.r.y.f.d.c.c.{ 4 u Z a < x f.D.U.E.R.L..X&X$X).+X}.=X$XI.%.=.w.a.a.w.N.1.` Z p 3 u S N.h.;.X.=.X.a.{.I.I.w.D.B...8.N.` S Z G ` a.r.h.n.}.}.h.=.` z ` J.}.B. .y.J.X.W.).b.m.d.<.y.D. X$X<X&X$X<XB.i.1.;.y.c.r.>.w.;.s.r.W.i.d.L.W.W.}.L.w.1.d.h.8.w.1.w.w.8.y.s.i.w.s.i.r.=.w.s.B.r.i.y.i.r.r.r.i.1.r.s.E.J.>.b g ..r.D.w.i.Y.n.J.c.} Q ' 1.X.=.1.X.;.>.G S i..XJ.d.U.v.;.1.y.1.>.r.r.w.r.i.w.1.i.i.i.y.p.y.r.1.1.,.1.1.r.r.i.r.r.r.r.r.i.i.i.r.1.i.r.p.r.1.i.i.c.v.i m V g g ,.p.r.V } p.s.=.-.Q } c.M.r.-.1.r.1.i.p.p.i.r.1.4.4.g.i.s.Q i ..r.I V I w.r.v.v.>.E.,X|.E.",
"U Q s.T.L.s.c.Y.E.x.,.c.P.c.s.x.M.M.B.E.T.6.g * g y Q i.M.B.'.|..Xc.A.,.A -.1.A I P A ..r.Y.M.s.c.B.s.s.J.1.I Q A { n.E.L.L.c.c.c.c.s.i.s.c.v.M.L.v.M.B.A u ' M.v.c.i.c...U ,.L.M.c...Q Q ..1.c.B.p.n.L.L.8.~.' @.1.d.l.X.p.U.P.E.G.s.s.=.z m A =.W.E.M.B.r.;.r.J.c.` ..c.w.s.Y.1.i.s.1.m =.Y.n.B..X1.=.X.;.=.d.c.y.y.B.D.,.m =.m.y.m.n.i.c.c.1.' m y.s.B.s.w..XE.L.n.;.s.B.D.y.D.8.A A Z q ..E.;.o.m u.s.y.D.r.c.a.y.D.;XL.R A / =.;.J. XL.d.( W h.D.N.=.J.J.}.w.8.r.Y W ` b.w.s.s.S m p m A [ B.>.1.i.a.h.y.<.R a.E.E.J.y.i.;.<.I.Y..XY.3X<X).{.'.h.%.8.w.;.h.h.y.r.i.a.d.h.s.d.h.d.a.a.s.s.a.d.d.l.D.D.8.I x z u B c u [ 8.u.s.I. X3X;XR.h.U.E.U.J.s.' N A W ' [ i.h.8.W Z S g G  .G S Z A G ` / Z Q b d..XJ.w.<.z M =.i.c.J.y.I.$X;Xy.V b S / D.).@X[.J.@X).J.$Xy. .h.[.Y.h.a.<...N.N.m.<X[.|.J.i.r.y.;.>.s.y.=.<.y.s.n.L.L.Y.c.X.Q =.s.s.r.w.w.r.i.r.y.i.1.p.M.c.` u 7 V ` r.r.r.r.r.w.w.w.n.B.=.' b 9 b g L.).B.G R c.h.h.m.i.1.;.w.w.1.=.v.i.%.Q ;.1.B.D.'.{.c.8.i.1.%.r.i.i.r.w.r.8.w.s.i.i.i.p.i.r.r.r.i.i.r.r.r.r.i.i.i.r.i.i.i.r.0.r.i.r.i.1.1.p.s.v.i.g i V 1.i.s.1.Q V U '.B.m m } r.Y.L.i.r.p.i.i.r.i.r.r.1.r.r.r.p.i.r.g 7 c.E.} V ..1.p.i.s.L.L.B.s.1.",
"g A M.E.A.c.M.M.E.M.s.B.B.x.M.B.s.p.v.A.*.Q A m ,.1.-...i.-.r.T.,.m | E u C m m i.v.M.v.s.v.v.c.s.c.h.m.J.y.R b 7 1.M.c.L.m.s.s.p.c.v.M.L.B.M.B.M.c.c.c.m 7 } c.v.L.B.|.E.v.r.i.L..X}.E.c.M.L.'.n.L.P.;.Y Q n.S c.n.B.P.B.D.B.E.B.D.U.E.d.=.' { L.'.B.s.n.d.r.8.y.c.s.i.n.'.M.1.s.i.} V g 1.J.X.=.;.A X.y.0.I =.D.D.n.d.s.' 9 =.m.,.c.B.1.%.{ Q g m s.p.E..X.X$Xn.8.d.s.c.c.y.c.r.p 7 A A z s.D.m c 9 r...{ U.Q.h.y.a.}.}.;...b.Q.W.c.N.J.9.o.=.[ ` ;.<.%.J.I.m./ r.d.S %.D.;Xw.r.>.9 u N G %.<XL.m u ' g.L.r.R  .B.Y.E.m.y.>.` X.I.b.D.R.E.I.@X{.}.R.y.%.'  .c.N.d.s.h.h.h.c.d.a.d.h.s.a.a.a.a.a.s.a.c.d./ p z A u ..X.S b N I d.D.b.D.d.<.%.n.J.%.<.X.X.V r g z %.8.8.w.c.b.y. . .} N z p m Q I m ( 8.=.D.W.%.%. .S / a.h.L.E.r.J.I.h.G z Z / ;..X$X=X XR.U.J.D.}.J.h.L.$XY.I.8.S 9 N m / J.b.s.s.s.h.h.r.r.c.c.1.r.i.c.s.r.1.;.%.' X.p.s.w.1.s.s.s.s.y.y.y.1.1.c.h.A g V >.r.,.,.1.1.w.r.r.w.1.r.A 3 3 9 G m h.,Xs.I ..;.r.c.c.n.c.d.r.i.r.w.=.c.1...w.h.E..X+XE.d.r.r.;.=.s.r.y.r.8.w.8.r.s.r.r.r.i.i.i.i.p.p.s.p.r.0.r.r.r.i.r.i.i.r.1.r.i.i.r.i.1.r.s.s.c.i.m I B.E.p...=.1.Q ~ .Xs.U -.$.Y.&X}.g.i.r.,.,.1.1.1.1.r.i.p.p.s.i...7 g >.R - ..c.p.r.-.r.L...m A I ",
"2 g M.c.*.=.c.M.B.B.L.E.v.p.v.x.v.p.v.M.} s.E.B.E.M.L.A.B.s.s.-.l g l g C U ..E.|.}.|.'.T.M.x.s.c.s.c.B.h.s.=.A A J.w.} J.s.s.h.c.v.v.M.B.v.s.c.c.p.s.s.g 8 ' p.p.Y.v.M.v.}.M.v.|.&XM.i.-.p.v.B.B.n.s.T u A 0...0.l.W..Xs.8.r.U.B.D.'.-X&X+XD.W.,XU.r.B.{.B.y.y.r.1.m.h.B.B.8.G V V I A z b h.&XB.' p Y L.d.{ s.].=.1.s.;.I Y L.J.i.J.n.X./ I I S ..m.s.>.` J.L.y.r.B.l.h.B.u.n.c.M m m S Q U.B.n.o.W f.%.d.E.D.h.W.B.h.Q 9 ` y.=.' ;.L.U.c.;.Z p m J.L...} i.1.A ' h.J.$Xr.=.N ..G p b R a.h.w.V 3 m A V >.w.R 4.C.c.c.e.a.<.=.s.I.c.w.y.h.L.c.s.%.<.d.w...%.N.N.d.d.h.s.i.y.r.a.d.d.i.r.y.s.d.f.n.d.s.s./ u z A 1.d.1. XD.Y ..D.R.B.c.w.%.;.R.;.V X.G w.h.w.i.D.E.r.w.8.s.N.I.J.b.h.;.=.X.8.s.D.U.J.f.E.J.=.g ' X./ { ).&XE.I ' ).b.;.../ ` @X=X<XD.h.b.N.r.s.;.w.w.X.' %.Q s.w.<.=.G 1 A c.a.1.8.1.1.i.i.r.r.>.r.w.c.i.h.r.r.1.8.=.=.i.s.y.s.p.r.r.w.1.r.i.r.d.s.;.r G ,.D.w.X.%.=.>.w.y.y.r.y.=.g 3 G m V m } L.Y.r.y.r.....>.%...r.i.c.s.h.y.c...} X.c.E.Y.B.L.B.>.{ w.s.>.1.y.r.w.w.1.>.8.r.r.r.r.r.i.i.p.p.s.p.i.r.r.1.,.r.r.i.i.r.1.r.p.p.i.p.r.i.c.s.s.-.e I .XB.B.M.E..X.X}.E.Y.E.r.c.L.&X}.g.i.r.1.r.r.r.1.1.4.i.p.i.i.r.} g Q >.Q >.4.1.v.-.B.Y.g R v.Y.E.",
"5 l v.c.| s.L.c.B.v.x.x.c.c.c.x.c.x.c.M.M.c.v.B.B.B.`.v.i.6.A.OXB...=.=.| x.A.x.r...A.L.p.p.T.v.c.v.c.c.m.h.1...=.Y.V m B.c.i.m.v.v.L.r.s.p.r.s.i.p.L.} 7 u I B.M.Q I -.c.,XB.M.v.} A A =.Q ' M.p.G.y.M u I ' T n.~.&X;.@.E.-XE.W.U.,X+XD.'.-X&X0.;.D.E.c.y.c.;.` E.$XJ.D.` u d.B.z I Q z %.J.L.y.1.n.8.B.W.v.B.Y M z ..n.Q { ;.b B.v.` g ..{ ' >.>.r.m.w.i.d.c.1.8.n.n.B.d.n.c.8.1.=.m ..'.&X&X+XU.D.X.d.+XW. .Q ;.%.i.>.g I b.=.{ 9.L.=.[ I 6 b s.Y.<.z G i.1.A Y R.h.Q G } z ;.N.Y ..X.S [ [ u f w.` r m g Q w.b.N.r.r.i.1.w.N.D.r.8.[ ;.1./ Z g m 8.s.d.d.E.y.a.s.s.s.s.a.i.c.d.s.s.a.h.b.h.b.f.y.n.d.` m r A r.s.D.[.W.[.{.W.s.L.I.h.;.i.B.R A ;.I w.).[.).I.} { i.r.y.b.d.w.N.$Xn.a.D.h.).<XQ.D.h.n.r.n.{ [ a.8.y.N.' s.;.B.[.;.G a.D.@X@XR.h.>.8.8.s.s.%.Q } s p u G G 8.s.D.1.8.s.W.D.8.8.y.8.r.r.r.m.r.h.i.r.y.s.d.r.1.r.1.;.w.s.i.1.8.r.r.i.i.8.r.s.s.i.s.M 3 U B.c.r.y.c.w.c.1.r.c.>.s.R 3 I m g A s A n.w...Q r...V u m s M r.L.' g ;.c.r.>.1.s.s.D.n.L.c.>.X.>.w.i.s.s.r.8.r.s.i.w.p.r.r.r.r.1.,.:.i.r.1.0.i.i.r.1.i.i.p.i.r.r.r.i.i.y.i.p.r.i.c.1.I u g Q A Q C.}.}.;XoX&XB.-.,.Y.;X.XB.r.4.r.r.1.r.1.1.r.i.i.r.i.r.p.Q V s...} 1.r.s.c.L.E.s.} ..Y.M.s.",
"u ..B.c.s.M.B.L.E.A.c.c.v.c.c.v.v.c.c.v.v.v.M.B.L.Y.E.T.B.r.x.T.=.m 1.p.1.L.A.' y ..T.x.M.B.p.c.s.M.B.m.c.i.;...8.n.R Q s.s.s.d.s...,.p.1.r.r.c.E.y.-.A i m Q s.v.s.L.;X.Xr.7 ..p.Q u A B.p.Q 1.D.:.A q C r.c.L.s.p./ r.P.#XD.G.c.E.+Xr.I 8.n.y.{ y.=.A m ..s...' w.X.' w.` G J.c.Q g Q v.m.%.%.8.r.Y S M g y.8.A { n.}.B.S { X...h.c.Y.W.;XJ.i./ ` w.h.c.E.Y.s.s.d.d.r.c.y.s.d.c.I I 8.<X<XL.L.I.E.c.8.-X<Xu...X.8.w.).E.c.&X&X XE.n.r.a 7 p 3 Y h.h.` ' I.$Xm.I.a.Y.L.G S h.[ ;.I./  .B.1.[ y.' R e.N %.} 2 b w.a.i.y.i.w.<.w.D.B.w.[ S ` A z a u { n.%.8.B.n.w.y.a.a.a.s.h.c.s.r.y.a.h.m.b.y.s.c.d.d.c.X.W r.a.=.y.&X.Xu.s.D.8.y.[.d.<.y.i.a.` b 8.w.J.).Y.b.r. .;.a.a.d.c.w.<.).r./ [ s.@X<XB.{ 9.8./ X..XD.S R r.w.Q u >.d.b.<.z b a.J.'.R.b.` Q %.i.w.s.w.V g z 7 %.J.X.D.B.A %.E.&XL.8.i.B.J.c.w.s.m.;.y.i.y.r.y.s.i.r.w.r.w.,.r.d.p.w.r.r.r.i.y.8.r.s.s.w.' r b =.s.,.y.r.D.h.>.d.d.w.h.8.A u m A ` >.>.s.w.R ` { s.i.%.=.m.} 3 g ,.V . } 1.d.b.>.r.>.Q 1.s.y.=.=.w.i.s.r.8.1.r.r.w.w.r.p.r.r.i.p.p.p.p.1.1.1.r.r.r.r.r.i.i.i.r.r.r.r.r.i.r.1.p.p.c.v.=.i m k g u F B.'.|.}.B.m.s.r.' ..).Y.s.1.1.r.r.i.i.r.r.p.p.p.i.i.p.-.V ~ s.I A V U i.E.L.p.....p.=.Q V ",
"7 =.x.c.B.A.B.M.'.B.x.x.c.c.c.M.M.M.M.c.c.M.B.B.v.T.1.Q E } | A m P c.x.M.B.A.Y.1.r.M.1.r.c.s.B.v.c.h.c.s.w.s.B.n.n.i.i.i.i.c.s.=.,.v.v.Q ....Q Q A m V V A X.M.s.c.v.,.' m 8 ..i.c.-.I =.E.v.-.n.,.m 9 ' <X-XL.M.X.@.P.E.l.L.c.c.W.J.Y A y.n.1.=.U.c.Y m ..s...Q ..Q ;.U.s.>.B.A h.D.Y.}.r.` y.y.I u q m ' L.U.L.c.E.+X1.g ;.D.$XB.h.&X{.J.y.N.1.=.i.J.R.'.=.z 1.p.s.y.v.s.p.c.8.p g ;.W.1.S 1.f.8.;.X.b.c.{ S d.D.R. X).).&XU.R.W.J.c.X.;.u.9.<.D.[.J.m.J.J.E.B.)..XD.w.R.$Xm.R...W d.<.1.D.c.h.N.>.i.h.>.} G [ <...%.1.w.h.i.s.h.8.Y S ( p f g g W 9.;.a.B.N.d.d.d.d.a.s.d.h.h.y.r.y.s.N.B.h.n.U.D.D.d.'  .d.D.y.R.=Xc.<.c.D.b.a.Y.<.>.N.h.b.R z a.N.L.W.E.b.N.b.b.d.a.c.c.w.m.Y.w.s.1.J.;Xb.1.:. .f p y.I.m r s 1.%.' '  .R } A Z ..L.b.;.W / ` s.r.b.8.8.G * r b G w.w.R.$X<.` <X<Xc.S =.Y.s.3 9 d.Y.m.=.c.i.i.i.i.r.r.r.r.i.r.8.r.d.p.r.y.r.w.i.i.w.w.y.y.1.Q 3 u =.D.M.J.d.L.c.w.Y.h.1.>.R b g s ' J.&X&XY.{ G r.M.B.J.c.E.R.r.' U S p Y L.B.n.c.%.=.../ >.r.w.%.>.r.i.s.r.>.1.s.y.>.1.s.s.p.i.p.p.p.i.i.1.r.i.r.r.r.i.p.p.i.r.i.p.p.i.r.s.p.i.s.s.c.i.Q V g U I ' Y.&XE.v.c.s.p.p.p.~ ..E.Y.s.4.4.r.r.p.i.r.i.p.s.i.r.r.i.g.Q I V g 1.=.r.L.'./.E./.'.E.p.-.} ",
"| L.T.A.M.T.:X|.L.c.p.x.c.c.c.M.M.B.M.c.c.M.B.M.B.B.Q C m -.L.c.,.=.=.p.3XT.i.p.x.c.M.s.s.A.A.r.v.m.m.c.s.n.J.J.h.m.'.'.m.c.s.%...r.B.v.-.r.} 8 u m V I M m =.c.M.r.E.s.m i U r.i.L.s.s.v...g ,.0.A < A { 0.8.0.v.'.{.d.0./ 0.n.E.'.c.{ 1.D.n.r.y.B.c.z z X.s.{ G c.B.n.w.Q ..c.=.h.i.1.U V y.[.X.u z m ;.|.L.Y.r./ d.E.M 9 n.-Xi.=.r.{.n.w.r.I.J.Y.B.h.....m } ;.8.s.y.r.r.s.s.I 9 q A X.M 9 Y :.c./ m y.1.z I d.).$Xm.s.B.c.U.I.D.h.D.).&X+XU.d.I.$XY.m.).E.Y.Y.b.W.i.B.B.G z ;.<.w.).h.>.s.r.a.i.e.s.s.Y.E.>.m.N.1.r.r.>.i.8.b.b.' u z Z u p p Z %.n.c.d.n.I.m.c.d.s.a.a.y.i.d.a.a.a.i.d.h.r.D.( r X.{ z y.U.D.).4X+Xd.I.&XE.E.h.b.r.y.c.w.r.f Z d.r.w.m.D.s.J.J.h.r.r.i.y.r.D.1.%.a.y.>X}.8.=.r.X.u 7 r.L.Q N ;.h.N Q h.1.I ` ` w.D.).>.s 3 7 m %.Y ;.w.%.r b z z 8.a.X.3XN.I } J.r...G 1.G 7 . 7 J.n.s.s.8.i.i.p.i.r.r.r.r.i.y.r.i.d.y.8.r.r.r.p.s.r.r.r.r.r.;.A A s.;X$XL..XE.w.B.M.1.c.G r g V g ..h.h.' g A >.c.n.r.J.Y.+X.X)..X$XB.G S s.s.1.r.r.=.{ i.s.d.r.} =.1.r.y.i.w.r.d.i.=.>.s.s.i.r.r.r.1.1.,.r.i.p.i.r.r.i.s.i.i.i.p.p.p.i.i.i.p.p.p.1.-.} p g g m ,.&X2X}.E.c.r.i.p.i.p.-.E.'./.M.r.r.r.r.i.1.1.r.i.i.r.r.r.p.=.u g s m c.E.oX,X,X.XE.E.'.Y.Y.Y.E.",
"r.,X,X&X&XOX,XE.M.s.s.M.B.M.M.B.v.M.M.v.v.B.M.c.B.1.m V u U c.B.p.B.A.T.L.U ,.M.s.v.1.1.*.Q *.i.s.c.y.' ' s.m.;.;.h. X$X$X$Xc.{ ..i.M.B.B...A g V A g g A Q s.v.L.s.'.s.A ..v.1...r.B.Y.c.M.i.i.i.K m '.&X:.I A ..L.'.M.:.s.@.=.r.n.y.1.d.c.s.n.c.n.8.= ..U.c.X.s.$X|.L.n.d.B.n.).1.Y ' M N r.;.M { { =.c.d...S ..Q W.4X=.' d./ p A ..r.=.i.h.w.%.c.m.c.U.i.Q y.B.c.n.c.1.s.n.r.C A / ..1.I m / { r.Z M n.a.G %.N.$X.Xs.%.w.J. XW.D.c.E.$X).n.<.X.w.Y.b.y.Y.m...Z G .Xc.;.Z r f ` .Xn.h.w...c.R.).g.c.w.L.%.'.&X3X Xm.I.h.R I A ` 8.Q z x u Y X.S { ).'.{ W n.W.d.y.w.i.d.s.y.w.r.y.d.h.h.y.} m 7 1 3 S S / h.N.R. X}.L.d.8.%.Q ' ' =.h.h.a.y.;.Y 8.J.w.w.d.y.w.y.w.1.y.c.s.r.d.y.1.[  .c.3Xh.s.1.8.B.;.N c.>Xs.u d.).} ~ i.N.a.r.d.W.$X$X..9 g b z m > 7 7 9 r z z h.,X$X[.b.p p p u r Z A A > 3 A V -.>.s.s.r.r.r.r.r.r.r.r.r.y.i.y.s.d.r.1.w.s.r.i.s.r.w.i.i.r.y.i.m.$X$XJ.w.d.` s ' M m { 7 g A A Q y.s.s.R I c.}.L.U.B.).E..X;X{.'.}.L.S u ..w.8.s.h.s.r.D.n.h.r.' =.>.i.s.r.r.y.i.8.;.1.s.r.1.1.1.r.1.1.1.p.y.i.i.r.r.r.i.r.i.p.p.i.i.i.i.r.p.p.p.r.1...i g k A E./.v.oXc.s.1.r.i.r.,.U 1.E.E.m.1.1.i.r.1.,.1.r.i.i.i.r.r.1...g i m Q B.3X'..XE.C.p.r.v.c.B.Y.'.",
"c..X1.*.'.&X'.L.s.s.c.B.B.B.M.M.v.M.M.v.M.M.M.c.B.A.' g C r.s.U ' T.B.r.=.- A s.E.M.' A 2 2 E -.s.=.' ' } 1.i.-.Q X.w.h.}.,XL.1...c.B.v.i.7 8 Q Q ' I Q -.s.Y.M.v.Y.B...=.;X,XB.c.B.c.r.s.v.i.v.D.n.c.W.n...1.{ ) T s.G.B.'.D.r.Q r.8.8.d.s.y.n.s.c.{ * B.L.' X.h..X.XE.W.{.W.B.X.y.s.L.B.c.m. ./ E.L.U.U.y.{ Y 8.U.B.B..X=.7 z / { r.h.r.i.i.%.b =.s.' c.X.r.U.d.i.d.D.c.D.s.Y M m ' 1.y.{ { 8.u.;.z S ..Q Y w.Y.[.J.c.} ..E.y.d.u.c.U.L.<.=.=.} a.).J.8.w.} g b S [ p Q Z X.[ X.w.Z } ` }  X@XN.c.h.s.h.` E.c.w.>...=./ g s 3 I W u p A I J.).w.L.+Xd.W ( c.I.d.r.w.s.h.h.a.y.d.y.y.d.c.y.I & 6 b G 7 A w.X.;.N.W.a.8.=.s 3 f [ b b d.c.r.c.h.n.I.J.r.s.s.w.d.y.1.<.s.N.d.i.h.s.r.w.E.).D.=.8.1.:.a./ z [ o.r m.N.L.s...1.J.h.i.h.I.R.d.g f %.S I I r N s 6 S [ w.&X@XE.;Xd.X.Q ' r.;.[ A 1 z I m U >.1.c.w.c.8.1.1.w.r.y.r.r.r.i.s.d.s.w.,.r.d.r.w.r.1.1.i.d.1.s.J.U.E.h.>.} =.` ..;.I G u 2 g b m =.s.r.J.d.L.'.'.E.'.s.i.c.E.E.c.i.8.' g R =.w.s.h.;.h.B.d.B.c.s...8.1.d.s.1.w.r.8.,.,.w.i.i.r.1.r.i.i.i.i.p.r.r.1.r.r.0.1.0.r.i.i.r.0.r.r.i.p.r.i.p.c.1.m 7 ,.2XL.m ' E.Y.1.r.i.1...Q i V Y.Y.c.,.,.r.1.>.1.1.r.p.p.i.i.p.m.1.g u 1.E.|.E.M.m.1.r.i.i.B.m.M.n.v.",
"1.s.Q *.&X&XM.s.p.c.M.M.M.M.M.v.M.v.c.v.M.M.M.M.s.L.Q 2 6.,XE...,.&X'.L.'.' g 1.,.c.c.Q l ,...k I 3 p ' } I V V b m b I 1.s.1.' =.v.i.r.,.g g ..c.B.M.M.M.v.M.s.B..X}..X&X,X'.,XE.s.B.B.v.E..X'.P.n.d.m X : -.].:.1.0...s.;.y.E.y.L.s.r.d.s.y.s.L.n.A u r.;.{ B.-X'.B.m..X$Xh.=.} c.s.c..X;X-X}.L.&X&X.X.X#XL.E.U.r.v.M.s.Y ..n.;.y.'.3X.XM.i.>.g V A A r.=.i.X.;.1...X.X.:.I 9 c 7 g / s.c.L.M.+XW.M x [ S m s.b.e.X. .` r.I...r.9.y.8.[ z / :.I r.=.N m I G r r / ;.=.Y.X.y.I.I.J.%.R.W.8.%.R g R s.%...}.1.r Z s s b f s A R ).[ 2 x X.d.#XD.=.D.L.0.D.I.D.n.d.y.i.h.c.d.a.a.N.s.r.r.d.s. .f A Z S { d.%.r s <.E.w.w.w.A [ c.I.A b h.d.w.a.c.J.m.a.8.w.w.w.h.s.y.w.8.w.y.y.w.a.%.d.$Xc...8.9.d.r.8.Z z u g A [ G %.m.J.J.c.%.a.w.8.[ p 1 =.L.h.J.c.A w.X.N G d.b.b.J.I. X).L.[. X<X[. XR.W z b ' '.}.a.d.r.1.w.w.r.r.y.i.y.r.y.s.s.s.s.r.w.s.c.y.y.i.r.w.y.s.1.y.h.1.1.%.-.=.y.c.).c.;.%.b g ` >.m.{.c.>.r.1.m.J.W..XL...1.D.c.m.r.w.r.;.V U } =.w.y...1.w.X.J.m.h.X.r.1.s.s.w.w.w.w.8.1.w.r.s.i.r.i.i.r.r.r.i.r.1.1.r.r.r.r.r.r.r.r.r.r.r.r.1.r.,.,.r.s.1.V g B.L.g Q M.' $.-.1...Q m m A $.E.B.i.1.r.4.,.,.1.4.r.i.i.i.i.p.r...V R s.4.v.g.i.M.,.,.1.>.s.c.p.r.1.",
"6.r.s.'.;XT.c.p.s.M.B.M.c.M.B.M.B.c.x.c.M.v.v.B.E.p.y - c.s.' v.L.v.c.T.2XE.^ 1.s.B.L.p.B.L.P ..' z g A m z m g b b m Q Q A m 7 i.E.B.Y.r.A A p.M.B.M.c.s.s.B.E.E.'.p.p.r.v.s.}.L.1.s.s.B.}.,X,XL.i.U.{ { r.v.l.r.G.B.l.m 4 m T L.'.c.y.h.s.n.L.M.r.3 p I X.c.B.U.n.m.L..XJ.} } '.B.1.J.3X'.m.U.&X&X'.'.E.+X.X&XU.d.c.1.8.A R s.%.m.$X}.v.%.A 2 7 s A U.).L.D...E.U./ u 9 z 7 p g U 1.r.d.U.#XD.).r.9 D 8.b.f.s.b.} R 7 Y ).N.d.s.r.h.a.[ r Z I G ..N b G r f ..G r.@Xa.../ w.B.X.1.=.h.r.;.[ z Q y.m.h.c.%.G i.J.G b ` Y z [ [.'.r.D.+X+XW. Xd.z Y 8.y.L.Q.{.U.w.w.r.d.s.y.i.d.d.a.y.r.i.h.r.[ s y.m.Y.%.2 z f X.L.;.a.c.W 8.I.w.b Q N.y.h.d.r.s.y.d.h.w.y.a.a.w.s.s.8.1.h.h.8.%.y.I.b.%.;.y.;.=.<.d.b p W ;.S X.m.=X<X,X&XJ.Y.b.s.y...m  .3X}.J.=X@Xg ` Z [ '.w.I Q r.w.r.J.E.[. XB.<.c.R.D.` A L.}.L.h.1.i.r.i.i.s.s.s.i.r.r.i.s.s.s.s.r.y.c.B.c.n.D.v.s.i.r.s.1.1.=.1...;.1.=.r.h.} ..i.L.c.8.E.5X&X=.1.s.d.m.J.U.J.i.r.s...=.%...8.w.' G s.E.E.c.h.i.,...r.B.h.i.' >.=.i.s.i.r.w.i.y.w.w.r.i.r.1.0.r.r.r.r.r.r.r.r.i.i.p.s.p.i.r.r.i.i.i.r.1.i.i.r.r.s.p.Q g ..V Q 1...} g m V i V m g V -.Y.s.,.4.p.4.,.r.1.1.r.r.r.4.r.i.i.1.A i A A c.,.1.c.....r.1.p.r.r.i.p.",
"c.|.&X;X|.E.r.s.v.M.M.M.v.c.M.B.M.M.M.v.L.E.L.T.v.M.d = ' m m s.C.r.=.>.c.i.1.&X&X1.,.'.|.Y.E.oX;XM.} I U p.1.} A r.B.s.}.|.C.c.Y.&XE.B.=.u U p.p.s.i.=.p.v.v..X'.s.i.r.s.-.=.c.'.r.r.p.s.r.E.Y.Y T U.+X.X.X-X.X+X.X<Xr./ 1./ T r.[ r.B.l.n.d...z > 7 m ' ,.v.{.n.B.B.i.i.<.' %.c.I ;.m.v.%...1.B.n.I.U.I.).'.{.c.B.=./ A g ..B.c.i.c.Y.8.m r s s Y '.;XL.E.'.J.J.c.=.{ b m A V g %.B.s.c.J.U ..=XA g A %.c.=.=.B.d.w.A S w.r.p.p.r.d.D.{ g ` } 1.m.1.1.i.i.r.Y.>.s.' V R r B.J.>.m.w.i.b z c.s.J.c.>.r.w.X.i.L.` Q N.).D.E.@X3XL.U.D.d.I o.+Xy.b ` w.n.<.w.).b.y.y.c.w.s.i.w.r.i.U.d.h.b.w.h.D.Z h.N.8.;.f G b ..b.w.>.s.R b b.1.D 1.n.y.w.8.d.i.r.r.y.y.a.h.g.g.g.y.$.%.y.w.1.e.J.h.' ' c.8.1.1.D.1.7 s X.E.).&X=X;X&XL.J.$XL.8.w.s.w.y.w.d.%.a.;XR M b.;.).<.9 g ' w.d.=.I >.r.L.L.y.m.c.h.s.r.E.E.B.y.h.r.r.d.s.y.i.i.i.i.i.s.i.r.s.s.8.r.m.B.h.y.s.r.>.r.i.w.r.r.w.r.i.r.1.;.h.y.y.B.c.m.).m.+X.Xm.>.1.i.>.i.Y.J.m.m.8.=.y.w.=.R >.r.>.D.'.3X&Xc.c.s.1.c.d.s.p.1.>.i.v.c.s.i.i.p.s.i.w.r.p.s.i.r.i.i.r.1.1.r.i.r.r.p.i.1.1.-.r.i.i.p.p.i.p.r.r.i.r.s.i.p...~ E.i.I 8 V } b 7 A U g V g k k Q ,.s.1.i.s.-.r.1.,.-.,.$.=.p.i.i.1.i P ,.| } C P | p.6.i.6.r.,.1.6.6.",
"r.L.`.L.M.M.s.c.c.v.M.M.v.v.M.B.M.c.M.c.M.M.p.s.M.B.l 5 r.s.L.,X'.Y.'.i.I } s.E.A 7 ~ Y.}.'.Y.E.Y.}.s.,.L.-.Q |.;Xc.A 1.,X}.}.M.E.B.m.c.Q = m c.'.p.,...i.E..X,X1...X...s.s.p.M.B.,.I ..I B.-...X.D..Xc.c.L.n.c.B.U.s.A 1.B.r.U.y.[ :.u.n.d.Y > = 3 M A =.d.L.L.B.c.J.8.I ` ..R / r.J.J.s.%.=.1.s.p.N.m.h.c.h.c.s.i.1.V p I Y r.Y.J.+XE.;.y.8.u R '.'.L.Y.E.{.L...b R s.I g m r G s.1.Y =.w.z 1.E.Y u G s.X.s -.B.).,XU.i.s.1.i.i.d.c.c.} 7 ' w.m.c.y.&X&X&X5Xi.u r.i.' }.-X.X.X,X3X&XJ.8.%.%.c.B.G [ d.1.s.D.;.S [ ).E.'.'..Xi.X.A b 6 & D.L.S N ..R.E.i.m.R.m.d.a.a.h.d.y.r.J.b.B.8.s.J.d.b.B.D.h.y.<.A ` w.r.N.I.8.=.i...X.$X3XW.{.b.=.w.w.w.i.w.r.y.y.a.h.g.i.e.e.%.&.e.w.y.E.i.` N Y s.d.r.s.).I 3 >.L. X$X'.).L.C.%.<.y.>.%.b.d.s.N.>.` 1 { '.Q Z  .%.c.m.=.r.E.).d.I 3 z Q d.}.8.r.i.w.y.W.5X.Xd.r.d.1.i.y.i.r.i.y.y.y.i.r.y.i.s.8.....8.y.;.=.s.y.%.8.s.1.w.r.r.y.p.y.w.y.s.>.r.m.i.1.c.L.).n.1.I I s.s.B.W.E.n.1.=.8.i.i.r.} >.r.i.E.).c.U.m.h.=.` r.c.1.i.r.,.1.i.p.s.p.i.i.i.i.r.i.s.c.p.r.i.s.p.r.1.r.r.,.,.r.r.r.i.i.i.i.s.c.i.,.1.i.i.p.r.p.r.p...' E.s.g } c...Q A U I V g u g i k u F ' ..i.p.4.p.p.r.i.r.1.i.4.k.' g V ..| ^ Q U m m U -.i.i.1.r.r.r.",
",.^ Q ,.c.c.x.c.s.c.v.M.v.v.M.M.c.x.v.v.B.M.i.s.M.s.m E E.`.}.A...v.v.} 1.c.' U A g ,.B.L.E.Y./.E.E.L.M.E...Q E.E.r.,.p.i.Q A m ....-.U 7 7 U p.B.I ,.v.B.&X3Xi.7 A 1.1.v.v.c.v.p.Q m i.p.Y.i.s.~.&X'.n.D.L.y.s.y./ z 4 ..B.D.c.{.[.#XD.n.X.g S / { m A r.w.).m.B.L.s.Q S V 3 1 ;.h.1.U.3X'.h.r.s.i.m.n.s.d.i.i.s.d.1.z 3 ..{ w.s.d.$X'.r.c.r.G Y.'.L.c.E.$X'.).d.B.J..XL.>...r.L.M.1...n.B.m.&XU.y.' =.J.=.Q '.-X).'.|.,X3XB.1.s.n.h.c.w.3 ' Y.B.s.d.}.).U.E.V m s.c.h.s.y.B.W.Y.Y.1.' i.d.c.c.w.h.m.s.L.D.X.<.r.X.y.'.w.R Q  .m 9 z z N b.W 3 b S h.8.` <.=.1.r.h.w.a.y.d.y.r.h.s. .8.c.y.i.d.n.a.d. .Z i.s.a.I.m.;.%.i.8.a.=XI.L.U.8.X.a.s.y.i.r.y.a.a.g.h.g.a.w.a.w.4.h.N.C.4.b r 3 7 N ` [ } E.r 3 h.B.B.E.J.J.a.1.A %.>.w.c..Xb.y.a. .1. .J.y.p s f G %.J.J.Y.&X'.>.g 3 s M ' =.Q ..} w.s.'.$XJ.y.i.d.w.r.w.r.r.r.r.r.r.r.r.i.h.h.w.=.>.y.1.=.=.y.r.=.1.s.w.r.r.r.r.r.r.8.w.r.1.w.r.' Q w.c.B.r.r.I s 1.i.c.L.M.r.8.r.w.r.r.c.w.r.s.s.c.1.1.r.=.1.w.w.s.1.1.p.i.1.1.r.r.i.i.r.r.r.i.i.i.i.p.i.r.i.i.r.1.1.1.r.r.i.s.p.r.r.p.c.c.i.1.r.p.s.i.p.s.i.i.1.r.} V -.,.} p.p.c.,.} C 7 i u V ' ' =.g 7 7 * 8 V ' =.i.r.i.s.i.i.i.p.g g g ..r.r.c.M.1.A g U p.c.r.6.6.6.",
"E m Q s.E.c.c.p.s.c.M.M.v.v.v.c.c.x.v.v.B.M.x.B.x.p...p.p.P ^ Q U =.F i =.~ g B.s...c.m.v.E.B.L.Y.s.E.'.C.p.-.Q m 7 =.c.} m Q c...i.M.r.I i I r.-.A r.E.&X.XB.p = A c.c.v.s.p.p.E.U $ 1.;XE.;X;X'.d.1.c.d.c.r.s.8./ g M l.y.y.n.n.0.U.:.S z Y d.y.1.S ;.W.m.c.1.s.>.%.m 3 Q 1.} >.c.h.}.'.>.Q i.c.i.c.h.s.s.i.i.8.d.` b b D.-X3XB.L.E.m.c.8.' i.;Xn.c.h.L.}.L.L.m.&X,XW.s.s.n.h.{ ' h.y.c.w..X&XW.E.B.B.E.{.-X3X&X}.&X+X'.L.h.c.c.s.n.h.M r n.B.V G E.c.R m b z r.;X'..Xd.G m s.$Xs.Q m z s %.h.w.n.m.>.<.a.w.a.N.h.y.W.R u 9 r 9 b z b / m m W Z b X./ m G g A ;.D.J.n.d.s.h.y.h.h.1.w.a.w.i.d.;.c.I.` r.y.;.h.$XW.c.a.s.y.i.N.X.9.f.8.w.h.a.s.s.r.i.a.y.a.g.i.g.y.g.a.g.Y.R.Y.<.Z N Z S r 7 3 g h.u G B.h.h.h.c.J.b.%.V =.>.a.).N. .;.a.8.d.s.%.N f N R y.B.[ i.r.h.r.I z G ` S ..9 u g b h.n.'.1.=.i.r.p.h.8.w.r.y.y.r.w.r.r.y.i.s.d.i.i.s.h.c.L.M.h.r.,.8.1.r.y.r.r.r.r.r.1.>.8.r.r.1.Q I 1.8.s.1.w.` f { c.;XE.M.p.r.y.i.s.w.h.i.y.i.y.>.I >.w.,.y.s.i.d.r.p.s.i.,.1.r.r.w.r.r.r.i.i.i.r.r.r.i.i.r.1.-.1.i.1.i.i.i.s.p.1.1.i.:.0.v.v.r.1.r.s.s.p.i.i.1.-.U A Q ' ..' ' M.s.i.r.U u k p.i.' ,.1.Q g V V u 8 V 1.r.1.p.p.s.c.-.7 m g *.x.x.x.p.p.} A A =.1.,.4.4.6.",
"2 ..].,X|.s.v.p.x.v.M.M.v.v.c.s.c.c.v.x.c.v.s.M.s.,.' p.| d ' ,.B.'.E.,...Q A 4.Q Q E.'.m.M.p.M.C.B.B.c.1.v.M.B.i.%.' c.i.1.L.1.=.'.L.=.A i ..L.1.s.s.v..XL.' u g U p.s.c.s.s.p.p.-.g '.,X;X}.E.L.n.s.n.s.n.n.n.1./ ` s.U.d.W.<X{ < I K 4 Y d.=.9 A { D.Y.L.I R R M b 7 m U.&Xs.w.h.L.'.J.n.r.J.U.c.c.h.s.h.i.i.c.i.M u p w.s.1.m..XY.w.n.s.R ..B..Xc.y.m.B.L.s.i.L.=.z Q i.Y.'...i.B.s.c.J.,X&XD.B.n.L.).-X,XL.{.L.L.U.L.c.r.i.i.s.d.h.p * I ..X.u r.' 7 g g z i.8.y.B.D.'.=.c.s.=.d.R R ,.;.s.m.w.8.h.a.h.J.w.w.).3XY.m > ' 1.<.r.) / u.8.E.'.c.m.Y.N.i.8. . .<.;.1.>.D.h.N.d.h.m.s.r.y.i.d.i.y.d.r.A h./ ;.@X;X[.I.h.r.i.a.8.:.r.s.y.d.h.i.h.s.r.i.i.r.r.y.w.a.y.a.i.c.Y.c.8.Z k N ' w.G f f G } e } w.' ..G Q e.b. .Q 1.w.y.i.S m ' ;.d.h.i.<.I s S  .c.).w.v.p.i.X.b m } =.s.'.Q V s %.+X.X}.>.%.r.1.r.h.r.r.r.y.i.r.r.r.i.s.r.r.r.y.s.r...-.v.c.s.i.r.i.y.i.y.r.r.i.s.i.r.r.w.r.w.r.1...,.>.=.Y M A s V m.-Xi.h.J.h.s.y.w.y.i.1.>.8.r.r.%.i.w.1.i.s.w.r.i.p.s.i.,.1.r.r.r.r.i.i.i.r.r.r.i.p.p.i.i.r.1.r.p.p.p.1.-.,.,.,.1.y.B.E.L.i.p.M.M.r.r.,.1.1.1...m m ..,.} r.M.' ..4.p.1.Q ..p.R ' 1.s.,.Q U V m F e r.c.r.p.p.p.c.-.g V g | r.r.^ Q ' ,.L.B.x.1.r.1.1.1.",
"2 ..L.|.T.r.c.x.c.M.B.M.v.v.c.s.v.v.v.s.v.B.p.i.v.,.} s.s.p.B.L.E.}.L.-.s.&XE.c.' ../.&X'./.M.v.=.r.c.L.c.M.c.E.|.E.s.c.v./.M.g 1.|.i.g 7 A p.p.s.B.B.L.M.p...M A U i.s.c.p.s.v.c.M.c.;XM.E.v.Y.s.D.s.d.n.8.{ { A g I ....D.<XU.y.) ) S 9 S Y 3 / p...n.Q M I y.` } } =.U..Xy.R 1.p.).U.r.s.s.J.L.s.d.d.d.c.d.h.m.=.` ..i.{.w.G Q h.D.h.c.c.%.A >.i.>.' %.h.c...M ' g A }..XL.).U.d.>.n.s. X+XL.y.r.1.c.B.r.>.w.i.r.i.d.s.i.d.m.s.n.h.w.p g Q i.B.s.m.r./ S } w.>.g u ` ;.}.}.J.h.p.} 9 I s.r.i.c.N.i.L.).i.y.B.W.N.y.' u G L.>XN.u.0.c.L.>X<X'.R.).m.r.i.h.c.d.Q m Z r ;.d.N.y.h.h.a.8.r.h.d.8.w.;.I z `  .I.<X}.R.J.h.8.y.y.X.1.a.u.w.a.c.h.d.h.i.a.a.y.i.a.r.e.y.a.i.c.h.} Y ` F k $.E.b.1.;.>.R 6 F N p W I b =.g.=.1.s.a.i.w.m b V M r.b.c.h.<.N 8.b.y...` i.w.=.Y u A y.n.W.h.Q I ' +X'.E.c.s.r.1.i.r.r.i.w.r.r.y.y.i.s.s.s.r.r.i.s.s.%.g I >.w.i.d.r.i.c.s.s.r.w.r.i.r.8.8.w.s.w.r.s.1.w.8.} G m Q V s r.L.>.` X.J.D.X.8.s.w.>.;.1.y.s.s.h.X.Q =.s.s.8.1.r.c.s.1.,.1.p.v.s.s.p.r.1.1.i.s.c.i.1.1.i.p.i.1.i.y.1.,.,.,.-.1.Q { } g * g } ..V Q ' 1.r.1.Q u i R g i } 4.I $.i.g.g.1.i.,.Q Y.i.B.|.|.s...' A k i.c.r.p.p.i.s.r.A l m =.c.Y.p.B.A.`.3X3X|.c.r.1.1.1.",
"I | ^ p.M.i.s.c.c.M.B.c.c.M.c.s.c.M.M.c.Y.E.r.| x.s.s.L.c.c.p.M.g.r.Q } '.Y...L.'.c.B.E..X,XE.,.-.,.s.s.p.s.i.s.'.v.v.B.c.M.4.p.;X|.M.,.Q Q ' m r.v.B.E.1.i.r.} ' ' s.v.c.i.c.M.v.i.B.'.L.Y.s.r.d.s.8.d.c.Y g p 2 m u g { U.r./ [.+XD.f.Y N z M I r.{ '.d.>.d.D.y.c.;X,XL.c.1.R ` 1.L.J.m.n.L.'.d.8.i.s.s.s.s.h.n.>.%.c..X<XJ.Q Y ' ;.n.h.s.n.=.X.m m g A =.I z g 3 A r.E.E.E.y.} X.i.E.d.L.c.8.r.r.8.y.i.' R s.i.i.r.w.w.r.d.h.B.c.J.I . i.+Xs.b.$XU..X'.s.c.c.w.d.R X.B.c.c.c.8.{ 9 m I S X.h.i.<.8.w.X.} d.E.8.w. .b 3 a..XW.:.r.n.c.c.Q.U.E.D.r.R / h.I.D.N.N S ..u Q y.h.h.b.d.d.i.s.n.h.w.1.<.W b N c.3X&X&X).I.m.y.r.w.} y.f.s.s.d.c.c.y.d.a.a.a.y.a.h.a.i.g.s.a.c.<.I ` s.s.e.m.w.W  .h.=.} Q F ~ 4.L.).a.L.a.w.i.s.w.r.J.` p p z ;.y.8.c.h.;.w.s.m.w.Z m A g u u Q m.B.r.m m S =.E.=.=.1.i.s.1.d.y.i.r.r.w.r.y.i.i.i.y.s.r.s.d.s.c.%.9 ..h.c.d.d.w.r.s.i.s.i.r.r.r.i.r.w.8.c.r.8.p.>.w.1.{ } 8.8.Y A y.'.d.Y u ..s.=.s.i.w.w.w.w.r.y.d.r.%...>.r.r.w.i.r.c.h.r.4.r.p.v.p.s.i.4.1.r.p.p.p.0.,.1.i.i.1.,.1.r.r.r.i.r.1.r...= O * 8 2 2 8 7 A Q ,.=.=.Q i u k I 1.1.$.p.M./.,XY.-.i.v.B.Y.s.&X5X.XY.}./.' 1.v.i.1.i.i.i.i.1.l m ..B.}..XOX,X,X&X'.E.B.i...1.1.1.",
"=.M.1.s.c.s.s.x.c.B.B.c.c.M.c.s.M.B.B.B.'.'.,.C 6.....1.,.1...p.i.p.R A v.>.s i.s.m./.E.g.c.c.,...B.Y.,.c.v.1...-.i...g.v.B.}.;XE.B.Y.1.A ' ..i =.|.s.i.r.r.=.c.s.,.s.p.c.c.v.c.s.c.s.c.1.v.'.v.s.=.8.r.Q 3 z u S M I s.c.B./ K D.:.9.+X{ T y.c.B.r.w.=...E...R Q L.[.r.>.r.W 9 Q L..XU.J.h.U.D.c.i.m.B.c.c.s.c.m.i.G ;.n.n.'.=.` Y I h.J.s.c.} =.w.g r ' G 7 3 p I s.L.Y.b.D.8.g h.Y.1.L.'.c.r.s.r.y.r.s.r.>.h.w.h.d.s.r.i.n.c.s.m.w.7 m %.i 7 d.W.Y.|.1.} v.i.s.c.n.s.).'.B.r.=.m f b m s.B.s.h.;.8.%...h.b.r.R / 8.b / R.$X;./ +X,X9.f.X.=.d.d.S p =.>X;Xa.8.>.Q %.I 8.I.w.<.a.w.i.y.w.y.w.<.c.a.} f g d.-X.X XN.a.i.r.i.h.a.a.8.1.a.d.d.b.h.a.w.r.r.e.i.s.i.s.h.a.i.c.%.I e.[.1.R s.h.i.y.w.R r.h.R h.3X;X.X,X&X=.=.<.r.w.h.d.} r f g ` h.'.}.w.J.d.8.h.}.;.G Y M m S } w.} ....J.s.r.w.=.8.D.w.r.r.y.r.c.r.r.r.r.y.i.r.w.1.y.r.s.s.i.s.X.7 R s.s.=.;.8.i.s.1.y.s.s.i.d.m.B.c.8.i.8.y.c.=.=./ V R r.{ u Q m.c.` =.A 2 ..m.1.i.r.y.w.1.r.r.h.h.y.i.y.r.i.r.i.i.s.i.1.r.i.i.i.r.i.r.r.r.i.i.r.1.r.i.p.i.1.,.1.,.1.,.,.r.r.i.s.s.U i i i m V u I } } ..U Q Q I g g m.m.,.4.M.E.'.M.~ ..c.>.1.Q A s.c.1.Q A -.L.&XE.,.=.i.r.r.i...7 A M.&X.XM.E.L.Y.'.E.Y.r.6.1.i.i.i.",
"-..X3Xc.p.B.r.M.c.L.x.c.i.' *.=.:XT.p.A.p.M.Q = Q 6.c.s.s.6...r.M.B.c.g.'./.v.'.i.i.m.s.s.M.,.U ..s.B.v.s.4.Q u ..E.A r.E.}.3XY.M.s.c.} ..E.c.U r.i.Q c.M.1.} v.s.B.v.i.L.c.s.i.c.M.i.-.i.v.s.i.-...r.=.S 7 M ..1.=.r.s.L.M.I m B < Q Q B u.L.c.U.n.d.=.Q s.Q =...r.h.>.%.>.Q z ;.}.&Xc.y.h.L.w.s.s.h.c.c.v.c.c.c.s.A g G ' %.L.>.1.c.c.R Q %.%.r.n.y.%.i.r.Y m s A E..Xr.1.s.s.I r.r.1.'.&Xc.>.r.s.s.w.>.y.d.y.y.s.i.h.i.B.B.m.L.L.Q 1 m p Q g / Q 7 m 1 S n.Y.s.i.E.Y.L.L.Y.c.w.c.d.%.m.B.%.'.'.s.h.L.s.L.b.y.s.y.8.;.r.'.w.Z 3 o.H._ u.l.X.;.S > z d.'.J.V i.B.;.b. X'.b.>.8.a.w.m.r.r.w.8.<.m.a.X.Q <.'.$X@Xd.a.1.%.8.b.b.w.8.y.y.w.r.s.d.d.n.w.w.f.r.8.s.d.d.a.s.B.r.A i.).}...N J.'.5X$X$X>XR.w. X'.N.E.}.'.).~ %.r.<.y.=.h.N g b V h.>X3XJ.i.m.a.B.Y.}.y.c.&Xw.Q 8.r.r.r.s.U.;Xw.r...V m 1.h.s.s.i.r.B.r.1.y.d.p.r.s.d.r.s.s.r.r.r.8.V u / ;.;.-.1.r.w.{ Q =.s.i.1.i.d.>.U r.r.w.w.c.w.' S A } I g A / d.>.3 m M s ' c.%.r.i.r.8.r.r.r.y.y.r.r.r.r.r.r.y.4.p.c.r.1.i.p.s.p.r.s.,.p.r.,.>.r.1.i.p.1.,.1.r.,.1.1.1.p.0.1.s.v...g u 7 g A p.s.v.s.} m i u 7 u ..~ u A r.B.E.p.V 3 Q p.1.1.,.Q ' Q A i m A c.|.g.=.1.1.p.v.} u y ^ |..XL.s.c.,.'.'.x...1.,.r.r.6.6.",
"1.|.c.p.s.s.M.v.M.L.M.M...7 g Q 1.I P ..g i 7 = Q x.M.r.p.*.A ' E.L.=.E.,X|.}.;XE...i.s.v.s.-...Q m.E.M.g...k k g.=.I s.L.;XY.B.p.i.1.U A -.B.L.'.E.s.-.-.v.r.v.s.c.i.B.M.s.E.Y.c.v.M.p.i.p.,.-.../ ' S g z ;.v...d.n.c.n...m X.U.;.K S 0.d.:.D.c.B.'.E.m.{.v.J.L.U.m.,.r.L.m.1.n.M.8.1.Y.L.m.y.h.h.c.c.c.c.c.c.B.>.2 V s.r.1.b I i.s.X.3 3 R ..=.L.D.s.B.c.;.=.} i.r.' R h.&Xn.X.%.U.3X&XJ.s.y.i.y.y.s.c.c.s.r.s.c.c.s.s.n.d.J.D.Q & p V X.>.' X.%.S s m I Y.E.s.y.B.` h.B.r.D.W.U.B.Y.I.=.Q y.} <.J.r.1.a.<./ a.I.E.$X$X}.;.u q N L ) c.u.D.c.A a S y.1.m W E.y.N. XR.s.w.<.8.h.8.8.} ;.8.r.i.y.N.d.Y b.[.).J.%.<.r.y.a.h.h.d.i.d.d.a.a.d.s.r.w.r.y.s.d.c.h.a.r.B.c.s.1.i.I.J.B.%.=.<X=X.XL.[.J.8.Q a.h.r.i.i.b.B.} s.h.>.a.h.8.r ..E.}.'.$X Xy.y.W..X,X-X>XR.&X;Xm.r.y.r.i.r.d.{.8.m } m.>.>.i.w.h.i.m.s.i.r.w.w.i.i.r.r.y.r.h.i.w.y.i.=.m g %.s.i.w.r.w.w.1.r.=.X.=.w.d.w.Q I 8.y.y.s.c.%.Q b m Q m Q M.d.d.1.' m s ....' r.i.i.w.1.y.s.s.c.d.r.1.1.i.s.i.w.i.i.1.1.r.r.i.c.1.,.r.,.i.r.i.i.p.1.,.1.i.i.r.1.1.s.i.1.1.1.s.1.p.1.A A V C { E.E.v.r.-.Q m i g A ..=.Q U -.i...V 1.' U 1.p.p.L.c.i.~ u m A 1.E.Y.-.~ ..Q Q } I C l } Y.s.r.x.r.M.`.M.r.,.p.1.1.1.1.1.",
"v.v.E x.E.s.v.s.s.M.M.B.| 2 2 d y 2 y l i g A A E 1.=...c.6.P ..B..XB.}.B.c.M.L.Q I Y.r.=.-...Q s ..Q A =...g m =.I g i.M..XC.r.i.i.{ A A ..p.r.c...r.M.c.c.v..XB.p.r.Y.s.v.B.c.Y.c.M.s.,.i.p.c.;.S u u p A y.s.r.n.B.{.+Xd.y.'.8.Y / f.L.I.~.&X-X+X$XU.h.E.&X5X&XL.n.m.L.L.h.h.c.J.1.} n.m.h.s.c.c.h.h.d.h.h.h.d.Q . c.).r.g u 2 r.n.h.} G / G i.s.w.D.m.Q X.'.3Xd.1.S I L.Y.s...1.E.).m.s.i.s.n.d.i.p.h.s.i.c.d.c.m.y.c.c.s.L.A $ m g s s.r.>.E.d.h.1.>.%.Y.Q A B.J.I s.c.L.L.c.c.1.p.1.' 1.=.Z ` a.R <.;.;.y.).3X$X>X XN.=.A I Y { p v 8.I.d.( a z =.d.G S m S h.).;.W ;.y.y.s.y.a.8.i.a.w.w.a.m.%.u a.J.h.a.>.;.;.w.i.i.r.r.w.y.i.i.s.h.s.8.w.y.s.l.l.u.u.n.r.d.8.9.;.b.c.a.s.i.N.[.h.w.=.>.=.R Z ..=.>.=.%.e.1.A y.B.r.s.h.V u B.@X[.N.I.b. .<.D.).).N.b.b.Y.Y.h.y.B.E.v.>.L.L.I g ' .X,X).Q V m A r.-.r.r.r.8.r.s.r.8.r.r.d.i.y.8.y.{ m A h.).B.-.=.r.s.<.=.' } =.w.i.r.X.=.s.s.w.y.r.A m Q s R i.}..Xc.'.&Xm.I A r.w.-.=.>.r.i.y.r.w.r.s.s.i.w.1.w.r.i.y.i.v.i.s.c.4.1.>.1.1.r.r.r.1.s.p.1.r.1.,.1.1.-.-.s.1.i.1.i.i.s.i.r.c.' Q Q T Q } } U U } } A g g } m.p.i.v.c.s.r.L.Y.,...p.E..X&X}.'.B.,...=.oX,XL.-.-.,...' Q R =.B.v.}.'.M.c.c.E.A.6.-.1.s.6.,.6.6.6.",
"c.i.Q l } c.L.c.M.A.c.1.C 5 l U I I A l U A V C U ,.6.=.-.U V r.'.|.}.Y.B.'.v.1.m Q B.c.r.>.=...U ..Q ' s...u g 1.E.v.L.B.Y.m.1.,.-.A 7 A p.E.L.U.L.'.;X&X|.5X|.U S i.E.M.Y.B.Y.L.p.s.n.1.=.s.c.' z 7 / y.n.E.r.d.c.d.n.=.' c.c.B ;.n.+X,X=X-X+XB.c.n.r.>.i..X$XL.8.1.d.c.i.y.L.h.1.%.i.W.s.8.h.h.d.s.s.s.s.h.h.s.' S h.Q i.=.1.r.v.h.n.s.1...V m R ;.}.}.d.L.'.Q m h.X.G D.m.s.V Y w.;.' >.i.c.y.s.i.s.n.c.d.c.s.d.c.p.m.c.M.y.2 g m r { y.G Q ;XE.J.B.1.r.L.' ;..XE.1.c.c.{.c.M.1.' d.h.=.B.W.h.w.;.N a.y.s.$X>X=XI.B.m.w.[ S S X.D.( S f.W.D.z c o.9.D.c.1.[ s.$X[.=.[ y.h.y.s.n.B.c.c.s.w.y.I.a.z 9 8.L.i.m.a.w.>.8.y.a.r.1.1.r.y.y.a.d.f.r.d.f.r.u.l.u.r.n.r.8.8.r.y.d.y.d.i.h.b.a.=.=.1.>.i.%.>.w.w.w.=.w.s.;.n ;.m.i.i.i.G >.;XL.h.a.y.<.` w.m.L.m.w.<.d.h.c...Q c.E.y.i.1.1.;.m.L.B.h.A 7 m 2 ' J.,.s.=.r.w.y.s.y.r.i.y.i.1.s.s.r.M G J.J.B.m.m.s.s.i.` A A Y ' ..1.r.i.,.y.r.1.y.w.u g s G -.L.&X}.E.,X,Xv.%.1.i.D.{.i.1.y.s.s.s.r.r.d.i.i.r.8.w.r.i.i.p.C.r.r.i.-.r.4.r.4.4.i.r.>.r.>.,.p.i.1.w.1.>.1.,.=.s...r.p.,.i.1.-.A U r.0.Q U A M U ....Q A A 1./.M.Y.'.B.B..XoXi...L.&X,X;XE.'.v.g.L.i.}.2Xv.v.1.s.s.i.g.1...1.&XA.'.OXM.s.M.L.p.=.=.1.r.1.r.r.r.r.",
"Q U 1.,.M.c.p.c.p.c.c.*.i 7 E 1.x.' A m I P *.i.A =.B.B.s.,.6.E.,XY.E./.|.Y.i...R m.L.L.,.' ..r...,.c.E.v.A g =.Y.oXi.Q p.B.r.s.,.I m V 1..X.X,X,X}.D.p.v.}.3X1.7 2 A p.E.v.v.n.v.c.c.L.' 7 m u z I ..W.,X,X+X1.d.B.d.d.X.=.B.1.@.+X<X#XW.U.[.G.8.1.d.d.c.h.).M.r.1.i.a.i.s.r.i.' ` c..X.Xd.i.c.s.s.s.s.d.h.c.c.n.c.w.' c.'.).&X.X1.1.i.s.c.c.d.w.' m I Q i.$XD.V ` i.1.%.h.Y.Y./ 3 =.J.=.X.1.1.c.B.c.i.d.c.c.i.d.d.p.h.v.s.m.S z S 7 i.1.y.r.>.L.$XJ.v.d.s.B.[.5X;X$X X&X.Xc.J.M.s.i.D.B.-.>.B.h.B.b.i.@XW.J.,X[.c.d.h.b.%.z 9 { W.I.;.o.f.U.o.< { D.D.d.L.I.=X3X3XY.8.w.a.i.1.d.b.s.y.r.s.b.D.d./ 9 g w.Y.m.D.1.r.i.y.a.h.d.r.y.d.h.s.y.y.u.r.d.f.8.r.z.y.o.[ D @.c.r.d.c.d.d.i.w.r.y.e.1.r.s.s.%.w.i.i.i.w.h.c.h.} e.s.w.y.h.a.E.=XJ.L.J.` Q G 8.m.J.J.c.s.B.d.8.Q Y X./ G i.i.s.w.n.M.=...Q / r.Y y.m.1.h.y.r.i.d.s.r.s.s.8.=.c.B.Q m b ..L.c.s.d.;.Q c.E.G m g u g / 1.r.1.>.r.p.i.c.w.7 u ' J.Y.{.&X'.W.B.c.c.c.J.h.c.W.J.r.w.1.8.i.y.r.s.i.w.1.w.s.h.8.} ' ..Q -.i.-.i.i.4.1.-.w.1.1.1.>.1.,.=.=.1.i.r.,.8.L.s.I =.p.r.,.=.g 7 m r.s.=.c.Y.c.r.=.Q A Q r.v.v.s.B...Q =.s.1.-.1..X;X|.B.p.4.' Q =.p.;XE.,.>...i.r.1.s.i.r.1.p...c.M.s.T.T.c.1.=.,.6.1.6.r.2.1.1.",
"| i.x.1.L.L.Y.x.v.c.B.c.*...M.|.&Xp.p.6.=.p.E.p.' i.'..X.X;X.X|.}.E.Y.E.B.A ~ U I ,.Q p.c.c.i...F ..v.L.i.} >.B.L.A.m I M.p.>.=.=.A ,.Y.|.E.p.E..X1.i.1.c.Y.L.p.i.} V i.L.Q s.v.c.M.c.p.V 8 A V M s.W.&X{.{.E.r..XW.s.D.D.=.=.8.I.{.U.n.D.U.{.L.d.y.s.r.s.y.c.w.h.s.B.J.B.s.%...G 1.,X&XB.i.c.s.s.s.d.h.c.c.c.v.a.=.M =.,Xm.w.J...g >.c.i.y.y.c.D.>.Q ..i.'.+X;.m ..r.c..XL.M u 3 7 y.c.U A U =.1.r.c.n.i.i.d.s.c.h.y.c.d.w.>.2 2 u ..c.A y.Y.r.1.s.s.w.B.s.L.'.L.E.h.i.1.} I d.1.n.L.s.w...Q >.Z ;.s.B.a.Q >.@XR.r.n.s.X.N p S W.+Xd.[ 8.D.y.x T f.s.W.J..X$X-X{.J.1.<.y.r.r.r.y.a.i.c.s.b.J.m.G p z p <.D.E.m.<.1.>.;.w.h.h.r.a.h.h.i.8.w.y.y.u.y.d.D.y.S q x 9 X.n.y.d.y.f.y.w.y.y.8.1.1.w.r.y.} =.1.s.s.i.s.i.c.=.r.i.e.i.c.d.Y.I.%.w.h.M S / w.m.c.B.c.c.n.s.w.=./ s p %.E.}.c.r.i.G A m m ` i.s.U.d.y.=.w.r.s.h.i.r.s.i.>.s.B.1.7 p r.B.r.r.>...p = %.U.A u p p A 1.c.i.>.8.s.s.s.h.w.A Q Y.<X.XY.=.z ` y.s.s.c.D.1.1.m.L.=.8.r.i.r.>.>.r.r.y.i.r.1.%.R b u 7 g 1.c.-.-.-.1.-.=.>.1.p.>.p.y.-.=.-.-.,.r.,.E.}.V 7 U =.r.' A g I i Q c.c.}.}.L.B.B.,.A Q p..XE.c.i.A A I ....Q ..E.B.M.p.=.A I F m B.}.g.s.1.=.4.4.....1.B.E.p.A *.p.6.-.} x.,.1.6.p.6.r.6.6.6.6.",
"s.A.1.s.Y.c.x.x.M.r.1.| I ..x.A.Q *.c.s.p.B.v.E L..X,X|.A.s.r.v.B.C.s.p.i.Q -...A A A Y.L.s.M.M.Q r.C.L.L.Y.B.i.M.'.-./.M.1.c...} ..L.E.r...r.'.p.,.v.v.c.r.....=.Q U -.A = Q c.p.c.c...A ,.L.B...L.{.'.L.U.L.U.W.L.y.B.B.=.c.4XW.n.S / [.+XB.L.c.s.c.d.B.B.m.d.D.i.s.m.c.1...w.=.s.$X).n.r.y.i.s.h.c.c.c.c.h.d.h.R / Y.n.n.L.r.;.;.Y.J.c.d.s.r.y.D.J.B.U.U.=.7 S i.}.B.{.$X/ b g b ..=.c.Y.w.r.m s } L.J.s.h.c.c.d.p.s.s.8.A 8 g ..J.} ..B.h.h.1.I R A >.s.$XJ.1.s.' g 2 3 Y 1.w.w.s.d.i.1.8.E.i.c.i.h.` f i.@Xa.r.c...b b >.f.f.N x [ n.z._ L Q / [ r.' D.'.E.J.h.8.d.h.a.h.s.w.d.b.L.<.%.;./ s s S g ;.J.).b.y.>...%.w.d.a.w.y.a.a.w.8.r.s.s.s.d.F.d.L < > p S f.n.c.d.8.y.y.1.s.y.<.>.s.d.s.m.y.h.i.h.s.i.1.r.y.} 1.a.s.i.s.w.N.J.N z W g G ;.w.h.w.d.y.h.s.i.s...z 3 I W.3X).` i.s.A X.8.r.s.h.d.c.1.r.w.n.i.y.p.y.r.y.i.w.c.V $ 1 Q B.s.} ' m b S m ` =.z 3 M ' 1.s.i.r.s.>.i.r.a.r.y.r.L.5X}.w.R I ' 1.r.i.;.r.1.A r.E.D.>.r.s.h.s.8.1.s.r.h.s.=.U b p r g g Q i.1...-.1.1.,.1.-.1.i.Q 4.s.-.1.p.-.=.-...p.} $ 2 i I U A g Q r.A U M.|..X.XM.r.,.} U 1.|.,X}.s.$.Q g.1.r...g k c.s.c.=.V k A i k Y.E.i.1.i.p.i.r.' V ' 4.' A 5 ^ p.r.} ' p.,.r.r.r.1.p.1.6.6.r.",
"..'.T.T.A.E.r.r.x.s.p.U 7 m E A U v.B.6.s.c.M..X2X&XL.p.i...' B.B.c.s.r.i.p.s.E.E.h.c.v.....v.,.4.c.M.m.m.s.r.i.p...A ' 8 m.3X'.s.s.,.I A r.}.L.r.r.1.v.i.m i g A 7 Q ..u g A ..p.p.v.I A M.c...y.B.D.E.L.B.8.B.n.B.B.B.n.E.&X'.:.z z [ { =.s.c.d.d.c.s.c.n.i.s.i.a.M.n.r.X.Q / z m.3Xm.w.i.d.h.s.h.c.c.c.d.p.y.Q R s.h.U.J.d.n./ 1.r.' r.L.'.c.h.y.=.=.=.m p w.&X$X&X3X.XW.E.8.A u i.&X.Xc.=.m.i.7 r 8.c.r.i.s.s.i.s.i.d.r.9 z G I G s.R Q B.'.J.8.' M 1.B..XL.%.8 V i g ;.;./ ..=.=.X.;.c.E.W.J.B.w.h.c.d..X;.Z  .;.G Z w.=Xh.n.o.S u.n.u.n.8.I S n.h.S I.W.J.w.w.8.d.s.a.c.1.h.b.c.a.p 1 p 3 7 b N N =.I.m.y.8.8.y.c.b.d.a.d.a.d.a.r.r.u.f.s.s.U.n.D % p D q o.Q.d.y.9.8.y.8.a.r.<.a.a.y.8.a.w.e.h.r.i.y.h.w.h.s. .w.s.i.r.s.a.s.W.Z 7 7 3 g Z A [ Q ;...1.;.Q ..s 7 A ` i.m.w.p r.=.-.w.h..X&XW.d.m.c.w.s.8.s.w.r.y.r.i.s.s.I.Q 7 m %.W.r.b s A G I ..m.y.9 z ` w.i.1.` { s.y.D.m.m.8.,.s.E.r.X.r.>.=.r.;.y.=.y.c.Q 7 w.J.s.i.%.Q ' w.s.i.s.h.d.1.Q m g s p g Q B.L.>.=.1.1.,.1.i.-.-.-.u Q 1.A Q ;.=...Q i 8 = g A 7 Q g A ....r.Q Q ,.L.L.B.i.=.} Q Q 1.L.E...Q V s /.E.>.i.s.Q =.i.r.b e i A m ..i.s.i.r.-.p.4.$.A 7 i i y 2 U v.,.=.r.i.1.,.p.1.,.=.p.1.6.1.1.",
"F A.C.L.'.' ' p.v.r.2.g i n.&XP.'.3X'.`.;X&X.XE.s.c.M.x.| E r.T.M.} A i ..v.>.p.i.' L.|.E.E.p.i.M.E.|.Y.s.p.c.s...u Q ,.,.'.&XE.s.r.} } 1.B.Y.r.r.s.L.,.i $ V g Q V =.v.1.:.U Q ' ' Q g g g 7 u r.'.B.P.n.i.s.p.s.1.s.B.~.<Xd.' ..l.@.[ g 7 m p.c.l.r.s.c.i.r.p.c.>.c.n...A Q A g w.}.B.r.s.r.c.d.s.s.y.M.c...;.y.n.d.B.c.y.{.r.g i..Xd.B.D.c.=.s.r.r.i.D.r.` d.+X.X|..X'.c.s.M.-.=.Y.E.A 7 A v.c.h.=.I A i.s.1.w.w.c.w.r.r.r Q { Y B.s.S s..XL.' B.c.1.h.;XL.' u 2 V b s.L.s.h.>.s.c.1.B.D.c.@.g / d.s.r.M.S > s ` b m V ' ` s w.=XJ.b.` ..a.i.R B.=Xh.L..XY.h.1.8.i.b.b.s.y.a.a.b.N.c.g 9 u A z [ Y A 1.r.c.h.a.w.y.h.a.i.d.h.i.i.s.a.w.a.h.y.d.E.1.& z m m Z c.I.c.0.r.8.9.d.r.r.y.u.s.s.u.y.r.i.s.d.h.s.i.i.h.s.w.w.i.i.r.i.8.n.s.z 2 u 9 p 9 g 7 u p S A p u 9 r A } ' c.U.i.` ;.p.8.L.$X}.>.' 1.L.m.r.r.i.r.y.y.r.i.s.i.w.m...g ' L.W.Q g u V b ' <.L.c.V g ' i.y.y.r.V Q E.i.D.B.r.>.d.=.I %.w.w.1.r.i.r.w.w.s.>.V 1.m.h.y.,.I ;.h.1.s.r.s.i.{ M b Y } R V %.Y.B.=.>.1.r.1.1.w.s...b s u 3 > 7 2 7 u 3 b s p m A g R ` ' r.E.'.i.' %.X.W.E.c.=...` Q %.w.m g V r.-.p.Y.r.g.1.c.=.} I g V g I i.s.-.U ....=.1.Q g 7 k ' =.Q ..c.M.s.>.i.=.>.1.r.i.r.r.r.r.r.r.r.",
"m r.' ..v.Q A ..r.2.} u H t.@.) ..r.x.E.E.v.i.' r.p.p...m E x.s.v.B.Q 8 ..E.m.i.U A -.M.i.i.v.C.E.'.E.B.v.v.m.s.Q i c.5X3X.XE.Y.E.L.c.B.E.v.p.p.1.E.B.U 2 m A g A I ..M.Y.s.,.c.i.A 7 g U A Q ..}.{.d.n.d.p.c.v.....c.~.&X.X:.Y / :.K / T / T T @.;.U ) M.n.i.D.s.i.B.=.I z u z g s.W.c.h.n.s.c.c.n.c.n.s.-.1.B.c.n.c.r.r.s.L.=.g r.J.R d.c.Q / s.r.d.c.J.'.'.).'.B.p.v.Y.L.c.r.s.&XE.p...=.s.L.s.i.U.s.X...s.h.h.i.' Q s.%.2 ..1.{ '.=.I .XE.m 7 1.%...$X.X1.1 k k F ' <.R G <.1.r.m.M.n.B.L.B.Q ' d.1.B.c.1.Y g S u r V G G 7 8.' r.b.=.B.h.y.y.E.}  ..X}.'.c.w.i.d.h.s.i.w.8.1.d.i.L.' A Y z I =.I w. X[.J.D.a.8.w.a.y.y.d.h.i.g.i.w.w.s.b.D.n.b.r % Z x z Q I.W.n.8.0.y.r.d.u.s.u.y.8.9.9.8.s.i.i.i.s.s.i.r.d.s.r.w.i.i.r.r.r.c.X.2 g z u z M A Y A m 9 p z u i S Y %.1.B.W.B.G ' m.L..XL.s.=.r Q Y.h.;.s.s.s.d.d.s.s.s.s.i.D.d.s.Y.m.=.b 7 m Q ' r.D.E.>.s u b ..d.E.'.Q m m.} / 1.n.p.w.w.=.r.i.w.>.w.r.w.h.w.;.%.' B.;X.Xi.,.=.i.y.' } r.w.L...9 I 1.s.Y.'.&X3XB.=.w.w.1.r.r.i.r.R s b m u b m m u 3 A 8.A ;.=.G A =.r.>.'.W.J.s.B.;X,X$XJ.h.i.v.r.{ ;.s.} g V c.,.~ =...=.,.s.m.} g i g Q p.1.1.s.p.I V V k e i g V ' $.c.i.s.s.i.,.-.,.1.1.1.,.1.1.r.r.r.r.r.",
"R i.$.Q U =.B.s.A m i i I K 8 i E Q 6.B.1.^ Q g P ^ ,.' 7 C M.E.s...m m r.c.Q U u A I r.Q ~ M.'.L.Y.Y.M.s.p.s.s.U i.3X;Xc.M.Y.Y.'.|.B.M.L.c.i.p.M.B.-.7 7 I Q 1.-.,.c.L.p.r.E.E.p.' A V C A c.'..X=.M @.l.c.i.i.) @.c.L..X.X1.K :.n.G.[.@.;.0.c u m i 7 U p.s.,.U.W.m.z m S u m ' c.s.r.m.s.r.n.l.c.r.c.r.Q ..1.Q ' 8.r.s.s.1.Y m 1.G g h.w.1.1.s.c.B.E.).$X,X}.E.c.i.i.c.v.r.....-.U i.i...B.E.L.B.B.J..X;.I h.w.L...u { M & A 9 [ &XX.s.-X} > I N.1.w.)...R R m %.%.a.=.Z %.L.,XB.i.r.{ =.c.D.{ ' c.B.8.U.<X{ ' } ;.L.&Xi.%.} >.Q r.r.r.).).,X X).I 1.=XJ.L.e.y.h.b.d.a.a.r.<.y.m.;.b./ I s...I m N  XR.a.s.d.h.y.y.s.a.d.c.n.i.s.r.r.s.h.h.D.W.I X g D I I / '.[.n.1.8.s.y.r.9.8.r.r.r.r.s.d.h.s.y.i.s.s.i.r.s.s.w.1.r.r.w.r.h.r.1.u u A ../ p ...Xc.1.A z i g u A b A ` ;.m.r.I r.J.m.J.} A Q ..c.B.r.1.y.8.r.r.y.r.w.r.r.r.c.B.8.n.h.S p / M.i.h.J.p.>.' ../ m X.c.8...m Q R g u W %.>.1.c.r.s.s.w.1.w.i.r.1.1.r.r.1.r.'.Y.n.=.;.r.=.I R h.d.r.A 2 ` i.1.L.$X$XE.w.=.w.w.w.r.r.i.w.V 7 g s z Q g m A m G 9 m s.h.1.c.).,X&X'.h.r.s.s.m.W.n.=.8.c.M.{ m X.m.s.-.A s 8 R ..7 ..Y.-.r.i.' V V v.B.C.J.i.c...7 u e s A m s Q >.} ,.r.B.c.>.,.c.4.1.,.>.,.1.r.i.4.r.w.",
"..L.C.r.^ s.E.i.,.I g g I ' T ) x.s.B.c.} A A m y =.1.l 7 =.T.,.Q 2 ' v.|.C.u g A I A M.B.M.i.Q '.L.c.p.c.v.v.v.v.Y.].M.1.p.c.c.s.L.v.s.c.c.h.i.p.s.,.2 A Q =.=.E.Y..XB.,.c..Xv.1.i...Q r.B.<XE.' M I { 1.l.:.) Q r.c.n.E.4XU.1.0.~.B.G.s.G.L.r...A c g g A A A { Q g . 7 b A >.{.E.>.%.r.8.i.h.s.d.d.c.X.S / X.r.:.y.s.8.A p 9 g i.>.` =.W h.m.s.D.v.E.}.n.m.).M.s.s.p.p.s.,.Q m A 9 Q ' A c.E.Y.h.c.J.%.m u } s.B.v.g 7 i G Y Y { 8.V D.L.u p .. .w.-Xh.` ..I 1.h.g.c.=.W s.B.Y.h.i.c.;.r.s.d.{ B d.d.B..XI 7 i.s.M.E.Y.X.w.).r.Y.+X)./.Y.}.E.%.` %.L.E.h.h.e.a.h.b.h.d.h.d.i.b.L.y.D.} ` b.%.;.w. .a.S ` m.w.s.w.w.i.y.i.d.d.r.w.i.s.i.h.N.b.h.2 > A c ) ( u..XW.d.9.r.y.8.<.r.r.y.y.r.r.y.s.s.i.r.y.a.s.a.i.h.s.1.=.1.r.r.s.s.y.d.Y u { E.v.S X.W.0.i.i.1...{ ' ;.=.%.X.%.r.r.u I Q y.m.Q p ' U.-XE.c.s.y.8.r.r.r.r.r.i.a.i.>.B.1.r.r.` =.D.=.Q i.J.w.1.r.c.=.m ..B.y.1.} r.{ A ..D.8.1.y.w.r.i.i.r.w.y.i.r.<.w.p.r.>.R h.c.} I } w...m b } ;.V V s A i.D.}.E.B.r.1.w.>.=.i.r.1.i.i.I r g s ' X.z Y i.c.h.A g ..w.c.'.E.;X&Xr.-.%.} A s -.=.=.1.r.1.R G ;.r.4.i.,.' A -.M.$.i.,Xp.r.v.>.-.s.;XoX}.g.s.,...A g k m A g A s.oXE.p.A 1.v.g.c.$.,.,.,.1.r.i.r.r.r.w.4.",
"*.A.,.,.M.B.,.=.B.'.B.] ..c.c.0.v.c.s.' A V 7 y ' p.Q u =.&XE.U m A >...i.L.} r.i.r.4..X.X.Xr.U s.c.c.c.v.c.p.s.B.v.c.s.s.s.r.p.s.s.s.M.v.s.v.s.,.1...i A Q r.} M.B.B.Q =.L.E.M.1.,.A Q v.M.s.Q 7 C c.c.{ m g K X.l.n.E.n.Y.} M p.l.:.@.Q G.<X#X#XB...S ' Q i m s 2 2 V Q m w..X5XY.%.%.=.8.c.1.X.8.B.,.m p I y.s.r.1.8.X.g U { g X.J.>.B.Y.m.c.c.d.w.Y.E.1.r.W.B.p.p.p.l.s.' g =.Y.1.} :...i.E.L.s.w.>.Q 1.r.w.m A m 3 M.).c.W.m.;.{ S d...u m =.1.8.d...` ` } R.y.N.J.c.>.s.1.` r.n.L.v.c.r.s.A [ r.8.'.1.Q Y 1.W.-X$XB.M.).;X$X$X$X.XE.J..X..r b i.'.L.m.s.s.s.a.d.h.h.d.h.c.c.d.r.m.w.d.R.a.[.3XB.8.;.;.c.d.s.r.y.s.i.a.d.s.8.w.h.s.8.J.E.8.* > z m A I I Q.&XL.r.8.y.r.9.8.y.y.y.u.u.y.y.r.r.i.i.i.i.i.i.i.s.s.r.,.w.i.i.s.s.B.y.` p R =.=.w.G N g { B.c.v.p.B.c.c.d.h.N.h.` u r.=.>.G A >.r.>.N.'.c.>.8.r.s.r.w.r.i.i.i.y.w.s.i.i.;.r.D./ g ..L.r.{ =.1.r.%.S ..w.>.c.;.{ B.} } h.1.i.h.w.w.r.r.r.w.w.1.>.r.w.r.w.w.g R A 3 7 m } Q m G / A 2 p r V J..XJ.s.i.>.1.r.>.>.s.r.1.i.c.[ g I } ....` >.r...' Q =.=.%.=.,...d.;.Q { S r r V h.1.1.y.i.8.` I ..%.i.r.C..X'.E.&X}..XC.c.Y.Y.p.Y.}..XB.v.1.4.M.'.p.U Q I A I ..p.i.$.~ A ' A ~ r.r.,.1.1.r.i.i.r.1.r.r.r.",
"p.A.5.i.}.'.s.r.M.&XB.=.c.L.p.p.c.v.6.A Q =.I ^ 1.=.g V v.E.r.' A 4.....L.L.p.Y.}.|.&X;XY.E.M.E.s.v.p.i.v.M.c.M.1.v.c.,.1.s.v.c.M.v.p.v.Y.L.i.U U U i V m ..M.v.1.,.s.' =.L.B.L.i.Q V r.v.Q u 7 ' 1.~.L.:.A g A ) T ' E.n.1.4 O ..~.G.;.) 0.0.W.L.r...I ,.Y.i.' w./ m A V I }.3XL.Q Q m.B.r.1.} ' / { m 7 p c ' d.8.{ Q A g =.r.Q i.Y.B.+Xr.' s.c.>.s.{.L.s.m.M.v.i.s.p.v.y.I V }..XL.i.n.v.Y..Xi.i.m.y.B.L.W.}.1.b R A ;.r.} M S 8.s.r.L.X.I { v.L.i.I R m } }.a.r.$X[.).J.Y.h.D.W.J.c.s.s.r.s.8.;.8.l.;.g S s.-X+X).E.c.E.'.Y.).L.Y.I.'.J.1.s G w.a.Y.'.B.i.e.a.y.y.h.h.a.a.c.s.8.r.y.w.D.[. X+X X'..X3XD.D.B.i.r.a.s.y.i.s.s.i.r.h.h.c.'.b.u $ g A Z I Y c.+X&Xn.<.8.y.w.w.s.u.u.a.f.d.d.s.y.s.s.h.h.s.s.i.i.p.h.s.r.s.s.i.y.s.h.y.r.p g A S i.} V A Q h.>.=.r.D.w.=.=.n.).B.h.8.}.r.y.' ' w.c.h.h.h.y.;.;.y.d.r.1.w.r.r.w.1.s.w.;.;...Q ..A B.,X'...>.>.=.n.i.=.y.i.>.s.=.>.c.8.V 3 s ;.c.s.w.1.1.1.1.1.1.1.w.w.i.i.r.u 7 3 Z s g ` ..} %.` A u m { L.3XY.>.Q %.=.1.w.1.r.r.r.w.r.s.` u R s.p.s.c.h.1.I g M s.w.Q p 3 V ;.R ' Q g s G >.Y.y.8.s.s.r.' M Q 1.g.r.C.|.&X.X|.L.E.r.s.L.|.Y.E.'.B.1.p.i.I c.E.^ 1.v.i.-.r.s.1.Q g 7 Q Q I >.-.i.r.r.r.r.4.4.1.1.r.r.r.",
"*.p.M.m.s.,.=.' ].p.m T L.G.r.l.s.s.6.m R 2...s.M.Y.r.1.B.A.c.p.'.Y.1.m.}.C.E.,X.X'.}.'.Y.E.L.E.B.i.I m =.v.s.p.v.c.i.c.B.B.v.c.s.v.-.=.M.s.A = 7 m i A A v.B.c.i.v.}.E.M.}.E.M.r.U Q }.}.c.} Q :.c.c.Q { 8...i c u A s.n.c.@.g Q p.~.l.' d.{ ' { u Q p.M.Y.c.i.y.i.r...' s.,XL.} r / [..Xd...' 1.' z 7 z A I ' s.Y m p g S s.D.i.s.=.L.-XR } s.s.r.).;XU.v.c.y.1.1.s.p.c.1.U ,.c.s.1.} r.'.,XY.c.} r.c.D.D.s.Q J.n.i.g 7 u A A Y d.s.s.'.L.s.c.M.=.s.Y.s.w.}.Y.4.Y.;XJ.L.L.Y.E.3X'.U.J.B.d.d.d.d.u.m .XU.' 8..X).X.X.n.m.L.E.J.J.J.h.=.h.w.N b ` h.>.N.I.h.r.r.i.a.s.s.s.a.a.s.y.i.b.c.s.a.d.b.N.b.[.R.'.$X3XJ.<.<.w.w.<.8.y.y.h.a.d.D.J.y.V . g p a Z N / '.'.W.s.;.w.y.y.y.u.c.c.h.d.y.r.8.1.d.s.s.a.s.s.i.i.i.h.s.r.s.s.i.i.r.8.s.B.I } c.1.y.c.r.8...i.8.1.i.m.s.y.r.L.U.m.+X+X}.{ %.s.c.s.n.}.n...r.s.8.s.h.i.r.y.s.p.y.i.w.i.1.=.>.g A B.Y.w.b m d.s.8.r.=.` >.B.Y.J.=.m.n.L.s.V i Q r.r.w.1.1.w.w.w.w.r.r.r.s.4.>.g V %.>.Q =.h.h.r./ m g g I h..XL.>.>...1.r.g.r.>.w.=.r.r.1.>.Q s G i.d.d.i.1.r.r.1.1.L.B.;.Y A ;.c.m.s.Q V { } i.E.y.c.h.=.>.r.>.1.s.r.4.'.&X'.s.v.C.} i.s.p.g.,.,.L.v.Y.i.Q k I m 7 ..p.=.Q =.i.p.i.i.p.c.1.r.r.-.i.r.r.r.r.4.1.1.4.r.r.r.",
"1.m.Y.M.p.U | L.v.Q V 2.B.0.,.t.v.M.B.Q A ..' x.L.c.6.M.E.B.M.L.&XM.E.E.r.s.'.'.Y.B.v.s.g.c.M.B.=.c.s.i.v.M.d.c.v.v.c.M.v.p.c.B.B.v.V 7 I i = g ..V g A Q -...s.'.5XY.p.L.;X}.L.,.Q ..c...L.E.s.B.n.p.;.c.l.c.c.=.8.c...Q =.s.C A ;.G.:./ G.1.1.A Y c.~.E.r.U ..s.s.n...R 1.Y.c...` i.U.E.L.1.} 1.;.m u g z =.U.1.9 m Y ..1.y.n..XW..X,XY.S 1.m.r.B.-X$XU.s.;.h.c.c.v.i.i.} g -.g Q U ..}.|.L...` n.c.w.i.D. .Y i.i.V 7 ;.J.'.E.&XU.n.B.n.E.{.L.m.W.J.3X;X;X3XE.R..Xg.1.L.Y.C.,X.Xh.J.W.B.;.i.y.:.8.l.D.Y y.5XW.B.} h.U.i...i.r.' >.w.r.s.r.' n ` <.r.Y.h.1.r.s.i.h.h.s.s.d.d.a.y.y.w.a.c.r.<.;.%.;.s.>.D.$X[.d.w.r.a.a.w.y.h.b.d.i.h.E.h.9 X p g S y.'. X[..X=Xb.8.;.r.a.u.r.9.8.r.r.r.9.9.8.y.i.w.1.1.r.r.r.w.r.s.i.1.r.s.s.s.i.c.r.-.;.m.W.r.1.i.i.L.c.c.m.Y.E.B.c.d.w.c.i.J.).&XE.%...s.r.>.s.} A Q >.1.1.i.r.1.1.w.r.r.r.i.i.1.=.;.B.1...c.c.I g / w.w.N.w.d.n.W..X}.L.;.E.).m.W.d.V u ;.c.w.w.r.i.i.w.1.w.1.w.s.1.%.b m >.` G h.B.w.=.R ' ,...` 8.h.8.>.1.c.i.w.s.1...w.w.w.r.=.>.%.G R 1.r.i.r.m.B.i.p.c.n.d.1.8.>.=...B.B.Q A ' Z s.{.r.>.d.;.=.c.B.m.B.Y.E.;XY.p.1.i.r...=.} -.U k A ..i.=.Q g A ' i.1.r.B.4...i.i.1.r.1.'.s.r.v.Q -.i.1.r.i.i.i.r.r.r.4.4.6.",
"r./.p.L.M.M.B.m.i.u A ..,.n.v.L.x.T.'.L.T.`.L.B.M.6.-.B..XT.x.A.C.s.'.E.1.' c.E.c.c.1.v.s.c.B.c.s..X|.E.L.M.c.p.c.i.c.s.v.s.B.v.B.-.m m A 8 g A ..,.M.p.v.p.s.}.l.v.}.1...&Xi.s.c.B.}.c.r.c.}.}.&X-X.X:.l.n.B.y.'.-Xs.1.A A T ' K [ '.0.m @.s.n.n.I S ;.Q r.r.v.W.).J.h.Y.).s.-.=.R G m.W.s.%.y.D.s.A =.8.;..XU.=...d..Xs.n.s.n.J.$X<X).w.A } d.c..X.Xr.%.w.h.s.p.v.s.p.,...g m A p.E.'.;X+XE.W.L.B.r.r.c.s.r.d.r.u p i.$X&XE.B.E.&Xn.B.'.U.W.U.Y.&X,X,X}..XE.Y.J.a.4.g.J.y.m.J.s.w.c.c.r.r.1.1.d.u.{ z ..&Xn.' G A A ..A } 8.I s Z Q a.I.L.J.a.J.E.$XR.w.a.b.h.a.h.b.n.N.c.i.i.s.d.h.h.a.r.w.w.8.%.;.y.i.w.y.s.8.a.d.s.a.s.h.h.r.d.s.J.D X N m b Y h.}.E.R.@X=XN.w.=.<.r.y.a.s.i.d.d.y.w.w.r.r.w.w.=.w.g.i.i.i.h.h.i.w.s.h.s.p.r.w.r.r.s. .F w.h.h.&X,X$X;Xc.E.B.w.} I r.{ 8...r.E.s.} R c.s.y.h.%.} L.J.i.;.i.y.i.i.y.r.r.r.r.i.1.i.w.c.' b { I m I w.s.E.d.).;X$X).B..X.X{.E.r.=.' M =.r.1.d.>.r.i.r.w.w.1.w.w.r.>.r.>.7 b ..=.X.r.1.=.Q A s.c.s.c.J.s.' / w.c.h.h.i.i.w.=.1.` V I ' s.>.g w.s.8.1.p.-.i.p.1.m m %.d.m.n.).c.A 2 G I { '.Y.-.y.w./ ;.h.' R 8.L.g.E.p.,.1.,.>.Q ....' 7 m B.i.k u k u g s.|.'.Y...i.L.M.p.s.1.B.Y.I ' 1.} ..-.1.>.,.r.i.r.r.r.6.r.r.",
"4.Y.T./.B.B.1.x.M.' I t.l.c.P.1.1.E.|.E.|.E.r.,.p.p.OX,Xr.Q =.1...-.} 4.r...B.M.M.c.i.v.B.Y.Y.c.v.|.B.1.s.v.c.c.v.v.M.M.M.M.s.Y.v.i 8 1.E.i.=.V v.L.E.B.M.s.E.,Xc.B.v.B.L.} I p.~.B.}.}.M...p..X'.U.B.p.c.d.l.G..XB...p.d.Y S n.@.K y._ < ] W.'.{.G.l.E.r.s.n.L.}.E.'.|.m.=.{ ' y.w.).<X).B.s.c.n.A m 1.n.y.y./ ' '.<XX./ 8.c.y.i.B.).Y.8.g Y i.L..XL.%.=.h.c.i.p.c.c.s.1...U ..}..X}.'.,X;XE.B.).U.L.D.J.J.n.r.' r =.3X'.w.i.B.D.:.g 8.W.d.r.-.i..X}.L.d.s.w.c.>.m ~ i.<.%.s.r.1.r.s.c.c.y.r.i.0.K z m E.n.A g G A Q I 1.L.E.` [ i.C.).E.J.E.).,X$XoX}.J.B.L.c.a.d.s.s.h.d.a.s.y.a.s.s.a.y.y.y.1.>.r.s.w.<.8.y.d.h.h.a.r.y.a.d.s.1.r.8.& u z A Y z ' D.L.B.L.I.h.i.i.8.=.y.d.8.8.r.y.w.8.w.y.i.h.h.w.i.c.s.s.i.i.g.i.w.r.i.r.r.s.4.s.J.h.G k s.}.D.1...J..X} ` M b s.Y.B.Y.E.' Q s.B.Q I B.w.s.r.D.E.+XJ.i.r.v.i.i.r.r.r.w.w.r.r.y.r.1.r.m 2 s u R w.s.>.).E.E.'.L.L.d.c.Y.E.,.` N I m Q r.B.y.r.>.} w.h.i.i.w.w.a.i.m.R s =.w.J.i.i.w.1.{ Y s.8.s.L.J.;.S R 1.=.>.w.h.i.>...} 1 * %.L.c.` b >.w.1.s.p.} >.1.w.c.I r.E.r.}..X..3 m  . .&X,X1.=.%.>.Q } -.Q I ` =.$.,.v.c.1.r.Q V A Q m V Q %.Q m ..V s ..>.1.c.' m r.E.c.>.1.1.s.=.,.B.B.r.} i.-.=.>.4.r.p.i.1.1.1.6.",
"5.`.T.g.r.B.s.`.,XT.B.Y.'.].'.E.OX,XE.c.B.p.=.p.T.`.2XE.Q } 1.V 7 m g =.1.=.v.c.B.s.v.c.m.c.w...p.E.,.' s.B.p.i.p.v.c.v.c.v.r.E...$ V r.s.p...A i...-.s.p.i.Y.1...E.E.E.s.g ' B.c.s.B.E.}.Y.L.L.r.l.s.s.p.l.L.&X].{ A B.5XE.d.~.@.=.0.@.) @.0.s.Y..X'.,XE.B.L.v.c.B.L.c.G m =.` ' I L.E.i.m.Y.E.n.A c Y =.X...Q 1.{.y.p ' B.n.Y.,XE.c.i.=.g Q h.B.J.s.r.s.h.y.p.p.p.s.c.,.' ' L.|.E.Y.E.E.M.y.1.B.b.B.B.i.y.=.V } M.'.B.8.8.c.D.s.{ p ;.c.r.;.Q ` L.L.s.i.r.>.h.g.` } y.r.w.>.1.%.w.` { r.1.p.U.I.y.A I n.;.3 Q E.X.=.,.).'..XY.J..X$XE.i.%.w.y.E.J.h.c.c.J.).a.i.a.y.y.d.s.a.s.d.d.s.s.d.d.d.d.8.w.d.d.<.%.8.i.a.d.d.y.w.r.i.d.h.y.d.[ 2 z W z m Y s.J.w.w.c.h.>.=.w.a.w.i.s.8.i.a.a.y.r.y.a.s.c.m.i.s.n.s.s.i.r.h.s.r.w.w.1.w.a.h.i.>.r.r.W N 1.y.s.r.w...g ....Y B.L.` B.-XU.8.` m 1 ` .XE.).E..X.X.Xm.%./ >.r.8.8.r.r.w.w.r.;.d.r.w.s.I g A 1.r.w.m.B.}.E.).J.=.` Q %.1.y.;.b V h.s.p.s.J.8.I =.m.c.1.w.i.1.1.y.w.s.g = A I } 1.B.c.n.L.B.'.}.E.'.}.L.m.B.B.s.} I 1.1.' ' R m w.J.r.} S b } h.y.n.c.X.;.h..X.X3X&Xr.>.B.A 3 A z m..X-Xs.{ ..1.=.` >.v.s.>...1.' $.$.} r...V 7 I ^ 2 g I ....p.E.Q F =...c.L.3 V r.>.V } i.w.E.E.E.}.s.,.,.$.-.=.r.s.r.1.4.1.r.r.r.",
"4.Y.R u Q B.|.&X'.Y.i.,.G.P.B.&X`.E.x.p.r.*.p.|.&X3X.Xs.x.E.p.g k ..L.E.,.1.p.i.p...,...-.} A g } r.I U Y.'.c.c.p.B.v.M.v.M.M.L.i = p.,.V g 8 ..E...U ' =.E.;X..7 p.}.v.g i m m 1.s.E.&X'.r.=.-...y.1.) { l.'.E.Q i c 0.G.L.'.l.n.r.l.n.=.=.s.:.Y..X'.-X;X&XE.L.E..XL.X.9 A v.=.V r 1.h.w.i.B.c.m m m 8.D.s.y.n.W.n.z u 1.d.s.4X;Xc.8.d.8.u V p.i.c.h.m.c.s.8.h.v.p.s.s...m I Y.L.M.Y.'.B.s.s.s.r.i.m.J.n.s.=.A ..W.L.>.8.r.1.r.;.I z ..r.U.n.;...h.b.d.c.b.d.m.h.Y.).J. .G g R c.B.V V ;.{ ,.B.n.l.I { E.D.M { 8.Q c.}.$X).J.M.J.E.I.c.y.y.s.s.a.s.=.1.y.c.).N.a.s.a.a.h.h.i.i.a.y.r.r.y.a.a.y.y.a.h.y.;.<.a.h.w.i.s.a.r.r.y.a.r.s.D./ p p A z %.L.4X@X8.;.r.%.b [ e.s.d.a.y.y.d.s.a.y.y.y.i.i.s.h.r.i.c.s.s.i.i.c.h.i.r.r.w.r.1.r.r.r.c.c.w...A G w.c.' b 2 b w.%.1.X.g R %.=.A { A r A ..m..X;X+XW.L.J.r...r.w.1.8.i.i.r.w.r.w.s.8.1.m.=.g m =.U.J.W.$X.Xs.1...;.Y p ..p.1.` u R c.r.i.;.c.D.r...c.c.r.c.i.h.s.s.r.w.Q u b ' ).&X5X-X.X-X;X,X3X.X+X&X{.}.&X.Xw.b 1 Q Q 9 g g w.).L.1.} b g } d.c.h.s.8.h..X3XE.D.c.Q Q I M / S { 1...c.d.' ..>...=.h.s.;.w.m.i.R ' U s Q g 7 m ..Q R r.r.i...p.B.>.c.M.r.L.s.Q $.M.M.~ =.p.v.E.&X}.B.,.1.v.,.=.=.r.i.,.r.p.1.i.r.r.",
"T.B.u e s.;XA.| =.O.g ..B.v.~.T.A.s.6.,.U A p.T.L.E.c.6.v.c.,.*.r.}.'.,.m ~ ..' r.A V g A m i e g I g Y E.E.p.p.s.M.v.v.v.v.'.,.= A r.g U v.i.v.i.p.c.c.E.;Xi.i V } r...u g i i } ,.i.v.p.,.i.p.s.s.@.C @.M..Xd.K I K :.@.r.'.d.B.s.p.l.:.0.E.W..XW.L.L.E.|.L.E.}.$Xc...M Q D.m.U.m.E.Y.B.s.B.i.u p V c.n.s.8.d.c.;.Q K L.s.c.E.m.y.p.d.{ & M B.L.J.h.c.y.d.i.h.v.c.c.i.1.=.r.}.L.p.p.v.p.r.p.p.r.c.B.J.B.1.Q Q 1.N.s.=.} =.i.1.A g =.L.E.'.r.s.B.c.c.h.d.c.B.c.c.J.Y.4.r m Q R ..=.1 b c.r.y.B.l.r.y.B.5X'.8.r.%.A c..XJ.r.r.4.<.i.h.a.i.g.s.i.a.a.} } ~ ` h.m.d.h.d.s.h.d.y.i.d.i.w.r.i.s.s.a.y.y.i.r.<.r.h.h.a.a.s.a.r.w.r.a.a.s.D./ r G u 8.;X;X$XJ.1.%.` f 3 i.J.w.w.s.r.y.r.e.w.w.w.r.r.i.r.s.1.r.s.s.a.y.i.h.s.r.y.i.r.r.r.1.r.m.c.r.w.y.R.4.G k r A A g h.n.B.J.D.s.1.G b y.%.g A ..c.J.'..X'.c.m.c.>.8.y.r.r.r.r.r.r.i.s.8.1.;.J.d.u m m.c...%.i.L.v.1.G %.1.=.c.y./ z r Y w.=.y.h.'.).r.g V s.m.1.%.w.>.1.m.' >.i.B.}.c.' Q ' { 1.B.$X}.c.c.J.B.B.L.n.b.' m ` A u } r.L.).L.r.R V R G >.d.,.w.n.D.m.G b A Y s m %.c.%.r.Y...m 1.s.A =.r.=.1.y.X.U ' i.i.' I 4.Q g V I I U V ..-.,.r.p.}.r.U -.1.=.s.i.}.E.E.Y.-.r.p.i.B.i.v.1.1.r.$.s.x.i.r.1.,.r.4...p.i.r.",
"..$.' A *.r.I Q E m Q B.P.E..XB.L.=.A V l ..}.E.B.M.x.s.c.M.L.E.'.E.I U 1.r.c.4.' k g i g V ' 4.1.r.Q ' p.s.p.M.s.c.c.s.s.c.B.g 2 u 7 A c.l.L.|.G.,X,X&X&Xr.7 Q ..} Q I Q 7 I 0.i.r.=.c.M.L.c.Q T A m c -.d.&XL.T X.) y.s.1.s.d.0.n.p.y.l.d.n.'.L.s.s.r.r.s.,.s.d.B.-.S b Q n.E.$X'.c.r.s.h.h...7 p =.s.%.L.B.c.;.r.r.;.i.y.c.r.h.L.i.m 8 u s.;X,Xn.1.B.s.h.p.d.p.c.s.,.M.'.}.|.Y.c.c.v.p.p.d.p.s.c.h.s.1.A u A ` D.r.Y R } { M g S I.W.W.B...d.D.s.c.c.i.s.c.w.m.C.$.F W i.D.s.i.w.s } {.D.s.s.u.0.s.B.L.c.s.d.J...L.).Y.>.i.>.Z ' y.a.i.g.s.b.r.h.[ s r I y.y.d.h.s.i.s.a.y.s.d.a.y.y.s.d.d.d.r.w.y.i.r.i.s.y.d.s.i.r.w.w.d.n.N.c.8.Z z Z  .$X.X}.m. .` ..[ I >.).J.>.a.c.w.w.i.i.i.i.r.e.r.i.r.s.w.w.i.i.i.w.w.s.r.1.w.w.w.w.g.a.w.4.4.g.g.~ g.Y.a.w.4.4. .' r.c.E.E.'.Y..Xw.7 r.).c.n.M...%.B.h.c.w.r...V A s.s.s.8.<.8.r.y.y.1.r.;.p.1.u ,.m.Q Q w.h.E.v.I V i } r...p u 7 u ..W.{.L.E.).X.I A * r u b w.1.m ' B.m I c..XJ.R p u u 3 s { 1.p...{ ;.1.1.1.=.i.c.J.[.Y.m.E.E.m.m.=.R ..D.}.Y.3X,XL.s.=.m S z 7 m 7 V } 1.=.w.L.r.` 1.r.8.I X.r.w.s.r.=.../ Y A m ' g.1.Q A R A =.Y.L.,.L.L.&X'.V m i.p.s.Y.g.r.} Q I Q C.}.E.' I m A 1.i.v..XL.p.1.p.r.....i.i.i.i.",
"} | *.Q 6.E.c.L.v.r.;X3X-X,X!.E.`.1.U } =.s.E.6.6.r.k.v.M.Y.A.i.s.Q m c.'.s.M.,.m A I ~ ~ ,.Y.&Xc.'.&X.XE.c.p.1.v.c.M.c.c.L.-.2 8 U i.L.c.=.L.E.L.}.Y.B.1.i 2 1.c.B.L.v.c.A ..s.E.,.U ,.' } p.r.P.~.L.n.L.E.&Xs.i =.L.B.B.l.r.r.l.u.n.l.:.y.c.p.r.0.r.r.r.r.1.r.i.m.r.A i / h.B.c.w.w.h.B.Y.1.A p y.,XW.D.U.s.=.c.L.s.y.A X.d.B.=.w.I + 8 ' L.J.m.} ` s.%.r.s.d.s.s.s.=.c.B.c.i.p.c.B.v.p.s.c.s.d.d.c.i.[ b Z %.s.E.} V { Y A I / =.8.Q d.B.r.d.i.r.s.w.i.i.r.` ~ s.R R m.c.c.c.i...i ' U.n.y.r.u.u.:.c.d.E.c.;.S ;.E.}.$XJ.h.Q s.c.Y.J.c.h.y.h.h.c.' t m w.B.h.w.a.a.a.s.a.i.d.y.r.w.w.w.r.r.r.w.w.a.d.y.r.y.y.s.i.y.w.w.r.h.D.n.u.S 4 N u D.[.c.Y.s.' } <.s.J.;X[.s.>.s.h.e.w.d.d.h.h.i.e.e.i.i.h.r.r.i.r.i.w.w.s.i.1.1.4.w.i.i.w.w.s.y.c.L.4.G m.Y.).N.r.r.i.=.1.J.v.d.s.L.w.Q s.c.i.r.>.z I >.A Q ' ..S u m 1.s.d.w.>.w.i.w.i.i.y.1.1.Y * =.{ ..c.B.n.J.>.b A A =.} z b ` V { c.'..XB.h.1.b A ..I m V R %.A G 1.s.b m Q >.G V ' s.w.Y ` w.../ ' } ` I R ..1.1.i.b.B.B.J.Y.L.E.i.I ` L..X'.;X).%.' s..XJ.i.s.R V b G R s.n.d.{ A s -.).W.' I m =.c.=.Q { ' ` I Q M.B.'.}.1.=.m.}.,XM.i.&XE.Y...g ' E.E.|.3XY...g g Q r.B.Y.B.-.4.A U 4.,.Y.M.w.r.$.} =.-.-.i.-.1.r.",
"A B.OX}.OX,XOXP.'.,X&X|.&XP.1.,.r.,.=.L.E.p.s.6.p.s.x.v.c.6.=.,.r.A B.|.Q m 4.} =.r.>.c.c.Y.E.c.p.}.,X}.i.,.v.c.s.i.v.s.s.Y.V . g V M.v...c.&XB.,.r...' 7 A r.i.L.M.'.E.-.Q } ..} ..Q ' 7 g ..K :.B.y.=.r.~.L.p 2 Q .X=.r.{.n.m 1.l.c.0.s.c.8.r.r.p.0.p.p.i.M.p.s.h.c.} A X.c.h.r.' i.J.i.8.m 7 A L.d.X.D./ ' y.c.1.{ 1.y.B.E.y.i.Q 7 3 G I R S p V R Q 3 %.B.p.c.p.c.i.v.1.=.0.i.v.v.s.s.M.B.v.c.p.c.r.A u I 1.+X,X}.&X&XL.c.=.;.D.d.' U.B.y.8.d.c.r.' 4.w.} g k N * m h.r.J.c.'.s.Q r.).B.d.y.s.r.s.y.s.;.=.Y b =.8.Y.J.r.>.c.E.c.c.s.h.N.s.h.B.} f u Q 1.1.r.=.w.a.d.h.s.i.d.c.h.s.a.a.a.i.i.w.w.d.h.y.8.i.h.s.a.y.y.w.8.a.c.D.:.m u p / B.B.N.h...%.a.w.w.).>XE.s.%...w.s.w.1.w.r.i.e.1.w.y.i.c.i.r.a.y.y.w.r.c.h.r.1.w.y.h.g.s.i.i.w.m.Y.$.k g./.B.R ` g.>.i.>.h.i.s.;.I A I m.} Q G S m I Y u A z b s u V ' w.c.y.w.y.i.1.i.r.=.c.E.%.& G ;.%.r.h.E.8.u I J.Y.+XW.Y.E..XE.W.$XM.Y.E.c...Q 1.} B.).m.` 2 A i.Y...m I 7 r g s ` B.Y.i.c.E.s.>.;.` Z S ` X.;.=.=.>.=.....>.J.B.%.' ..i.'.}.E.Q 3 g V r.B.m..XB.V ` 1.c.d.8.>.a.R Q Y.,Xs.s 7 9 R %.V m ' %.1.Y.L.p.r.'.;X2XoX&X,X'.A./.C.' e g i.Y..X;X'.B.1.U m Q ..B.&XoXv.s.s.p.p.L.c.c.-.-.E.>.* m g.%.* Q ..-.",
"V (.|.|.&X!.p.c.p.v..Xs.V.L.m * m g B.,X'.,.s.1.p.M.M.c.x.=.P I Q =.B.,.7 ..c...,.c.i.} s.&X}.Y.'.,X.XM.i.1.M.s.c.M.p.B.M.' 2 i A I ' * ,.P.L.B.-.=...=.r.E.M.p.-.v.Y.v.A i ..1.=.c.L.c.' V V g V A 8 7 =.v.-.g g Q ..Q i.B.s.U ' 0.L.s.s.p.s.s.r.i.p.p.p.p.p.p.i.i.s.%.y.Y.c.B.W.'.}.).y.G u 7 8.P.g A 0.D.D.y.s...@.c.~.n.0.m -.r.Q m A U -.A 7 ' 1.v.i.=.c.i.r.c.r.s.v.h.=.w.w.1.r.m.s.} R ' ..c.r.R m S R L.;XE.L..X).Y.'.c.E.L.r.p.Y.n.r.s.h.r./ Y b s R Z m m R X.J.' >.s.r.' i.).'.m.1.d.s.c.w.h.8.=.Q r / -.s.{.h.h.8.d.r.=.D.h.d.B.=.r...m u m p.i.J.n.<.X.w.N.r.c.D.R.J.D.d.b.m.i.a.s.s.i.s.d.y.r.d.c.i.c.i.w.r.d.B.D.'.G 1 m S I R.D.m.>. .w.>.} h.$X'.r.w.i.i.c.s.>.w.i.s.s.h.c.c.c.s.h.s.r.r.s.c.h.i.h.d.i.r.i.i.r.i.i.i.s.s.m.L.s.R c.c.s.%.1.c.m.s.1.c.=...A I =.' r.m.1.V R G Q r.V V z s m u G ;.w.I 8.d.r.c.h.s.w.p.i.h.s.R g Q R J.'.E.1.X.D.'.m.).E.i.c.L.E. XI.<.w.m.'.m.s.W.J..X;XE.V ' m.B.r.D.=.R B.s.A A G h.c.Q c.{.L.E.r.>.<.;.=...=.>.w.1.w.8.1.w.=.g p 7 p Y s.L.` 7 & u g g g U A V V r.B.r.-.B.p.c.s.B.&X;X,.r 7 R p.U V ..,.Q Q r.Q g Q E.Y.B.c.i.s.p...g.p.} ..c.c.-.s.C.s.=.u g Q >.i.C.}.Y.r.} ..c.E.L.s.' m ..}.E.I } i.m 8 } 6.r.",
"P 5.6.M.c.=.B B i ! r.O.1.} m Q u ..XXOXB.,.s.x.p.s.s.B.c.Q u g U ,.s...=.'.L.B..X#X1.' Y.|.v.M.'.E.B.s.c.p.c.i.M.L.Y.,.V g i A V =.v.-.}.,X.XM.c.....Y.,X}.r.i.p.c.M.,.u V i.c.Y.c.p.d.c.i.v.v.M.~...Q Y.E.} i g } ,.L.E...m =.' -.1.p.c.s.1.,.1.r.i.i.i.p.p.p.h.s.d.=.r.L.m.L.<X.X).J.` 2 g 1.E.E.L.c.P.].p.r.c.G.L.B.0.I Q ..r.i.c.A Q E.Y...1.1.v.&X|.Y.v.U S 1.8.d.s.d.y.r.} >.h.J.s.b & 2 Q s./ V G m ` J.c.d.1.s.h.>.w.c.}.E.E.J.c.a.n.c.B.y.s.=.m A I s V =.h.B.} R 1.1.i.1.s.E.).c.i.w.s.r.n.=./ } ..8.B.n.L.E.w.i.y.v.c.c.c.c.1.R A V p p s b ' s.+X.Xa./ W ;.;.1.;.%./ D.I.s.r.w.i.d.s.y.a.s.r.r.s.s.s.w.8.B.n.r.B.J.%.7 f S g W ).I.J.D.h.d.w.y.R.{.B.>.>.r.r.h.d.r.s.h.s.i.i.s.i.r.s.s.i.r.y.s.s.i.i.i.r.w.w.i.s.i.s.s.i.s.y.h.B.i.U s.i.s.h.)..Xs.1.c.s.' A I %.s.R 1.Y.J.Y.s.1.;Xm...r.I u g G X.s.R & A s.B.B.r.d.y.r.8.i.h.s.y.} =.Y.'.;X&X{.}.E.m.m.h.i.r.i.v.m.y.=.i.m.E.J.m.L.5X4X'.d.r..X$XY.s.c.' ` B.s.G Q w.c.>.{ E.;X'.}.D.B.c.r.=.Q S =.c.i.>.1.1.1.;.p 7 z s b r.i.3 = g A g m 1.i.A U =.p.,.p.v.v.r.,.L.3X;X-.V V A ..,.Q ' Q A V U V u A c.|.M.i.,...i } s.p.i.L.Y.c.' m ,.v...U g } 1.r.s./.Y.r.-.} p.E.E.M.M...g } ' F i I Q m ..=.*.I ",
"5.c.s.1.C g i u q E i.c.M.,.1.s.p.E.E.p.s.s.s.c.c.s.s.M.x.^ g l s.p.i.c.E.B...L.,X'.1.i.M...V ..i.r.p.1.s.s.s.c.v.' A 8 i A g A Q r.E.}.#XE.E.M.=.A ..M.p.A A ,.v.M.B.=.7 ' v.M.c.s.v.L.,X3X5X'.E.E.|.|.L.s.r.' / v.M.M.-.p.i.v.c.v.=.s.c.s.,.-.v.c.c.c.c.h.s.s.c.s.r.=.i.E.Y.).J.E.L.c.>...v..XL.1.W.W.+X.X=.:.L.L.0.r.y.1.1.n.M.,.E.E.}.,X'.L.L.,.v.&XE.B.v.-.} r.r.c.s.i.i.p.s.d.B.h.i.A A X.<.8.Q z g A s.L.r.r.s.J.y.A Q B.E.L.L.h.B.B.J.d.h.w.U.B.J.Y.Q u R r.Q u =.L.L.} =.c.L..XY.a.h.i.c.s.J./ g b 1.3Xc.U >.D.v.c.w.i.r.n.c.m...u m m 9 m V A A 1.L.m.X.V p r 7 6 9 1 p W X.8.r.r.h.c.d.r.y.i.r.r.i.i.8.i.i.m.i.i.I.w.r 7 Y I / J.3X}.@X;X.XY.B.Y.@X).h.>.1.w.1.i.i.w.s.i.r.w.r.i.i.r.i.i.r.e.i.h.s.w.r.r.r.r.i.s.s.i.i.i.i.a.w.r.h.>.G 1.r.d.=.=.=.m c.).s.s.s.i.} } G ' h.>.$X5X;XY.' S y.} ..=.r.r.m.c.I s 1.m.s.c.1.s.h.c.s.i.s.p.s.E.<X.X.X{..X'.&X).c.Y..Xm.1.r.c.s.i.m.s.s.w.1.s.;X).c.{ ' h.y...I R u p s s p ..m.s.d.L.+X'.E.D.c.m.i.=.' A p r s.m.1.8.s.w.%.7 u M M I Q u 7 g A u g Q L.M.-.p.c.s.' ,.s.=.Q $.E.&XB...I ' i.,.=.' ..A g I =...A ' Y.L.r.,.-.I I i.L.M.=.I g A c.&X,Xr.e 7 i Q s.i.s.|.Y.....s.Y.E.L.p.4.I A g.1.} m A } I U r.s.2.",
"5.C.M.4.l u m I A Q p.l.s.c.E.M.6.r.*...p.s.i.c.s.M.c.x.M.M.s.p.B.,.r.}.Y.-.p.,XE.' g 1.M.s.1.-.A ..M.c.B.v.r.i.' U g 8 Q A 7 A p.c.M.E.E.L.v.,.U ' .X3XM...1.c.}..X}.1.A r.c.c.r.r.E.}.'.r.L.}.E.c.E.B.V } &XE.L.'.B.p.' p.c.p.M.L.=.r.s.i.i.i.M.c.s.s.s.s.p.p.h.s.c.h.L.).c.r.s.J.r.} } d.}.E.B.s.B.B.G.G...' D.c.=.D.'..XU.E.s.Y..X;X&XL.M.,.r.1.E.|.M.s.v.v.J.U.m.h.M.d.X.=.1.r.Y.i.=.Q M.,X'.s.,.g A r.M.B.c.h.B.s.V p ..c.D.L.c.w.}.}.J.c.1.y.d.1.L.B.Y 1.1.w.c.m.i.G I 9 y.I..X$XJ.r.h.h.r.m.r.b r S c.{...b c.).c.r.w.h.s.w.1.X.A p g s z m g R i.'.).c.Y p r f N s V M r r W a.i.r.m.h.s.r.r.y.r.i.s.i.w.c.s.s.w.B.Y.V m I S S h.-X&X&X'.).L.D.N.J.).L.d.8.r.r.8.r.r.w.w.r.r.w.r.i.s.i.r.i.r.r.i.h.s.y.w.i.s.h.h.s.i.r.w.i.i.s.w.w.i.%.g R h.N.R r b Q E.%.` r.r.h.h.m.s.s.J.r.h.1.B.J.` r.3X,X+XB.r.r.s.} =.M s } s.>.8.h.a.s.i.r.L.E.}..X.XE.E.N.B.s.}.J.w.J.L...%.h.r.h.h.s.i.w.>.4.r.;.I M p 2 g m V g m u V 9 z / X.d.>.B.;X.XB.v.r.8.s.1.' I g u p s ' -.R =.8.7 7 g A i.+Xn.g m A V g } r...g V ,...p.p.M.'.v.i.c.'.Y.r.i.1.} ..=.v.L.B.1.1.r.i.s.i.i.Y.c.1.$.} ..L.E.c.c...g k ' E.;XY.-.Q U g ~ s.B.}.2XL.=.r.M.Y.B.L.B.m.1.B.oX&X.Xc.c.|.Y.=.T.&X:X",
"4.M.M.E.x.Q A } s.p.i.' ..1.p.6.' P A ..s.c.s.c.s.B.v.p.x.L.L.v.L.M.c.c.Q A Y.|.} g g i.E..Xs.A i Q v.M.M...g g Q s.=.A ' A Q 1.E.}.E.r.,.B.M.i.E.|.-XM.v.L..X;XE.}.L.-.,.L.v.v.i.v..X|.W.r.L.E.p.B.B.8.} 1.i.I ,.r.,.s.E.M.r.c.M.Y.1.,.M.p.c.i.c.p.i.p.s.s.s.c.s.y.s.s.d.c.y.1.h.h.' m u i Y G V =.' S K 8.{ } s.{ A c.L.E.1.T ..E.M.c.B.1.s.....v.'.v.r.c.s.r.n.U.Y.i.L.c.m I ;.` ;.Q R %.}.'.'.R.y.V r.m...8.D.s...7 $ Q B.m.s.h.s...i.c.r.y.=.X.Q R >.Y u 1.i.B.Y..XI * s } Y.L.'.E.c.i.w.p.1.D.%.7 m Y.W.1.A m D.1.V G } / 9 u u u 2 m y.m.U.).n.c.|.'.c.;.[ b b ' %.b m Z S w.D.m.r.8.d.s.i.8.w.y.y.i.s.i.c.s.r.n.c.h.1.2 p G Y a.$X).b.I.d.r.;.w.d.B.R.J.r.1.r.w.w.s.i.r.i.s.h.p.r.r.y.r.i.s.s.r.r.s.h.a.1.i.c.c.s.r.w.r.i.p.p.a.w.r.h.1.R Q J.h.' ..r.}.L.V c.E.=.w.c...%.m.w.1.i.A R ..M ..h.m.B.8.} c.J.1.E.r.A N ' i.a.d.1.8.1.w.L.E...%.;.>.1...=...n.Q G h.d.R ` >.1.B.s...w.r.w.s.} A A 3 u s b V g r u m 8.} %.1.8.s.%.h.).{.J.s.=.X.r.r.%.Q I ` s...S A b 3 3 8 A } =.E..XY.X.m V m A ,..Xc.U A i.p.}.;X&X}.i.r.Y.}.}.s.,.c.r.m 1.'.'.m.p.c.,.=.1.s.r.v.p.>...-.M.C.C.v.,.=.s.E.'.'.Y.L.C.c.1.Q ..1.L.;X|.1...s.L.}./.E.|.&XE.;X2X|..X.X}.&X;XoXE.E.v.",
"..g.s.E.|.M.r.Y.c.].~.1.-.A A ,.' Q ..6.c.M.M.s.c.v.v.x.s.s.r.1.u } s.B.,.=.E.r.g i m ..} } g u =.s.'.Y.l.A 7 g A Q U ..-.,.E.Y.}.}.M.=.=.r.=.-.p.}.s.I 1.p.-.B.M.B.v.s.Y.E.v.v...B..XE.E.E.E.,.1.M.c.v.Y.M.s.i...A A =.E.B.v.s.B.Y.1.} v.v.M.p.v.s.s.c.v.c.v.M.m.n.M.c.r.y.h.c.r.i.' / I M / I z m u 3 7 Q u I p.=.{ s.Q C c m =.i.,.i.Y.c.v.c.A r.M.s.s.s.s.c.s.s.n.h.J.` 2 Q =.A A i M w.'.i.s.J.i.} =.Q I =.r.Q 3 * Q B.U.U.E.c.N.>.Q i.m.8.=.m 8 s g 8 b >.r.m...m g G c..X1.>.B.B.s.i.1.s.c.h.=.7 A .Xm.y.I V s.%.g g b 1 u G g M s I .X&XB.Y.s.i.'.Y.r.Q >.h.N.m.1.Y %.w.L.3XR.1.a.i.1.s.r.1.w.y.y.i.s.i.i.s.c.m.1.U b 3 z X.J.<X[.h.w.=.8.1.%.>.y.D.R.b.w.w.r.1.r.s.i.r.s.c.c.h.i.r.r.y.s.h.s.r.r.i.s.i.1.r.s.s.r.1.w.i.s.s.r.r.1.i.m.i.1...w.Q %.'..X}.>.G B.1.c.$X'.r.m.w.` J.J.V r 7 M Y ` >.r.` A s.w.X.' R h.s.I >.p.s.r.i.r.1.r.r.b Q w.1.,...>.1.=.u A m.i.R Q ` B.).s.Q =.w.;.=.b I h.A g m I %.Q M I h..X1.1.d.Y.M.d.'. XE.v.s.d.;.w.y.=.' } r.m.D.Y 7 z p p Q s..XY.).L.J.h.1.g i g Q Y.c.,.i.c.|.,X;X&XE.-.p.}.$X/.s.r.c.c.r.L.oXL.4.i.c.=.i.L./.L.Y.B.r.p.'.E.v.g.B.r.i.M.v.s.p.p.i...I Q 1.p.r.-.R g I c..X}.}.L.c.Y.B.s.E.}.'.E.B.s.g.B.Y.p.6.^ ",
"c.E.x.m.c.1...s.v.s.{ ,.P.p...A 7 Q c.c.B.s.v.x.x.s.v.B.M.c.c.c.g V 1.v.i.p.'.p.g g =.M.i.M.=.,.M.}.Y.=.T 7 u I m ' c.,X.X|.3X;XY.c.Q =.Y.=.g g m ' g 8 A A u ..v.v.E.}.E.,.r.s.L.|.;X{.B.p.M.M.s.y.p.s.} V ..c...* 7 } M.M.}.E.v.M...I 1.c.s.c.c.s.s.v.v.c.v.B.E.Y.E.W.B.h.h.r.s.m.=.;.r.c.$X{.@.z C ' 1.n.@.n.-XE.p.n.=.) ) =.c.v.M.s.M.M.c.Q 2 ..Y.&XE.v.L.L.M.i.s.m.r.3 2 ' z G { Y I >.m.y.w.s.s...b S X.r.%.r 3 [ E.W.h.L.L.s.n.=.b s.h.R 2 3 A ..I p G 1.h.1.B.w.{ A B.w.A ` s.B.s.r.r.s.m.r.>.u V h.>.c.r...L.}.s.%.' m b V b Q R ` i./ G z r ..B.J...r I d.m.D.h.B.;X3X<X}.;...d.a.w.a.r.w.y.s.s.s.s.p.w.i.y.} V u u Q D.E.+XE.%.;.%. .>.<.=.<.8.a.h.<.w.r.i.1.w.s.r.r.r.s.h.s.r.i.i.i.s.s.i.w.r.i.s.r.w.r.s.s.r.1.w.i.i.i.r.r.w.a.m.r.=.' ' I w.Y.L.r.A } J.-.$X5XJ.%.{ r.J.i.G ` i...g ` Y..XB.A A s.;.' %.=.8.i.R R s.i.y.r.r.p.d.B.` ` 8.<.i.r.=.%...m } y.R b ' h.Y.B.i.} r.s.1.U g Q c.Y s m ` h.1.%.>.E.B.Y 1.Y.;XE.Y.&X'.M.1.r.U.r.r.r.%.Q I ' ;.A A A p =.L.I =.c.8.c.U.'.r.>.} -.1.s.p.A A c..X3X&X}.B.p.=.s.}.'.h.4.c.i.1.L.i.g.4.1.s.v.-.c.;X2X2X,X.XB.L.E.B.E.p.p.s.m.1.R e A ..-.,.-.' I Q ,.i...' s.E.E.J.s.r...r.$.=.c.s.E.m.=.=.r.4...B E P ",
"x.p.>.B.M.=.' r.P.r.{ c.B.v.OX*.V } 6.=.B.v.M.s.c.x.c.c.p.s.c.c.A 2 r.B.1.c.Y.} m A B.M.Q E.E.v.Y.;Xp.g i u m g ..'.,X.XM.L.B.L.v.B.Q ..v.A g ' i.' g V Q ' V Q } ' v.E.,.u ,.B.'.'.L.n.s.c.M.s.v.p.-.U 7 i ,.B.' =.i.p.E.L.Y.B.'.|.p...-.i.' -.v.c.M.L.Y.L.E.'.B.w.%.;.1.p.n.i.r.c.%.>.,.1.W.'.D.:.l.U.'..X'.'.s.n.u.L.B.r.s..XM.v.c.i.=...-.* 7 i.|.}.s.c.}.c.b.L.B.c.' > V A G %.=...>.h.c.s.h.h.c.I V c.y.m.r.A ..Y.).Y.B.Y.r.B.L.>.V v.;.z r A ;.p.s.8.>.B.h.J.D.m.B.h.c.' { 1.r.c.s.r.h.r.s.B.s.V ..m.c.r.=.V Q h.Y.'.J.} p S n.E.w...I z r p ' .Xc.X.S b ..` b i.}.@X'.J.J.>.%.y.<.1.h.y.i.r.s.c.h.s.h.s.m.=.A 3 s m A J.[.d.w.=...1.W <.<.;.;.y.r.<.1.%.>.w.i.1.w.s.y.s.r.r.r.w.w.r.i.i.y.r.w.1.r.s.s.r.r.i.h.c.s.r.w.y.r.i.i.h.s.h.m.>.=.>.r.B.Y.%...` g ..3X&X}.m.4.I r.Y.&Xs.s. X&X).B.n.<X&Xi.r I i.y.1.s.L.J.c.{ r.r.1.i.w.1.y.y.B.=.} h.i.i.1.=.d.b.} >.r.-.w.m.}.Y.i.i.r.c.m.w.s 3 m ' Q ' r.r.w.w.d.8.%.g z B.&X-X}.L.i.;.r.=.i.r...<.s.r...G A ..` r.s.A I >.V ' ` >.d.,.L.w./ i.i.-.c.0.A m s.,X}.E.'.r...=.,.1.-.,.r.r.i.i.1.r.1.-.r.v.E.J.oX}.'.'.M.s.i.c...-.v.p.g.i.r.' g U 1.v.,...$.Q g I -.m./..X|.E.M.r.i.s.Q -.-.1.-.r.1.Q Q 1.=.Q U Q *.=.",
"C I B.E.A.Y.s.l.#XG.L.#X.XY.s.=.v.c.v.s.T.v.r.M.v.s.c.s.M.L.x.A.} m ,.c.s.v.v.I u S E...Q p.=.c.|.'.i.g g A m ,.Y..X|.B.c.s.s.v.B.=.m U ,.1.M.'.,Xp.Q A Q t.L.,XE.=.} ..-.i.p.p.c.c.v.v.v.M.c.p.p.=.A g g ' r.s.s.Y..X;X.XY.v.B.E.' Q ,.}.L...' p.r.s.v.s.Q s.c.3 3 > * i =.c.s.m.d.} V u R J.L.P.n.p.' p.E.'.G...@..X~.E.B.U.D.s.'.{.}.i.g i V B..X}.r.=.s.M.i.m.h.B.y.m u p ' s.m.' Q E.E.B.h.h.c.h.I V i.B.s.c...i.L.r.w.B.c.r.h.d.S m h.' r s ' U.c.X.i.m.c.s.d.;.y.,Xd...E.{.s.r.d.d.d.c.r.p.c.>.Q c.r.Q ..Q u u b ' c.c.y...m.|.s.R ' B.{ V w..XB.r.%.g M B.w.w.8.;.h.).).a.<.1.r.8.w.s.s.h.y.s.s.d.c.J.>.>.g g A m ` c.).;.%.8.s.y.1.<.;.8.w.r.r.w.8.w.w.>.w.i.r.w.y.s.i.r.i.i.i.r.w.r.s.i.i.h.r.s.w.i.w.i.i.i.s.r.1.w.s.r.w.w.w.i.i.r.8.1.1.J.Y.i.%.W Z V ' h.c.m.w.>.} J.$X&X}.&X;XY.s.E.'.;XB.c.w...8.d.w.i.D.r.r.i.L.8.i.1.=.,.m.i.d.S { d.s.c.i.r.p.w.=.>.i.c.Y.E.c.h.w.h.r.s.m.' b b V s.=.n.J.} y.c.r.r.X.>.s.$X4X{.X.` A } =...s.Q g ..r.<...U >.1...1.y.W.s.G V Y G Q ' %.{ 7 Z U ..s.-.=...A 1.}.M.E.i.I } :.r.I F =.r.1.p.p.r.i.1.i.Y.oX.XE.M.i.i.1.1.i.i.4.,.c.s.i.s.p.1.m u } g...>.I V ' V ' E.}.oX,XB.L.m.i.r.,.=.%.=.,.4.r.' F ~ ,.,.-.r.r.r.r.",
"s ..&XOXB.L.c.c.V.~.*X&X'.E.L.p.s.r.x.M.B.v.L.r.L.B.v.v.c.M.M.p.g 8 Q p.p.r.s.} ..1.r.g ..B.1.B.#X'.B...A U ..|.}.L.p.r.s.c.s.s.1.=.g m p.L.E..Xp.Q -.v.M.P.L.n.=.U g V m A i.J.s.M.M.M.M.s.s.M.v.I u u V 1.B.s.p.E.E.B.M.v.s.v.,.U A M.M..XM.g p.L.v.s.-.O = V $ u b V z ..y.c.d.c.S 7 g V ;.U.l.r.D.v.:.) ..' 9 l.#XB.c.l.c.l.p.&X,X;X.XB.M.}..XB.i.p.c.s.p.p.d.h.h.>.1 b w.B.&XE.c.L.5XW.s.i.r.c.1.A m %.s.1.B.D.E.L.s.s.i.=.' ....M Y D.%.V m c.W.s.c.d.s.'.c.y.c.c.;...{ B.B./ s.{.n.:.9.y.B.i.c.' g M } Q g u I =.h.U.L.E.E.@Xi.r g i.s.c.'.;XL.i.;.u u r.a.8.;.%.m V n.[.s.w.r.a.y.y.d.h.r.r.c.s.-.{ =.S 6 r R ;.r.E.'.v.' X.w.r.1.1.1.=.<.w.y.y.w.8.8.8.w.r.i.r.y.a.i.r.s.i.r.r.r.i.s.c.i.r.s.r.s.r.s.c.i.r.r.r.r.r.i.i.i.w.,.>.1.w.r.r.r.1.h.m.s.i...I A ' 1.>.i.s.n.i.E.).Y.Y.E.B.i.i.J.m.h.w.Y.E.s.h.w.c.h.h.>.r.h.c.8.-.r.1.h.i.w.r.R X.h.r.i.w.8.w.w.1.w.i.h.c.h.w.w.w.m.s.i.s.` m I I h.D.L.1.R r.w.1.s.c.E.W.W.c.Q p g p G d.y.=.w.>.=.s.i.} ' ..m.w.r.1.c.>.I ' i.r.' m m ' G z g i.E.c.,.i.v.c..XE.E...A -.1...U -.B.v.s.i.1.i.g.i.i.m.Y.C.s.r.,.1.,.,.r.r.1.r.s.i.1.r.i.r.A g m Q s.p.} =.p.' $.|.&X|.Y.c.s.,.i.i.r.1.1.1.r.i.i.>...1.s.i.,.1.6.6.6.",
"g ..Y.g.Q ] ,.s.n.B.T.E.Y.E.'.`.M.p.c.L.s...x.s.s.c.p.c.c.B.B.U = 7 ' n.M.i.B.s.s.L.v.=.c.E.;X3X'.B.L.c.' i.L.;XE.s.r.p.s.s.s.s.M...u A M.E.M.M.1.g ..c.s.s...u g ' ..1.-...n.B.B.L.c.s.L.E.B.v.-.g g I 1.E.L.i.v.B.,...v.Y.r.} u A L.c.Q c.s.Q B.c.p.M.v.U ..} V g r.'.;X....8.r.;.M b A G r.Y.B.l.c.s...z c i I ].E.l.p.:.0.L.B.E.Y.v.E..XE.Y.L.p.-.1.i.p.s.s.c.s.s.} r i.}.B.E.=.h..X'.r.1.d.h.b./ g m ..B.n.c.'.).c.c.m.s.8.=...` g A 1.` ` d..XJ.` ;.i.m.c.8.s.8.m { B.1.1.1.X.c.B.y.s.s.s.p.8.8.{ 1.).&XE.s.c.E.@X.XJ.y.h.y.=.b y.s.s.y.E.&XE.1.Y g g ..m.b.=XL.y.8.=.a.r.y.y.r.i.s.a.a.b.m.>...R m p V 7 } Q X.d.J.W.E.c.} 8.s.8.%.8.w.=.8.y.s.a.w.w.w.y.h.h.i.4.w.i.s.i.a.r.r.r.i.s.s.h.r.s.s.=.>.r.s.r.w.w.w.w.r.i.i.r.i.i.i.i.i.i.r.r.i.w.i.i.h.h.} A V r.}.).E.)..X).'.).B.y.w.w.1.w.r.c.i.i.B.L.d.m.r.c.i.c.c.c.n.h...X.r.X.1.s.h.1.=.w.n.i.s.s.y.r.w.i.i.r.i.r.1.1.w.w.v.r.>.r.>.=.,.R 8.E.D.R I y.w.1.i.c.Y.Y.c...u r z g i i.h.-.w.i.>.r.s.Q g b U ' s.i.=.m M m.}.B.m.E.,.Q A m U c.=.1.v.1.v.'.'.L.c.A I r.p.} -.M.L.p.p.p.1.p.p.r.1.i.p.i.r.1.,.1.1.r.i.1.r.s.p.i.1.r.p.g.Q A Q r..X}.E.Y.v.I ' B..X&XY.L.r.=.r.i.i.i.i.i.i.p.r.r.i.c.B.c.i.p.6.6.2.",
"l ,.C...7 m ,.v.0.-.1.l.B.B.B.B.|.E.`.T.6.y m i.x.M.s.p.M.L.1.2 * V Q i.c.p.M.r.i.p...r.'.E.;XY.M.p.v.r.A c.'.B.c.i.p.c.p.s.c.s.v.A 7 A -.c.c.-.g u 1.M.v.M.c.,.=.).,X5X5X|.'.M.L.M.s.s.1.A g Q U A A Q v.M.=.,.c.B.i.r.Y.v.Q m V V M.r.-.1.Q i.L.v.L.L.Y.Y.E.8.b } .XB.L.' s.B.r.U s I ' =.J.B.X.B.s.1.s.8.X...B..Xy.y.y.=.l.L.c.p.s.} ' c.B.p.,.p.p.r.r.s.c.p.s.;.B.h.c.W.h.1.W ` '..Xw.8.h.r.s.h.>.1.m.Y.).).'..X).M.m.m.c.N.s.p.>.I R ..Q =.,X).%.m ` 1.D.r.' X.r...E...Q n.1.r...r.L.n.1.s.i.J.a.{ h.W.B.D.B.Y.)..X.XL.i.s.X.z R +X>.,.c.w.} M S r z h.L.B.b.' %.J.b.J. Xw.y.s.y.y.d.i.r.h.c.` S Z g z } ' r.w.%.X.r.Y.Y.1.<.y.a.<.%.r.s.<.y.a.s.r.8.w.y.d.h.h.i.1.1.r.s.s.w.w.r.i.s.i.i.r.1.i.i.>.w.c.m.i.1.w.w.w.r.i.i.r.1.w.r.i.i.w.1.>.1.>.w.4.i.1.I b ..E.5X3X'.Y.E.Y.B.L.J.s.i.s.s.i.c.h.-.i.s.d.%.U R r.w.r.1.=.c.E.y.X.=.s.=...Y / 1.>.i.r.y.p.w.1.r.s.r.1.r.w.1.i.r.r.s.>...r.h.m.r.R ..i.' 7 z ,.r.w.s.J.}.{.d.Y V b z g g ..1.8.1.w.i.y.n.X.7 V 8.>.w.1.s.w.%.B.;.` r.J.r.s.' 7 } p.' r.L.1.L.,XB.1.=.A ..r.p.1.p.c.g.,.1.i.r.s.r.1.1.4.r.4.6.r.1.4.r.i.p.4.r.c.i.i.4.i.g.c.Q m B.,XL.i.B.M.Y.s.-.=.s.M.r.1...>.r.i.i.i.r.r.r.r.-.1.,.1.i.i.1.4.r.r.r.",
"$.g.s.^ A O.-.m m I ' =.1.,.' U 6.r.A.s.r.....L.p.s.p.p.L.c.A 5 A ' U -.c.v.c.....'.v.Y.'...v..Xc.s.c.Q = ' Y.c.t.r.i.p.c.L.c.} g u m Q 1.E.E.1.,.1.L.c.Y.'.E.E..X&X;X&X}.B.s.v.|.&Xs.g = 7 g V m m ..c.}.p...c.E.E.c.n.Y...u u ' v.r.1.s.}.-.} c.s.v.r.s.-.g u Q D.B./ I d.'.'.L.=.m } B.D.s.Q C u.r.{ 1.n.B.B.E.E.n.d.r.s.'.1.} ' U g Q v.v.s.i.i.s.v.n.c.i.1.r.n.y.M %.8.w.%.' E.$X' u ..s.c.r.w.d.J.}.{.J.).E.J.J.B.s.h.B.n.s.h.s...1.s.i.L.L.' 9 A >.' 1.n.{ Q r.y.y.I s.n.r.L...X.y.s.s.s.i.s.d.1.=.c.J.J.n.L.B.m.B.c.p.p.' u c.L.Q c.n.d.U s g z =.m.1.w.E. .;.1.%.L. Xm.h.b.a.y.d.i.r.d.1.W ' { m g w.v.1...m z Q i.J.w.w.w.w.<.8.d.d.1.w.i.i.w.1.8.y.a.1.r.p.r.r.y.i.r.w.r.i.r.r.w.w.w.i.w.1.r.s.s.r.w.1.w.y.r.r.r.r.w.w.w.1.1.1.1.w.w.w.1.r.y.i.1...>.}.$X'.J.i.i.r.w.>.,.c.).).B.h.v.s.=.Y / S I z * I r.s.c.).}.'.c.r.r.s.1.b b I ;.1.=.r.i.1.,.>.w.r.i.w.1.i.r.w.s.r.r.i.1.>.y.s.i.c.1.d.y.I u b =.i.w.y.Y.-X;Xi.m V m g S >.=.-.,.w.y.s.d.m.} p { h.i.1.,.W.<Xm.1.w.=.B.1.' W.c...v.L.M.i.U ...XE.s...../ p.r.i.p.,.=.i.p.1.1.w.r.r.r.i.i.r.1.1.4.r.r.4.i.i.1.1.p.4.r.4.i.i.r.A 7 s.;XL.M.B.c.g.v.s.=.v.v.r.=.-.s.r.r.r.4.4.1.r.r.r.i.1.,.1.1.-.-.p.p.t.",
"1.M.Z.x.-.-.s.@.c i u c U I A A Q U -.A ..E.E.B.r.p.M.L.'.-.5 l A ..=.L.|.'.Y.B.1.M.-.i.i.I p.L.v.p.i.A = V M.Y.c.v.M.M.L.B.-.g g A A ' Y.&XY.B.B.i.-.U L.,X,X,X3XE.L.M.p.1.s..X,XL.1.=.Q V V U Q A s.;X.X-.i.M.,XE.r.1.1.I m ..L.M.L.M.B.p.} 1.Y.1.c.v.i.I 2 m h.r.Y I s..XY.y.r.w.1.r.} ' h.h.s.0.1.@.:.~.~.n.B.d.B.r.' ;.s.M ....V m v.'.i.p.c.p.i.p.p.i.i.s.r.v.V 2 =.=.i.m ' E.;.3 p b s 8.s.1.i.r.r.s.r.L.r.w.m.B.y.c.D.8.h.B.c.Q ` r.E.3Xi.s r =.r.r.c.c.d.,.y.U.=./ E.E..X..g n.U.d.s.r.s.>.1.>...s.c.i.w.h.s.i.d.c.L.J.=.=.B.r.' { } D.J.8.} r.c.i.r.r.Q w.r.G 1. XD.J.h.d.r.w.a.s.s.h.i.' } Q u g h.L.1.G 3 s G ..m.d.r.8.w.r.y.s.y.=.1.y.i.r.w.r.y.r.>.r.i.r.w.r.r.r.y.i.i.r.1.w.w.w.r.s.i.i.r.h.w.%.1.1.w.r.r.1.1.1.r.e.w.w.r.r.r.r.i.1.r.p.i.s.m..X&XE.s.w.>.w.>.=.} %.s.L.J.m.c.s.1.;.' V 3 3 r g p ' c.E..XY.h.>.w.i.r.m G w.N.8.1.>.s.s.....=.s.r.r.w.r.s.y.w.w.r.r.r.r.r.s.i.1.1.>.;.=.{ R b U d.h.B. X}.Y.%.g Q 1.i.M.&XB.s.r.1.d.1.h.w.p u G A ' 1.s.c.y.Q ..m.r.J...m } V ` p...} ..} c.,X}.=...-.=.s.r.i.r.1...w.s.r.r.r.1.i.i.p.p.i.r.1.1.i.i.r.r.i.1.,.r.1.r.r.i.1.-.V g }.E.E.L.i.m.i.c.r.r.E.M.r.=.,.4.r.r.r.4.4.r.i.i.s.s.i.r.p.i.1.1.6.6.6.",
"g.C.m.E.E.'.-XP.) K m A ' ' *.c.:X`.B.Q 1.'.L.i.L.A.B.A.s.A 2 l I -.v.|.}.}.'..XM.r...-...Q M.i.s.p.1.A g I M.|.L.M.s.i.r...A g u V ' v.,XY.Q Q V A ' I s.M.v.Y.B.s.p.s.1.,.L.|.c.s.v.c.p.Y..X}.L.L..X'.p.' Y.E.,...I A m u A r.c.c..X..1.r.r.i.1...p.M.Q 8 i U ..Q G A m.B.c.>.s.R 7 g A =.).W.n.=.y.d.s..XG.s.~.d.l.1...s...I s.B.p.B.&XY.p.B.p.c.v.p.1.p.M.Y.-XQ * ..B.;.8.Y X.=.7 7 Y m i s.s.i.p.r.1.y.i.1.>.1.c.c.r.h.c.=.m.L.c.G Y s.}.{...u A >.Q p.B.=.W.{.n.l.U.#Xn.c K ( l.+X:.=.X.{ } 1.=...>.h.w.s.i.y.1.8.1.8.h.y...i.Q m s U U.+Xd.y.r.i.8.h.E.c.w.8.N.J.R.'.J.D.D.d.w.w.r.d.c.d.c.' I b g } W.c.g V V U { c.E...;.<.w.8.1.w.w.;.1.y.a.i.i.s.a.w.r.i.r.1.<.w.i.i.i.i.r.w.w.y.i.r.w.h.c.B.s.s.i.h.i.w.1.r.r.1.1.r.r.e.w.r.r.r.1.>.1...1.w.1.r.c.L.s.i.>.r.1.w.>.>.%.1.s.r.,.i.h.w.i.r.{ z / ' A { / A >.c.L.h.%.....r.D.8.1.,.y.c.;.=.1.=.F ' =.w.r.w.r.s.i.r.e.w.r.r.r.r.w.i.s.1.>.w.Q >.c.w.} r.B.'.-X3XY.i.} Q c.&X&X3X<XL.B.s.1.s.8.s.' 1 p A >.%.1.i.=.A 6 ' J.B.c.' X.h.A I i...I p.'.E.E.s.U ..1.,.r.i.p.,.i.,.r.i.i.p.r.r.i.i.i.i.i.i.r.r.r.p.i.r.r.4.1.r.i.i.r.i.1.1...,.}.c.g.r.,.c.r.r.Y./.}.c.-.,.r.i.i.i.r.r.r.r.i.p.1.1.,.1.i.4.1.r.2.2.1.",
",.E.L.Z.L.}.E.C } c.E.B.v.M.E.;X.X`.,.U p.1.' 1.M.x.} I g 2 d m p.B.L.L.v.E.Y.E.E.}.Y.v.s.,.v.c.p.v.p.A A U B.&XE.r.A m m 7 7 V A I -.i.i...U ..-.r.E.L.&XY.s.c.1.v.c.s.1.s.|.L.s.i.-.I I c.M.I U L.L.U g g v.s.{ Q I } r.p.i.p.i c.s.I ..s.E.B.=.M.r.r.=.A A V =.;.=.y.v.w.=.h.s.=.7 m h.s.>.8.A T ,.Q q M u ..y...Y C ' E.T T v.1.s.;X|.c.n.s.c.M.E.'.E.B.L.E.M.1 I '.d.>.Q z Q I g =.r.1.=.=.w.i.1.1.r.c.c.Y G I ' =.=.w.y.8.y.h.s.{ v.<X&X;./ } r.c.;.D.B.E.Y.f.1.8.W.d.I p p / B.8.g / m z V Y b z ' h.1.8.s.;.' =.>.>.i.>.r.Q Y X.I h.,Xm.s.E.}.i.m.$XE.'. X}.W.R.R.L.I.W. XD.d.y.w.s.h.r.8.Q I V A >.c.b 7 s S ,.8.s.m.I Q  .;.X.} <.a.w.8.r.r.w.r.s.a.r.r.i.r.w.w.y.r.w.r.r.r.r.i.d.i.w.L.y.i.}.h.I I m.B.i.w.s.h.i.i.h.J.c.i.r.r.r.w.w.r.>.s.h.w.r.8.%.1.w.=.w.>.i.w.w.1.>.w.i.1.1.r.w...=.A 3 y.i.A ..S G J.L.B.r.` Q p.h.1.%.1.B.r.8.r.>.=.' Z >.r.w.r.1.r.s.w.w.s.i.1.w.r.r.w.w.w.%.;.h.I r.J.;.y.;X&X$X'.U.;.X.>.c.$X3X).$XJ.s.c.r.r.,.r.=.m 9 M ..B.m.c.c.s.w.Z W r.r.Q g ..i.G X.1.c.i.s.i.M.|.,.I -.p.i.1.i.s.,.=.s.B.p.i.r.,.c.p.i.r.4.r.i.r.r.1.i.i.4.r.1.1.r.p.i.r.i.r.s.c.}.M.C.r.$.i.=.,.,.i.v.p.r.=.r.r.1.i.i.r.r.4.4.r.r.1.1.,.4.i.4.r.g.t.i.i.",
"g.,X`.r.' r.| Q 1.T.r...s.|.Y.E.A.1.m I M.Y.M.A A s u 7 8 g I U $.=.v.Y.L.L.E.'.&XE.c.p.p.i.L.m.s.v.v.B.=.r.Y.m.r.i 2 g m m A ..=.4.M.i.' i A -.V i.C.s.v./.}.'.M.E.c.s.l.M.p.c.i.} =.-...Q 7 u } v.=.g 2 =.i.,.B.B.L.c.v.|.|.;X.Xv.1.i.L..X}.s...c.r.s.h.,.Q ' v.c.|.L.i.s.1.c.Y.=.7 =.c.I c.s.} { T g g U ..Q ' ..m u I m g =.c.c.}.|.s.,.g m m g ..v.'.}.,.u g * Q 1.' I g g V g U M.1.r.Y.L.r.v.c.v.p.M.v.8 7 U Q c.c.c...I c.s.s.=.m.$XY.Q ..>.W.} %.h.8.c.` ..g ;.' M A V A y.s...G =.%.z b m u p u G ` %.Q } i.w...w.D.s.;.I / v.i.;.{ Y ..{ s.8.d.d.1.y.B.8.w...y.m.J.E.J.r.w.w.s.i.c.r.s.' m b b r.r.m z b %.s.8.d.c.` w.B.r.m Q r.c.i.r.r.d.s.r.i.d.w.w.a.h.y.1.w.r.w.1.y.<.d.w.w.[ N.m.s 1 Z g $ * b s m ' %.i.B.h.m.).B.i.1.r.r.c.s.c.1.s.h.i.s.r.=.8.8.1.1.,.1.r.y.1.r.r.8.w.y.r.,.R V 7 X.w.m Q 1.' B..Xh.h...z g ' 1.R ` >.J.).B.i.w.4.w.$.r.g.c.i.>.r.c.i.1.w.r.r.r.s.p.w.w.w.1.p.v.$.' c.i.M./.E.E.L.,.Q i.i.p.).J.m.s.%.} ;.r.s.w.r...s g 1.E.E.B.r.r.i.Y.M.r.B.M.,.-.Y.s.Q r.i.s.,.p.p.Y.Y.,.' r.s.1.1.p.i.-.i.i.i.r.r.r.r.r.i.r.1.1.6.r.1.1.4.r.r.r.4.4.r.i.i.4.r.i.i.4.r.i...' ..1.1.,.r.p.s.i.4.r.i.i.r.i.i.i.r.r.r.4.,.-.p.s.i.1.4.p.p.r.r.6.1.",
"c.L.s.A.B.v.| ..1.i.' *.v.B.1.x.i.m 8 Q |.;XL.r.r.A u A -.B.Y.c.4.v.E.'.Y.M.L.Y.s.A 1.M.'.&XB.p.s.p.p.s.,.c.}.%.g g m i } I ' v.} ,.c.v.p.R Q ,.V 4.v.=.A m Q r.B.E.Y.L.v.Y.L.v.M.M.V m i u U B.,X..Q } m i.} -.Y.p.r.=.E.;X}.M.L..X3X,X&X;XL.Q ' p.r.c.c.p.p.v.B.'.U.s.p.p.p.M.r.B.' ..s.1.V ..p.,.Q A ' 1.,.n.B.s.=.Q ..} I ..s.s.'.E.r.V 7 i u m V g -.s.g 2 I V =...A V V I s.,.-.,.I i.;X&Xv.1.c.p.'.L.,.2 A s.E.'.} I A m { L.i.G m.E.h.J.Y.L.r.s.B.s...B.V X.L.B.d.W.h.r.r.=.r.r.' =.c.X.Q G ../ Q s.s.} 7 m I 1.h.L.c.c.1.{ d.,XE.s.y.p.M U.s.M 1.D.S p ' m A ..J.'.L.h.1.X.r.s.n.h.n.p.c...u g ' s...S S Q r.c.r.c.s.G s.s.' Q d.d.n.c.1.r.8.y.n.i.8.c.;.s.a.w.r.i.s.y.h.=.w.h.i.d.m.>.& $ 3 r 7 b G g r s m s 1 2 G b.L...' %.r.c.J.i.i.=.>.s.r.>.w.s.w.8.1.1.w.w.r.r.s.s.s.y.r.i.8.=.' =.s.s.r.w.m.&X).E.i.S I z r m b ` V Q w.).[.g.w.s.B.N.w.m.m.4.i.1.>.w.i.c.s.1.r.r.s.s.w.w.r.r.1.c...A r.} 1.c.s.B.m.B.M.-.~ >.w.1.r.r.=...=.w.e.r.a.>.} r.L.L.C.r.1.E.}.|.}.&X,X}.|.E.E.,X|.4.p.M.s.i.i.B.B.,.1.i.i.i.s.i.1.r.i.i.i.r.r.r.r.r.i.r.4.r.r.r.r.1.i.i.i.r.r.r.i.p.r.4.r.i.r.r.4.r...$.r.c.s.s.v.M.p.r.4.r.r.r.r.r.r.r.r.r.r.i.i.p.r.i.i.r.r.i.r.1.r.6.1.",
"s.c.r.B.p.' i A Q p.i.1.,.*.U ' } g i V B./.>.$.p.Q Q c.E.g.~ m -.|.$XL.m.L.L.,.A V L.oX;Xi.A c.v.p.c.p.p.L.|.U 2 7 A U P..XB...A v.|.B.L.B.B.L.~ =.i.c.M.i.} F =.,.c.M.T V ' i.E.Q 7 i I r.n.v.c.Q ,.A ' B.M.L.=.} } A s.L.L.s.L..X;XY.c.M.s.} 1.v.s.v.s.c.s.v.s.|.i.-.s.r.p.s.i.c.I g ' E.i.s.'.E.1.v.c.=.,.M.;Xc.v.v.B.E.c.s.s.B.E.p.p.g g I A g U A m u $ A A m A i g ..,.p..X=.@.v.p.E.;X&Xv.1.1...>.v.A 7 U r.c.i.m A Q A =.8.U r %.c.h.Y..Xc...L.'.h.} r.s.r.}.D.L.c.G >.` X.d.B.Y.c.L.v.U.8.>.' n.v.I u Y I ' c.8.B.M.c.s.y.E.{.n.s.n.8.y.&Xc.;.1.L.X.' ' I G 8.B.Y.Y.D.d.s.h.i.s.s.s.=.` g r I >.J.L.h.i.w.i.y.r.D.J.;.i...b Y =...c.s.>.w.c.h.;.1.s.s.i.a.r.a.h.w.<.w.r.%.1.w.w.D.y.> 3 b I A g V G g V Q 1.s.` 3 7 A ` 7 V b 7 V i.Y.B.J.d.d.i.>.w.1.r.w.w.r.y.y.r.w.i.p.p.r.r.r.w.>.=.c.).i...y.Y.$XL.c.r.B.'.=.z p r.w.' 1.c.h.%.N I B.y.$.r.w.` y.i.s.r.1.r.p.r.w.1.w.s.s.r.1.w.w.s.B.=.7 I A r.Y.r.p...~ I i ' s.<.>.1.w.=.=.1.i.w.i.s.r.i.Y.).h.v.h.m.|.|.&X}.'.Y.E.E.Y.E.E.,.Q E.s.M.v.r.p.v.i.,.1.i.s.s.r.,.r.i.i.r.r.r.r.r.i.r.r.4.w.r.r.r.4.i.r.r.r.4.r.i.i.1.r.i.r.r.r.r.1.1.,.i.B.Y.Y.Y.M.i.r.4.4.4.4.4.r.r.i.i.r.1.4.r.p.r.r.r.i.i.r.r.1.r.r.r.",
"*.c.r.*.' *.,.v.r.L.B.s.M.L.p.-.Q A A U B.p.g 8 i } 1.' A I F g ,.B.s.g.s.=...I m s.&X.Xp.u R }.M.c.B.p.-.,.=.i V g U r.,.' Q c.B.,X.X>.p.B.v.i.M.c.p.g.Y..X.X}.s...M g = = i U U 2 i V v.1...1.Q m s.,.r.p.Y.1.-.r.s.,.c.i.s.M.L.M.c.i.1.r.r.r.i.p.r.c.c.M.p.,.Y..Xi.1.M.s.c.s.c.p.2 i B.B.M.;XE.A I v.1.p.1.Q r.U B.'.s.c.1.=.c.M.1...p.i U 1.r...p.r.' I m g m Q } Q c.,X,X-XM.I ..M.B.}.E.s.E.v.r.Q 7 Q 2 u U p.E.&X'.}.M.r.1.Y b i I w.n.L.c.m m m m R %.i.B.Y.w.M } ' u A ` 8.s.B.,X3X&XJ.s.n.s.=.c.8.} c.m.B.W.L.A R ..` ) ' d.y.=.=.s.=.d.y.' n.D.p.{ s.i.r.r..X&X$XE.r.r.s.s.i.s.h.>.S s u A } %.r.w.' s.s.s.y.r.v.Y.J.A 7 r G Q ,.M.%.1.r.B.i.b A r.c.d.w.c.w.1.h.a.w.s.h.1.w.h.R.A $ m m s V ' R b V r.c.L..XB.` G m V s =.Q 3 7 Q i.} r...>.h.r.s.,.r.r.r.y.i.i.y.r.8.r.r.w.w.r.r.w.%.r.w.r.y.B.W.i.1.h.c.m.1.g u m s.h.a.B.L.a. .F } $.R } 4.g.r.g.i.i.w.w.r.1.>.i.s.r.r.w.>.w.s.h.s.c.Q 7 V =.|.}...g g V R ..L.g.i.r.i.i.1.1.r.s.r.w.r.i.i.h.m.c.E.E.c.p.r.Y.E.B.Y..XE.L.'.=.7 U s...L.Y.s.E..Xc.} r.p.,.=.-.1.i.r.r.r.r.i.i.i.i.r.r.r.r.r.i.i.r.r.r.r.4.4.w.r.r.1.r.i.4.4.i.i.r.p.1.i.v.M.c.s.i.r.r.r.4.4.1.4.r.i.i.i.r.4.1.4.r.i.r.r.r.r.r.r.i.i.i.r.",
"r.'.E.s.s.B.M.B.E.B.c.v.L.M.M.T.&Xi.A } Y.} u k =.i.w.=.r.M.p.' ,.v.i.M.E.B.Y.B.p./.E.i.g i E.E.s.p.M.s.-.} i I 1.1.=.M.L.-.U }.5X/.1.-.E.'.E.'.s.c.M.M.s.s.E.,X&XB.A 7 V r.i.r.A g A ,.E.m =.B.c.p.=.1.M.B...,.#X;X&X.X}.v.p.c.B.p.r.c.c.r.1.s.p.i.r.c.v.M.1...;XE.p.r.s.s.v.M.B.i.7 A s...r.s.7 m ' B.L.c.B..XY.A { ..U r.B.L.B.p.=.s.-.7 =.E.}.;X,X<XL...Q V Q c.v.,.c.'.E.L.r.7 A p.E.|.E.M.M.r.p.U i V m m g s..X,X'.1.U -.r.=.A m i.E.y.1.Q & s =.m.'.J.r.r.Y...u M %...' m.c.r.1.Y / ` g X.E.Y.n.r.h.h.>.I w.J.i.G b A G r.X.s.s.;.{ n.{.W.Y A r.1.;.y.=.>.d.D.&XY.m.p.{ ..1.s.L.J.r.I u V Q A V 1.s.p.B.r.B.L.n.B.L.J.n.1.Q I S } m.y./ 1.d.r.%.u 1 V J.D.Y d.n.8.h.8.d.d.b.h.N.L.d.& s b V 7 A J.s.G ` c.J.b.i.} ' i.g.` A ' V b g 7 3 3 g s ..m.w.w.i.8.r.i.i.r.r.y.p.i.i.r.w.8.w.r.r.} ' R 8.L.{.}.8.r.D.8.A 2 2 V A ` w.m.L.E.m.r.%.>.>.%.r.r.p.h.s.r.w.;.w.h.i.1.i.w.r.i.i.r.i.i.1.c.r.I A A m./.} A 7 ' c.E.E.L.r.1.1.r.p.w.w.r.r.r.1.w.i.r.r.c.L.L.p.>.p.g.L.L.L.M.B.B.c.i.} U >.1.r.v.Q ..|.,Xp.@.s.p...} ,.i.s.r.r.r.i.p.p.i.i.i.i.i.i.p.p.p.i.r.r.r.r.i.r.r.r.4.i.i.1.1.i.p.i.i.r.s.c.,.' ..r.1.r.r.r.4.4.r.r.r.r.r.r.i.p.i.i.i.r.r.r.r.4.r.i.i.r.r.",
"=.M.E.|.|.A.p.M.1.6.M.L.p.} r.`.1.} g -.E.I g I r.i.C.oX}.1.Q } B.;X}.v.p.v.L.p.L.B.r.U e V Y.B.c.s.v.s.1.} 7 1.c.B.n.r.M.Y.Y..X.Xp.g.}.;XC.Y.&XY.c.s.c.r.1.c.E.E.E.p.p.B.E.s.i.Q m I s.M.-.M.B.M.v.}.|.&X3Xc.i.,X&X'.|.E.v.c.v.i.s.s.s.s.i.p.v.c.v.v.M.c.p...-.E.r.i.p.p.c.c.M.Y.Q 7 A U ,.c.1...m -.p.,.B.|.'.v.Q r.L.Y.,X&XY.1.s.M.'.} V E.,X|.M.p.'.v.,.M.} U c.c.,.p.M.s.p.A * I Y.;XL.v.L.M.B.v.Q V 1.r.U v.;X,X}.v.U h v.D.L.=.X.'.,X} 7 3 z G B.-.A p ' c.i.h.1.Q 1.i.i.i.y.1.i./ z r s ' .XL.d.8.s.s...V Q m.U.s.s.U.m.c.8.1.;.X.' ;.c.+XD.1.' d.r.r.n.Y..X,X+Xi.1.h.s.w.8.8.h.;.V 7 g 7 G ..r.E.B.s.n.s.&X$Xd.w.d.B.E.J.{.}.U..XU.p 1 X.d.s.>.s 7 s } ..2 <.L.c.D.1.y.s.h.b.` Y m % g m R V Q s.R 2 I >.i.s.;.I Q i.g.} m g 2 b R G m 3 s s } s.w.>.r.1.w.r.r.1.1.r.i.i.y.r.w.1.w.r.y.=.} Y V V ' w.i.B.s.%.>.8.h.i.{  .Q ..h.'.c.=.} ` s.w.w.w.w.i.h.w.i.s.a.s.i.w.w.>.r.i.w.%.%.` m V m 7 A s M..X,.Q r.}.'.|.E.i.p.1.1.w.r.1.w.i.r.w.r.r.r.r.i.c.m.r.>.r.'.}.'.M.p.p.,.i.g.i.1.4.M.E..Xi.g =.|.'.p.i.s.p.1.r.p.i.r.i.i.i.i.p.p.p.i.r.r.i.i.i.i.i.i.4.r.r.i.i.i.r.1.r.i.r.r.r.i.p.p.r.1.i.p.-.} -.s.1.r.r.r.1.r.r.i.r.1.4.r.i.i.i.r.r.i.i.i.r.r.r.4.r.r.4.",
"s.L.E.E.M.*.=.L.1.6.B.A.B.s.s.r.4.B.r.r.s.A I ' p.B.Y.L.L.c.i.s.E.E.E.C.p.r.i.i.,.c.=.V m A s./.B.v.r...' g i i.L.c.L.E.E.'.v...U V i.}.C.1.v.B.C.B.Y.L.M.B.Y.B.B.i.r.'.}.c.Q U Q -.i.v..X|.E.;X|.|.3X&X3XE.B.|.Y.v.s.p.,.=.s.i.A r.B.c.c.c.c.c.p.c.v.M.v.p...c.s.,.s.B.M.B.M.B.-.7 * U M.M.s.E.=.A ;Xv.B..X..=.' r.;X3X.X}.c...I c.M.M.,.Q M.E.i.8.-.' 2 V c.A ..v.c.p.v.i.U u u =.}.;X&XY.Y.M.,.c.r.A U |..XE.|.}.E.D.v.Q V v.E.E.E.W.L.B.Q u m G I i.{ R z 1.i.i.B.=.%.v.B.i.h.B.y.h.D.;.V m Q ..7 7 =.c.h.h.;.} c.L...c..Xm.r.s.r.d.L.D.;.{ s.;.s.p.D.8.;.B.<X[.+XE.s.i.i.>.w.8.' I u 3 3 S s R w.c.{..X&X+X,X'.` g >.L.m.c.W.&X.XE.Y.s.g z R d.c.=.r M A V 3 6 ` { ;.E.h.` >.y.` * = 7 p Z G Q } w.w.A m r.a.>.1.} A I } ..b u b b V Q 1.>.I A k R w.y.1.1.1.w.r.w.1.1.8.r.8.w.w.8.1.8.r.i.y.;.m s 9 7 ' s.D.;.=.n.B.E.D.m.=.A V ' c.w.' R ' %.=.s.-.i.J.w.=.1.i.h.r.1.1.8.s.s.>.G u b m s 7 g u A u =.L.c.$.Y.'.C.E.'.c.i.i.r.r.w.<.w.i.i.w.i.r.w.r.i.r.r.i.p.p.M.v.B.s.,.r.,.-.r.s...U p.E.E.,.1.|.3XE.i.0.i.p.s.v.v.i.1.s.p.i.i.p.p.i.i.r.r.r.i.i.r.r.r.r.r.r.r.r.r.4.1.r.r.r.i.r.r.r.i.i.1.r.r.1.4.p.s.-.4.i.r.1.r.r.i.r.r.4.1.1.1.1.1.r.i.i.r.1.r.6.1.r.r.4.",
"p.T.`.B.p.| ..v.'.c.s.p.v.i.| 7 ..B.c.i.s...1.i.M.}.|.'.'.Y.M.M.c.M.E.B.s.M.c.1.i.'.r.V i I E.B.i.r.' A m 8 ..E.d.Y.c.c.p.L.} A Q 8 U s.c.c.E.p.c.Y.E.v.v..XoXc.c.....L.B.B.L.E.p.i.r.L.}.i.;X,X,X,X}..XY.s.Y.s.p.,.r...Q m ' g 7 ..c.p.p.s.p.i.p.c.c.M.v.i.' s.p.s.v.M.v.v.v.M.u = V I p.i.Y.=.* c.E.M.Y...s.L.p.E.|.Y.M.L.i.I U B.-.1.}.Q m ,.' ' V i g ..p...s.L.p.r.v.p.' V V ..-.,.L.L.Y.p.v.r.r.g Q ..=.L.Y.M.B.M.p.U A c.{.m.B.+XY.h.X.=.'.%.8.X.X.L.,.1.i.n.X.m s.m.B.s.J..X.Xp.=.=.c.w.c.8.;.X.i.r.r.>.1.n.c.1.m 1.B.c.L.Y.c.U.|.E.r.s.U z ' r.E.y.X.W.$Xm.E.n.8.1.i.i.y.B.1.S r b g m G 1...Y U.-X$X+X}.c.V g >.s.s.W.W.B.r.r.} =...Y A n.>.A 7 V A >.' G z b W ' R V 1 A & p G G s b m G %.v.J.B.Y..XE.=...Q m A Q =.} A ' ..R Q s.w.J.Q s R i.i.=.w.w.w.r.r.r.8.1.1.w.w.r.r.w.1.8.w.y.=.3 ;.E.1.J.c.8.{ X.w.i.}.E.n.i.s.1.b N A m 2 Q B.B.L.>.V G %.` m I w.i.w.w.r.1.i.1.A 7 f n r g A V ..' =.r.1.,.c.p.c.1.r.p.1.1.1.w.r.w.w.r.1.w.r.r.r.r.w.>.w.1.,.>.r.-.1.,.,.1.1.1.4.p.=...M.Y.,.Y i.L.|.Y.' =.r.r.1.i.c.s.s.v.c.p.i.i.i.i.i.i.i.p.p.p.i.i.i.i.i.i.i.i.i.r.r.r.r.r.p.i.4.1.r.1.p.s.4.=.,.r.1.=.1.r.r.1.r.i.i.r.r.r.4.1.1.r.i.i.p.i.>.-.1.r.4.i.r.r.",
"r.Y.s.r.,.| ..B.c.1.v.v.Y.Q A r.v.s.$.v.M.1.B.B.c.=.s.}./.Y.L.-.B.E.B.g.s.s.c.s.B.E.} m Q 1.B.i...-...' ..r.E.;X'.i.,.s.r.-.7 A c.A m s.M.c.s.M.c.B.I F v.}.'.s.i...,.Y.M.B.M.,...M.&XY.r.i.c.M.Y.B.}.L.;.r.p.p.p.v.c.Q A I =.I g r.c.,.v.c.v.y.s.v.p.M.v.g 8 p.s.p.B.c.v.M.r.u = V C I i.'.'.l.Q s.s.v.s.s.}.E.s.c.L.E.Y.i.U m ' }.].&XL.g g -.s.=.g =.E.B.B.s.i.} r.M.E.M.p...Q i g ..B.E.v.M.s.p.c.} g Q =.Q U =...,.i.V u r.1.` W.,XB.c...h.4Xr.r.i.1.8.w.v.a.w.s.>.d.w.%.m.&X}.r.` [ w.m.M.m.}.,Xc.,.s.w.b.s.s.h.%.` L.E.E.s.g c.&Xc.y.r.8.c.B.Y Y W.y.D.3XJ.p.y.i.r.,.=.i.s.B.i.B.s.m ' G ' d.y.1.d.n.c.m.'.h.X.R ..s.c.}.h.;.=.r.r.i.s.8.w.d.z g M m w.d.h.G V Z z r b s p g 1 G 9 Z Z r } r.w.B.r.m.;X'.r.<.1.V r m b ' w.} m.L.' ` h.J.L.Q I } B.J.s.w.s.r.y.>.1.=.y.;.;.8.1.;.1.w.1.1.i.} V r.n.w.L.c.d.-.%.>.i.W.w.` ..>.i.s.` 2 g 2 I =.s.i.7 9 ..%...I ` w.s.r.r.p.r.i.h.' b s r g m g =.r.c.}.Y.L.B...r.=...r.p.r.1.1.r.w.,.r.i.1.w.r.s.w.h.r.1.1.1.1.1.4.1.-.-.,.>.i.i.r.p.r.L.B.M.1.A V Q ..A I t.1.p.1.n.L.B.c.' ..1.r.g.,.r.s.i.i.r.1.i.s.r.i.r.r.r.i.r.1.1.i.4.i.i.r.1.1.r.r.r.4.p.i.$.~ g.c.1.-.r.i.1.i.s.1.r.4.4.r.r.1.r.i.p.i.i.i.i.r.r.r.4.4.4.",
"1.B.p.p.p.1.1.A.Y.B.&XOX:XL.L.|.M.s.r.M.h.r.B.m.c.p.p.L.L.v.4.} c.L.v.c.c.s.c.c.Y.1.7 g r.L.v.-.-.1.=.p.E.'.}.&XE.B.}.;X;Xi.=.1.p.Q i.1.} c.E.p.c.1.u Q '.E.v.M.i.p.L.|.Y.E.L.=.c.'.|.P.v.p.r.-.M.1.r.r.i.p.1.i.p.M.=.g i m i.}.Y.L.L.v.v.1.i.i.p.M.B.B.Q 7 } s.p.v.r.c.B.-.m 8 A A A } c.L.-.A c..XE.M.B.c.s.-.r.c.v.-.Q A u 7 s..X|.'.r.A 1.B.=.g m L..Xr.=.p.p.p.B.E.Y.1.r.i.A U -.M.E.L.c.p.p.B.i.V g 1.E.L...A m I A u V r.E.r.m.c.r.c.} =.;.Y z } s.d.r.w.c.r.h.c.s.=.n.&X$Xp.>.=.w.D.B.s.8.8...' s.B.i.r.s.c.c.s.L.{.d.B.y.8.G.L.d.d.y.r.B.r.,.1.;.M ;.c.d.1.=.` Y Q ..y.h.d.h.R.c.I ..` m.B.r.s.W.;.' ).&Xr.` Q 1.c.B.{.h.r.w.1.1.i.i.%.R ;.A g I I =.,.i.c...Q s.a.%.z Q b.Q b / L.J.w..Xi.i.m.r.r.}.s.` G r.=.1.B.' R =.Y.&X$X=.=.w.Y.R I =.B.=.R L.w.=.>.i.r.r.=.1.=.1.w.1.1.1.1.1.8.r.d.A V I Y c.n.m.w.1.>.-.;.Y M ' L.c.m.c.' g m z m m g s >.B.B.M.Y.).J.w.>.w.r.s.i.s.w.=.%.Q V F >.L.Y.,.-.v.1.,.r.-.Q m ` v.p.s.w.>.w.i.1.1.i.s.r.i.=.} r.r.i.r.4.1.r.r.1.4.r.w.r.1.1.p.i.i.=.=.' V -.P.d.I I i.p.1.' I A A A i u } 1.=.s.s.1.-.r.i.1.1.1.1.i.1.1.1.4.4.1.1.r.r.i.i.r.4.r.i.i.4.4.p.r.=...B.B.1.r.i.r.r.i.r.,.r.1.1.r.r.1.4.r.1.1.1.4.r.i.i.i.r.r.r.",
"-.B.p.6.=...-.L.|.'.2X|.}.`.'.A.i.,.p.L.E.E.Y.p.v.L.c.M.4.Q g Q |.}.v.p.s.c.B.B.M.-.i I J.E.v.i.' u g r.L.E..XY.c.B.E.B.v.} L.E..Xc.Y...g Q ..p.' A A v.;X}./.L.p.c.L.E.c.L.v.=.-.L.Y.Y.B.p.s.p.,.p.p.,.1.i.r.c.v.B.I 8 A ' M.&XL.-.r.c.s.i.c.c.B.M.L.r.i V L.|.d.B.i.c.,.m 7 V A V U r.M.E...U }..XY.v.Y.v...I ' ' Q V i i V ..s.E.E.L.r...p.i...g X.'.Y.r.-.p.v.v.s.i...Q M.c.i.c.v.E.E.v.c.i.c.L.=.u V c.;X.X}.M.=.' T z ' '.;X=X}.m.i.s.' ' ' S 9 i.B.y.d.h.y.c.m.y...w.-X.X=.A A A >.Y.s.y.r.w.M I B.c.>.s.c.i.L.Y.).'.E.).'.U.c.s.y.s.n.D.X.g ..d.r.{ n.L.i.h.B.y.=.;.>.r.s.=.c..XB.G Q 1.}.c.d.r.J.c.i.n.=.m m V =.c.'..Xs.i.r.w.w.i.i.=.b Q r.' Y Q r.J.$X)...1.&XL.>.b X.y.=.w.W.E.b.N.s.` r.m.h.B.).1.3 G m.h.B.s.I Y.$X3X.X'.c.c.>.>.W >.i.i...G ;.w.1.1.r.1.8.1.r.r.8.8.>.=.-.=.;.r.;.s.V =.).B.E.Y.J.y.%.` X.,.>...%.d.=.=.Q ;.I g s m V g G i.d.Y.v.Y.Y.s.%.>.w.-.w.1.w.i.r.s.J.c.r.r.1.Q I ..-.>.p.Y.-.k g u m >...1.w.w.i.i.i.h.c.i.h.=.G s.i.w.r.1.,.1.r.r.r.r.i.r.1.1.r.p...U ' A m c.'.B.1.` =.} i 7 2 = 7 u A 7 g k k s.1.Q ,.i.i.i.s.p.1.>.1.1.1.4.4.1.4.r.r.i.i.r.1.r.i.i.r.1.1.1.1.p.E.B.v.g.p.s.s.4.1.p.r.4.r.r.r.r.4.r.r.r.r.r.r.r.r.r.r.r.r.",
",.B.s.i.1.-.6.L.M.x.v.r.c.B.A.p.r.p.E.;X3X;XM.s.s.s.i.M.=.A s -.&X|.v.p.c.B.L.M.B.v.V A 1.i.M.B...Q 1.E.E.'..Xv.i.p.....Q ..s.=...` $.i.A I 7 } R 1.Y.;X&X|.|.c.v.p.s.v.p.v.r...i..X}.}.E.r.s.M.M.s.i.i.s.c.c.L.Y.1.7 7 ' r.E.Y.I A 1.s.r.s.v.c.B.c.B.Q 8 V } M.c.=.X...I g g A Q ..v.'.}.3X}..X;XY.v.s.p...g 7 g } c.i.) A ' M.B.}.r.Q m 7 Q s.s.r.L.E.c.p.p.i.v.p.r.v.Q V v.r.p.s.r.E.E.p.c.s.B.p.I g Q M.;X.X'.|.E.Y.B.1.,.P.D..X'.c.i.} m M Q b r s.=.;.D.c.h.8...r.}.4X.XY 3 7 7 u 1.y.I %.J.B.h.s.w...<.I.h...1.w.D.'.).h.B.r.r.c.s.s.X.Y 3 q ' ..s.W.W.c.h.L.'.J.c.n.p.r.1.;.m.Y.s.U I h.G G B.i.=.' >.c./ 9 g m ..i.$X&Xy.8.w.p.i.w.w.i.A I J...G >.'.+XB.<.i.'.D.Z b z b 7 r z s V S N u p R w.r.i.R g b %.m.i.s.=.I }.;XE.L.m.s.w.h.r.r.).B.i.p.} [ h.=.1.r.w.a.h.s.p.w.r.w.w.r.1.1.y.r.s.s A =.Q h.'.L.m.;.A ..s.h...%.I R s.=.c.1.' } X.=.` A V ' E.B.h.p.w.>.1.1.>.s.h.i.r.....r.=.-./.L.I ..r.} c.g.A U i g I V g ..w.c.h.w.r.s.i.s.i.r.R G c.i.1.4.1.,.1.r.4.1.4.p.i.i.r.,.p.} ' ..V V -.A U =.u 8 g = 7 g m m u 2 Q i.} g g e g s.s.-...>.4.i.i.1.1.1.4.4.1.4.r.1.r.r.1.,.1.r.r.r.r.r.r.i.m.L.c.,.>.r.p.r.-.-.1.r.r.r.i.i.i.r.r.s.p.i.r.r.r.1.1.r.r.r.",
",.c.p.B.E.`.L.L.6.i.1.1.M.c.c.M.s.Y..XE.C.=.A 4.M.L.'.}.} A A i.Y.E.B.M.L.L.Y.M.v.s.e A i.4.B.r.1.E.}.E.E.B.B.B.v.v.1.i...1.-.' Q Q -./.=.1.' m } /.E.p.m.c.,.4.p.r.i.c.c.v.Q m i.M.1.v.E.B.v.i.p.v.E.E.v.B.E.L.L.I 8 m A -.}.B.} p.E.L.p.s.c.M.v.c.s.g = m Q B.I g -.Q A i I r.;X;X5X,X'.'.s.B.Y.i.p...V g i g } M.|.L.M.Y.B.v.M.p.U m g g } c.E.'.'.'.L.p.1...,.s.r.L...u ,.M.s.v.s.E.E.i.c.s.=.A i g A s..X'.B.v.~.,X&X;X&XE.c.m.s.d.h./ g V m A S =.' B.'.s.B.h.r.s.r.` b m Y I g R h.r.>.L.&XX.r.B.r.m.n.%.r.s.c.c..X'.c.r.1.,.s.d.s.c.z > g A 1.y.U.E.d.d.c.h.y...X.s.d.i.8.h.N.r.w.=.Q c.R I w.r.'.n.' ' I 8 z ` s.c.'.v.w.w.r.p.r.1.1.i.U %.+Xh.J.&XE.w.G V r.w.N 3 p N Q b Q >.[ d.X.u =.S ` h.m.s.G A b } m.J.B..X,X}.c.i.w...Q m >.s.i.=.I I.Y.>.B.w.w.d.v.i.i.s.1.w.1.r.y.i.s.r.1.w.y.D.Q g m Y c.c.s.s.8.R 1.c.=.s I =.;.s.L.U.;.r.r.d.E.{.d.{ i.E.m.h.h.h.r.1.r.s.>.w.1.w.,.%.} k Q ,XY.i.L.s.i.B...' c.m U c.L.1.R V } i.,.1.c.h.i.r...u ` m.s.r.4.r.r.i.i.w.1.r.i.i.p.i.1.s.$.$.L.c.M.Y.A U r.m i -.U m g Y } A =.Y.}.E.M.=.Q 7 I ..=.-.>.-.1.1.1.1.1.1.1.1.1.,.1.1.1.,.,.1.1.1.1.i.c.s.i.c.p.,.r.i.c.p.$.,.p.>.r.4.1.r.r.r.4.r.r.r.r.4.r.r.r.r.r.r.r.",
",.v.s.B.T.E.L.B.x.Y.B.B.T.s.s.Y..X&X'.p...g i c.E.C.'.'.i.v.p.s.E.L.r.-.,.,.s.B.m.=.2 ..|.L.E.r.r.1.p.~.'.i.,.p.c.i.v.M.s.p.i.M.B.L.r.i.-.,.M.,.L.E.s.1.v.s.1.c.c.M.B.v.M.M.I 7 } M.E.'.L.i.l.B.} U ..B.E.L.r.g g 2 7 A A L.3Xv.r.c.,.i.c.c.v.B.s.v.-.V i -.&X.Xg U L.-.Q i =.3X&X}.'.E.~.B.,.p.c.s.p.A 2 I i.M.Y.v.r.1.E.3X}.p.s.} Q } U } v.c.'.E.L.E.E.c.,.Q =.|.s.p.1.A ..B.Y.'.E.'.E.s.r.} g q A A A i.Y.s.1.1.r.p.c.Y.E.Y.Y.s.i.c.h.I p A Q r.s.y.i.D.i.y.U.$XW.v.r.` u z B.8...1.s.B.).J.=.R w.s.s.c.;.1.r.L.;X,X.Xm.s.c.d.c.s.8.d.s.p / 1.X.n..X-XW.c.D.d.1.../ %.c.c.s.r.w.8.r.c.8.A r.y.%.i.p.B.=.b r 3 7 V Y 1.m.Y.` %.r.i.1.1.w.w.r...L.3X&X5XE.' ' N G ' 6 r Y / %.B.' ` s.J.'...R s.R w.c.c.m.B.r.' s.Y.$X[.}.}.1.h.J.%.R V s R s.i.r.%.w.1.L.E.b %.r.v.n.c.c.=.y.c.m.h.i.p.i.i.s.8.1.m 7 I J.&Xc.p.w.1...D.{...r Y B.B.v.E.d.{ r.s.n.L.L.8.1.{.'.i.a.h.s.w.w.i.i.r.i.w.r.i.1.%.' v.1.Q r.E.p.>.p.4.,X.Xg I r.}.,XE.=.R G m ' s.r.1.w.} V i.J.s.r.4.r.i.p.i.4.1.4.r.r.r.i.i.g.,...-.s.M.L.-...r.-.Q ..g u V Q p.E.Y.E.L.v.r.>.C.' u V i i m I =.>.4.r.1.1.1.4.1.,.1.4.1.1.1.1.1.,.r.r.4.r.i.g.} V Q A ..s.i.,.1.1.r.1.,.,.1.1.1.1.r.r.r.r.r.r.r.r.4.4.4.",
",.M.c.c.p.s.s.x.s.Y.L.T.L.c.A.`.E.C.s.-.R u m p.c...r.B.}.6X.XE.'.1.k m I F } i.s.I u r.|.E./.Y.B.A V -.Q A -.8.,...r.s.E.B.s.v.i.s.~ ' =.' B..X.Xp.r.c.s.i.p.p.p.s.p.=.} } 7 2 A ' 1.M.L.v.1.} g = u i.r.i 2 8 g m I U ..'.s.g I I i ..s.p.c.c.i.c.-.Q A p.-Xv.i.c.L.-.} U v.'.B.B.c.1.L.r...=.c.B.1.g m s.|.&XM.p.r.r.s.p...} p.M.&X.Xp.s.'.M.E.p.c.L.B.v.-.I 1..Xs.c.L.i...=.s.B.'..X'.p.Q g p V ;.} } B.v.1.=.s.i.1.s.r.-.c.y.Y ' } R 7 7 M 8.m.h.s.s.1.} s.y.J...} r.n.c.s.L.>.i.n.r.s.r.I Q %.=.>.B.s.} s.d.m.W.'.s.r.s.,.s.d.1.s.n.y.M 8.X.s.B.B.U.|.L.r.h.w.w.i.B.L.s.>...G I =.>.Q u } B.r.L.}.s.A m Q A Y A g U c.).%.%.r.w.>.w.r.r.r.s.J.L.Y.J.` A ,.b  .[ r / w.w.N.B.%.8.b.[.J.R ..1.w.L.h.r.J.'.y.>.i.s.E.'.h.' V %.d.w.r.} b %.'.c.y.r.1.Q A u Q V m Q r.n.s.Q >.U.W.L.c.c.b.s.r.G I A V w.$X+XB.L.B.c...s..X%.G ' / { B.s.I ' y.B.E.+XD.y.n.{.m.c.g.s.i.r.r.r.>.1.1.w.r.r.,.i..XY.%.} r.s.} I p.5X.XC.U F c.oXE.c.i.w.>.w.i.=.A Q } R ..B.J.s.1.r.4.r.i.r.4.1.1.r.i.r.r.s.i.r.$.1.c.v.Y.E.}.'.}.c...g g } ' ..M.Y.s.=.} } s.E.>.F ..' $.r.r.s.,.r.r.r.4.r.i.r.1.6.r.r.4.4.r.1.,.r.,.=.1.p.s.V 2 - 2 V s.}.B.i.M.s.r.,.,.,.,.,.1.i.r.r.r.r.r.r.r.1.1.1.",
"=.c.x.v.s.c.c.s.c.B.M.A.v.A.|.`.s.p.m.m.} k Q r.i.g.;X&Xm.-.-./.L.I * A ,...} =.V * m c.}.L.i.r.m I ,.s.=...r.....s.M.s.r.1.i.B.L.v.r.Y.-.Q B.&XB.p.s.c.c.g.c.B.M.v.c.,.} U 7 A Q ..v.B.p...g = u A m V g 7 g C A V g A i.Y.U m g Q Q E.L.r.c.p.c.c.=.i 7 ..B.B.E.E.M.=.g A v.U U 1.=.g Q g i u V ' i = ' Y.L.s.s.v.M.-.U V i m c.v.,.A V r.'.E..X} p.E.v.i.U g ..Q m i.M.p.s.c.Y.E.,X-XB.} m V m A -.Q =.E.p.p.c.i.r.p.p.r.i.s.' 1 r u r r S ..m.d.8.i.c.B.).{.%.Q 9 s.'.B.'.3XW.Q %.c.c.w.} r.s.1.1.h.s.r.c.n.s.&X.Xm.;.r.i.d.h.c.8.d.y.c.@.=.A X.X.8.B.n.i.D.m.i.s.c.B.c.%.Q M p g g 2 u u A I W.3X+XL.r.1.h...G u I 1.Y.{.s.r.r.,.1.s.w.;.r.8.=...i.r.1.1.Q ' ;.I r %.L.R.J.a.R b.[.@XX.z r.r.J.c.r.r.J.s...s.b..X&XB.=.I g b s ..B.s.g =.h.` m.r.r.>.=.r.Y.r.z & r A A 1 S r.B.L.B.B.s...A g m m g w.&XW.D.i.E.{.' I m...=.b.y.' ..A { I.J.&X.X&Xy.r.D.L.y.w.>.1.r.w.w.r.i.s.r.d.h.r.I V m.=.'.p.} Q A r..X&Xs.g.' A m.-.' 1.r.w.s.m.%.s 3 r f r ..i.h.h.r.i.4.1.r.i.r.r.4.r.s.p.i.s.1.s.1.E.L.B.L.E.,X|.B.|.c.' A p.v.M.'.c.-.s 7 Q L.r.A ..B.L.'.'.M.M.w.1.r.4.1.4.i.r.1.r.i.r.r.r.r.1.,.,.r.i.s.r.1.g 7 A U u u =.i.1.v.m.s.r.1.1.1.1.6.4.1.1.1.1.4.4.4.1.1.1.",
"=.c.c.A.c.x.x.c.x.v.M.v.x.x.c.B.r.s.c.B.s.Q Q A.&X2X&Xs.p.1.6.1.I u i T r.0.,.K 7 i } ].i.Y U g ,..X.X;XL.....V } E.E.s.i.r.-..X;XL.'.}.r.' C..XM.s.i.s.c.m.v.v.c.s.g.c.-.A i g ' -XG.) u 9 u C A g A } ' -.U m I 1.=...B.c.A g m r.M.&XE.-.c.s.v.=.u * g ' ..-.M.'.s.s.,.1.c.g 7 g g g ' U Q -.r.g V A =.Y.i.r.,.-.-.c.v.-.V Q p.c.s.Q Q i.} v.c.s.E.E.,.I V m ..Y.=.=.v.M.s.L.E.|.M.M.,.m A m g =.1.U d.}.-.1.i.s.p.r.i.s.s.s.Q g ,.-.U Q U ..c.c.,.v.v.8.,XE.S Y ` B.E.B.W.Y.B.i.J.i.B..X{.J.r.c.h.h.%.m.c.J.'.).Y.B.s.r.i.h.y.r.s.n.d.s.G g G V M ` X...d.W.d.y.-.r.r.d...g 9 u / 8...S M z ' '.L.'.B.I L.'.d.X.Y c.+X<X,Xn.s.c.s.y.r.w.w.s.c.=.1.i.1.s.h.=.w.1.Q V V }.}.8.1.%.i.J.r.g g w.L.;Xs.r.r.h.I g w.E.3XJ.1.Q 8 r s u ' %.m p ;.' R '.s.1.s.r.J.m.E.).w.A m u m g r b i.} =.G 1 b 7 >.i.m ..U.Y.r.h.<X).} M >.Q Q r.1.s.s.' D.3X}.-X.X..8.c.:.@.=.%.%.r.c.r.r.c.8.i.s.i.i.%.I ..h.1.w.L..Xi.w..X.Xh.w.r...R ` I u U } R A i i u V s k m m } p.i.1.r.i.p.i.r.r.r.r.i.i.i.i.i.i.i.p.B.s.p.y.n.P.p.) S m T T =.=.c.r.K i i 7 V ) V m =.E.'.n.L.n.-.i.r.i.,.1.,.s.1.>.4.r.r.6.r.r.r.r.r.p.p.i.r.-.g k m e d A u 2 7 Q M.L.p.-.4.4.,.r.r.i.r.1.1.1.1.i.>.1.r.",
",.v.c.M.c.v.M.M.x.c.c.c.s.p.s.x.s.p.r.c.1.^ s.,X,X.XY.p.c.s.p.1.g c c Y :.=.A m 1.L.y.=./ m p { '.|.E.s.Q I -.-.r.E.L.c.c.r.Q 1.c.;Xv.=.,.' m.|.c.s.s.g.h.g.h.c.v.c.g.s.-.Q ' =.B.p.q 7 A C :.' u Q r.B.r.} A r.E.|.s.1.}.1...-.s.;X.XY.M.s.M.c.i.2 7 A I } r.m U s.M.v.L.|.E...' 1.=.,.'.E.E.;Xv...Q V } L.s.1.m 2 ..r.,...,.v.v.M.r.M.'.A A s.Q c..XY...,.I ..'.E.,.,.'.M.M.v.E.L.r.r.} g m m ..Y.B.r.c.p.=.r.r.i.p.p.i.r.p.c...Q M.}.E.Y.c.P.M.v.i.v...Q L.v.G z ..m.h.Y.$Xc.h.=.` ,.-X&XY.c.r.,XJ.w.h.s.} } B.E.Y.h.r.s.h.s.s.d.y.y.d.r.S z A ' >.1.{ Q ..n.d./ I I m Q U 9 9 ..y.c.=.z Y m =.;.X.;.M V B.....;.n.Y.E..XL.' %.M.M.h.d.s.v.m.).c.1.>.n.Y.w.s.r.Q y.m.Z =.c.%.%.r.r.=.F s I h.,X).s.w.h.r.%.g } ,XY.I g r u G m ` R r 2 A J.'..X1.I c.i.i.E.}.E.&Xr.b A A A A ..' m 1 Q ' R ..G %...M 1.B.c.c.B.Y.B.c.w.%.m ` h.w.s.s.c.}.W.U.L.r...8.y.d.c.8.r.m.B.m.i.8.i.w.s.i.h.r.Y R s.m.' G ' B.m.).|.B.i.w.r...R } ....g i u g s m m u g V g g } 1.-.r.i.4.1.i.p.i.r.r.r.r.r.r.r.r.r.r.p.p.r.=.p.n.Q * p m r.L.Y...) A 7 2 i i A Q A I p.c.:.C g c A @.1.,.=.r.1.w.-.,.r.r.r.r.r.r.r.4.1.4.1.1.4.-.g A i Q =.=.V 2 = i ..E.M.g.g.r.s.r.,.i.i.r.4.1.,.,.p.r.>.",
"r.B.c.M.c.M.M.c.c.c.c.c.x.s.s.s.M.x.p.c.r.r.}.2X.Xc.r.p.B.M.c.i.2 7 } P.c.Q u =..Xn.{ M g I X.E.E.c.1.g 7 ..,.U Q ..-.p.c.,.i u I ' U ,.Q m E.M.s.s.c.c.s.p.s.c.p.s.c.c.c.M.'.,Xd...{ I E.y.a 9 Q v.c.c.p.,.V ..E.s.g ..p.Q E.,X,X3XE.,.r.M.c.1.7 * g C -.r.M.r.I g g A -.s.c..X;X'.} ..M.-.} Q V U ' Q 1.'.E.v.I } s.r.r.i.s.r...E.Y.}.s.7 } M.p.c.-.' Q r.' 1.&X|.c.}.}.} c.M.s.i.s.r.A 7 A 1.s.'.L.}..Xv.r.-.i.1.p.s.i.s.c.s.I -.B.s.Q A T ,.-.r.i.v.r.c.B.' 7 I 1.s.E.&XE.m.h.R g r.,Xm.Q 3 1.J.R =.B.8.=.W..X.XE.J.c.s.i.s.r.y.>.r.m.%.S A s ,.c.i.i.L.} A Y G p u Y g 9 Q s.d.p.c.=.u Y { W.|.n./ 7 T c.8.y.D.'.1...y.{ 9 7 =.i.c.J.B.B.B.'.' 1.i.;.B.%.=.` A i.r.s } J...' i.s.r.` Q } B.L.h.` A s.i.r...c.'.} 7 g g m I I m.L.1.m V ' =.B.$.w.m.1.E.$Xa.1.` s Q 1.' F Q L.$X>.G h.L.s.%.Q } =.w.U.d...1.B.' 7 r ' i.p.L.1.L.}.i.E.3XB.i.r.=.r.8.0.n.r./ } i.w.i.m.w.1.c.=.h.1.I g s V A m G I ` L.5X'.-.>.1.r.>.=.w.r.m.r.,.A m A u U s.' } Q Q 1.i.r.s.i.4.1.r.i.i.r.i.r.r.r.6.6.4.r.r.,.0.8.;.c.U.1.T 9 ' '.].E.r.y.1.' X.=.=.r.c.i.=.0...) A g c A Q } =.1.i.1.1.,.1.r.r.r.1.1.1.1.1.4.1.1.4.1...u m I ;XoXi.Q Q A g 7 F ' ' r.M.i.r.i.s.s.i.i.s.v.M.-.r.s.",
"=.v.c.M.c.M.c.p.c.c.c.c.v.c.c.c.p.s.c.s.x.A.B.c.,.s.A.B.B.B.=.7 g A n.B.@.r.p.B.r.M { '.U.l.U.&XB.U i g ' s.-.I -...=.s.v.p.A u A A i ,.,.A c.B.s.s.c.c.h.s.g.v.p.c.v.c.v.L.|.,Xp.s.=.I c.A 9 T ..i.U ' c..Xr.-.1.c.1.1.U p.B.-.L.c.i.r.r.p.s.i.7 7 V Q p.r.v.Y.p.Q Q g V I Q s.E.M.} ,.-.g m m I s.E.|.;X,X.XE.p.'.M.c.s.E.E.r.s.r...=.V Q v.v.p.=.i i m u ' i.E.M.s.Y.p.p.v.v.s.=.i.p.-.i.Y.;X}.&XY.E.M.=.i.p.s.p.s.p.i.B.B.=.A c.M.U 7 i A U I r.s.p.s.}.1.2 s d.L.B..XY.y.L.c...=.J.w.m V z i.=.` m.1.c.'.}.E.h.%.-.c.c.i.i.i.i.i.c.i.M Q >.r.h.h.c.s.s.V Q ;.1.z S D./ ' &X.X1.s.L.y.r.n.,X+X+X,XD.Q ;.8.,.=.D.W.,.1.r.S 3 u g u b 1.U.J.L.i.b h.8.+ V u s } c.).I 2 ' L.i...L.Y.).m.B.i.B.h.=.b G c.i.r.E.s.} G g s m A ' =.} ;.J.=.} ' ' 1.Q %.} N.$X&X=.A 2 s w.=.1.J.&X).E.4.h.Y.i.1.c.E.E.&X,X}.s.%.w.' / R A ..d.)..Xi.).&XY.;X).w.y.;.' Y Q =.' x u Q i...` w.%.%.J.m.L.Q 3 g V N V 7 V =.B.B.).i.r.1.1.w.w.c.c.s.Y.M.M.=...g.,.g.E.....=.4.i.s.c.4.4.i.i.4.1.r.r.r.r.r.r.r.r.r.r.r.1.1.1.0.l.y.=.p.X.1.p.K 4 2 Q p.D.~.L.p.0.B.E.n.-...y.1.K m V V A -.s.r.-.r.r.>.1.r.4.1.,.1.,.>.1.1.r.p.4.' 7 g $.&Xi...C.&Xi.u u 8 * 2 Q r.1.g.p.i.r.,.} U A V ~ 1.v.",
"' p.s.M.x.M.c.s.x.x.x.c.v.v.c.c.x.x.B.r.s.s.U U ,.*.6.M.p.| l - g I s.....Y.E.s.p.c.,.s..X,X&XB.' ,.r.p.c.r.,.1.M.s.c.L.M.s.` A m.Y.1.B.;XY.c.s.g.p.p.s.c.v.c.v.c.v.c.s.s.v.B.B.s.0.B.P.G.K C y.E.c.=.B.}.&XB.v.s.i.;XB...B.i V =.A U s.v.p.c...= V A Q Y.E.p.s.B.1.1.Q A m A g ' M.+X,X..7 ..r.E.,X,X3X,XE.L.Y.s...1.'.M.B.v.r.c.c.M.1.A r.L.p.' U A ....} B.'.y.-.L.} A '.Y.E.M.-.i.s.v.}..X.X|.Y.s.r.-.=.r.s.c.s.c.p.i.M.c.} =.v.r...p.E.E.v.1.E.E.s.c.B.} Q r.y.r.L.Y.m.J.i.n.s.D.L...V G / m.h.Y I m.n.%.s.i.;.A m =.B.n.d.s.i.h.w.S 3 ..m.L.B.a.i.1.;.m =.n.s...s.8.m s.U.Y m r.c.' Y..X&XW.L.s.=.;.:.z Q d.W.c.{ y.{ g 9 A A A 3 g ' / ;.h.E.5X%.& ` S 8.J.).L.m u R w.r.} .X$X).J..XJ.m.J.=.A V 1.h.c.=.R b m V m A ` >.w.h.1.' I '.}.w.=.' %.i.,X}.s.m g A ..} b 1.J.r.1.} =.i.w.%.=.c.L.L.&X}.i.i.h.i.%.i.E.D.m.s.L.Y.J..X}.'.E.' m z M m A X...p 9 M L.,Xm.' } R A %.>.1.} V u m } } Q R } J.' B.w.1.i.r.1.1.c.h.r.L...1.m.M.Y.|..X' A ,.r.i.i.r.i.r.p.i.r.r.4.1.4.r.r.r.r.r.r.r.r.r.r.1.8.i.i.' A =.1.L.E.} A { ,.-.n.8.Q I ..M.'.c.s.....Q g A I g m -.m.i.-.,.r.,.r.r.r.1.1.1.,.,.,.,.r.p.1.' u A Y.C.m R E.|.>.g U ..7 g Q U p.s...I g 7 * = 8 7 m V A ",
"*.s.s.M.x.c.c.v.c.c.c.c.c.c.c.x.B.c.B.s.v.r.Q i.x.E g U l 2 2 m I -.E.L.E.1.' i.s.}.>.Q v.v.,.g A L.E.L.E.E..X#Xs.B.Y.s.I V i g s.|.3X.X,.=.c.Y.s.i.i.s.v.m.v.c.v.v.c.s.c.v.M.v.r.s.,X#XP.1.m 0.p.-.s.&XE.M.B.v.r.E.}...p.M.Q 1.r.' Q p.r.r.c.Q Q B.v.s.L.i.I ..s.c.E.p...' s.,.U n..XE.U Q }.,X&XE.c.v.v.r.i.v.s.g =.s.L.p.U } p.c.r.,.'.,X,XM.Y.c.c.M.i.}.v.0.=.p.'.=.A ..Y.E.p.i.M.s.1.p.s.c.s.=.,.1.p.M.p.r.p.i.s.v.s.c.c.r.B.p...,.L.E.E.|.3X|.c.p.v.=.V ,.B.-.%.L.d.1.v.} r.c.y.h.L.h.U A v.,.r.` h.} >.c.' } G g A Q ..h.d.s.i.%.R ' c.n.h.E.E.B.c.Y.y.c.r...Y 8.../ L...z V -.y.Y U.,XU.+Xy.' m A c.n.r.D.B...I c.8.Y A u ' c.` p g 8 7 / B.c.7 r L.d.J.J.w.>.A V Q %.' m h.J.m.h.m.w.s.1.s.1.s Q ' c.s.1.>.A =.s.} ;.w.).L.s.m.i.c.=.1.B.h.c.'.}.L.%.b %.r.s.1.=.s.%.m s V r.w.1.M.s...{ ' >.' z ;.M.r.B.c.s.r.s.c.L.w.s.'.}.E.1.r s i { Q Y =.I { 8....Xm.G g G b V ..i.1.I s s ` Y.3XE.).s...1.J.i...1.w.w.w.s.w.=.c.Q ..r.1.s.M.-.7 A M.g.1.p.,.-.i.v.1.-.i.s.r.1.r.r.r.r.r.r.r.r.r.,.,.8.r.i.,.} ,.=.i.s.{ 1.E.B.i.r.Y I -.L..X|.B.M.-.' V m ..,.} Q ,.M.c.r.-.4.i.r.r.r.4.4.r.r.1.r.1.4.r.1.} g Q }.M.A ~ r.-.Q ~ '..X>.A A V R U 8 2 e k V F A g k g i ",
",.s.p.v.x.x.x.v.c.c.c.c.c.c.c.c.x.x.x.B.A.v.L.;XE.`.s.} C I A P B.,X;XM.s...Q p.c.-.} ,.1.i u A ..Q g } E.|.;X&X'.&XE.=.7 u 9 i 1.v...m g } i.B.r.i.s.v.m.v.c.v.v.v.c.s.p.p.p.p.:.#X.X{.+XB.l.l.p.s.E.|.L.M.E.=.,.M.Q A r.I ..v.v.L.'.L.,.1.c.c.M.1.v.E.i.U ..v.v.c.c...v.|.L.m v.M.-.Q I v.,X;X.XM.i.i.p.p.p.c.v...-...B.v.-.M..Xn...p.;XY.L.Y.L.M.M.s.1.'.r.1.i.L.c.s.-.I v.i.i.r.p.p.p.s.p.s.i.r.s.p.r.i.r.p.p.p.s.v.v.c.v.M...A i g A V A } 1.A g } v.r...v.i.c.B.J.=.m G Y %.n.%.8.D.B.s.B.).i.1.%.}.D.m.=.M G V V A s g ..h.c.s.r.c.).L.B.E.'.E.B.h.n.Y.;Xn.1.g ' L.,X<Xn.I m o.1.8.W.&XE.s.n.{ M s.W.W.-X3XE.i.m X.s.s.8.A ' r.r...R A u 9 p r + g J.U.c.s.i.c.` s I >.=.V ..%...%.Q G >.E.m.%.~ '.B.L..X).'.s.L.B.' w.h.B...' c.B.J.%.} s.4.B.3X&XL.A m g.-.i.c.v.s.p.v.m g >.p.B.c.p.i.s.1...A i -.v.s.i.p.s.i.i.s.c.I =.i.c.E.%.7 G B.{...g A M n.d...'.Q 7 U 1.i.E.2X$.} m I c.}.oX.X}.&X.XB.|.>.-.p.,.1.i.i.i.1.=.g.=.>.=.s.,X'.A A -.c.1.1.r.-.,.} 4.,.1.i.p.p.r.1.4.r.r.r.r.r.r.r.r.1.r.1.1.i.,.,.-.A A } i.1.A Q ,.1.}.,X.X.XE.Y.i.d.l...Q =.i.c.1.p.M.s.i.-.r.i.r.r.r.4.4.r.r.4.i.r.4.r.r.=.g I -.~ V ' =...A A -.4.Y.s.m.v.g 7 m m V V U 1.r.Q V m g ",
"} -.=.s.x.x.s.c.c.c.c.c.x.c.c.v.B.E.M.L.c.p.E.M.E.}.B.6.U A A ..Y.L.Q g I p.c.p.M.,.....c.-.I A i.i.s.'.&X}.'.L.}.|.E.s.i.B.=.m ' s.U 7 V v.Y.r.1.p.m.B.M.c.c.M.s.g.c.c.c.c.c.v.l.r.B.n.U.'.~.n.v.c.B.s.r.i.M.A r.i.Q g V ..v.}.v.E..XY.B.Y.s.v.r.p...g -.1.p.s.p.,.p.-.B.s...A 1...g g ' Y.'.}.E.c.c.s.i.s.s.i.r.M.M.&XE.E.&X;Xr.c.E.&X'.'.B.'.&X'.Y.E.&XE.p.r.p.c.p.,...p.i.r.c.s.i.p.c.y.r.y.s.p.i.s.s.i.r.1.c.v.s.i.s.v.c.s.m s g m } r.} A V V ..1.c.s.n.L.m.i.r.=.%.} A z i.B.Q =.1.r.'.;XE./ p >.1.A ..i.1.8.{ ..h.r.G s 1.d.i.i.B.J.1.L.n.r.I s Y s.L.d.n.E.c.B.'.'.c.L.Y z n.y.E.&XB.n.8.d./ X.{.X.I U.r.8.'.' / n.E.B.1.i.c.}.s.A ` U Q m b V Q 1.B.).d.m.i.A r / r.s.i.s.Q r s s V =.L.;X;X.X$X3X3X.X}.E.L.i.Q ..c.w.1.V ' h.r.E.E.h.} h.,XL.s...3 R '.,.s.p.c.}.,XE.r.1.E./.|.p.1.p.i.s.,.....p.1.r.s.w.,.r.,.r.p.Q %.r.w.=.m 7 V m.y.I I d.=.=.a =.i.-.s.&X;X|.}.M.I ' c.}.'./.'.s.m.r.1.Y.} ..i.1.p.r.w.1.r.r.r.B.Q ..i.Y..XB.g Q B...} p.4.p.M.A Q 1.g.4.,.p.p.,.4.r.r.r.r.i.r.r.1.,.p.i.r.i.,.-.,...} A ..M.-...c.v.&X}.L.E.i.} 1.1.=.' =.p.i.p.s.c.m.,.,.,.i.,.1.4.4.1.1.r.r.4.r.1.1.i.s.4.m A Q g k } Q V i I c.v.'./.|.C.V g s g k g E Y.&Xc.=.I g ",
"..1.^ ..6.c.x.v.v.x.s.c.M.g.c.T.L.=.r.s.A *.B.x.v.M.' * U ,.r.'.,.g 7 i =.g.=.c.c.i.L.Y.c.r.L.E.E.M.L.&XB.v.v.s.v.i.A ' c.B...Q r.M.=.g c.E.B.r.' E.s.c.v.c.c.s.c.v.c.c.v.c.p.s.p.l.c.l.n.G.L.G.c.M.s.} i.L.i.m -.,XE.' p.|.3XB.i.,XY.L.E.n.l.c.s.B.p...i.p...r.B.v.,.p.c.Q =.s.,.p.,.I U ;.B.|.B.r.r.p.s.p.r.i.s.v.p.E.p.1.@...2 1.|..XY.E.;XE.i.E.,X3X;XE.v.p.s.p.i.r.r.i.p.s.p.p.i.p.s.p.i.p.s.i.i.p.s.s.s.c.v.i.c.v.s.c.L.,.g g A r.M.,...p.M.1.,.p.s.p.L.i.X.s.s.y.i.).'.L.).c.A V ;.s.J.'.Q > ..-XD.=.s.c.d.c.c.n.c.'.;...r.h.i.1.r.y.i.h.c.=.m u G >.r.Q u r.U.U.B.s.d.y.y...s..X{.U.n.1.n.-.g m Y M m z p m ' y.d.y.r.;.r.>.L.s.z %.B.h.i.I ' b A =.'.D.c.i.c.' r >.M.C.B.i.s.} w.` Q ;.s.m.E..X).W.h.h.w.m...' r.=.c.c.L.r.w.c.h.).E.Y.w.&XY.>.I V 7 %./.=.v.E.'.|.B.B.L.Y.;X3Xc.r.i.1.r.s.r.c.=.p.r.p.,.r.,.,.i.M.s.Q %.i.1.=.V N b =.z Q s.B.h.8.' Q ..' ~ ,.1.c.'.=.' r.E.B.B..XE.c.r.r.,.1.' =.r.4.r.i.p.r.s.1.s.v.A I i.'.L.Q I L.L.1.M.L.p.g.4.~ U R =.>.i.1.r.i.1.r.r.r.r.1.1.,.1.,.,.r.i.r.,.-.i.Q g s Q ,.,.M.r.=.1.I I V u m R A 2 e =.s.r.s.s.B.s.=.,.1.,.r.i.4.,.>.1.r.r.r.r.4.4.i.i.1...' -.} r.p.} =.I i.;X|.Y.L.L.p.,.r...Q 1.i.s.g.s.=.V U =.",
"..x.r.p.v.A.c.x.s.c.M.c.s.x.B.Y.A - g ,.*.x.L.c.s.1.l $ =.OXOX:X}.-.V I =.M.c.v.M.&X|.1.r.c.g.,.A ' E.Y.s.v.s.p.' A V A 1.r.I i.E.v.v.s.}.-.-.c.c.Y.s.c.s.p.v.s.c.m.c.g.v.v.c.c.s.d.d.s.d.c.s.0.p.r.v.s.r.1.i.A -.|.=.B..X'.B.Q ..Y.s.B.M.M.M.s.c.r.Q Q s.i.r.c.p.p.B.i.r.p.r.s.M.Y..XB.,.X.} Q v.p.p.p.s.v.c.i.i.s.c.i.m A A ' Q =.i.c.Y.L.p.1.' v.|.}.B.p.r.s.p.p.p.s.s.c.c.c.c.s.c.c.c.s.c.M.p.i.p.c.v.v.v.v.c.i.p.i.p.v.B.} * A =.s.B.v.v.'..X=.c.Y.c.} p.{ ..8.i.c.1.=.8.L.U.s.A g ..w.d.i.A ;.B.E.s.:.d.s.r.y.n.{.r.X.=.y.n.s.w.s.v.r.=.r.c.1.m z =..XB.1...B.D.n.s.8.8.;.X.=.r.1.Y =.M.n.s.p o g I u 9 m z z M ' r.L.c.Q } B.1.I / s.y.1.A Q y.Q V %.E.D.h.h.r.V u 1.B.).i.s.Y.m.E.i.w.B.>.h.h.>...d.r.=.c.s.e.c.>X.X&X.X5X}.i.s.).;XB.' ' '.c.V u G b ` Q g } c.L.L.i.c.L.'.oXL.Q ..s.i.1.s.r.p.-.c.p.1.p.p.,.1.d.M.r.M 1.h.h.r.Z r m s.d.n.W.Y.c.1...=.i.R =.B.s.Y.&Xm.,.i.c.-...1.1.4.p.4.1.>.' =.1.1.p.-.c.r.,.c.B.-.V i r.&Xv.V A L.p.g.|.L.B.|.s.=.1...U v.g.,.i.1.i.i.i.i.r.i.r.,.r.r.i.i.1.-.-.,.,.F u s ' r.1.,.A } ..i 7 u e A ..Q I Q r.L.E.Y.c.m.p.,.1.4.1.r.r.r.4.4.r.i.i.i.i.r.r.i.i.4.-.=.1.'.i.Q s.'.c.L.M.}.'.M.s.c.B.E.}.Y.E.E.E.C.-.A A ~ r.",
"U Y..X.XA.s.i.v.c.c.v.x.x.M.r.P : 2 m Q Q =...A g u - u ,.E.M.B.L.r...h.g.B.C.i.E.=.A k 1.Y.i.8 ..1.L.s.v.c.r...7 8 7 g s.c.Q -.} ' }.E.4.2 ,.;X&Xm.c.v.c.s.v.i.s.c.s.p.c.v.c.s.s.s.s.p.s.p.:...p.L.E.L.i.A V g r.v...1...} A g I L.1.p.s.p.1.v.p.A 2 Q }.E.L.c.c.s.v.r.B.&XM.Y..XE.|.c.=.p...V r.s.v.v.s.p.s.s.s.i.v.r.A ..} ' p.s.B.M.B.s.=.M.L.E.Y.c.r.1.r.p.p.p.s.c.c.c.c.c.s.p.c.s.1.1.p.p.s.p.s.c.v.c.s.p.c.s.c.s.v.B.s.g X ,..X}..X&X|.}.Y.u 1.,XY.=.M.v.c.c.y.d.d.c.d.B.J...m b } %.d.m.p.y.S z N Q s.1.i.L.+X=.' c.X.{ s.s.w.1.r.y.s.c.i.' ` w.s.E...>.E.'.I.B.n.c.d.y.8.{ ;.U.D.L.y./ u 9 m I Q ' Y S z u M ..d.~.D./ c.D.>.r.c.J.i.Y ` 1.c.1.>.m.B.r.1.h.%.g I J.).,XE.}.;XB.r.I ` h.c.J.,.s 7 ..w.>.r.r.Y.L.,X}.Y.Y.E.J.=.w.).m...b m >.%.I } %.A Q ..U ..c.Y.C.i.i.' i.L.v.~ ,.c.r.,.1.,.p.1.c.i.-.1.i.p.c.c.s.,.A >.r.s.s.R p ' .X+X{..X{.W.L.d.c.c.B.|..X.X|.v.1...1.i.=...} } r.s.,.i.-...1.r.r.r.,.r.r.p.p.r.} u k c.E...V } c.m $.'.r.} ..A r.v.r.I 1.p.i.s.p.,.,.1.r.1.r.r.,.4.,.,.1.i.i.r.1.B.Q 8 m 4.Y.E.M.-.c.p.1.1.} A ' s.1.v.}..X,X;XL.=.=...=.,.1.r.p.r.r.r.i.i.i.i.i.i.r.r.r.r.r.4.r.'.E.i.c.B.r.L.}.'.oXY.,.-.s.B.L.B.c.M.v.,.} V g u A ,.",
"6.B.p.r.i.s.p.c.M.s.s.x.v.B.=.* 2 I Q } =.p.*.B A Q ^ *.....I P m m ..L.E.m.M.c.c.I } p.v.s.i.Q -.L.v.c.p.Q U u 8 } 1.1.L.v.s...m } L.r.-.F >.s.s.' i.p.v.p.c.h.s.s.p.p.c.c.p.s.s.s.s.s.s.d.r.:.c..X.X}.L.....,.,.s...U -.s.Q m c.;XM.L.i.' m U V 7 u ' p...1.c.p.v.1.i.v.p.,.&X,X'.B.U Q E.M.-.r.,.1.c.M.r.r.s.s.i.c.r.g ' s.c.'.E.E.M.M.M.c.L.Y.B.s.r.s.s.i.1.s.s.s.s.s.s.s.s.c.p.v.c.1.1.s.p.c.c.s.c.d.s.i.r.p.p.s.p.c.s.,.u I '.5X;X&X}.L.Y.'.p.}.}.m Q p.r.r.y.;.>.w.J.U.Y.w.I G ' y.y.c.y.-.g 9 m q A d.y.c.'.).Q d.}.s.Y.W.Y.h.1.1.y.s.i.c.V Q ;.Q } A w.{.E.B.n.B.B.n.c.;.S / '.'.c.Q z 3 z M p ' U.B.8.D...1.B.c.s.r...y.} X.c.} Q ' S n.h.w.1.r.m.i.d.h.i.A * I Y.'.&X}.E.).E..XL.B.L.m.Y.C.1.} 1.Q b V ` c.' w.>.Q X.' I b Q %.s A Q ..=.%.>.c.1.` w.i.r.,.c.v.i...=.=.1.c.m.=.1.i.1.,.=.=.d.i.r.,.r.p.p.r.r.r.r.s.8.i.y.i.i.' g } '.L.U.'.{.{.'.n.d.s.&X.XY.'.B.-.-.R >.i.i.i.,.=.c.1...x.1.1.i.i.p.-.p.-.r.c.4.=.A 3 Q L.B.=.1.L.C.-.r.L.1...Q m ..i.r.=.I p.M.1.>.r.,.1.r.r.i.s.i.1.i.p.i.1.4.i.s.s.A 7 ..L.C.v.-.i.r.4.}.|.c.=.1.s.=.r.E./.E.c.} 1.4.i.4.-.,.r.r.r.r.i.i.r.r.r.r.i.r.4.r.r.1.r.i.E.-.~ 1.A m Y.E.,X).i.=.r.v.v.s.=.>.v.B...Q m g g A -.",
"x.s.Q | p.B.x.x.c.s.c.v.g.M.s.^ -...Q v.:X;XT.A.v.L.p...U ,.>.^ A m ..r.L.1.r./.}.c.s.m.Y.g.m.L.Y.,XB.c...g g u } P.;X}.'.L.M.I ..c...m p.B.m.'.` I s.s.C.i.p.c.g.g.s.c.v.s.i.s.s.s.s.s.l.c.l.s.i.c.v.c.@.-.n.i.v.&XQ g } ' Q ,.|.M.c.L.A m } } ..} p.s.r.' -.Y.E.B.p.n.c.r.8.&X.X}.v.V Q B.,...v.-.I -.B.c.p.i.s.p.p.p.g V c.v.|.B.s.v.v.B.E.c.i.p.i.r.p.s.p.p.v.c.c.c.s.s.s.p.s.i.c.n.i.s.B.v.c.s.s.s.s.c.s.s.c.p.p.i.s.p.s....X|.Y.B.M.1.1.E.Y.L..XL.Q s.B.i.w.1.r.D.s.=.Q R ..` { Q >.m.h.R { 9 ..s./ ..p.1.1.1.p A '.U.L.U.m.8.;.y.h.s.y.i.>.r u m ' 1.} s.W.D.c.c.d.d.s.s.8.=.=.s.8.@.Q Q ..Y M S r.d.1.D..X=.1.s.{ A S / B.r.1.i.8.r.8.J.J.r.} r.J.Y.-.>.1.Q s s 1.}.[.U.E.m.c.L.oX}..X.X&X&X).c.1.r.' A Q  .=.u R R u m g u b } 1.} c.c.%.1.>.} ..} ' r.r.i.s.}.E.1.Q ,.B.c.v.L.1.,.6.i.0.1.r.v.i.,.1.s.s.i.1.t.s.c.v.r.i.y.r.r./ g X.L.n.E.&X'.B.M.d.s.B.|.`.'.L.,.1.1...s.s.i.p.1.1.c...} M.i.6.i.r.i.6.6.s.i.r.M.,.u U 4.M.c.p.s.M.B.B.B.L.B.M.B.v.i.r.4.M.p.Y./.B.v.c.=...=.-.1.r.=.>.r.i.i.s.c.g.4.~ k g =.r.' I s I =.c.C.F e I i./.g.i.C./.L.c.s.v.Y.E.c.,.,.r.1.r.r.r.r.r.4.r.r.r.4.4.r.r.4.r.i.c.>.F =.=.M..X;XY.s.1.i.c.s.4.=.=.i.Y.p.b I Q A ' } 4.",
"E r.r.c.c.p.6.s.x.s.v.v.s.x.M.x.s.p.-.E.|.M.s.M.c.r.I g A i.E.A.g.p.m.r.p...r.&XL.4.i.i.4.4.'.,X3X&XY.c.Q g i ,.E.Y.|.|.&X.X1.u -.r.s.m.c.1.r.E...R i.c.E.B.c.i.s.c.c.c.c.i.r.s.d.d.d.s.s.s.d.d.M.v.p...A -.s.1.v.,.Q c.c.M.r.B.}.v.L.M.i m L.&X,X'..X.X.X|.L.E.'.i.B.M.M.;X}.E.'.B...g } p.} =.E.c.Q } s.c.s.r.c.c.s.B.Q V c.i.p.....c.p.i.Y.p.p.c.s.i.p.p.p.v.s.c.c.v.c.c.s.p.p.i.s.c.s.c.v.s.s.s.p.p.s.c.c.s.v.c.c.v.M.p.M.v.}.B.r.,.i.r.i.L.p.r.E.}.&XE.Y.p.c.M. X4X}.).L.c.1.r.s.%.%.L.E.s.L.X.c.L.n.c.r.s.s.c.y.d.B.1.c.c.} ..1.s.i.i.d.c.g 1 7 ` E.D.=.h.W.n.n.c.y.y.8.r.;.r.1.X...S m I A M M { d.1.} d.I V 8.s.' S Y ..c.>.=.r.h.h.%.v.L.s.=.h.W.L.I g b 7 b >.}.}.Y.d.` =.s.Y.Y.c.J.E.$X$XE.h.1.c.1.%.y.r.%.g m k 7 s b G ` -.d.).&Xh.R ` I m I 1.w.h.M.p.v.3X3XL.^ ,.m.M.A.T.r.1.6.p.i.k.M.v.1.1.i.p.2.r.r.s.s.t.p.,.=.w.w.i.Q V r..XE.'.'.c.8.y.u.c.'.5X.X'.L.,.,.-.,.x.p.r.r.1.p.c.-.-.B.x.6.r.r.i.x.,.c.6.s.T.A C v.Y.p.1.s.p.s.B.c.s.M.E.c.s.E./.B.p.M.'...' v.'.c.Q I ..=.,.,.} Q =.r.s.m.M.$.g u s s k g s k k m r.Y.1.s F s.'.L.C.C./..XL.c.Y.L.|.|.M.4.4.r.1.r.r.r.r.r.r.r.r.4.4.r.r.r.r.r.i.i...m 1.E..XC./.s.1.1.p.c.c.4.} >.i.r.R g =.g.p.i.1.p.",
"m r.s.c.c.c.p.p.c.x.c.c.s.s.s.p.B.OX'.|.B.c.x.,.} P d C ..i.C.x.i.C.C.m.c.M.E.'.' F s.L.c.C.oXv.' ..v.1.m 8 V '.E.B.M.L.B.i.' } =.R 1.M.4.-.L.'.U i ..g.m.p.v.i.i.m.v.p.i.i.i.p.d.s.s.s.l.d.p.y.-.,.,.Q A 1.p.v.p...L.E.=.c.r.v.c.p.c...7 8 } 1.s.v.s.v.s.M.s.B.r.r.Y.v.B.|.'.L.Y.,.m i ..M.M.'.|.E.-.,.s.1.i.p.c.c.M.v.I V v.L.,.U ' c.L.M.c.-.,.r.p.s.v.c.p.p.s.s.s.c.h.s.s.s.c.v.M.v.c.c.c.s.s.c.s.p.s.s.p.i.p.p.c.c.c.1.p.p.1.r.i.r.p.M.v.i.A i.|.v.v.p.Y.p.c.Y.'.d.Q J.3X'.>.h.B.c.r.'.'.'.d.y.D.U.G.l.d.{.W.I.-X~.f.:.@.;.w.h.J.n.1.1.r.1.u u A L.W.i.i.D.U.d.c.c.y.r.=...' 8.8.{ ;.S Q v.B.y.X.1.n.l.8.X.I =..X}.c.c.h.D.B.c.E.|.d.i.s.h.U.Y.J.m.y.` 9 s m u G r.J...} i.E.B.h.B.B.h.B.J.Y.L.h.=.` >.>.1...%.} Q p m } ~ h.m.s.p.B.&XE.>.>.4...` } L.L.L.E.p.6.M.M.M.U Q L.M.v.M.,.=.,.p.i.s.v.s.1.2.t.r.p.s.r.,.O.-.s.c.r.h.i.h.A s 1..XW.n.y.=.=.8.0.s.'.3XL.,.r.6.6.p.=.i.r.p.i.6.c.v.r.r.x.s.=.1.p.s.x.p.r.6.c.=.= ^ L.'.c.p.L.E.}..X'.v.m.L.s.r.g.B.L.c.i.1.7 = g Q A 8 g } ' I F V m ..r.1.4.r.Q * u V R R ' 1.4.r.C.L.m...s.'.C.i.g.L./.}./.c.r.s.E..XE.g.i.r.>.-.4.1.1.r.i.i.i.r.6.1.4.r.r.r.r.r.v.r.I } r.M.v.M.c.1.1.s.c.c.i...A m s V p.M.1.1.g.4.i.",
"i s.T.'.|.OXE.B.s.v.c.s.s.s.s.c.L.}.c.s.p.A.s.i i g m ' M.A.c.Q >.m.,.B.C.,XoX' g $.L.c.g.B.m.I 2 ' r.m 2 g i.E.s.L.' ..U 7 A c.p.s.i...c.v.Y.L.V i i.E.$.A 4.i.i.L.B.i.1.s.c.s.s.p.p.d.v.l.p.0.G g -.-.A s.E.E.i.'.B.V ' c.M.r.s.I A 7 = m i.Q g Q g A i A } s.L.,XY.E.5X'.M.v.=.U u u Q v..X3X.XE.1.c.L.1.r.c.M.r.s.c.=.-.B.c.v.i.L..X,X;XM.p.c.v.c.s.p.y.p.v.v.c.s.s.s.s.c.c.p.v.v.s.s.s.s.c.s.c.c.c.c.c.s.i.s.d.d.s.s.1.g.s.p.1.p.v.p.i.p.i.Q p.B.p.r.i.M.-.i.w.=.G g E.,X-...w...I I U.n.r.=.0.s.r.=.@.y.n.S D..Xc.;.8.f.y...Q ..i.s.i.r.1.u M >.3Xr.,.).c.W.n.L.J.c.s...Y m / Q M c.y.D.4Xc.{ / d.d.;.c.c.m.L..XB.s.).'..X.X.XJ.s.-.E.&Xr.E.E.{..XU.{ 9 u m m ' s.h.g N m.L.B.s.B.h.w.i.e.h.r.=.' N Z V ~ } 1.w.s.A =.}.r.4.>.%.c.}.'.Q u w..X,XE.y.E.i.} E.B.r.U g ,.Q ..v.r.6.B.x.6.,.p.r.,.r.i.r.,.r.r.r.r.r.i.t.k.M.i.s.h.1.s.g 7 %.{.E.d.y.8.1.1.1.d.|.B.c.i.1.r.i.r.r.i.r.x.r.,.x.v.6.r.,.1.' -.s.c.1.c.1.s.*.7 = A v.L.C.}.;X}.'.E.c.c.Y.c.p.m.p.p.c.B.M.U =.=.7 2 e 7 ' M.1.G A A F V 7 u 1.|.c.g k k A I 4.C.g.m.4.4.>.Q c.s.~ =.'.}.}.L.p.1.1.1.4.p.,...1.1.=.,.,.,.1.r.i.p.i.r.4.1.1.r.r.r.r.r.s.r.A Q i.>.s.E.M.r.i.s.,.Q A g 7 s m =.|.$.k c.=.} ..",
"Q x.E.|.OX&XB.M.c.x.s.s.x.x.p.i.t.t.s.k.p.s.I u m m ..c.E.E.i.-.c.4.s.E.3X|.F 7 m p.c.r.v.L.r.V i p.A 7 V ..'.L.,.} g g 7 u c.;X;Xm.c.c.c.p.M.s.Q =.c.M.r.Q g u ' L.g.c.c.v.m.p.s.p.v.i.m.s.Y.1.u 7 I Q Q v.&Xp.c.p.=.=.L.5X}.B.8.I q c c A =.I K A u u g m I '.4XE.c.'.,XM.1.Q V m g A V c.3X|.E.E.r.c.G.l.1.v.c.v.c.r.i.M.Y.Y.|.;X3X;XL.p.i.r.v.c.s.s.s.d.s.s.s.c.c.p.v.v.s.M.c.s.s.p.p.p.p.s.c.l.s.s.c.c.l.s.s.p.p.p.p.s.c.c.p.p.s.s.i.p.p./ I r.p.p.p.i.1.Q -.g.r.V U L...U C A ' m Q D.p.=.@.8.T A V ' s.B.V y.B.c.,.r.1.i.-.} =.1.p.c.p.i.m i }.E.=.r...M.U.B.d.r.;.Q A I m z g S l.y.B.;.m =.' M.M.L.U.L.i.=.=.I $.'.M...Q V I S S =.V c.+XY.L.i.U.i.z m A ..c.c.r.' =.p.r...s.,.$.>.R =.1...=.` u ` I 1.s.=.B.c.m.[.' I 4.s.J.$XL.g 7 s ` J.1.V G 1.V ` E.1.Q 1.V i 8 i.Y.1.-.L.B.s.r.i.-.r.s.s.i.r.r.i.i.i.i.i.p.s.s.i.>.-.i.1.i g ..v.c.1.i.r.p.1.=.E.L.s.1.1.p.r.r.s.1.6.r.r.w.r.i.s.,.,.1.4.1.r.p.r.i.r.w.r...2 e } L.p.v.Y.s.r.c.4.>.1.v.}.;X}.L.Y.Y.c.c.c.i.i...g V V m Q } Q ..=.Q g V g = ..s.i V k k g -.v.c.p.r.,.p.r.p.....Y.'.|.E.c.r.1.>.>.$.=.1.r.1.,.1.i.r.1.1.r.r.4.r.i.1.1.1.4.r.r.r.r.c...V } r.s.E..XL.1.c.i.=.A u u V I i.B.=.m A 1.p.s.s.",
"..M.A.`.OX&XL.M.c.x.s.s.x.x.s.p.x.s.s.k.x.M.U 2 Q ..B.L.r.-.} ..p.v.}.3X.X=.7 U i.r.i.Y.}.s.4.7 i ..A Q v.Y.U.=.S g A i.p.i.|..Xv.m.v.s.h.|.'.,.I ..L.,X|.=.A A V s.c.g.i.s.v.v.B.s.g.M.B.c.L.' 3 i.Q m Q v.p.=.s.,.E.&X}.|.L...Q Q m S S Y 1.:.0.@.-.s.) ;.{.,Xv.s.v.s.E.c.m i i i g g ..'.'.,.r.c.8.r.B.d.s.s.v.s.i.r.Y.L.i.}.3X&XE.v.i.i.p.i.c.l.s.p.s.s.s.s.c.r.c.v.p.s.M.s.c.c.c.c.k.k.c.c.d.s.s.d.c.c.s.s.c.g.s.p.p.s.g.g.h.y.i.s.p.s.i.U / 1.r.i.i.1...I $.c.s...=.Q g 7 m K =.y.l.l.0.0.1.U Q L.M.p.c.Q A r.i...1.s.i.r.Q r.s.c.p.p.c...I I '.v.I Q -.B.D.s.;.X.X.Q M M S ..1.-.u.8.;.z g L.}.|.'.3X,XM.s.i.R m 1.C.r.Q Q R s m ..8.Q E.&XE.>...>.' ..%.p.X.r.} ,.p.1.B.i.%.r.=.$.1...i.w.%...} g R >.i.>.c.c.'.). .s ` m.c.h.$X>.& b V W =.m 3 Q Y.<.1.1.Q } p.r.i.} ' c.i.i.s.1.r.1.i.r.i.p.i.r.1.i.s.r.r.r.r.i.p.p.r.,.i.v.r.g A ,.B.V A ' } 1.i.=.p.$.1.r.4.1.,.1.s.1.r.i.i.r.r.p.g.i.i.s.s.i.p.s.i.p.s.r.p.s.m m 1.E.B.s.i.,.,.r.1.=.4.g.B.B.s.g.E.}.E.'.'.L.M.i.~ V V i g A Q } A g A ~ A g u u k 7 V ,.=.4.i.1.m.s.B./.g.r.r.i.'..XE.m.r.>.,.1.,.,.,.1.4.1.,.1.r.i.i.i.p.i.1.1.1.4.1.1.1.1.4.r.r.r.} i k 1.}.2X'.,.g.c.s.i.g 7 m 7 A 1.4.I g V r.r.1.s.",
",.T.B.`.|.'.L.v.x.s.s.x.c.c.x.s.k.x.c.s.p.M...l v.s.B.M.r.-.-.w.B.v.r.v.,.g 8 ..E.v.c.v.r...B.Q I s.c.B.L.i.,...I Q s.L.r.p.L.r...} ..m.E.&Xc.I Q $.L.3X|.-.I R } r.r.s.s.g.i.m.M.M.s.c.m.Y.v.8 m v.Q -.1.s.-.i.r.} M.B.i.p.Y.1.p.;.A K I K :.n.0.;.s.T A ].-XG.-.i.s.M.1.I V U Q U Q g =.B.1.V K Q I ..L.n.B.p.c.B.B.} U Q } '.&XY.p.1.1.p.s.i.s.s.p.s.s.s.s.s.i.r.M.E.v.p.s.s.d.c.c.c.c.s.s.s.p.s.s.l.c.s.s.s.c.c.g.s.g.g.g.s.s.i.r.s.p.p.i.{ p.s.r.r.r.i.v.M.Y.,XJ.p.s.1.-.U M =.L.=X].l.y.0.A -.E..X1.-..Xs.} -.p.r.v.r...C i s.s.v.s.p.M.U * -.'...Q i.}.+XL.B.d.r.=.Q M A =.Y.,X'.n.n.B.8.1.0.v..X,XE.v.M.'.,Xc.r.L.M.g.r.>.<.>.m.s.U..X}.'.m.i.;.X.>.i.|.y.Q =.X.c.M.r.L.p.1.r.r.r.i.r.s.w.w.>.>.A R E.).).&X'.E.` 2 N i.r.%.} p.I ..E.i.E.Y.=.I ..J.s.J.1...,.r.'.}.m...,.s.L.B.i.s.1.s.p.p.p.i.0.1.i.l.r.i.r.r.i.p.p.i.i.s.g.r.} r.Y.E.,.A } ..U >.r.' Q ,.p.r.,.1.r.s.r.i.i.i.i.i.p.s.i.i.s.s.i.i.p.i.1.s.r.4.p.A Q C.4.4.%...r.i.,.=.-.1.r.1...Q ..g.s.g.L.E.L.Y.E.B.Q m k Q I g 7 = 7 m I A 1.Q 7 V V } s.4.i.r.1.,.,.J..XB.,.s.c.E..Xv.1.-.*.,.r.,.r.4.1.1.1.,.1.r.i.p.s.g.p.r.4.r.1.1.4.4.r.r.4.4.=.' F } v.}.}.c.r.m.,.1.1.s V Q Q r.v.} g A m } r.=.m.",
"r.|.E.|.`.M.c.c.s.s.s.s.c.c.c.x.s.c.c.s.p.M.1.m V 6.L.v.s.p.i.M.c.r.A U U A A 4.-.,.g.s.-.i.|.s.} v.E.E.v.} I Q ' 1.M.Q g =.-.g ' U ..L.B.c.p.M.oX&X&X}.B.p.s.M.v.p.,.r.s.B.g.M.c.M.c.s.x.L.' . m m Q E.p.L.E.}.d.v.v.1.r.s.c.r.X...=.B.'.'..X{.U.G.1.g :.&Xc.s.v.s.y.c.V V v.'.Y.Y.E.v.M.c.} i K C 7 T 8.8.B.M.v.s.E.B.A 2 Q }.c.p.i.i.i.p.s.p.p.s.s.s.c.c.c.c.s.r...s.Y.M.i.c.c.c.c.c.s.s.p.p.s.s.l.d.s.s.s.s.s.s.c.v.m.c.c.s.p.i.i.s.i.i.c.s.M.M.v.c.p.p.v.B.'.L.' s.s.v.i.=.r.c.G.E.B.=.) I -.+X3XL.Q B v.=.p.r.i.' I U Q i =.L.i.s.s.i.,.u 7 s.Y.} v.B.v.M..X'.U.D.B.B.L.{..X'.'.L.;.y.y.r.B.0.L.|.E.=...Y.Y.|.E.E.B.r.g.i.s.E.E.&X,X<X@X).L.w.;.' S m I $X:.Y ..c.E.s.s.l.i.4.,.r.r.4.r.4.i.h.r.,.%.>.&X$X;XL.B.w.Q ' Y =.1.r.E.=.2 %.E.B.B.i...Q %.w.R I -.,...' E.L.s.L.L.L.E.B.r.p.,.c.i.p.s.s.i.r.r.p.i.i.r.i.i.p.p.i.s.p.i.r.1.v./.Y.s.4.-.-.p.i...,.=.i.i.1.4.i.i.i.r.i.p.i.i.i.i.p.r.4.i.r.,.1.r.4.r.g.i.r.p.} -.B.r.=.' Q ,.s.4.,.i.i.1.,.=.} ..r.,.1.i.i.r.s.C.Y.} g V r.s.=...-.' s.c.1.r...R g s =.p.r.4.=.i...1.c.B.1.U 1.s.E.E.1.$.-.=.1.r.>.r.1.1.1.4.r.r.r.i.i.p.p.i.r.4.r.1.1.r.i.i.r.1.,...=.p.E..XY.1.Q ..=.=.i...V i.M.c.L.L.=.g g u 1.L.s..X",
"c.:X'.`.A.p.p.s.s.s.s.s.x.c.c.c.c.k.k.s.M.A.*.= A '.'.,.r.c.r.i.M.v.} A u e I g.c.1.s.J.L.E.p.r.v.}.,X.XE.v.M.'.'.|.E.-.r..XB.{ -...4.v.}.;X3X,X;X.XB.1.>.v.|.2X.XE.c.i.s.Y.M.v.v.c.M.B.v.r.8 2 A g r.c.-..X3X.X).&XM.r.s.v.,.-.u T B.&X{.'.~.s.B.].B.#X&X' T =.i.p.v.U = Q -...Q ,.p.B.c.v.p.Q g T Q l.r.r.d.c.M.M.c.p.m 7 ,.v.i.r.p.p.r.r.p.p.p.s.s.c.c.c.c.c.Y.' 2 Q p.n.c.v.v.v.c.s.s.s.s.s.l.c.l.s.p.s.s.s.s.s.s.g.c.c.c.c.p.p.p.s.p.i.v.M.c.s.v.M.v.v.c.i.p.g 8 1.i.c.c.B.n.c.L.c.) i A d.E.L.r.=.U u Q V ..B.r.m g r.p...M.c...1.i.,.A 8 A A ' ..Y.i.r.|.E.U.B.D.~.'.E.U.+XE.D.d.Q ' ..;.s.d.].P.v.....c.r.Q i.M.,.s.L.r.i.L.&X'.r.{ Y =.A >.S g N b =.L.s.{ 1.n.B.v.B.i.p.i.-.,.4.4.i.r.y.w.} R h.L.E.m.>.Q ..<.B.J.Q m.h...w.Q R c.J.s.s.1.%.G ..r...` >.s.s.M.;X'.E.5X}.E.E.L.s.c.4.r.r.i.p.s.p.r.r.i.r.r.r.r.i.i.i.i.r.i.i.i.-.$.s.c.g.s.i.r.c.p.>.i.p.i.1.1.i.r.4.r.i.i.i.i.r.r.r.i.i.4.r.4.,.1.r.r.s.r.i.r.p.r.r.' Q A Q ~ ..r.r.1.r.1.>.,.4.1.1.i.p.r.r.1.=.,.p.v.' ~ 1.C./.E.M.i.4.E.c.p.$...-.U g Q i.s.m.g.p.>.' =.1...~ L.}.,XB.,.=.4.1.4.i.,.4.1.1.4.r.i.i.r.i.i.r.1.>.-.>.,.4.r.r.i.r.r.4.1.c.s.M.E.}.C.-.Q ..' ....Q g I ' g.g.-.V g Q U >.1.=.c.",
"A.;XY.M.c.x.p.p.s.s.s.s.x.c.c.c.M.c.c.x.v.c.*.$ m >.A u ,.m.s.B.'.B.s.=.I A =.Y.L.B.M.c.p.s.k Q L.|.|.L.p.p.'.3X.X|.|.E.|..XL.E.Y.}.,X'.|.E.E.M.c.s.r.r.p.M.E.'.'.r.' i.m.M.s.c.M.g.c.s.m.p.7 7 V =.s.V ..|.E.'..X'.r.r.-.r.i.p.c C r.c.I i T ..l.c.L..Xi.M ) g ' B.i.i 7 U A i =.c.r...V =.L.c.1.c.r.d./ r.y.1.i.Y.' g 7 A L.c.i.r.i.p.i.p.s.p.p.s.s.s.s.s.c.c.v.A u =.I Q s.B.s.s.s.p.s.s.c.c.l.c.l.s.p.s.s.p.c.g.p.i.i.p.g.c.s.s.i.s.d.p.s.p.s.,.p.v.M.B.p.=.u 8 V m } c.Y.v.n.'.<XU.I 7 K G.A g u i 7 g ..Q } ,XL.=.v.Y.} { 1...} s.M.i.g i g I B.E.l.=.s.v.=.,.8.s.D.L.d.y.s.B.L.L.r.d.c.c.l.n.~.B.B.c.p.v.$.e =.i...B.'.c.U.r.c.} m ' U g A / A M X.' 8.B.{ { L.s.s.Y.c.r.i.r.,.r.g.g.i.1.Q I m b c.E.i.w.1.=.1.i.1.` g } r.i.i.w.m.B.'.L.J.m.1.g ` h.m.s.4.s.Y..X/.Y.E.M.4.p.c.M.i.B.v.,.i.r.i.p.i.8.r.p.i.r.r.r.i.i.i.i.i.r.r.p.r...s.c.E.s.B.C.>.i.M.$.i.r.1.i.p.4.1.p.i.i.i.r.r.4.r.i.s.r.r.r.1.r.i.i.r.>.r.1.,.r.s.Q g g ~ ' ' 1.1.4.-.,.-.=.,.,.,.r.4.1.1.1.4.r.p.v...c.|.}.B.r.Q V r.r.A $.r.r.r.i.} m w.r.g.s.} -.m U Q k I B.'.}.B.i.4.i.4.4.i.r.r.r.r.r.r.i.r.4.i.i.1.,.>.1.r.r.i.r.r.1.1.4.r.i.1.1.L.&X.Xs.' ~ ' Q Q e g i g =.c.r.R u F >.-...' } } ",
"c.`.v.r.r.M.s.p.x.x.x.x.x.x.c.c.c.x.M.c.x.p.r.i g } Q ..m.c.g.E.=.I 4.i.i.1.p.p.} g.m.>.-.1.V ' L.L.s.s.s.p.v.c.v.c.Y.'.E.L.B.}.B.r.1.M.|.E.v.s.r.r.p.s.s.r.=...1.m 8 ,.M.p.p.M.m.m.h.p.v.Y...g g ..-.i -.Y.r.L.L.M.i.s.r.r.s.r.g 9 Y 1.' S ..n.0.B.'.U * I d.=.A ,.g = g g Y =.,.}.,X|.P.|.&X}.].{.~.G.=.n.=.C m I g I A A c.n.r.r.p.d.s.s.c.s.s.s.s.s.s.s.c.c.i.A I M.A g r.M.p.p.p.p.s.s.c.c.l.c.l.p.s.c.s.i.v.c.p.r.r.i.s.s.s.c.i.i.s.i.p.r.0...i.v.i...V u 8 Q 1.m ,.B.B.-.r.n.B.n.r.;.p.c.g Q ....=.c.c.r.L.;XM.i.U...8 I r.s.c.Y.B.s.g g U E.;XB...1.;XE.U.L.d.r.y.y.r.0.r.n.d.B.U.'.E.s.;.c.v.) I ' ....I 7 Q Q A >.1.-.1.h.s.G U >.;.J.E.Q { %.w.b V r.q / n.=.i.v.=.1.1.=.=.1.g.g.$.R g p s G h.m.>.r...` Q %...=.Q m r.E.E.). X.X>X}.c.=.Q g s.E.h.>.s.s.E.}.M.c.M.Q Q ' Q ..A ' v.p.i.r.i.p.i.r.r.p.y.i.i.i.i.i.i.p.p.r.,.i.s.=.c.v.i.m.M.C.E.B.i.,.4.4.r.p.s.w.1.p.i.i.r.r.r.r.i.p.s.r.r.i.r.r.i.r.r.r.p.r.,.1.M.r.=.-.-.A U r.1.r.4.i.r.1.4.1.1.i.1.1.1.r.i.1.1.i.-.v.'.E.c.>.} p.M.i.=.1.s.4.=.g.,.Q i.>.} Q Q 4.s.p.1.V R r.g.C.v.s.i.i.r.w.r.i.r.i.i.r.r.r.r.1.r.r.1.1.r.p.s.p.r.r.1.1.1.1.r.r.s.i.v.s.} A Q m.1.c.m.F g g Q /.M.=.Q Q ..I ..r.p.B.=.",
",.M.s.-.1.M.p.s.c.c.c.x.x.x.c.c.s.r.s.c.M.c.p.d m i.c.c.m.v.B.M.1.} /.L.B.v.B.s.s.C.s.=.M.E.p.c.Y.M.,.r.p.i.v.s.M.p.i.c.B.E.B.=.I g A L..XY.1.s.p.s.i.r.r.s.p.4.r.-.Q g.v.s.B.v.c.M.M.Y.B.L.E.=...1.s.,.p.B.r.r.=.i.r.1.v.s.c.-.i p M ' c.E.B.s.0.B.T > ' l.s.T 1.} Q A 1.1.=.s.L.E.E.s.'.&X|.;X,X+X4X<X{.3X'.l.@.@.M.&Xv.p.|.B.p.p.c.c.p.p.c.c.c.c.c.s.s.s.c.v.M.A 7 p.=.} 1.i.p.s.s.c.c.c.c.c.s.s.s.p.s.c.s.r.c.c.s.s.s.s.s.p.r.c.i.r.r.r.s.s.1.Q ,.1.Q g 7 u G Q m m d.i.8.E.~.E.d.P.B...0.r...M.M.B.L.=.m c.c.1...=.p.U U p.p.Y.c.p.-.-.m m ' .XY.E.'.L.].v.D.c.8.1.s.d.;.' y.W.E.E.D.c.E.E.U.l.} C m c i u m m A i g Q V A =.} y.>.A u Q ).=.y.L.c.h.=.L.' u { Q V r.,.' 1.s.-.$.=.i.s.} C G s s ..M.h.>.1.%.%.' ..c.Y.=.>.&X,X;X=X.X$Xm.r...m m m s.1.Q } r.p.B.L.Y.m.B.....} ~ ,.g i ,.r.r.r.i.s.s.r.r.y.i.r.r.i.i.r.r.p.r.p.1.1.=.F >.r.g.s.1.c.E.c.1.i.r.r.r.i.p.r.1.r.i.i.r.r.r.i.s.g.s.r.r.p.i.i.r.1.1.r.r.1.i.1.p.1.1.p.=.s ' v.-...1.r.1.1.r.r.4.4.1.1.,.4.i.1.,.i.1.g.B.B.E.E.c.}.s...s.,.r.s.1.4.v.c.r.r.r.-.L.g.i.r.s.=.r.>.} >.i.p.r.r.i.r.4.r.r.i.i.r.1.r.r.r.4.1.1.1.r.p.p.r.,.1.4.r.r.4.1.1.-.s.m.' r g Q p.v.s.L.r.-.r.L./.r.=.U m ..>.c.U ~ r.g ",
"P ..r.' -.B.p.s.c.v.c.x.x.c.x.s.p.x.k.c.B.A.r.y V c.M.Y.g.,.1.m.;X/.B.r.L.1.s.B.E.s.C.c.B.Y.Y.'.L.E.B.r.r.s.l.s.i.r.r.p.c.s...g m m Q '.|.v.r.r.s.s.p.i.i.s.c.B.i.v.}.&XL.i.i.m.m.c.g.M.B.v./.,.' c.c.B..XM.s.} Q p.0.r.v.s.p.i.q u ) ' l.'.0.0.l.' u C l.c.c I }.-.I ..r.i.M.|.3X|.c.s.B.L.E.~.~.U.H.W.G.G.#X#X#X.XD.s.p.p.'.B.p.p.c.v.s.p.s.p.s.s.s.p.p.s.s.s.B.' 7 ..Q =.B.L.s.p.s.c.c.p.s.c.0.p.l.d.p.p.p.i.s.s.i.i.s.p.s.s.p.p.p.p.s.s.c.c.,.Q p.L.B.1.Q m V A A ' i.c.&X.XE.{.G.y.{ g u K ,.-.p.} ' g U B.c.=.A Q i.i.1.c.c.&X,...Q } s.1.c.'.L.L.E.v.v.i.r.y.y.c.r.r.=...B.U.L.B.D.B.D.'.G.@.:.0.1.C g C m i V } i.r.,.v.c.%.g g I ' s..X1.E.c.+X'.Y.>.g Q s.r.:.1.i...,.v.M.i.i.%.=.$.=.A u I r.Y.i.r.r.%.%.Q I E.).s.).oX/.Y.h.1.>.Q ` R 1.h.=.=.R ' r.4.L.E.Y./.Y.c.m.i.i.M.-.i s ' 1.p.p.s.s.p.r.1.r.r.i.i.i.i.r.r.i.1.1.i.i.1.Q r.s.4.,.-.s.s.r.s.-.r.1.i.s.i.r.i.i.p.r.1.r.i.i.i.p.r.r.r.r.1.,.1.r.r.s.s.r.1.i.r.' V } } s.c.>.Q V ,.1.=.1.i.1.1.1.r.,.-...1.p.1.r.r.p.v.Y.E.c.r.g.A } -.,.r.i.v.E.|.E.B.s.M.;XoXi.s.E.m.B.c.I e Q =.=.1.r.4.i.r.1.r.r.r.r.r.i.i.i.4.1.1.1.4.4.4.1.1.1.4.r.r.r.4.1.i.i.1.} A A } r.p.4.1.i.B..X/.,.>.r.m ' ,.p.1.,.,.4.i.",
"=.p...C =.M.p.c.c.c.c.x.x.c.c.s.c.B.B.A.B.c.^ 2 7 A g.c.1.1.E.'.L.} ..-.r.-.s.M.~ I 1.L..XE.E.oX,X,XE.B.L.c.p.M.M.v.,.} I g g A g U -.'.L.s.s.v.s.s.c.c.g.s.s.s.p.1.i.c.v.g.s.s.c.s...U V ..s.~ U M.i.c.&Xc.,.r.p.r.s.c.r.i.v.s.4 z p.B.E.L.[ A =.Q 7 I ..A * 1.i...U U ,.E.,X,XE.B.s.c.s.1.i.n.G.l.0.0.0.:.u.0.c.c.u.d.p.' r.M.s.p.p.s.p.p.c.s.p.s.s.s.s.c.c.c.c.-.g i...' '.B.i.p.s.c.c.p.p.s.s.d.l.s.p.p.p.p.p.i.s.s.r.i.c.i.s.s.p.p.s.s.c.c.-.A c.M.r.B.M.U I c.Y.L.L.}..XE.{.'.d.s.I u =.8...B.&XL.E.E.'.|.r.v.p.1.c.M.s.p.'.}.} ..1.s.L.s.v.;XE.=.U =.i.-.s.y.8.s.d.y.r.n.E.L.d.i.d.c.c.n.U.U.~.U.].P.P.E.c.p.}.&XB.E.&X.XL.+Xc.I ' d.U.d.y./ b s.s.R s g :.1.s.p.i.r...p.B.c.c.c.>.V k A R %.r.c.i.m.h.s.y.1.Q s w.L.s.i.r.1.w.} G s A r.m.W.s.} B.B.h.L.E.,X.X.Xv.,.Y.M.v.i.1.A s m v.v.1.1.i.p.p.i.i.i.0.0.0.0.1.r.r.i.s.1.i.g.1.} r.1.s.i.s.g.s.c.p.r.4.r.r.r.r.1.1.r.r.1.1.i.p.i.r.r.i.r.r.r.1.1.r.p.p.i.i.r.4.i.i.-.R m 1.&Xs.F g V 1.s.r.,.1.1.1.-.,.-.,.r.s.s.,.1.1.i.c.B.M.p.p.v.,.=.r.p.s.Y.}.|.L./.E.E.|.m.Q m E.L.....Q g F c.1.=...} ..>.-.>.4.4.4.4.r.r.i.i.r.4.4.r.r.r.r.4.1.1.4.r.r.r.4.r.r.1.,.-.=.$.-.r.r.1.4.1.r.i.$.k I V -.g.,.r.p.r.B.Y.'.",
"A.,XL.1.c.x.r.c.x.x.x.x.x.c.c.x.s.x.v.V.c.p.g 2 V p.'.>.=.s.L.Y.' m ..s.c.L.B.s.r.E.3X3XoXs.M.'..X'.B.B.B.-...M.v.c.Q 7 i g V } 1.m.E.|.v.1.r.i.s.s.c.c.c.c.s.i.s.r.r.r.r.i.s.g.g.Q u g g Q V * ..Y.c.s.s.r.s.p.i.0.r.i.s.c.c.Y.c 4 8.-X].U 7 u y.{ m =...0.' Y p.i.M.}.&X;X.XL.p.r.i.c.s.s.s.d.@.0.8.u.l.s.s.u.0.d.:...' p Q l.c.p.y.p.p.c.c.s.s.s.c.c.c.c.c.s.M.p.V ;.-...|.B.r.p.s.c.s.s.s.p.s.d.c.d.s.s.s.s.c.i.s.s.i.c.m.1.s.p.p.i.p.p.s.c.=.A i.' m } ..g >.g.1.} ,..X|.E.E.n.c...A =.n.B.L.,X,XE.}.}.E.v.r.}.,X'.B.c.s.v.&XB.U ..s.v.c.i.s.-...r.,.r.=.-.{ r.d.r.p.8.;.1.D.c.1.;.0.y.r.r.l.u.G.U.~.'.&X&X&X3X;X1...L.'.s.d.E.m.} h.)..Xs...s s ' I 7 b =.'.p.s.l.i.p.v.c.B.B.c.} Q V V g Y ..i./.J.J.i.w.%.m m Q w.=.%.h...I S u s 7 A i.>.G } B..X X}.J.}.E.B.E.-.~ r.m } ' I u s A L.c.-.,.r.p.p.i.i.i.p.t.i.i.i.p.s.s.r.p.s.i.p.s.B.c.c.s.m.s.c.B.r.i.1.r.1.1.r.1.,.i.i.1.,.r.i.i.r.r.i.r.r.r.4.4.i.s.p.r.r.r.r.i.s.i.m 7 ' r.~ =.} U } r.r.1.r.r.s.p.-.=.1.p.c.p.=.>.i.r.p.g.g.v.B.B.L.-.s.B.M.'.'.C.L.L.h.v.E.1.A A ..I g ' U I 1.c.s.i.....1.i.r.i.4.4.4.r.r.r.r.r.4.r.r.r.i.i.r.r.6.4.4.1.1.4.r.r.1.,.,.r.i.i.r.1.1.,.1.,.,.4.,.} i e A ' B.s.-...=.} R ",
"B.,X'.E.E.p.r.x.x.x.x.x.c.c.c.c.c.x.M.V.v.c.u u A E.Y.1.i.L.h.h...1...4.c.m.-.i.B.}.}.'.B.Q ..1.,.=.i.Y.c.Q Q r.,.;.Q g I :.c.}.;X&X|.E.s.i.s.s.s.s.p.s.g.c.g.s.s.c.M.c.1.1.s.c.Q 7 7 I A V g A B.L...,.1.p.v.r.p.v.r.r.c.p.,...* i p.n.Q u X.s.B.1.' L.B.~.'.p.v.s.E.&X'.v.p.r.i.r.r.1.i.v.,.S u @.0.0.u.u.l.n.s.n.' 7 p 7 K p.s.i.p.d.d.c.c.s.c.c.c.c.c.s.s.s.M.c.Q M { ;.M.i.1.i.s.p.p.s.s.p.0.p.l.d.s.s.s.s.c.s.c.s.i.g.s.r.p.i.i.i.p.s.s.c.' A U g U ' Q c.E.i.i.r.p.E.E.E.p.1.c.{ ..n.:.l.E.B.=.' U A Q =.E.E.M.i...U ' r.v.' u U s.p...Q 1.i.B.B.....g u p Q r.8.y.r.d.s.1.8.8.8.8.8.8.r.d...;.d.s.G.&XE.Y.U.B.M..X.Xp.,.h.8...} '.;X5X&Xs.Q c.'.r.u V m.{ ..s.}.L.'.|.1.Q Q A = 7 R Q k m ~ L.$X).>.1.s.' s 2 A c.c.w.} G g s g >.%.} Q g ..B.I.B.m.J.J.E.c.m.1.A =.C.p.=.` s b g } M.M.0.r.r.i.i.r.r.r.r.r.r.r.r.r.i.p.1.c.i.1.s.s.v.}.s.s.g.s.M.v.,.1.4.p.r.1.p.r.1.s.s.r.,.1.r.r.r.i.r.r.r.r.r.r.r.s.i.4.4.r.r.s.g.p.s k A m m 4.p.1.M.c.1.r.i.1.r.i.1.,.r.i.s.i.=.,.i.,.>.w.s.C.L.c.,.A =.B.E.}.L.c.m.c.c.v.c.i.1.=.-.i.I 1.E.L.M.L.M.B.r.4.s.r.-.,.r.r.r.r.r.r.4.1.4.r.r.r.r.r.4.1.4.4.4.4.4.4.r.r.1.1.r.r.r.r.r.r.i.r.1.>.-.,.r.r.,.L.>.Q c.} =.s.1.} A ",
"=.,.' s.A.p.v.x.c.c.x.c.c.x.x.x.v.M.B.B.B.c.5 g I -.I =.p.v.Y.E.c.E.-.m.Y.r.U p.g.1...h.i.g } c.Q g I ..V 7 V Q ..} ..Q Q 1.L.;X6X.XY.s.r.i.c.v.c.s.s.s.g.c.c.c.c.c.v.c.p.s.c.s.' g m k A I ' } i.r.V ,.B.,.=.v.i.p.r.c.p.c.s.g 2 A c.s.A A s.1.d.B.1.n.&X#X,X&Xv.'.&XE.r.r.s.p.i.1.r.1.p.s.I = c s.G.s.s.d.l.n.n.0.N 4 A m Q l.p.p.s.d.s.s.c.s.c.c.s.s.s.s.s.s.s.Y...i -.v.c.,.,.i.p.i.i.p.s.p.1.r.s.y.r.r.p.s.p.c.M.s.i.r.,.p.i.i.p.p.p.s.s.s.X.A g u ..Q m L.,X..v.}.3X;XE.c.n...) =.8.=.1.L.c.,.m g i i ..M.E.B.p.-.Q I ..v.p.A 2 g r.s.r.r.v.v.s.U 8 ' A V I m =.n.l.=.1.;.;.1.y.u.r.r.r.y.p.:._ X.y.W.].l.p.=.,.c.Y.s.-.s.1.8.;.=..X&X&XB.G { .X}.v.=.} ....:.U.L.' r.r.} $.U m g A ..~ ~ >.c.$X'.B.r.i.r.=.' G %.'.B...g g m I A ..} h.L.m.c.c.h.w.h.B.c.s.s.r.' Q s.E.c.c.' g k g } r.B.i.y.i.r.r.r.r.1.1.r.r.i.i.i.i.i.c.r.r.p.=.Q ..C.,.s.s.B.C.r.1.r.p.c.i.1.i.4.>.i.s.r.,.1.r.r.r.i.r.4.4.r.r.4.r.i.1.4.r.r.r.s.g.1.s g I r.} Q i.E.|.B.-.-.i.4.4.1.i.p.p.r.i.s.1.,.p.1.1.i.s.C.M.1.I u U v.}.E.v.v.m.c.v.c.r.1.4.,.i.=.} c.p.B.Y.} F ..} >.g.r.r.p.i.i.i.r.r.6.1.1.r.r.r.r.r.r.1.,.4.4.r.r.r.r.4.1.r.i.i.r.r.4.r.r.4.r.r.r.r.,.-.>.,.L.Y.M.=.I 1.,.p.p.p.",
"..Q P 1.c.s.B.x.v.c.x.c.c.x.s.x.s.c.c.v.A.6.2 P v.m.U ' m.r.L.h.I i $.;X1.Y.&Xi.c.,...1.Q 8 ..E.1.A V A 8 2 V U I m A V } E..X}.B.s.c.i.r.r.p.g.c.c.c.c.c.v.c.c.c.s.s.s.s.c.v.c.M...Q $.L.B.i.R ' ' M r.M.-.=.1.M.L.v.c.s.s.... g z s.,XB.0.c.s.r.B.c.D..XB.c...Q L.&XL.r.r.i.,.1.,.s.c.v.1.g 4 c 0.l.r.d.l.r.-.1.C 4 N =.K I d.v.c.c.s.p.s.v.v.s.s.p.p.s.s.l.c.s.v.V 2 p.|.'.i.1.p.s.p.r.r.i.p.r.s.s.r.1.w.s.v.c.1.r.p.v.g.>.i.i.i.i.i.i.i.i.i.V g A Q -...=.~.,.A E.&X|.M.E.Y.p.q m :.r.c.G.E.Q I g g Q i.L.M.s.c.r...' -.s.c.,...U Q p.c.c.v.r.p.v...g G I =.=.A Q 1.1.1.s.p.p.r.r.y.r.r.y.8.1.r.Q 8.[.~.s.:.=.s.s.1.r.} V } ' r.s.8.J.B.i.Q s.1.W.}.J.%...i.n.r.].p.A ..g I Y.,.Q I V Q R 1.&X;X[.Y.m.E.c.=.1.=...m.B.s 7 V m A ' ..%.' c.).%.G =.J.=.-.i.=.Q L.1.I g V i.i.-...r.r.,.>.i.L.r.i.r.r.r.i.i.i.1.r.p.p.s.s.s.s.s.-.g.p.A Q ,.-.' i.g.L.c.$.1.p.i.p.r.1.i.1.,.i.r.1.1.r.i.r.r.r.r.4.4.r.r.1.1.4.,.4.i.r.r.s.p.-.g u U Y.r...c.v.,.p.1.,.1.4.p.s.r.p.s.4.i.s.,.=.1.r.r.r.r.r.-.Q V u I c.E.B.v.M.}.C.4.r.m.s.-.,...=.1.g.1.m.c.R Q =...4.i.=.-.,.i.i.i.i.r.4.4.1.i.i.r.r.r.r.1.1.4.4.r.r.r.r.1.1.r.r.r.4.r.r.4.,.-.,.1.4.p.i.4.r.4.I V m u $.s.4.s.s.s.",
"r.s.r.c.B.x.M.c.v.x.x.c.c.x.s.x.k.v.c.M.T...i c..X.Xp.r.E.c.p.G i ..=.' ' B.=.>.E.c.c.p.~ m p.E.M.i.i.p.-.} =.1.B.i.1.=.c.}.M.p.} ..c.s.g.g.v.v.c.c.v.v.v.c.g.s.c.c.v.v.s.p.c.v.c.r.s.,X5XC.p.r.1...U ..r.i.v.} ..=.r.r.v.M.Q i c ) G.].{ X.p.s.s.y.P.&Xy.z c u m p.E.v.s.s.s.c.i.p.c.p.i.} g Q @.u.u.u.n.l.0...K < 4 A { I ' c.B.v.c.s.p.s.v.c.p.p.p.p.s.s.c.c.l.Q 2 = -.}.Y.p.i.p.p.,...} ,.c.l.c.c.d.s.v.B.L.i.V ' s.m.m.r.r.i.i.r.r.r.r.i.i...,.B.E.E.E..X.X-.-..X.X}.M.c.=.c X / c.B.'.d.0.I I =.-.Y.;X;XY.v...m m } i.1.Q M.v.} V ..r.Y.L.s.s.;.A A 8.v.W.&XU.1.Y M Q ;.d.c.r.r.r.r.s.c.u.l.0./ G.+XB.0.0.r.y.,.,.s.' m -.8.s.w.>.r.>.>.>.1.w.h.y.1.;.i.B.8.' 0.A ) p.r.E.B.,...U I =.4.Y.'..X'.).c.B.c.i.w.' b I R r A m A R w.'.$XJ.r.V u R Q ' w.E.>.e i } k g I U ' g g ..g.s.1.1.c.v.1.r.r.r.i.p.p.i.1.r.r.i.i.r.i.i.1.1.p.=.A r.s.=.' 1.c.c.1.-.r.i.4.1.1.4.r.r.r.i.r.1.4.i.i.r.r.i.r.4.1.4.r.1.1.r.4.1.r.r.r.i.i.,.I V R 4.-.s.c.-.1.s.r.1.1.,.r.i.1.4.r.1.p.s.-...$.>.-.=.$.' A g 7 r U B.E.C./.c.Y.r.-.v.'.L.,.~ 1.4.m.v.-.c.1.I $.,.$.i.s.1.p.i.i.i.r.r.r.r.4.r.r.r.r.r.r.r.4.1.r.r.r.4.4.4.4.4.1.1.1.,.1.r.4.,.4.r.,.-.4.4.,.1.4.I 7 g ..c.r.r.p.1...",
"r.A.x.p.M.M.x.M.c.x.s.c.c.x.x.x.x.c.s.x.B.I g oX}.1...m.1.C.'...F i.r.A =.}...E.i.r.'.'.' 7 >.'.M.B.v.c.s.1.p.'.|.L.'.;X&Xs...'.i.s.E.g.p.s.c.c.s.c.c.c.s.s.g.c.c.s.c.M.c.s.g.s.i.s.g.&Xg.V I r.s.Y.1.Q ..} M.E.U 7 -.p.r.c.Q V K :.U.W.=.~.{.B.G.#X#XL.Q V S K A v.Y.i.r.p.r.i.i.c.c.=.:.,.=.~.#X~.l.p.s.8.@.{ m g K A T =.P.&XM.s.p.p.p.s.s.r.p.s.s.s.c.s.s.s.M.g A V } L.r.v.p.i.1.} M V ..c.c.n.B.G.E.E.E.E.Q $ I c.1.1.i.s.p.p.i.r.r.p.s.c.c.L.Y.'.,X;X;Xv.i.Y.,X}.E.s...A q g { G.c.} { :...-.|.}.}.B.B.Y.=.I Q M.|.'.L.B.r.c.-.=.E..XE...,.s.p.} ' ;.B.,X{..Xd.{ A p g ;.d.y.s.d.s.n.U.U.l.( B r.X.X.d.8.s.:.s.d.r.s.s.1.1.r.>.r.s.8.<.r.1.1.r.c.h.=.' ..i / =.I M.s.L.Y.>.~ ,.$.r.p.i.B.N.D.Y.c.c.m.B.w.1.R s Q w.r.B.V } m.$X&Xs.1.h.>.i.w.} R ' &X.XQ i.=.A V ,.M.4.Q ' c.} Q V p.}.E.1.r.r.i.i.p.i.1.s.s.s.p.p.i.i.i.r.p...Q ..s.$.i.=.-.g.1.=.s.s.r.i.1.r.i.r.r.i.i.i.r.r.i.r.r.i.s.i.4.1.1.r.4.r.r.p.1.1.r.r.r.r.4.I A R =.1.i.r.}.,XL.....i.i.i.4.r.1.1.4.s.s.-.-.r.i.,.-.1...V s r g $.|.Y.B.'.$.$.A } p.,.-...s A p.g.r.L.L.V F ,.>...r.p.1.s.1.r.r.r.4.6.r.r.r.4.1.1.1.4.r.4.1.i.r.4.1.1.1.r.r.1.r.r.1.>.1.r.r.r.s.r.,.i.i.1.1.1.$.g } E.B.p.,.-.-.-.",
"p.s.=.| ' p.c.M.c.v.v.c.s.s.x.c.M.v.B.s.B.l u L.=.l d 6.A.&Xc.x.'.`.r.M.s.U ..1.Q B.|.E.v.6.s.'.L.L.Y.r.' I 1.L./.Y.E.m.>.m } .X.XL.M.s.s.M.v.c.g.g.x.g.s.c.c.v.s.c.v.c.g.s.c.v.h.L.B.,.u 7 A 4.E.E.E.r.Q d.|.M.A A A U c.=.A A Q M.s.Y.|.}.|.,X3X,XE.-.i } s.1...c.v.s.i.i.c.v.p.c.c.r.-.8.M.'.E.c.n.c.E.' m m U ..A Q s.r.=.s.v.s.s.p.M.p.p.p.s.c.p.p.c.s.p.p.M.u * ..B.B.p.c.r.' Q Q =.' 1.B.B.'.s.r.Y..XE.Q = 2 *.} r.p.s.r.p.-.,.v.M.p.p.c.i.s.L.}.|.E.v.1.r.1.s.v.i.s.-.Q I ' M.-.i i m U =.A r...g { c.E.i.v.&X.XB.E.M.L.P.0.1.E.].G.) ' 0.s.p.1.s.E.~.G.1.{ u @.=.g / } 1.c.n...@.@.=.=.< 9 i z u A T 8.y.r.1.1.0.p.0.:.-.s.s.,.,.p.s.r.1.1.,.B.p.Q g m U -.p.r.Y.,.i.I V -.M.B.E.v.g.i.B.B.v.s.s.c.p.-.1.A V ..i.v.v.1..X|.c.r.,.M.4.p.p.i.c.i.B.m.Q Q L.;Xi.-.B.s.m..X'.B.s.I ..5X.XM.,.i.p.r.s.4.r.1.,.1.i.i.i.i.r.r.i.,.F A >.i.1.r.1.i.r.,.r.i.i.s.i.r.p.s.i.1.r.i.r.r.r.i.i.r.i.i.p.r.r.6.1.6.r.1.1.s.6.6.B.s.i.A l Q E i.c.c.E.:X|.B.=...1.,.=.1.4.r.r.1.r.i.1.=.4.1.1.,.p.' 2 g g A m.|.E.s.,.V ..} Q r.r.=.A s I A.,X'..XM.} Q r.B.M.E.M.c.i.-.r.i.i.r.r.r.r.4.i.r.1.1.1.4.1.1.i.r.r.r.r.4.r.r.r.1.,.,.,.1.4.r.i.r.1.1.1.r.r.1.1.>.U ' |.3Xc.1.i.i.i.",
"U ' U A A 1.s.p.s.x.c.x.s.s.c.c.M.M.c.A.c.2 * E V 2 m s.s...} B.|.U | E.B.' E x.=.M.i.V ..x.*.M.L.L.B.i.p.g.E.}.E.-.-.Q 1 m i.Y.L.g.c.s.s.v.c.g.g.g.x.g.g.c.v.v.c.c.c.s.p.s.c.M.B.i.I 7 8 A =.v.;X,X;XB.s.}.&Xs.m ..Q A ' A A A A r.p.v.p.c.'..X.XM.' U ..d.v.L.i.n.p.i.c.c.s.y.p.c.v.c.c.n.L.E.v.v.c.s.I i 8 g I Q U =.Y.M.s.E.s.i.s.p.c.i.s.p.r.c.c.p.r.r.s.v.-.7 g L.c.B.} Q I A Q r.1.} ' Y.B.v.A 2 A I 7 O g m I g A ' p.s.r.Y.L.c.B.v.s.c.i.i.i.i.i.r.1.,.,.1.i.p.i.B.s.1...s.-.i A i A V u I Y.c.c.|.}.1.-.E.E.v.i.c.M.Y.l...p.p./ q 2 0.8.d.s.r.n.W.c.Q c g 7 I D.E.L.=.p @.'.K 4 i > u 7 g m m g g i Q s.p.y.r.y.u.y.8.i.s.p.0.i.p.i.r.i.r.r.p.r.Q ' p.L.v.B.B.r.} 1...B.E.E.}.E.v.c.M.m.i.i.i.r.1...Q Q ..r.Y.3X,X'.'.,Xm.s.,.s.c.4.=.M.c.c.E..Xr.Q k g.'.B.B.B.c.'.;X|.Y.E.c.M.&XM.1.=.1.s.p.v.i.r.4.r.4.r.i.p.i.r.r.p.m A i.r.1.,.1.w.i.1.=.,.i.p.i.p.r.r.r.r.i.p.p.i.i.i.i.r.4.1.1.6.,.,.,.=.=.,.1.1.1.1.1.1.,.B.6.U 6.x.E.A.T.OXOXE.s.=.=.1.,.-.1.r.r.r.r.p.s.r.-.,.1.r.r.c...u A g ..L.Y.B.p.,.Q s.i.1.p.,.1...m ..OX'.L.Y.s.c.B.E.;XE.p.' ..p.c.1.1.1.>.,.1.r.r.r.r.r.r.6.4.4.4.r.r.r.r.4.4.4.4.1.1.,.,.1.r.i.i.1.1.,.,.1.r.r.1.r.1.I A c.Y.-.-.1.i.s.",
"l g V ..p.B.c.p.s.s.x.x.x.x.c.v.x.M.p.A...: C =.U i C 1.p.' r.'.' g 1.p.g =.3X'..XL.,.m A m l A.B.c...A ,.c.M.c.Y.1.i m Q M.;X'.i.1.s.c.g.c.c.m.g.g.c.g.c.c.v.v.c.c.g.s.p.s.v.B.M.r.I 7 A -.Y.;XE.E.Y.B.L.E.E.c.L.-.p.r.I A g g ..c.v.s.Q ..v.B.-.U Q i.Y.B.c.i.v.'.B.i.p.p.p.p.s.c.c.v.M.B.M.c.s.M.r.} $ u Q p.r.Q I r.L.r.-.Y.Y.d.v.v.c.c.M.i.1.c.i.i.p.s.v.c.s.m i.c.' m g u A U -.}.E.p.m -.U g 8 8 g g u m m V g A Q ..i.r.i.c.L.s.Q =.Y.p.i.i.i.i.r.1.r.i.i.c.s.p.p.v.{ V ..i.I Q p.-.Q ` r.L.;X'.1.' v.g I |.B.v.c.r.i.1.Q / B.s.B.L.' Q r.p.r.s.E.|.l.I ..{ U Y B.-XE.s.1.0.} 4 i Q I c K I m g N T I ..r.y.r.y.p.s.s.p.p.r.,.r.p.p.r.p.p.r.p.i.s...c.,X&X&X.X'.s.M.Y.E.Y.E.J.E.p.r.v.'.c.$...Q m g g A s.....s.B.Y.}.oXE.p.1.1.....A } c.|.E.oXE...1.A r.i.c.L.s.c.oX|.s.1.v.Y.E.B.p.i.p.=.,...1.r.,.1.i.r.r.i.i.r.r.i.A g ' c.c.v.r.i.1.>.-.>.,.r.r.,.i.i.r.4.1.4.w.4.i.i.i.4.1.,.,.,.1.*...,.r.r.r.r.i.1.r.x.s.c.L.Q ' s.L.:X:X3X,XE.'.s.,.1.1.,.1.r.i.r.r.r.s.g.r.%.,.4.i.r.c.$.g U g ..s.r.1.=.,.i.1.L.B.s.4.i...u ..;X,...s.i.r.p.r.=.A V I =.r.1.r.r.4.,.,.1.4.1.1.4.r.r.r.1.1.r.r.r.4.4.1.1.1.1.r.4.1.1.4.r.r.r.,.,.,.,.1.r.r.1.1...A A 1.~ e I ,.i.c.",
"=.s.T.}.A.r.r.c.c.c.c.c.c.x.c.c.x.B.c.B.A $ ^ ,.R ^ ..x.E.B.1.u - A 1.1...s.c.' ,.L.'.'.B.s.A.Y.M.p.I i ,.M.v.c.-.A U -.-.v.}.B.1.1.v.B.c.c.c.B.x.c.c.c.c.c.v.v.s.g.c.c.g.g.c.v.s.i.1.r.'.'.L.M.,.,.,.r.p.p.s.c.L.p.p.L.B.=.g i.s.c.r.p.,.p.i...} V A A Y Q ,.r.M.,X'.p.r.i.s.s.s.s.s.s.s.c.s.i.p.v.1.m u A r.c.c.=.r.c.1.Q ..E.,XL.M.M.p.s.c.....i.r.,.,.,.s.c.i.c.B.m = ,.1...L.M.B.}.L.v.u I g = g m u m m g B g m 1.L.Y.p.i.r.' 7 = $ u -.s.1.r.p.p.i.i.i.p.i.s.y.p.M.M.A 2 ' Q I =.c.M.-.M.;X.Xc.g m ..} 7 ...Xc.i.i.1.1...c m r.s.~.'.c.D.G.c.c.~.-X.XB.1.l.l.=...=.:.) 0.P.L.} c ' s.B.0.Q C C I ..s.0.@.p.p.r.r.p.s.s.p.p.r.,.r.s.p.i.s.s.i.i.r.p.....B.E.&X'.Y.E.'.B..X}.|.E.E.p.c.E.E.M.>.1.' g i g Q =.V g m i F 1.i.r.s.-.1.A u * Q B.m.=.}.c.A ' A ,...i.'.'.}.|.i.,...,.i.r.' $.1.1...c.i.i.4.-.i.1.i.s.p.r.r.r.4.A } M.Y.E.c.,.v.s.=...-.....1.r.1.i.p.i.i.i.r.r.i.i.1.>.-.,.1.r.1.1.,.6.p.p.r.r.p.p.i.r.r.x.6.7 Q `.OX|.T.`.E.p.6.' ' -.1.1.p.x.i.i.r.4.i.p.1...r.4.4.1.s...g Q Q =.i.s.s.1.1.s.'.;XB.r.r...A m i.p.I Q ,.i.=.' =.m u { v.v.i.r.-.,.1.1.1.4.1.,.1.1.r.r.4.4.4.r.r.r.4.4.1.1.4.4.i.r.r.4.r.r.r.r.1.4.4.1.4.r.1.,.4.1.' Q 1.' s Q L.E.}.",
"c.;X5XE.,.*.r.x.c.c.c.c.x.x.x.c.M.B.B.x.l = l d g p.A.c.*.1.x.,.-...A.M.B.B.I Q T.&X.X'.'.&X6XE.L.s.Q m 4.g.p.c.i...E.m.m.i...i...-.m.C.v.c.g.v.c.c.c.c.c.c.c.v.p.s.c.v.c.c.g.g.1.c.Y.L.E.i.,.s...i.p.-.1.s.s.i.1.p.U M..Xc.p.1...s.v.Y.B.c.=.} ' Q V g ....,.v.}..XM.r.s.c.s.i.i.p.s.p.p.p.s.s.s.s.U 2 ' 1.c.,.A } p.c.B.&X,X.Xy...,.c.1.i.p...' s.c.B.M.p.c.r.p.,.Q 7 Q M./ ' p.r.v.c.,...u U Q g A c Q E.c.A I m I r.E.;Xv.v.s.-.U Q V i } r.p.p.i.r.r.i.i.p.s.s.r.p.v.v.I u Q } r.=.E.s.c.B.s.' 7 m Q E..X} M.E.p.i.1.p.r...q ' E.'.G.;.s.]..X].&X<X&XP.d.y.p.c.1.:.p.' I Y K y.E.:.1.E.n.c.p.K Q 8.s.B.D.r.n.l.p.p.s.p.r.1.s.s.i.i.p.p.i.p.i.r.,.i.r...Q l.E.Y.B.B.'.c.r.}..XE.L.M.L.B.B.,.Q A I V g m g e u ..s.c.m.v.p.p.s.r.1.1.Q 2 g V F ' ' E.-...,.1.1.=.1.B.E.E.C.-.r.,.1.=.} A ` ' -.R 1.4.s.p.,.1.1.p.p.1.1.i.1.} U i..Xs.r.r.s.i.1.-.1.r.=...=.=.' } ~ } ,.i.r.i.r.r.r.1.,.r.i.i.1.s.s.r.r.r.r.s.p.v.c.c.s.r.' g } .XA.*.=.M.c.=.} U ' r.i.r.p.i.i.i.r.4.r.i.1.$.6.1.1.1.c.=.g U p.,.-.>.$.-.1.r.g.} A } ..m V ' s.A ....} i.p.-.i.} =.v.c.Q A ' } ..=.>.1.1.1.,.r.4.1.1.r.r.r.r.r.r.4.4.4.4.r.r.1.1.1.4.r.i.i.i.r.i.i.r.r.r.1.,.4.B.1.V ..B.c.c./.E.E.",
"U i.T.c.r.r.c.s.c.x.x.x.x.c.c.c.M.x.i.Q 7 5 Q *.r.c.x.c.p.B.E.L.L.s.T.i.^ s.A.Y.'.T.A.L.}.'.A.|.Y.c.' F i.s.c.E..X&XB.1.oXr.=.i.A ' s.m.c.m.v.v.c.c.c.c.c.c.c.c.s.c.c.c.g.g.g.g.C.s.1.,.p.1.1.p.i.v.c.p.s.v.c.i.B.,...B.,.=.L.Q Q v.'.|.Y.c.-.-...I A } s.B.E.;X&XY.r.p.v.p.p.p.i.s.c.s.p.p.p.p.p.r.8 $ ' s.r.} I =.s.M.Y.'.M.A 7 7 ' M.r.-...U A ,.1.p.r...r.1.,.E V = s.B.Q I Q Q 1.1.} V 7 A c.-.I m s.|...A g A } ,.v.|.p.s.Y.c.s.M...Q M.v.s.p.i.p.s.c.s.s.s.c.s.g.i.1.A u A c.s.Y.,X1.1.s.,.I I ' ;.M.I ..M.p.p.v.s.M.r.Q ;.|.&Xc.r.n.{.W..X&X&X'.n.p.r.y.d.s.@.Q ].L.~.' Y c.~.L.M.W.U.E.P./ =.c.s.r.n.B.d.p.r.y.p.y.0.1.r.s.p.r.i.p.i.i.8.r.1.p.i.r.=.|.L.p.M.v.B.s.|.,XE.v.s.i.s.=...A u =.s...m A >.M.4.=.1.M.}.;X&X.Xs.' ..g.m u ' A ../.;X}.Q r.r.r.4.1.,.>.1.1.r.i.,.r.p.r.,.....A ' g Q ..-.=.....1.1.=...-.r.=.I U Y.E.R ..4.s.,...>.1.-.=.,.=.Q Q A g V =.r.4.r.1.i.p.i.i.p.p.i.i.s.r.r.c.c.x.B.c.} A 1.s...l g c.L.' Q r.M.p.,.r.,.,.r.i.r.r.6.r.i.i.r.i.p.r.-.r.4.4.r.c...7 k } ....' m Q -.r.-.g k Q V u A g I ,.E.-.p.E.c.v.' Q 1.M.Y.s.i.v.1.1.1.,.,.1.4.1.r.r.1.1.r.i.i.r.r.4.4.1.4.r.r.r.r.4.1.1.r.r.i.i.r.r.r.4.1.r.r.r.i.B.1.A =..X;X}.}.Y.B.",
"- Q B.L.c.1.p.c.x.x.x.x.c.c.c.c.M.s.*.m g i =.E.E.c.M.c.x.r.6.r.=.c.-.| p.s.s.x.E.}.`.M.v.v.p.s.R I m V p.B.E.;XL.v.} ' $.g 1.1.A ' i.i.r.v.M.v.g.c.c.c.g.s.s.s.c.c.c.g.s.s.s.g.i.s.s.s.r.i.p.c.c.p.s.v.v.s.p.s.s.v.Y.i.A g -.Y.i.M.Y.'.'.&Xv.' m 7 Q v.c.L.|.}.}.v.r.c.s.i.d.d.s.c.c.s.p.p.i.i.1.1.u 7 I } U g I ,.p.M.i.} ..V A V ..v.=.Q A m U ,...-...Q v.E.s.V * u A A 7 ..v.i.p.;.A i u m p.p.} Q c.i.m A A ..i.c.Y.E.1.1.i.s.Q 1.'.E.E.n.,.1.r.p.s.s.p.r.,.r.s.c.r.r.U i Q v.-.'.s.' } M.1.,.-.r.i.Y.p.} M.i.r.s.p.c.,.U =.n.l.;.,.L.~.E.W.W.L.d.1.:.r.l.y.1.I c B.E.-X1.W.<XP.E.c.0.G.{.r.[ 0.s.s.,.8.0.;.:.0.p.p.r.0.r.,.r.r.1.i.i.r.r.i.r.i.1.r...U M.1.1.p.1.r.v.,X'.Y.E.c.-.' A m i -.L.i.=.s.E.,X&XL.$.1.E.}.|.'.v.1.m A -.8 m R ..E./.|.L...p.1.p.,.r.p.i.4.1.,.i.w.i.s.s.p.p.' i u g 1.c.-.F ' >.,.-...} $.,.-...E.'.=...p.=...r.,...I A ~ -.1.>.=...Q ..c.c.r.s.1.i.s.p.p.s.p.i.x.x.r.s.c.6.*.r.E.V 2 | ,.^ I -.`.v.| p.s.,.-.6.6.1.*.*.1.r.r.i.1.4.r.r.p.s.r.=.r.r.r.4.s.} 8 g V =.i.s.,.,.=.4.>.} ~ A A Q 1.Q Q |.M.,.&X|.s.M.r.=.p.M..X|.Y.M.m.c.p.1.,.1.r.r.w.4.4.4.r.r.r.r.4.4.4.1.1.4.r.r.i.r.1.1.1.4.r.r.r.r.r.1.1.r.i.i.c.p.r.,.M.&X&XE.E.B.g.",
"l *.B.x.c.c.B.c.c.c.x.c.c.v.c.c.v.c.=.^ -.d V ' A U v.p.s.-.r.x.s.c.x.1.Y..Xc.v.E.`.M.M.p.c.L.P u g A ..}.;X;X,Xc...} m I V V L...1.s.1.=.s.c.c.g.c.c.c.s.s.s.s.g.c.c.c.c.g.s.p.c.m.s.p.1.v.v.s.p.s.v.c.i.p.c.s.s.B.M...g i v.E.E.}.,X-XE.&Xs.u m Q r.'.'.|.}.|.E.v.p.s.i.s.D.p.c.s.p.p.s.c.c.s.v.c.I g m V ' Q r.M.r.v.B.B.;XY.s.} Q ..I A Q ..Q Q m 1.'.E.L.-.m $ g V I A ..=.p.c.c.,.g g m g U 1.1.' =.-.Q ..n.L.B.}.&XB.r.i.s.1.A } 1.r.M.1.r.r.i.i.i.i.r.0.r.i.s.s.i.M.X.m ' ,.s.L.U U -.B.p.p.p.r.s.s.....p.s.1.s.p.i.} m M Q { ) { D.D.'.W.D.c.c.p.1.0.l.p.r.' ' [ ' { I '..XG.r.@.r.:.s.0.s.l.@.r.s.p.0...;.y.l.s.r.0.y.i.i.r.r.i.r.,.1.1.-.i.,.p.Q g ..r.c.1.,.s.r.c.=.-.s.} m 7 g g u =.M...-.'.,X;Xv.,.E.,X}.B.g.i.r.,.e s 7 u m V s.v.M.E.1...r.r.i.i.1.r.r.4.i.r.1.i.4.r.s.p.v.~ u g g } i.,.Q >.4.-.-.-.-.=.=.i.B.3Xv.V 1.1.1.1.=.} m 7 A >.1...-.$.4.p.B.E.v.1.s.r.i.i.r.w.p.s.p.c.A.L.B.1.d 2 A *.5 g i.^ l Q L.'.s.| r.,.r.c.-.1.i.1.,.p.s.1.,.1.1.1.4.p.p.1.} 1.4.4.1.s...g Q s.M.p.B.'.Y.-.4...r.} A ..U A F .XB.8 ..}.s.p.c.M.p.L.B.}.W.B.v.c.g.i.1.>.,.1.1.>.1.4.r.1.1.1.1.1.1.1.1.1.1.1.4.1.1.,.,.1.4.r.i.i.i.r.1.1.r.i.p.p.1.i.s.L.;X}.c.L.v.s.",
"7 =.M.M.c.c.B.c.v.c.c.c.c.c.c.c.x.B.,...' C 6.1.' p.L.r.E.M.x.L.B.p.A.p.Y.=.' |..XL.M.c.1.s.s.C 8 r.E.'..X|.'.M.} I k i ,.c.i.c.>.=.v.L.=.=.v.g.i.s.g.g.g.s.s.i.c.c.M.c.s.c.s.v.c.g.s.g.c.c.s.i.c.c.s.s.p.p.s.v.c.M.v.g 2 V } p.c.,X&X|.E.1.g i ..v.'.,X'..X.XY.L.v.p.p.s.p.p.c.c.c.s.s.s.s.s.k.p.L...2 } B.c.c.B.c.s.E.|.Y.L.M.,.-.1.U U A A ' I A { i =.;XU = u g Q =.Q }.Y.s.M.v.M.}.p.} Q ..v.|.i.s.'.Y.-.i.L.,X|.&X&XM.-.B.s.p.1.' g A 1.p.1.r.p.s.s.p.i.i.i.s.s.p.i.s.p.V Q M.;Xv.,.L.s.L.|..XE.s.,.i.B.i.-.r.r.,.r.=.g 8 C Q m 7 =.P.n.D.L.p.s.s.p.i.1.s.c.s.I ' p.:.1.8.-XE.l.p.p.y.r.0.p.@.1...;.s.n.1.=.#XL.D.n.8.p.8.p.-.r.1.i.1.p.,.i.p.-.1.=.V 8 A ,.=.1.-.1.,.-.A =.1.g 7 g A A U r.m.L.v.v./.L.=.r.,XB.' Q } ,...Q Q } ..I V } i.E.Y.}.i.=.1.i.r.r.r.r.1.1.r.i.r.p.1.4.i.c.4.F g A R } =.$.=.r.=.} 1.Q F } ,.>.).3X' Q 1.r.1.=.,...m I Q ..-.p.4.=.g.B.B.C.1.i.4.r.=.r.1.r.p.M.4.] 1.s.E.I $ U l l 7 U E.p.1.r.L.Y.1.^ 1.1.r.r.,.s.p.6.6.i.r.,.1.,.4.r.r.1.1.,.-.r.,.r.p.r.,.-.-.v.p.,.=.1.Q U =.=.-.m...V 7 g } E...7 Q A A U I } Q =.L.1.A ..p.c.p.s.i.,.Q V ,.v.1...,.p.r.r.r.1.r.4.1.1.1.1.r.i.i.i.r.i.i.r.1.1.r.r.1.1.r.i.i.i.,.,.1.1.-.1.p.c.g.i.",
"E v.L.c.x.c.v.c.c.c.c.c.c.c.c.c.B.c...' Q l | *.B.x.p.Y.'.,.p.p.r.6.6.6.L.U I T.T.r.1.,.=...C u ' Y..X}.E.v.s.p...Q U U s.c.1.1...} s.B.-.} p.M.c.g.s.s.p.s.v.B.g.s.c.s.s.c.s.v.g.s.p.p.s.s.p.i.c.c.s.s.s.s.c.v.i.s.v.V 7 m } p.|.,XY.-.Q Q C A M.3X;Xi.' s.E.M.L.v.p.p.s.s.s.s.s.s.s.s.s.s.s.s.p.c...g ,.v.r.i.}.|.E.M.,.A g g g M.;X,X|.}.I u I m ..I } ..8 u A U A ..L.p.1.E.v.M.&X&X.X}.'.r.E.G.s.M.r.=.} } =.Y.&X,X;Xc.1.i.p.1.1.} i Q Y.i.r.i.p.s.s.p.p.p.c.c.p.i.i.s.,.i ...X3X.X,X,X&X;X3X.XY.i.,.c.s...r.s.r.=.} m u A g { / i { U.n.s.l.s.s.0.r.8.=.s.l.r.B Q B.~.=X,X.XD.r.1.0.0.0.0.=...s.l.s.s.u.;.s.n.K p.X.r.0.r.v.B.c.=.i.p.r.s.i.p.E.=.A -.g g A A Q -.1.r.,.' ' A g V g Q r.1.c.L.} I c.i.=.p.M.M.} g u i F V g ..,.>.' m Q p.L...1.p...r.1.r.r.i.r.r.r.i.i.r.1.i.s.-.I u 8 m Q L.E.r.} } =...1.=...=...i.s.c.s.A ..p.s.v.i.,.1.E.E.....=.$.1.1.c.r.p.Y.r.,.v.r.s.p.=.$.M.g.A u 7 g i 8 u l C l g Q T.c.s.p.c.M.-.Q 1.1.r.p.6.p.r.1.1.r.6.1.r.s.s.s.p.p.i.1.=.1.1.1.4.r.s.s.r.=.' ..,.>.V U i.m.E.s.V U 4.r.r...=.i.-.Q 7 7 g i i u Q ..} r.M.1.r.4.} ....Q I Q Q ' =.,.>.1.1.1.r.1.1.4.1.4.p.r.i.i.i.r.i.i.r.1.4.4.1.,.1.4.4.i.1.1.1.>...=.r.s.r.=.",
"r.'.Y.p.s.x.x.c.c.c.c.c.c.c.v.v.x.x.=.} A P ,.B.M.r.6.c.*.' E.E.E.M.B..X|.*.p.x.s.=.*.E ^ Q i U }.|.B.s.c.s.s.c.4.i.v.r.c.s.s.c.p.p.i.1.=.r.v.c.s.s.s.c.c.p.s.h.c.s.c.s.s.g.p.s.g.c.g.s.p.p.s.s.c.s.s.s.s.c.v.v.s.s.s.m 2 V 1.E.c.=.U g U s.p.r.B..XP.' g V 1.v.B.c.p.s.c.s.s.s.s.s.s.s.s.s.s.p.p.s.=.m } r.c.E.v.1.-.r.=.} ..Q ..}.#X&XY.B.A ..;.B.,XB.,.I i Q g g =.E.i.g -.=.A =.&XL.-.-...g ....p.B.} m m A =.s.E.B.v.,.p.i.c.c.,.Q m =.}.i.r.i.y.p.p.p.s.s.s.s.p.p.p.c.=.g B.,X;XY.'.B.L.B.' } s.E.E.E.s.' ,.v.' 9 7 u g g I 0.l.1.0.d.0.0.0.r.0.8.y.X./ s.s.r.T ;.].-X&X].n.p.8.r.s.s.r.0.r.i.c.s.=.s.c.c.n...m G.z i m I i.v.L.Y.v.i.1.}.E.E.=.7 g A 2 I =.A A ,...r.i.=.A ..p.' U s.Y.1.c.L.Q I L.s.1.1.=...U 7 A I I d F ,.A i A V =.'.Y.A =.i.$.1.r.i.i.i.i.r.r.i.i.r.1.r.s.1.} V u g V p.1.V i V ..g.} Q =.i.,.v.M.p.m 7 ' ,.$.1.i.s.M.s.=.Q r...g R ' i.s.B.v.-...p.,.=.Q V u Q Q u m u y * g Q g E } *.r.T.M.B.c.v.c.,.^ 1.1.6.r.1.p.r.,.,.6.r.r.p.i.i.r.i.s.s.r.=.1.r.r.1.,.i.,.Q ,.' 4.E.oXC.Y.&XE.c.V 8 U i.i.c.i.g m A 1...m i m m 7 V r.s.r.p.p.1...Q ' Q $...A U ..,.,.,.r.r.1.w.1.1.r.,.,.r.1.r.r.4.1.r.r.r.i.r.r.1.1.r.r.r.r.1.1.1.-...=.1.r.=.R ",
"s.|.L.i.c.s.p.c.x.c.c.c.c.c.v.c.x.s.-.....s.i.6.v.p.B.s.U 6.'.&Xc.v.A.v.Q d p.B.x.6.1...^ U Q Y.}.L.r.r.M.B.g.i.s.s.i.Q } r.L.L.c.}.M.I A r.B.s.v.s.p.s.s.p.s.v.c.s.c.s.s.c.p.s.g.c.v.c.s.p.g.v.c.s.s.s.c.c.c.c.M.c.p.g * U L.&XQ m V m ..Y.L.}.Y.M.p.,.,.Q r.E.c.s.p.s.s.s.p.s.c.c.s.c.c.c.s.s.l.p.,.' c.}.E.L.m U Q ..p.L.|.|.v.c.s.,.-.Q I p.i.D.c.Q ,.r.Q 7 A i.p.s.V V p.r.r...r.1.m g g ..B.v.s.r.r.1...r.E.}.B.,.-.,.c.c.p.v.' A Q 1.E.v.r.i.y.p.p.p.p.p.r.i.s.s.s.v.' g c.1.1.Q ' ..Q Q Q -.s.c.,.r.v...p.,Xv.I m V I g Q 1.n.n.l.r.=...X.) { i.p.{ { G.E.P.n.{.5X-XG.r.p.0.r.s.d.p.0.0.1.n.G.l.0.~.~.L.s.E.P.c.c g C 7 m Q s.L.1.v.' g } V 8 7 g A A i.|.1.' -...} ' ' Q i.s.' p.M.r.r.,.s.R F L.g.c.=.m % g A >.M.L.Q Q i.I U ,...s.E.p.I B.r.1.1.c.p.i.i.i.r.r.r.r.r.i.1.i.s.c.i.} ' r.B.4.Q Q } =.>.I g I ..r.B.p.r.Q 7 s Q ..-.,.1.=.' U g ..i.=.' I I } r.$.p.s.-.A g g m 7 g m g g -.r.,.Q 7 A c..X;X|.`.c.x.i.c.M.i...r.r.r.r.r.p.r.,.,.6.r.r.p.,.,.1.r.p.s.r.=.,.r.i.r.i.c.i.} A U c..X|.B.E.'.r.I 7 V g m Q g.,.U Q =.-.p.1.r.c.,.I ' c.v.r.1.1.,...-.' I ..,...~ ..,.-.>.>.,.,.1.,.1.r.,.-.,.1.1.1.,.1.r.r.4.i.i.r.4.r.i.p.i.1.1.1.4.1.>.,.r.-.Q g ",
"s.|.L.p.c.s.s.v.x.c.c.c.c.c.c.x.x.i.*.Q U *.Q P v.s.A.|.A.}.}.OXE.&XE.1...I =.'.B.1.*.=.I g ..}.M.v.s.p.c.c.s.p.s.,.' U 1.B.E.v.p.L.,.g I p.v.i.r.4.r.s.s.s.p.s.g.p.c.s.c.v.s.c.p.s.c.c.s.p.s.c.s.s.s.s.c.c.c.s.c.c.p.g 8 ..'.E.U I m i 1.}.L.}.B.L.s.r.Y.E.}.E.p.p.s.s.s.p.s.s.c.c.s.s.s.c.c.c.s.p.i.,.Y.|.Y.c.-.B.p.p..X&XU.Y...Q r...p.i.i.i.s.p.A 7 ,.E.s.U Q .X'.i.c =.c.L.s.Y.v.I u ' } c.}.'.c.Q -.c.r.L.|.,XM.1.1.i.i.p.c.i.A m U ..c.p.i.p.p.p.p.p.t.y.i.i.p.s.c.v.V 7 7 u u 7 i V 7 m ,.i.Q g 7 ' |.p.p.M.} I I g A I =.p.d.y.y.s.1.I A g I =.) I 1.E.G.B.n.'.&XU.p.8.l.p.r.r.0.1.1.r.1.l.n.c.n.,X&X'..X-Xn.T I S c g } A I ' 8 u 7 g 7 = V V U 1.Q M.v.1...} ..m 7 i ..i...m B.'.s.L.c.M.I m c.,.g.c.1.R A I v.g.i.i.-.=.s Q M.L.}.E.R ' /.4.i.r.p.i.i.i.i.i.i.i.r.r.r.r.p.r.4.1.,.g.E.&X.X'.}.}.v.I u m p.B.M.g.,.r.,.V A ..$.} ' ~ I Q U V =.c.v.r...Q ....m Q } F s i m i g U ..A u ,.c.c.Q u 6.:X&X|.M.p.1.,.,.s.c.s.=.i.s.x.x.c.p.p.1.,.r.r.r.r.1.r.i.i.p.i.1.-.r.r.r.r.r.s.c.p.e k i.E.Y.g.B.B.1.7 7 R I 4.i.Q r.}.c.,...p.B.M.E.=.U ..1.1.r.p.c.B.=...R 1.c.s.c.=.r.s.4.1.>.,.,.1.,.1.r.r.1.1.i.r.1.1.r.p.i.4.r.r.1.1.1.r.i.r.4.1.,.1.r.r.r.r.s...V ",
"c.}.A.p.x.s.x.B.x.c.v.x.s.c.x.p.6.1.1...P A U =.p.B.s..X&X.X&X|.OXE.B.c.Y.v.i.E.L.1.E m u I c.A.p.p.c.p.i.c.c.M.i.w.$...r.r.M.L.i.>.Q } B.).v.i.p.g.v.m.v.c.v.v.c.s.v.c.s.c.p.s.p.s.g.g.s.s.s.g.s.s.s.s.c.s.s.s.c.c.p.g 7 =.E.r.-.1.' m i.J.} A ..v.M.p.M.|.&XD.p.p.s.s.s.s.s.c.c.s.s.p.s.s.c.c.c.p.p.,.p.p.c.E.&Xp.r.|..XB.p...Q ' p.@.Q } ....s.}.p.Q ,.c.s.s.=.A I ..-.&X,Xs.r.s.i.Q } Q Q v.s.-.r.Q ..M.c.v.E.|.i.-.,.s.p.M.M.Q g g i ' v.i.p.p.s.s.p.p.p.p.s.r.i.s.B.B.i 8 A M...Q A g A i.c...g m m Q s.I i...m I ..} =.,.s.c.s.r.8.1.r.1.' ) { ' c K s.B.1.;.:.s.c.r.1.r.s.r.0.y.r.0.r.p.c.r.1.0.d.E.W.{.E.) ' L.c.;.A g p.,.g u 8 A m m U A A ' ,.} g ,.g G E.E.A 8 ..=.-.c.r.Q s.'.E.'..X|.v.,.i.r.L.i.V 1.v.c.'.1.' ,.>.-.} B.2X,X.Xv.} i.B.w.r.p.1.s.p.i.i.p.i.i.i.p.i.r.r.1.,.=.' ....=.1.c.L.'.}.c.I } .X|.c.g.c.c.,.-.i.p.=.' $.,...} I 1.E.-...r.r.i.1.Q g i m ..c.1.1.$.p.Y.'.1.P C U U P -.L..XM.1.Q ' =.1.1.p.s.p...1.p.s.s.x.p.p.r.1.r.i.6.6.r.p.s.s.p.i.r.1.r.4.r.r.,.1.r.1.Q I i.E.E.v.A.B.Q u ' ,...E.)...i.,Xr...v.p.L.Y.i.I } c.c.c.B.L.oXE.} ~ -.|.&X/.c.4.L.E.v.s.r.1.1.i.r.1.r.i.r.r.i.r.1.1.r.i.r.1.r.r.4.1.1.4.4.1.r.4.,.1.r.p.i.r.i.} g ",
"r.A.c.i.s.s.c.c.x.v.v.x.s.x.s.r.-.,.r.p.r...-.r.s..XE.E.Y.Y.'.A.c.,.p.c.p.s.L.&XL.,.I u A M.|.T.i.1.g.c.M.C.c.g.p.p.' m Q } g.Y.Q =.r.M.E.B.r.4.M.Y.E.B.v.M.E.'.v.c.B.v.g.g.i.s.c.s.s.s.g.c.c.c.s.s.c.c.c.s.s.s.v.s.r.m 7 ..Y...' c.'.E.&XE.p.-.} i.v.B.M.E.'.B.p.p.p.s.c.c.c.c.s.s.p.s.s.c.c.c.v.s.i.,.v.v.c.Y.M.I ..M...' c.i.p.c.Y.1.A i i I B..Xv.p.M.Y.1.r.=.A =.E.E.c...m s.s.-.Q p.v.c.M.i.g U A ..L.c.p.|.E.1.-.r.c.B.B.U 3 g A I c.}.v.p.p.p.i.i.i.p.s.s.i.p.c.L.L.7 u p.}.r.' S A 1.c.-.A Q p.1.-.r...-.r.p.p.i.i.p.i.p.l.s.n.c.8.d.P.D.B.r.../ 1.U.n.r.i.s.s.d.s.p.s.r.1.1.p.l.l.s.s.d.8.r.r.s.p.r.v.@.u ) d.K 1.s.{ L.r.I ..A g U i.r.....}.B.r.L.B.1.I B.|.=.s.&X-.-.p.p.v.c.i.c.E.'.}.&X/.i.c.Y.} ..4./.L.I A i.....c.B.B.i.} ' ' c.E.v.r.1.i.r.c.p.i.i.p.p.i.i.s.s.r.1.r.s.i.} ' } ~ U ..i.B.}.&XY.i.i.Q =.E.L.p.m.g.p.p.i.s.m.s.4.v.s.L.v.I 1.i.i.-...R $.i.v.'.B.p.v.E./.E.L.r.1.Q =.=.1.`..X&XB.1.| ..1.6.r.t.p.p...-.6.p.r.i.i.p.6.,.6.i.r.r.4.i.i.i.i.r.r.1.,.,.i.p.i.i.p.r.c.B.;X,X'.c.L.E.~ A 1.1.h.'.i.} c.M.V i.&XE.L.c.:.Q i.E.E.|..X}.Y.>.Q =.E.|.m.i.=.=.E.E.g.s.=.Q ' r.s.r.r.i.r.1.r.r.r.1.1.4.1.,.1.r.r.r.4.r.r.4.i.r.4.1.r.p.i.r.i.' z ",
"..r.6.6.p.s.x.p.c.M.v.s.s.s.p.r.*.1.1.^ A l ..r.M.}.2XOX'.'.A.c.r.c.x.s.i.1.6.M.s.A g C 1.`.L.E.Y.s.c.p.i.s.p.c.p.s.I m v.|./.1.g -.c.p.s.r.Q g A 1.Y.E.L.v.g.p.g.c.B.v.c.v.c.m.v.s.i.p.s.c.c.c.p.s.c.c.c.c.c.c.v.p.r.A i ..B.Q U -.E.;X&Xc.p.p.c.i.-.n.B.'.E.s.p.i.i.p.c.v.c.s.s.s.s.s.c.c.c.c.r.v.c...r.i.i.v.v.Y.r.U Q c.&X.X'..X,XM.M.c.s.E.p.-.V 1.}.&X1.s.r.1.B.&X=.i g A i.M.i.s.p.v.s.s.s.Q p.-.8.i.,.L.,XM.1.1.c.p.s.} = 8 } 1.v.-XE.,.p.p.r.1.1.0.p.s.p.p.v.v.M.v.8 g ,.g g g Q B..X-.i g M.'.r.y.s.c.c.s.v.i.1.v.L.M.E..XW.'..XP.n.s.L.n.} / 0.L.~.c.p.d.l.r.r.d.p.8.l.1.@.:.p.d.s.p.r.r.c.r.p.1.1.s.:.0.P.s.I 1.l.c.P.i.r..Xi.U ....U c.L.r.Q p.Y.'.v.r.i.v.r.Y.v.U Q c.i.s.v.B.M.B.c.Y.'.'.L.v.s.i.i.v.r.r...' s.c.>.c.1.I V i 7 s v.E.B.r.s.r.c.r.p.i.r.i.i.i.i.s.p.i.i.4.r.r.i.J.B.}.C.M.|.&X'.L.L.Y.i.g r.|.i.-.c.i.1.r.r.r.s.i.g.s.1.w.m 8 c.1.,.1.E.E.|.&X'.p.-.1.c.E.p.s.c.c.,.E *.c.E.}.Y.M.s.,.*.=.=.,.r.p.p.p...=.r.s.p.p.r.i.1.-.6.i.r.i.r.i.i.r.4.4.1.,.r.r.r.1.,.r.p.4.i.M.}.E.L.B.L.c.$.r.E.1.m.s.g A Y.p.g v.=.r.c.r.1.} =.=.1.L.'.}.s.' ..=.}.c.' R } ..Y.L.i.s.} g g ..s.p.i.p.r.1.4.i.p.r.1.1.1.1.,.1.r.r.r.r.r.r.i.i.i.r.r.p.s.i.r.) g ",
"} i.>.r.r.B.i.i.x.p.c.6.x.s...] ,.,.| A - u 1.s.s.Y.;X|.T.A.s.p.p.i.1.p.M.r.s.6.E 7 d p.M.p.c.Y.L.>.i.i.r.6.s.r.r.C u P r.&XoX1.P -.p.'.B.6.l g U C ' s.c.Q 2 u V A r.B.s.c.v.c.s.r.i.c.s.s.s.s.s.s.s.c.s.p.p.s.c.c.p.A V B.p...Y..XY.M.-.} ..p.s.c.s.c.Y.E.v.1.=.r.c.v.c.c.v.M.c.c.c.p.s.v.v.s.c.s.i.=.=.p.s.s.L..X;X|..X&XE.B.c.M.B.E.B.B.E.p.Q ..} v.M.} A ,.B.1.B.i.u g V =.,.-.s.p.B.s.U =.=...1...s.c.p.v.M.} i.v.c.r.v.V 2 I c.c.}.E.s.s.r.r.0.y.u.u.s.d.p.v.c.s.B.I = B i.=.Q Q Y.,X,X'.Q 1.{.E.M.r.p.c.r.,.i.p.r.s.=.c.3X.X|.E.}.~.E.}.}.c.c.M.|.|.E.p.i.i.i.i.i.y.p.s.s.p.s.c.s.r.r.s.s.p.s.p.r.i.i.1.i.B.}.'.M.E.v.8.;.A ,.E.0.p :.{ ' s.*.O.,.=.=.r.,.i.B.m.p.} g R 4.Y.g.B.B.g.i.v.v.B.m.M.c.s.B.E.Y.L.v.E.-.} E.-.p.&X|.c.=.-...-.Q ' p.p.r.p.r.i.r.i.r.r.r.i.p.p.p.p.i.r.1.p.4.).'.;X.X;X;XB.r.......v.B.E.l.-.,.p.,.r.i.-...,.r.-.Q g A 8 A ..,.-.c.'.Y.L.L.p.s.1.i.i.,.,.i.p.i.i.1.}.3X|.'.L.i.p.1.=.=.,.4.i.i.r.,.-.1.i.i.r.r.r.4.,.,.1.r.r.r.r.r.i.r.4.i.r.=.,.i.r.,.r.p.r.1.r.s.,.r.h.,.w.c.>.>.m.'.Y.c.B.E.L.' l *.,.s.v.p...^ r.1.I | ..p.r.4.4.=.M.s.Q e i Q '.i.Q s.e V g 2 ' r.1.p.1.1.i.i.>.=.r.r.4.i.1.4.g.s.i.p.1.r.i.4.1.p.v.,.} =.:.q g ",
"} 1.r.v.v.i.1.M.s.x.r.1.6.E ..c.6.,.} I m A 6.x.A.T.c.c.c.p.s.1.1.s.c.6.c.s.v.=.g *.r.p.x.M.L.L.x.p.=...p.r.p.r.^ V g V s.T.`.B.A =.A..Xp.' P | s.U P A g i 7 2 u 2 F i.c.p.s.v.s.s.s.s.p.p.s.s.s.s.s.c.s.p.p.s.i.c.=.7 Q ~.p.' B.Q V r.1.=.,.r.M.v.c.v.L.B.p.1.p.c.v.c.s.s.s.s.c.s.s.s.c.v.c.s.Y.p.1.1.i.s.p.M.B.Y.Y.M.c.s.p.p.c.c.1.=.,.r.r.I V M.-.r.B.} g ,.c.v.B...m V A s.L.M.B.r.1.v.-.s.i.g.g.$.1.r.i.s.,.} p.s.s.,.A 7 V c.L.L.M.s.v.B.s.p.r.y.p.p.s.d.p.i.s.M.B.g * } }.;X}.B.|.|.|.B.1.E.,XB.s.v.Y.M.M.r.i.i.r.p...,.M.i.Y.M.B.'.'.Y.} 1.|.5X5XE.v.r.p.i.i.i.i.p.p.p.s.i.i.s.s.p.p.c.p.i.p.i.r.i.i.1.1.r.v.Y.i.=.Q ..p.:...' T ' B.+Xr.Q Q =.>.' A ,.B.'.;X.X-.g m U >.'.E.'.B.p.c.B.r.v.c.s.i.c.E.}.}.'.'.&X'.E.}.C.E.&XE.M.v.L.p.p.r.1.c.c.r.r.i.s.i.r.i.i.i.4.,.,.1.p.1.p.r.4.p.1.r.C.Y.L.c.-.=.r.i.K ' s.~.p.=.c.i.=.r.v.p.=...} ' m m C A ' } M.p.Y.'.L.M.M.p.i.r.1.-.=.=.1.p.c.Y.L.;X,XE.Y.M.i.1.1.1.1.1.r.i.p.p.1.>.1.i.p.i.r.i.i.i.4.4.r.r.r.,.1.i.p.i.p.i.-.,.r.r.4.p.s.i.4.-.=.} %.>.>.1...V m.}.c.i.L.'.'.`.r.| r.6.c.B.s.-.U L.T...-.....>.-.=.=.1.U g u P ..c.Q b ' i m m I ..=.-.1.,.1.>.1.r.i.p.i.1.,.s.4.=.1.r.,.r.i.r.r.s.v.i.I g I Q ] y.",
"%.i.s.1.p.s.r.r.r.s.! ' 1.E *.=.Q ' | Q ' ^ s.L.s.c.6...,.c.M.c.s.c.M.p.c.1.p.=.*.}.'.c.v.c.c.L.p.=.P } g.1.,.$.P R C g x.s.*.E C ,.|.|.*.Q 1.c.s.r...l y g V E } A g I 1.M.v.r.i.s.c.p.i.p.p.i.p.p.s.s.s.p.p.c.c.v.A i ..c.v.c.Q A U s.p.i.v.M.'.E.Y.E.L.s.i.v.v.v.c.s.s.s.s.p.c.p.p.s.v.v.c.s.c.p.s.s.c.c.s.L.Y.c.r.i.p.i.i.p.v.M...Q Y.E.r.U ' E.-.p.;Xr.A Q ,.i.v.r.s.} I '.|.0.i.M.i.,.} p.i.v.s.4.c.c.M.c.v.>.E.-.* u e u r..XE.E.v.c.c.v.p.r.r.y.u.u.u.s.c.r.p.v.r.7 u p.,X&Xc.c.}.E.M...-.Y.|.s.s.E.;X'.'.i.p.r.p.v.v.M.U Q L.L.s.v.p...g -.}..XE.i.r.s.i.i.i.i.i.y.y.y.s.r.8.p.s.s.p.s.i.r.p.y.r.i.p.i.c.r.,.,.' A U n.n.&X0.g -.5XB.A r.M.r.1.-.V Q v.'.'.E.}...g ,.1.r.&X'.v.i.Y.|.c.r.c.s.i.r.i.M.B.c.v.E.Y.L.m.=.1.....' -.,.-...p.s.p.i.p.r.r.y.-.p.4.1.i.c.c.s.p.1.r.s.v.i.,.c.-.r.>.$.$.4.r.-.-.p.g 7 U n.B.p.s.r.1.p.c.1.=.,.1.m 7 A } -.i.s.i.,.L.E.L.M.v.v.s.r.-...=.,.r.c.B.E.'.&X'.B.M.p.,.=.1.i.4.1.r.i.p.p.1.-.,.r.i.i.r.i.i.i.r.4.r.r.1.r.1.r.i.i.p.p.r.,.4.4.r.p.i.1.1.-.-.>.,.-.i.r.I A w.r.} ' Q Q >.,.*.Q ' ..A.T.-...=.s.Q | i.U ' A Q U } =.A m g Q ' } V g g g m F L.E.r.1.r.r.,.1.1.r.i.4.1.r.1.1.r.=.1...m V V I ..$.Q m u g A i s.U.",
"' c.m.r.p.m.1.R m A g U *.^ 1.| Q Q ,.1.B.c.A.6.c.x.x.A Q L.s.s.v.x.x.s.x.r.c.B.B.E.c.r.L.B.A.E.s.6.x.x.^ l m u y d l R C.>.m d A 2.,XE.' Q x.p.1.A.M.,.=.6.r.M.-.1.' A Q ,.c.v.r.s.s.p.s.s.p.i.p.s.s.p.p.p.s.v.v.r.$ m } =.i.A m M.}.Y.i...=.v.L.r...r.M.s.r.s.s.s.p.p.p.c.c.s.c.p.p.c.v.c.c.v.i.c.M.p.p.c.v.L.Y.s.r.i.p.p.c.v.i.' A I p.v.i.U B.'.8.c.r.m ..Y.p.i.E..X,Xs...B.1.Q r.c.i.i.i.s.i.v.i.p.v.r.i.r.B...' g 7 V i Q Y.Y.M.p.M.E.p.c.r.8.0.p.d.s.u.s.c.c.c.s.} * m ,.B.-.i @.].Y.c.} r.E.}.Y.G.E.}.P.E.s.Y.B.M.c.M.v.i.=.i.i.i.r...i A c.}.M.i.r.i.i.i.i.i.i.i.i.i.i.s.r.1.i.p.p.i.i.p.r.p.s.p.s.c.p.r.p.r.r.-.....~.P.n.=.y.p.@.c X..X-.r.E.>...'./.}.L.s.C.=.I i.p.|.E.B.c.s.B.B.s.r.i.i.s.s.r.r.1.1.r.c.1.4.=.g g Q ' A V g A ' i.1.i.-...' ..s.,.i.r.4.4.4.1.4.r...R ,.=.-.1.1.r.4.>.4.>.,.i.,.i.M.g u i..XB.:.1.1.i.c.i...} ..Q V -.Q ,.}.Y.M.-.1.E.E.M.s.r.s.r.=.....=.,.r.s.v.v.m.c.-.-.i.1.-.%.1.r.,.-.1.i.i.r.,.-.>.1.r.i.i.1.r.r.4.1.4.r.r.i.4.r.p.s.p.i.1.1.4.1.r.i.1.=.-.1.i.p.1.=.1.=.A U U m g m s 7 g m d U M.E.M.i...l U 1.} ..s.*.m I Q U 4.r.m g A m U A i u k g i >.'.}.s.i.r.-.=.i.,.1.1.=.,.i.r.4.i.1...A u s m V A g 7 u V V u ) E.E.",
"1.m.c.M.r.6...4.1.g d I ' =.L.!.p...1...=.r.B.,.L.M.s.m U B.p.c.s.c.s.i.1.s.c.M.v.r...Q i.M.E.v.s.,.1.C 7 ' =.| m g E s.c.U i U V *..XL...' c.r.M.s.x.c.x.L.L.1...,...=.=.Q ..v.d.v.c.s.v.c.y.s.p.p.p.i.i.p.c.v.B.m X ..A V U u ' E.|.L.i.U U -.U g g } p.i.r.c.p.s.s.p.p.s.s.s.c.s.s.c.c.s.h.M.M.i.i.1.....r.L.c.p.p.s.p.s.n.M.8 7 u I v.r.' -.3Xc.m } ..I M.}.'.s.'.E.B.v.B.c.V Q E.B.s.s.v.1.s.E.L.E.}.E.E.E.,X..7 7 A A U r.4.w.c.c.'.E.s.v.c.p.r.s.l.s.s.s.p.v.v.c.Q = i A U g = ..E.v.r.} p.'.'.E.M.c.d.p.c.s.|..XE.i.=.Q c.p.,.1.p.=.=.Q ' L.E.c.r.p.i.1.i.p.p.p.p.p.y.y.p.i.i.p.p.i.r.i.s.p.p.s.p.p.s.p.-.s.s.c.s.r...M.W.r.=.l.y.=.c..X'....X3XE.&XM.=.....,.p.1...-.m.'.i.m.c.c.B.1.>.} r.s.s.p.i.s.r.s.4.1.-.4.r.R 7 ..p.,.' } M.B.s.i.c.,...I I 1.l.-.r.p.p.r.r.r.1.A A ' I -.i.1.4.w.r.m.i.-.1.1.c.-.m A L..Xv.8.r...Q Q Q Q } } Q r.1.} c.s.,.i.' B.'.M.p.r.r.s.p.-.1.r.1.r.s.v.c.1.=.U k Q 4.r.1.-.4.r.,.>.r.i.r.1.1.1.1.1.r.r.i.4.r.r.1.1.r.i.i.4.,.r.c.c.p.1.%.1.1.1.1.4.,.=.-.1.i.1...} ~ A m A g g m g s m I P ' x.|.`.p.,.| g | 6.c.s.6.c.p.1.Y.s.,.Q g V A u ~ Q V A i.-.Q L.g.M.s.i.r...4.1.=.,.r.1.,.1.>.4.4.i.' Q r.1.r.s.v.C.v...V A Q B.L.u.",
"i.c.i.M.,.=.} c.,.d A U Q 1.v.B.1.I P d C *.v.i.' ,.| U Q ' *.s.s.p.p.p.r.c.s.v.s.' H m Q ,.Y.s.=.U U P ,.A.P u U U =.c.1.-.i.v.-.,.L.v...Q p.B.L.p.=.1.s.i.| d g A I 1.c.,.1.c.c.M.c.s.c.p.r.s.p.s.p.i.i.p.c.v.=.$ g h.I ' Q ' 1.s.L.Y.M.1.,.} g 7 g ..c.c.p.v.i.p.s.s.s.s.c.s.c.c.c.c.s.s.s.c.i.Q ..,.A u Q B.c.i.p.i.-.} A 2 2 i V -.'.M.=.L.v.i.' ,.c.r.}.&Xs.Q s.M.} ..p.....B.3XL.s.c.B.r.B.}.'.&X,X;XY.s.} g g F V A i.p.A ..=.=.i...i.M.E.M.s.s.s.p.s.l.s.c.p.v.} = V ' p...i ,.|.E.i.Q ,.E.M.s.r.r.i.1.i.r.M.Y.Y.M.c.r.s.p.1.r.r.I Q Q } p.c.s.1.r.r.p.p.p.p.p.p.p.p.p.i.i.p.s.s.y.p.s.c.p.p.s.i.i.p.i.p.s.i.s.p.-.U 0.n.n.P.L.B.E.3X].Y.,X&Xr.>.B...-.1.i.v.g.c.1.} c.'.p.M.1.i.L.-.U } c.B.p.1.i.v.i.s.r.1.1.1.p.1.A ,.c.v.B.L..X|.E.v.M.s.s.r.I g A I I Q $.i.i...U V 1.-.' -.1.s.1.s.4.4.1.,.i.r.,.g i A c.B.d.:.) A u g U ' =.c.Y...A V ..} g * Q E.E.M.c.M.M.v.s.p.c.s.i.i.c.v.s.} U V V ..g.i.r.1.i.p.i.i.i.i.4.i.i.i.r.r.r.i.i.r.r.r.1.,.1.r.r.r.,.1.r.r.r.4.=.-.1.,.,.4.1.,.1.4.i.r.-.-.Q u u r s I Q V A ..r.1.E.'.i.,.s.x.Q ^ '.c.L.B.6.r.2.c.E.>.V u A ' ....i.g.C.m.'.r.-.1.,.Y.v.1.p.4.p.1.=.>.r.4.1.1.,.1.>.p.' $.E.L.E.'.E.E.E.L.C.E.|.E.8./ ",
"%.h.c.c.=.' I ..l E Y.A.x.p.1.1.V i m E s.M.,.' ..s.p.k.s.} } 6.-...1.1.c.v.M.V.} g d V =.p.|.Y.1.^ ,.`.,X.X,.p.A.B.T.c.i.B.`.s.E.M.v.s.=.Q ,.A.M.M.,.r.B.1.A u A r.p.c.p.,.1...-.c.c.s.v.s.r.p.p.p.y.i.p.s.c.s.,.i g i m B.L.x.v.L.Y.v.v.r.r...Q V m =.Y.E.s.1.p.s.c.c.c.v.v.v.c.c.s.s.c.c.s.i.} g U Q u g ,.L.i.:.r.c.s.i.=.A A m c.5XY.M.,.I s.E.Y.B.'.'.-X}.m g s.|...g u 7 M.&XB.I =.,X;Xr.|.|.}.&X|.v.U A =.,.F V A } r.v.B.E.r...-.,.B.}.E.v.p.p.s.y.y.d.c.v.r.c.} 1 ..B.}.i.A :.Y.M.' m 1.'.v.p.1.r.i.r.i.r.,.p.c.U.|.;XE.i.r.=.' V g m ..i.v.L.p.p.i.p.p.p.p.p.p.p.p.s.p.p.p.s.p.p.s.c.p.i.y.s.i.i.i.i.i.p.i.v.c.1.T @.r.n.G.1.l.'.c.K s.B.Q ..Q =.,...v.M.E.L.E.E.c.|.3Xc.r.i.c.,...} r.m.c.w.>.1.s.r.r.r.p.i.r.r.i.r.E.Y.E.'.v.p.d.Y.|.,X;X;X,Xs.m m k e u A Q I k s R >.} Q Q ..i.r.4.1.1.4.,.1.r.=.m 7 A E.B./ g 7 u m ..p.r.r.v.L.=.m 1.M.i.' Q ,.'.E.E.Y.Y.M.r.1.i.r.1.-.1.r.1.=.I b V Q 1.s.1.>.r.p.s.s.p.i.r.w.i.i.r.1.r.p.p.i.r.r.4.1.1.4.r.1.i.1.,.-.>.r.r.>...,.1.,.r.i.i.i.i.r.s.r...I d m i ' ..Q ..v.B.r.B.E.L.s.c.s.r.I ..c.*.i.} M.;Xc.c.' r g V A Q B.L.E.'.2XoXM.Q I m ,.'.m.-.r.r.,.r.1.,.1.1.,.1.p.p...' V Q v.B.E.L.C.B.i.>.s.Y.Y.D.:.=.",
"w.B.L.1.A 7 l =.s.B..XE.L.,.E ..* A 1.c.L.,.l Q x.x.p.p.A.s.Q ' Q Q -.m ] -.1.Q g 7 g U Y.&X3XB.^ g ' }.'.'.`.&X,X`.&X`.}.E.|.M.x.i.1.r.s.6.p.T.T.v.s.E.`.B.p.Q ..L.E.'.|..X|.r.I i.M.v.B.M.p.p.i.y.p.p.s.c.s.p.-.A g ' B.s.i.r.c.Y.p...-.U ' s.....,.s.D.B.v.M.v.v.v.c.c.v.v.c.s.c.s.s.c.v.p.,...V A u 7 s.3X}.p.0.s.s.....i.s.p.E.|.E...-...v..X,X,X#X,X,X.X=.u Q v.L.A 7 u I L.r.8 7 r.5Xi.i } Q ..s.-.A 7 =.;XL.p.'.s.Y.oX,X;X&XY.v.E.;Xp.-.c.i.1.i.s.p.r.p.i.B.p.c...7 r.'.E.s.-.B.B.=.V U ..M.1.p.i.i.p.p.r.p.1.s.s.v.M.E.Q U E.M.Q A A =.B.Y.L.v.=.r.p.r.y.i.i.i.i.y.p.p.c.s.p.i.i.y.s.d.i.1.r.p.y.i.s.s.1.i.i.s.s.c.-.r.p.0.r.8.E.L.M g ' c.U } =.B.1.=.p.m.E.Y.B.c.i.B.B.p.1.i.c.-.m.L.c.1...>.r.1.i.i.r.1.i.i.s.p.r.B.s.Y.}.'.p.1...} M.;X&XM.B.r.A Q A A Q ..Q V ~ c.,.k 7 g V 1.r.s.4.4.1.s.p.i.i.' i z Q s.Q q u g g ' s.p.,.i.s.,.V I r.1.p.=.1.' c.v.E.D.v.s.,.s.i.-.=.,.r.r.=...A 7 g I } =...=.p.p.s.p.r.1.1.i.r.1.-.=.1.s.s.i.i.i.r.r.r.i.i.r.1.4.r.r.r.p.r...} ,.1.,.r.p.i.r.p.-.r.} i u g R v.4.Q ..L.Y.-.Q B.Y.L.x.c.r.-.C 1.`.s.A.,.i.=.Q ,.} V m m U R 4.s.E./.}.|.B.1.Q I 1.v.B.s.1.1.>.1.r.1.1.i.1.1.c.,.V 7 m -.v.c.s.1.-.1.i.1.1.4.-.,.@.p.",
"h.E.C.$.V u } &XE.'.L.....' r.*.g l ^ '.i.' ' s.p.=.c.p.r.' ..A A n.c.U u g C q 7 c A s.*X*XP.@.g C O.c.P.v.p..XE..X&Xc.1.} ..r.|.,.,.s.c.A.p...B.B.|.L.s.E.Y.1.v.|.;X3X&X&XY.....} r.B.M.i.,.s.i.i.c.c.c.c.v.s.' $ V Y.M.A Q i.c.s.Q g i i r.v.' i.i.v.v.M.r.s.v.c.c.c.c.c.M.v.s.v.p.v.s.s.,.-.' g m Q c.;X.Xp.i.p.v.i.} } r.s.c.E.}.,.=.1.M.3X}.v...B.-.i.}.m q } M.i.A m A S U m i A c.L.I * ' I ..Q i i m =.r.Q } M.;XoXoXY.C.m.m.,X}.s.4.,.i.r.4.r.i.i.p.s.i.c.s.,.m m E.E.M.s.c.|.p.Q A U I -.p.r.i.,.s.r.i.s.s.i.i.c.B.B.U } L.v.=.-.=.B.L.,.'.M.,.r.i.i.r.i.i.i.i.s.s.p.p.i.r.i.p.s.s.p.p.i.i.s.d.s.s.p.s.p.p.p.s.c.r.{ 1.1.1.c.L.Q c g Q i...' L.p.$.r.|..X|.L.p.1.1.r.,.-.,.r.p.s.g.c.p.p.4.$...>.1.=.R Q ..-.....-.r.1.v.E.D.i.,.U u g s.s.1.A m ..c.=.s.Y.v.v.L.%.g u 7 V ' c.Y.1.s.4.>.i.4.4.v.-.A Q c.c.} 9 < m m m ..c.L.p...U i 7 m 1.c.=.r.s.Q c.c.s.r.,.1.1.r.r.=...=...} ' m s g U A A m V s...m ,.Y.1.U Q i.r.,.=.1.p.i.1.i.p.i.i.r.r.i.s.r.1.,.1.r.i.i.1.....>.,.>.r.i.r.r.,.=.=.I y - ^ c.L.c.x.T.B.i.Q ..Y.T.M.x.L.`.] C L.'.|.E.L.'.s.m ,.Y.~ U =.,.1.c.}.;X&X|.E.C.L.r.,.s.v.s.4.,.1.4.1.r.r.,.c.' k A u m I ' i.Y.M.=.=.} -.r.,.1.1...-.,.1.",
"h.L.,.s 7 ..Y.;XE.x.,...^ ,.,.c.} 7 6.=.1.B.s.M.r.s.x.B.`.2.p.i.-.s.r.2.I A m q Q T K p..XP.:.i y m k.|.M.r.p.v.B.P.t.......2.O.s.=.x.v.M.B.| g E.`.c.A ..A.c.T.E.M.'.&XL.p.U m 1.' I 1.L.c.i.,.B.c.i.p.s.B.B.M.} m 1.i.m 7 } B.p.,.I Q ,.=.p...B.M.p.r.c.p.i.1.r.r.c.v.c.c.p.c.p.p.c.i.M.s.-.u g g ' .X3XY.,.r.r.1.i.p.i.c.M.v.,.r.E.v.,.B.&XM.=.i 7 1...U ..7 8 p.L.,.Q -.i.i.:...Q V I Q m g -.>.r.} I V g ..U G 1.Y.}.L.M.s.g.c.L.'.i...,.c.p.r.r.r.i.p.p.p.s.p.r...A S E.'.i.U V M.c.' ..1.Y.'.Y.1.i.p.i.c.i.i.p.i.p.s.s.s.c.s.c...-.E.Y.p.-...}.L.1.i.i.i.r.i.i.i.i.p.p.i.s.p.i.y.p.s.p.i.p.i.i.p.s.s.p.p.p.i.i.p.p.s.1.' @.n.y.:.S g i m A A u U M.-.1.,X6X&XL.i.,.1.1.>.1.1.1.i.p.i.i.p.=.>.w.4.,.-.' g I Q ' Q I Q Q A A } c.M.,.A u m } Q U A 7 ,..Xp.E.'.L.i.c.i.U I Q =.1.1.s.M.p.r.4.r.r.1.4.i.$.R L.p.' A / ) r.=.i.|.M.I i V I m g V Y.B.p.B.i.E.}.D.r...} ..,.r.r.1.=.=.} A g i A G ..=.=.I g ..-.7 A ' m i -.M.p.i.r.i.p.4.r.c.r.4.r.i.r.i.i.1.1.,.1.r.r.i.i.-.1.4.1.4.i.r.4.i.6.r.6.V d U 6.s.c.6.=.s.c.x.*.1.L.v.A.`.|.A.| ..L.v.c.B.E.E.i.U ,.v.-.i.s.i.i.i.c.}..XB.i.r.,.U I v.L.1.=.,.,.4.r.r.s g I g g g m F ..r.i.p.i.,.} 1.r.r.1.,.r.i.1.0.r.",
"1.1.Q Q } L.L.p.*.C ^ Q 1.p.p.T.' ..c.r.|..X|.`.'.`.i.i.x.Q s.v...{ K I 0 I { ' B.s.-.t.2.H h q i | M.P.s.1.t.p.v.P.r.B.B.s.c.Q | -.L.x.p.s.A 7 B.L.6.U x.p.I '.&Xr.B.r...} g g s.c...=.,.-.v.s.r.s.s.B.c.v.i.i.=.m r.r.A g ' c.B.E.B.c.-.U ,.1.L.1.p.B.E.} -.-.U } -.} =.i.p.M.s.r.1.B.-.Q m * A L.'..XE.v.,.i.p.r.i.i.r.i.s.p.=.Q c.B.p.r.p.} C 7 A Q ....V 7 I '.'.B.r.Q m K s.i.1...=.=.U m A ..1.$.>.} m ' r.~ E..Xv.c.Y.c.B.c.B.M.r...4.p.i.i.i.p.s.p.i.i.s.s.r.' Q -.v...p.r...v.,.) v.L.s.' ,.p.1.p.1.1.i.i.i.p.p.i.r.r.M.Y.E.Y.E.,X3X-X|.E.,XG.1.p.i.r.y.p.p.p.p.p.p.i.p.p.y.p.p.p.p.i.s.p.p.s.s.s.p.p.s.i.i.y.p.s.r...{ l.r.' q g m u g U g 7 ' >.g.Y.'.L.g.1.,.4.i.i.r.r.i.i.i.r.1.4.$...r.v.i.,...U ` ....I i i g u 7 m ..-...} ..r.M.1.V 7 i ,.i.Q E.E.L.Y.'.B.r.B.E.M.,.-.1.i.c.r.1.s.r.4.i.1...U ' u 7 U d.:.p.@.i.,.g 7 m g I r.Q U s.} 1.}.s.'.E.L.c.r.=...=.1.1.1...' U i 7 A A U Q =.r.$.Q ~ } g g 7 g I L.L.r.i.1.=.r.s.i.,.-.,.r.r.1.1.1.-.r.1.r.r.i.s.s.i.r.r.1.r.i.4.1.i.1.r.x.P U s.x.1...' ..i.c.v.r.c..XB.E.'.Y.1.^ ,.'.v.6.p.p...E ^ ..} ' c.Y.E.E.s.p.E.E.,.} 4...k ~ E.'.4.,.r.1.i.-.s.V i u i g V ..Q =.p.,.Q A m A r.r.r.p.,.>.=.1.r.r.",
">.} } M.C.|.v.=.m 2 m A s.L.E.].|.,XB.&X:Xc.B.M.L.s.6.s.1.Q s.r.=.2.{ B 0 T 0.s.E.s.@.s.0.B h u g p.E.M.=.' ,.-...2.=.B.1.' r.r.r.x.'.c.x.c.m 7 i.L.c.p.'.1.A }.B.Q i...Q U g g c.}.Y.p.A 8 Q v.r.s.v.B.c.p.r.1.A * m ' Q g ' B.&X,X}.Y.p...c.B.i.} r.v.p.u Q ..1.v...g g Q ..=.' I V 1.i 8 i m I '.E.'.v.i.r.s.r.r.p.p.i.r.i.s.Q g ' ' -.s.i...V s.v.Q Q A i g U E.Y.L.v.r.} } p.s.c.p.r.i.i.,.=.g.v.i.g.p.-.g.C.B.E.s.v.s.r.E.L.M.$...a.1.i.1.i.i.p.s.s.p.i.p.d.p.-.I Q =.-.Q g ..s.B.=.Q =.Q u 7 ' B.s.v.l.i.p.i.i.s.p.r.1.1.p.s.B.;X,X.X;X&X,X}.|.c.:.i.i.p.s.s.s.s.s.s.p.i.i.i.y.p.p.p.p.p.c.s.p.s.s.s.p.p.p.i.i.y.i.i.i.:.:.:.1.I m K :.{ i.B.v.1.i.,.s.B.B.M.c.i.r.1.1.1.i.i.p.i.r.4.4.r...V ' B.B.s.p.r.p...I A V V g 7 I -.B.=.u A ,.i...B.r.I A A u U /.M.L.Y.s.r.m.E.4.I I 1.c.s.p.r.4.s.r.p.p.r.=.g 7 m Q ,.c.p.s.Q -.E.s.Q ' i.E.|.M.s.=.I ' c.Y.|.p.L.E.B.r.=.-.,.r.=.U i 7 u I s.}.}.c.1.c.E./.B.' m V A V Q B.s.,.i.i.1.4.r.r.i.,.1.i.i.1.1.1.-.r.4.r.r.i.s.s.r.,.1.1.4.i.r.1.r.6.6.B.} } B.s.r...=.s.L.B.s.i.E.,XE.'.c.i.=.| ..r.i.p.r.| g V 1.g.v.L..X'.).&X.XoX.XM.Q Q r.R 7 =.B.L.s.c.s.,.-...U m g m V m i.r.Q A F F U Q I >.M.i.1.4.4.s.r.1.1.1.",
"=.s.m..X}.,XL.1.P E Q v.L.].V.v.E.' ' '.v.c.v.c.s.1.x.B.s.6.c.i.c.V.t.C C U 2.U.E.=.I r.v.=.{ T } =.r.1.m g ' m } :.r.l.K g { B.*.=.s.r.M.c.d = *.B.=.A E Q 1.L.r.A ,.1.Q m V ' n.-.-.M.c.A g 1.v.p.M.B.L.s.1.Q * g A Q U u Q B.;X}.B.'..X}.E.c.i.p.B.L.s.,.L.v.'.].} i u i A g m i g g 7 u Q V ..M.p.E.c.r.r.i.r.r.i.p.s.r.1.1...=.}...V 1...7 ..|.' A i.g g A m I I r.v.v.s.i.i.p.i.w.1.p.s.1...c.E.v.i.i.p.M.p.g.B.1.s.i.-.m.g.m.m m 4.$.s.i.i.i.p.i.r.r.i.c.M.1...Q A g ' c.p.V m } B.E...g V c.r.i.p.p.r.r.p.p.p.s.p.1.8.i.r.i.r.B.B.c.M.s.i.r.L.Y.i.r.1.s.s.s.s.s.s.s.p.y.p.p.p.p.p.p.y.y.s.p.i.p.p.i.i.i.i.r.r.i.1.1.i.i.Q ) 8.' I ) c.v.M.c.B.L.1.A =.Y.E.M.i.r.i.i.r.1.i.i.i.i.r.r.i.p.R 7 V i.B.B.B.c.B...k e u V ~ ....=.v...7 } L.s..X}.v...V I } p.Y.v.c.r.' } ,.=.g 7 ..s.s.c.p.s.s.i.i.g.i.s.4.8 V A ..}.|.~.E.v.5X.XL.B.c.M.|..Xv.,.-.M.L.c.M.s.v.L.M.1...=.,.-.,.....U m Q r.B.E.|.E.E.|.,X3X.X}.} I p.Q U p.m.c.r.,.r.p.1.>.i.i.i.p.i.1.4.r.1.4.,.,.1.r.s.i.,.$.4.r.1.r.i.r.4.s.s.!.*.Q c.p.c.r.r.B.A.p.^ ' v.E.v.B.1.r.i.=.Q ,.s.p.| l 7 A s./..X&XoX|.E.|..XE.m...I } c.' m F ' 1.s.s.p.-.U A u g m r.c.>.1.A V V g i V U A >.i.1.$.U Q 1.1.r.r.4.",
"..c.M.M.s.s.` V g ' r.E.V.c.v.L.s.m ..M.c.M.c.B.A.B.s.i.x.s.p.v.s.G.l.C ..1.c.!.s.A u -.G.B.G.s.1.1.r.r.' K ! Q V.V.P.B.1.:.-.p.,.r.M.M.c.,.l g r.A.' l C =.E.x...A -.r.A i Q -.-.I Q v.'.,.A ,.v.r.c.M.,.} U 7 2 I Q ..,.I 1.E.E.Y.v.E.|.}.E.Y.v.r.p.c.v.P.E.c.d.r.z g V g A g V g C m V A I V B.D.r.i.-.p.s.1.r.p.i.r.1.-.=.r.Q } L.' g A i i v.p.g i M.,.g ' p.A A r.B.p.i.i.p.s.r.i.s.s.r...' L.;XE.s.p.c.L.,.} B.v.-.r.m.r.g.c.F ~ g.,.g.p.s.p.i.1.,.,.p.M.c.r.,.=.Q u Q i...g I Q -...V ..M.'.-.1.c.r.s.i.i.y.p.i.r.1.r.p.r.p.i.p.,.=.s.c.,.} i.Y.s.i.r.p.p.p.i.p.s.p.i.i.c.s.s.p.p.p.i.i.p.i.i.p.y.i.i.p.i.r.i.p.r.1.p.l.T @.l.s./ :.s.n.v.....Q V V c.}.v.s.r.4.r.i.p.s.r.i.i.r.r.i.p.p.V i V Q Q } s.C.L.c.r...^ =.M./.1.,.,.V g B.|...-.V A p.p.i.p.c.L.E.s.,.r.p.1.} g U c.r.,.E./.Y.m.i.r.i.i.c.,.2 U ,.M.&X@.U r.'.M.c.M.c...1.Y.s.-.A } p.v.Y.E.B.Y.c...U / 1.r.-.-.=.s.1...i.r.=.c.M.'.,X,XE.s.4.>.r.1.E.i.I V i.v.v.p.r.i.p.r.r.p.i.p.r.1.1.r.1.1.-.,.r.p.c.s.,.=.i.p.4.r.p.i.4.r.B.OX1.E c.s.v.B.M.'.].T.1.-.B.s.=.=.' =.,.Q U ..1.,.| ' 1.Y.,X'.'.E.Y..X'.Y.B.Y.c.....,.4.V i g U -.,...-.=.A g g g A c.s...u g =.c.,.R A A A Q ' ,...s u I ..r.r.4.",
"%.i.} A Q U e u =.p.B.=.E A ^ *.U Q *.....' =.c.p.i...r.v.s.x.c.k.G.!.s.!.].B.s.K 4 4 1.E.P.G.1...L.#XP.n.p.r.V.P.v.c.r.l.n.s.c.v.L.L.p.Q u 7 m c.c.E Q i.v.L.r.I g } 1.A m A A m 1.B.M.,.m V 1.M.,.=.=.2 g A g g m I 1.M.i.E.,XB.s.;.s.v.Y.E..X&Xi.r.r.p.c.1.,...I i s U ....} Q g m U } Q m ..v.r.-.r.r.r.r.p.r.s.s.p.i.,.1.c.} V m g Q A g I 1.Q Q g ..v.A ,.s.} =.Q ..1.s.s.s.E.M.p.i.1.p.c.M.,X}.1.-.4.c.E.>.g.M.r.i.r.p.c.g.5.$.c.B.g.g.i.g.s.i.i.r.r.p.c.-.r.r.r.=.I =...7 m i.c.M.) g -.c.I c p.v.} 1.i.i.i.i.r.1.r.p.p.i.,.,.i.i.r.s.s.=.C Q p.1.i.s.s.p.i.i.p.p.y.i.p.c.s.i.i.p.p.p.i.p.p.p.p.p.i.p.s.s.r.i.s.p.i.s.l.s.s.c.y.) 1.d.E.p.A m m g I L.}.v.g.p.r.1.,.1.r.i.i.i.r.r.i.i.i.i g F U g e Q c.,.$.1.M.Y.B.i.-.I 1.-.i V Y.Y.Q Q } -.E.D.i.v.'.&X.Xc.1.p.s.i...g U r.i.c.&X;XE.v.i.r.r.s.s.Q 7 T s.1.Q u 1.~.y.A m c g m -.p.g q z i.v.c.'.}.'.c.i.-.=.1.p.p.i.i.-.,.Q ..c.i.r.r.U Q -.p.i.=.4.=.~ 7 i Q =.A Q >.B.E.v.p.s.c.v.p.r.r.1.,.1.r.1.1.,.1.i.p.g.s.1.-.i.i.1.r.i.i.i.1.M.'.6.^ M.s.s.s.x.E.`.'.k.1.t...U A V A P g U ,.i.M.L.T.|.OX|.c.p.c.i.i.....=.r.4.Q r.i.>.V m A =.i...I Q ' F P m g A I i i A 1.L.L.i.1.i.v.E.c.=...I g g A 1.r.4.1.",
"=.c...A r.c...' p.B.M.,.Q k.Q m g U c.p.| ' Q ..r...U p.p.r.Y.k.c.0.l.L.].U.r.0.K K ..l.=.K ' ' B.L.G.@.=.~.].V.k.l.B.l.c.1.r.L.v.B.i.*.C 7 m Q Y.A.^ | }.OXE.T.p.g A r.Q A g A V c.M.M.r.A Q 1.v...I ... A Q U V Q Y.&X}.M.Y.E.v.p.,.s.i.s.v.E.B.r.L.v.L.G.,.....A A i Q E.E.L.E.' } Q M.} I s.c.M.M.i.i.i.1.i.s.s.p.s.v.1.Q U g U i.M.s.M.E.' I V u V =.}.E.s.} Q c.....Q } i.v.E.s.i.c.s.s.p.E.,Xs.I >.v.C.|.L.}.E.s.c.s.v.v.4.R 4.E.r.i.s.m.s.s.s.c.c.s.p.i.} ....,...I c.M.L.s.s.B..X1.Q M.'.1.c.,X&XQ Q s.i.i.r.1.1.p.s.p.r.r.s.p.i.s.s.r.Q g ' n.,.0.p.r.p.i.r.p.p.y.p.s.p.i.1.r.i.p.s.p.p.i.i.y.i.i.i.p.s.r.i.s.s.p.p.p.;.{ p.=.) T 1.P.Q Q ,...I -.|.B.Y.c.1.,.r.i.i.i.i.p.i.r.r.i.r.1.u s } v.r.V m $...I ' c.L.s.1.4.Q w.=.I r.E.-.m 1.}.}.'.s.E.4X;XE.v.p.s.=.....u V A } p.M.B.Y.C.s.i.r.r.M.i.g 7 A ,.1.Q I l.}...I A g 7 V v.'...u M ,.L.}.|.~.B.1.p.L.E.L.p.s.M.r.-.=.' s.&X'.|.s.g 7 g } p.-.,...u I Q m $.s...,.' } g.E.M.4.1.p.r.r.4.1.r.i.4.1.,.r.i.r.i.i.,.=.1.1.,.4.4.r.p.r.k.M.-.! c.s.x.x.v.E.B.B.2...| g g d d d l y ^ =.=.r.x.x.B.E.E.M.=.,.,.1.....=.>.>.A 1.r...k m A ,.p...I V g g g ..s.Q s ....c.g.4.A m =.M.E.;XL.' m e m V 7 I r.r.4.",
"1.1.m c..X'.v.Y.M.c.p.6.M.M...=...Y.$.$.s.s.,.=...U B.i.I p.V.1.c.p.p.1.Q U A c.2.B.p.k...E @.-.M.].L.s..X&X.Xv.t.i.r.s.v.s...I H v.B.B.! g g c.].B.v.}.3X;X|.&X|.Q I A I =...$.i.s.s.i.m.s.s.1.Q ' s.c.u e ' ,.-.E.&X}.i.-.M.v.i.p.,.i.i.s.p.B.B.v.i.s.3X}.-.} Q I m 8 ' v.Q s.Q =.E.i.B.} V B.Y.s.E.B.i.4.p.s.p.p.s.c.p.-.' R u A r.s.i.M.:XB.Q A m | -.i.OX:XL.-.M.s.p.v.$.s.r.s.r.1.v.p.v.c.Y.C.Q u g.|.'./.c.;X.Xs.1.,.i.v.=.Q L.s.4.s.r.s.p.s.g.g.s.p.C.U Q ..-.4.i.Y.E.&X3XC.1.'.B.} g.Y..X&X}.'.E.i.m } 1.i.r.4.s.c.i.1.c.s.r.c.d.8.p.r.i g Q n.s.y.p.r.p.p.p.y.i.i.p.p.p.p.s.c.c.p.i.r.s.p.y.i.i.p.p.p.p.p.p.p.i.i.p.s.i.p.p.E ' A w.=.g 1.r.i.-.M..XE.B.s.1.,.1.r.i.p.i.r.i.0.i.i.s...u y Q c.r.1.' V m m } >.` w.r.s.M.M.v.s.L.1.I g } |..X=.A '.E...m ..s.i.i.I i k A >.p.p.B.B.s.p.1.r.4.r.M...8 s } c.,.s.,.i.v.-.U ,.1.>.4.p.i...' ..s.B.M.E./.c.=.,.E.L.i.1.B.M.g.c.r.-.L.Y.}.|.' } ' m k Q Q ' g s ' '.B.r.4.v.-.7 = g A Q -.r.r.r.r.r.=.>.p.1.,.r.r.p.r.r.s.6.=.1.2.6.r.6.1.r.1.M...l d U s.s.s.s.E.M...Q A U d A U C g P m E ' ,.| U | s.B.r.=.=.,.r.r.,.>.,.r.....4.i...U A Q r.1.r.i.} A g m =.Q Q C.,X&XB.=.m.C.r.i.oX3X'.1.g 7 A m m g m g ~ r.",
"7 d =.'.A.v.'.B.c.r.L.Y.r.1.s.B.C.c.4.>.L.M.c.B...Q c.,.! c.P.s.2.B.L.! 8 g g -.p.s.i.s.s.v.L.'..X'.G.E..XM.t.1.c.v.v.v.p...g = V 1.-.x...A ,.-X,X'.E.'.E.B.L.!.M.m Q r.g.s.$.,.1.c.r.1.M.;X&Xs...c.'.s.' 1.c.v.'.Y.r.I i ..E.c.s.i.l.c.i.p.M.M.1.m I E.|.' Q E.s.I 7 Q ,.1.=.s.U Q ..r.Y.B.B.E.v.M.p.i.c.s.g.1.1.p.p.r.s.v.1.U m | =.s.v.c.c.A m L.x.' ..*.' *.} =.x.i.i.B.s.v.s.1.~ =.B.M.c.r.s.~ V Q g.E.}./.c.C.c.r.r.R ~ c.Q s.E.s.r.1.c.v.c.c.s.s.v.C.~ * g ' s.E.E.E.B.E.=.A A 1.v.p.s.M.'.E.L.-...c.-.F s.r.p.s.4.r.g.i.,.c.v.p.s.s.B./ u u N p.0.@.1.u.s.s.s.p.p.i.p.p.p.i.r.i.i.r.r.i.s.s.p.i.i.i.p.p.r.r.r.r.i.i.s.c.s.s.p.V g Q i.,...p.s.c.p.L.E.Y.v.p.r.r.i.i.r.r.r.0.i.r.i.i.s.} i i *.Y.s.s.1.~ u g 7 m ..J.J.h.E.}.8.r.B.A i V r.B.p.7 i r.Q 8 u V c.s.g...7 m U E.B.c.}.,XE.s.r.,.r.i.=.g 7 =.M.} r.p.p.L.&X}.M.'.}.}.B.g.' 7 ,.1.4.1.p.L.C.i.,.s.L.i.1.-.r.4.L.L...=.s.B.Y.p.A Q v.C.' u r u m s $.L.s.>.s.r.h.~ m g i A =.1.>.1.4.i.1.1.p.1.,.1.6.p.i.i.s.6.=.1.2.6.r.6.1.r.r.s.-.E A d =.s.,.1.c.x.r...U ..1.r.r.-.} ^ C A *.Q d | c.Y.M.M.4.1.4.r.1.1.1.r.i.1.,.r.p.p.r.1...s.p.p.1.' A g V A ' B.,XY.' F >.g.Y.E.E.'.E.c.Q Q ,.=.c I =.s.U A m ",
"5 ^ T.L.c.1.B.B.i.p.B.r.i.B.s.1.A.Y.;X|.c.r.A.i.t.L.'.-.:.T.E.@...v.c.} m I ! ..v.s.c.p.p.p.p.L.,XL.r.c.p.p.B.Y.|.E.c.1.=...O...2.'.T.&X&XE.&X}.T.s.p.c.i.-.p.L.r.V g.'.1.p.v.i.L.E.Y.oX&X5X&Xc.s.C.c...c./.v.i.} I } Q g =.J.c.v.1.c.p.i.s.L.-.i 7 Q Y...7 ...Xc.' 1.s.E.|.s.r.c.s.=.E.;XE.B.i.U L.c.c.p.-.s.M.c.m.m.c.g.i.=.R g M.v.c.p.p.6.i I M.r.c.x.p.x.=.g =.r.,.s.E.}.'.M.B.=.} i.E.L.i.B.m.1.=.m.oXoX.XE.r...=.i.m 7 A 7 c.B.,.c.c.c.r.s.c.s.c.c.C.7 8 g r.Y.s...-...,.A 8 m 1.E.s.U 4.B.i.p.4.1.....c.r.i.r.s.B.c.p.m.v.p.p.r.d.i.n.S 9 g z 8.y.@.1.0.i.i.p.y.i.i.i.p.s.p.i.i.i.i.p.c.s.p.i.i.i.i.i.i.i.i.i.i.r.i.p.s.r.p.c.m 2 ' p.i.s.c.c.i.r.v.c.L.c.i.1.1.i.i.r.r.1.r.p.i.i.r.i.' g i i.L.' ,.B.i...=.b F ..} ..w.,.Q Q c...' r.Q B.E.I g =.I g m V A p.c.s.} V r.E.}.p.E..X}.B.r.1.i.s.$.V 7 k -.1.=.c.,.B.&X}.L.B./.L.=.A Q i.p.i.1.r.1.r.c.v.1...c.c.>.i.1...} v.,.u Q %.1.,.V A Q Y.&X=.V I i g u =.1.F k 1.r.i.Q V A Q 1.p.1.i.i.r.r.,.=.r.1.1.1.1.i.r.r.p.1.=.1.6.6.r.r.1.r.r.6.1...' u ' 6.*.*...| ..U P p.s.,.=.,.x.M.M.T.s.Q V M.B.A.x.x.r.r.r.r.1.1.r.i.p.i.r.1.i.s.v.v.1.c.c.D.c.c.i.1.' =.Y.E.s.Q V >.E.B.s.>.' Q Q U =.s.}.}.d.c.0.@.1.T i ",
"7 r.E.r.L.s.6.M.A.p.c.,.c.s.Q r.g./.p.,.' 1.B.c.M.T.c.' B.&Xn.m -.s.O.i.p.1.B.s.c.s.k.c.B.B.L.'.B.-.=.v.p.v.L.L.E.V.s.r.i.M.E..X&X3X&X.X;X.X&Xc.p.U Q 1.1.@.r.v...~ } Q ..p.p.L.;X&X;X6X|.Y.B.r.1.g.p.,.p...,.L.} V } ,.p.}.E.g.M.i.p.r.p.c.r.g 8 1.Y.M.I Q c.1.A A v.r.v.,.} M.'.E.s.,X.Xi.Q c.v.'.r.c.v.i.p.p.s.c.v.v.c.i.-.} ^ =...E..X|.s.' m ^ x..Xr.r.M.=.R s.c.p.v.L.Y.E.i.E.B.s.c.'.B.1.C.r.Q $.p.C.Y.2Xs.1.s.r.r.~ Q } V L.&Xi.s.p.>.r.s.-.Q U V R = A A i.L.,.' 1.i.s...} s.}.&X1.g ,.E.r.r.,.i.$...v.>.} v.Y...-.L.v.i.V i 7 g I ' g i @.=.n.l.1.0.:.1.0.r.r.i.i.i.p.p.i.p.s.s.p.s.s.r.r.i.i.p.p.p.i.i.i.i.i.i.i.i.p.,.i.c.Q m X.v.i.c.s.r.p.B.E.M.c.M.s.r.1.r.i.i.i.r.i.s.i.i.r.i./ u A =...Q 1.i.r.r.c.1.r.w.A i U =.Q A ..} v.i.Y.&X}.m 7 A Q ,...,.1.i.v.,.A *.oXs.V A &X'.s.1.=.r.4.Q 7 e V A I k ..=.r.L.E.c.r.r.s.,.A ..,.m.p.-.1.1.i.Y.i.Q I ..s.i.-.1.=.$.,.1.V * ' 1.=.~ i V R s.=.g Q ,.A 7 1.E.Q 2 Q c.,.,.,.s.B.v.p.r.-.-.i.r.1.=.=.r.r.1.1.,.r.r.r.p.1.*.1.1.1.r.r.6.r.6.r.r.=.} A ..=.r...m d A U ,.E.r.| ..r.|.}.'.'.i.s.| -.1.c.x.c.-.,.1.r.r.r.r.r.i.i.i.r.r.i.p.s.E.]..X3X,X3X&X'.c.p.r.Q V F ' r.p.4.$.I m A A m A g A =.0.l.1.:.p.1...",
"E p.L.s.x.B.M.B.A.x.OX6.*.1.*.'.}...g g d 1.s.' 1.p.r.2.~.L.0.:.'.P.c.c.M.M.E.Y.s.s.r.L..X*X3X|.Q g U M.M.M.c.v.c.c.c.c.v.M.M.M.E.k.M.c.v.r.s.k.p.' ..i.p.i.i.1.' A A U 1.L./.5X&X.X'.c.1.r.c.} i.c.p.p.=.g $.c.g.4.i.$.p.'.r.' =.1.r.B.B.,.g * 1.&X.XE.c.Y.Y.} V ..i.v.v.-.1.c.&XE.E.'.=.V 7 E.;X,.V ..i.B.p.1.i.c.s.r.s.B.p.' | r.E.|.1.6...1.} x.:Xc.Q p.p.s.m.c.p.v.'.m.Q A A -.i.m.C.E.v.v.m.Q A =.-.v.E.Y.....m.s.r.s.s.=.' 1.1.A I A V A R m s g u A A =.B.L.L.i.4.r.r.s.r.E.&X,X|.1.' m.c.' p.c.c.v.v.r.r.=...I 7 u V i < 8 A m i { A i Q L.'.{.l.;.8.:.r.r.i.i.i.y.p.p.1.r.i.p.p.i.i.i.r.i.i.p.s.s.p.i.1.1.r.r.i.i.i.i.p.i.d.r.1.-.c.r.p.i.-.p.v.r.B.E.B.c.t.r.r.r.i.r.i.i.p.r.i.i.s.} g A x.i...m.B.=.>.4.s.w.r.1.....s.p.p.Y.'.L...L.s.' } } m -.r.p.p.g.r.>.V 8 Q M.v.R $.Y.} I g m V A g s V g g Q A g ~ E..XB.r.>.r.p.V 7 ..p.,.} ,.s.r.c.,X1.7 i U =.1.s.w.....$.' g ' m.Y.i...U s V =.A g 1.c.,.U E.E.Q I L.L.r.,.c.E.E.c.=.Q A I ,.r.1.,.r.c.s.,.,.=.6.r.r.s.r.*.1.1.1.r.r.6.r.6.s.i.1.E Q | ..' U m Q -.s.L.c.c.p.s.L..XL.c.s.,.P ' s.*.,.A.s.$.-.1.r.r.r.r.r.i.r.i.p.i.r.i.s.L.L.P.E.v.s.=.Q ~ 1.r...A V >.L.s.c.m.c.c.L.L.s.r.} T } Q K A :.G.W.].",
"6.A.L.v.r.M.L.A.=.r.B.U 6.`.B.E.| k *.E Q c.c.=.c.E.}.E.P.p...n.#XM.L...,.L.i.=.r.M.c.}.L.Y.Y...g u V } =.s.M.P.L.M.c.c.s.p.t.i.s.-.c.p.s.t.r.i.i.i.k.c.s.M.c.-.A * A ,.,.Y.;XE.c.s.r.' $.-...7 E r.c.4.A s 1.p.1.v./.c.p.r.Q Q } -...r.=.g * } .X&XE.'.'.'.'.L.-.i.s.E.-.B.p.1.r.U p.-.2 8 m E.,.i A ..$.i.i.v.c.v.c.s.s.s.1.} ..i.B.' 5 1.p.v.B.|.E.r.| 1..X,Xs.g.C..X&Xs.F g V i.'./.E.|.Y.Y.v.i.w.g.C.'.B.-.Q ~ r.s.i.c.' u 4...u 2 V g m 7 7 u V A A ..g.c.,.i.v.1.1.4.i.c.i.Y.E.}.B.=.r.'.1.F ..p.v.c.p.h.1.C.Q 2 A A e A A m m c I B.{ ' r.G.L.U.r.8.8.8.i.i.i.i.r.r.r.r.i.i.p.p.p.i.i.p.p.p.s.s.s.p.i.r.r.r.i.i.p.p.i.r.r.i.s.c.i.U ,.p.v.1...p.r.I r.M.1.r.r.r.r.r.r.r.r.i.y.r.p.s.c.' y l s.s.p.E.L.=.s.p.Y.s.1.i.h.J.B.i.'.}.p.{ v.,.A i.i.-...E.v.1.r.r.r.U 8 u m ....g.&X.Xi...u s 7 i i I ' A U >.s.C.6XE.E.>...i.,.p.g m ..c.1.M.s.>.s.v.s.A A Q } Q U r.i.1.=.A u g c./.E.s.>...R I -.p.M.E.B.v...,.A g ,.Y.$.1.c.E.'.B.c.g.r.....s.s.w.1.i.c.g.6.1.,.r.r.6.p.6...1.1.1.6.r.2.6.r.s.r.1.g m A E | E u l A ' A.B.s.v.B.E.}.M.x.s.} A 1.M...-.L.=.,.1.r.r.r.r.i.i.p.r.r.i.r.,.1.p.s.s.s.@.Q A g g Q p.s.s.g.c.}.&X6X;X&X.X|.;X,X&X|.}.'.}.L.r.' i.n.G.U.",
"..E.M.s.B.B.p.,.U A V U T.B.x.s.R Y.A...M.c.r.`.,X;X}.P.L.B.U ) s.U ' A =.v...B 1.M.L.Y.Q -.=.i i I O.Q ..1.t.v.M.v.M.M.v.c.s.s.M.v.c.1.i.c.k.i.r.c.v.k.k.M.v.i.I g V ,.}.,XB.-.=...' =.4.} g . g m Q Q R r.v.i.m.M.}.}.E.E.M.Y.Y.v.' V g 8 I &XE.B.v.c.M.B.E.B.} ..r.i.i } ' L.Y.p.E.i.m i } c.Q V 1.s.1.r.i.g.s.i.s.m.c.1.1.i.x.1.,.' A =.,.E.;X=.d ' x.c.|.Q U Y.3X6XL...p.B.L.&XE.A k =.i.i.} 1.h.Y..Xv.-.r.A =.g.M.g.i.m V i.i.} m A m m A U I A A A } p.c.Q i.E.i.r.i.i.1.p.i.s.C.i...p.E.C.1.Q I =.i...1.v.L.r.A g V A A u C A Q Q A g :.s.0.1.;...l.s.0.p.p.i.r.1.1.1.1.s.s.s.s.p.i.i.p.p.p.y.y.i.i.i.r.s.p.i.i.i.i.r.r.,.i.s.s.,.U ..L.'.,.=.v.B.,.,.Q ' =.1.0.1.r.r.r.r.i.p.i.c.c.p.I - U ^ A /.Y.P ..s.m.E.c.i.1.h.J.} i.'.v.=.Q ,.Q .XE.7 U M.i.r.c.p.i.p.-.A F Q r.=.B.E.s.,.1.} ,.i.Q g A Q ,.m.i.p.s...7 p.v.i.r.i.' * m =.s.c.}.1.U p.p.F e 1.M.Y.4.V Q ..-.=.A i A p.Y.M.i.>...i.=.>.Y.L.i.i.-.E -.I 7 $.c.U ' c.|.&XL.r.r.p.s.c.B.p.1.1.,.r.p.6.6.6.s.i.1.6.,...1.1.,.1.6.1.1.1.r.6...y u g g A A u U E g ' *...r.i.B.L.c.,.^ Q |.x.A *.T.M.,.1.r.i.r.4.r.r.r.i.r.1.1.1.1.1.1.1.;.:.I Q A V I >.L.B.c.E.&X;XoXoXE.C.C.M.B.L.B.L.Y.L.E.W.G.:.p.G.F.n.",
"A.:Xv.6.A.M.6.P g g U 1.=.m c.-.A.E.R i.Y.L.:XOX;XT.Y.E.G.L.I { =.i 7 ' M.k.c.1.c.c.s.=.* ' ..g g ' s.1.t.-.-.L.c.c.v.v.c.p.p.s.p.c.t.t.t.2.s.v.v.c.s.c.v.k.p.c.Q 7 g s.&XE.1.$.4.r.=.s.i.$.F m V g ..-...g.r.M.M.M.E.Y.L.&X3X,X;X|.v.} ..Q ,.E.c.r.c.r.s.B.s.A V L.L.1.-.M.|.;X.X.XE.p.=.g ,.c.R ' m.s.r.r.s.s.c.g.s.s.s.s.i.,.' ,.x.E.T.x.=.T.s.Q i.A A 6.,.d R Y.L.m.=.} E.L.E.E.s.i m ..' A g =.'.E.g.,.i.r...v.p.i.c.c.m $.m.v.v.I ..1.~ s.p.} I ..s.C.s.M.Y.L.L.,.i.p.s.s.1.r.m.v.1.r.B.L.L.r.s.B.r.r.-.s.B.i.U i A =.,.} I ' V ..c.Y c =.0.8.r.) K l.n.l.p.p.p.i.r.0.r.r.r.i.s.s.p.r.1.8.i.r.r.1.1.r.r.r.i.r.1.1.1.r.r.r.s.p.r.i.r.i.1.}.'.i.c.i.,.1.s.-.| -.r.r.r.r.r.r.r.p.s.s.v.c.r.m y U M.s.c...k } r.p.Q g %.m..XL.1.M.E.c.1.v.1.'.|.' u t.Y.} ..c.w.i.1.L.=.m ' s.Q ' U i k -.L.L.L.i.i.i.I Q L.M.M.=.g ..E.r.r.-.r.g k ,.&XL.}..X..=.s.r.i.' s.&X}.'.,.,...Q U k -.,.1.Y.M.p.1.-.-.>.} w.U g 1.=.=.E.&Xi.M.r.U -.Y.}.|./.L.s.r.r.s.s.-.>.4.=.-.4.=.,.6.x.s.r.i.1...1.2.,.1.6.1.1.1.1.6.E u g m 5 7 g u p.E.^ m g O.=.A Q ..=.E i 6.6.Q r.L.&XB.6.>.4.r.r.4.r.4.1.1.r.r.4.r.s.p.1.,.X.1.Q 1.' A V i.L.'.L..X.Xg.g.B.g.r.>.-.r.i.,.i.n.v.M.B.l.=.n.~.G.B.",
"p.M.r.p.r.| Q l g l *.,...=.r.B.}.E e =.T.6X/.E.G.L.c.1.k.v.! v.c.} g ] M.1.c.v.Y.v.s.O.V -.O.h E s.s.E.L.M.}.i.s.v.v.c.s.p.p.p.s.s.s.s.s.c.c.c.M.s.p.c.s.p.M.c.V 7 A E.E.i.g.=.,.p.c.g.4...-.L.4.1.m.A R U -.c.r.L.B.Y.Y.Y.&X.XL.'.;X&X|.E.L.c.r.s.,.,.p.1...Q v.E..XE.E.;X.XE.}.v.c.=.1.=.' 1.c.B.v.r.r.i.i.s.1.s.r.r.s.p.i.' Q i.s.|.'.Q *.r.m ^ 6.s.p.6.,.*.=.s.,.' Q -.B.L.>.i.-.g s.}.v...u i.3XE.1.i.r.p.p.p.c.s.L.1.i U v.r.g.i.v.i.;Xi.I ..E.|.|.oXL.r.1.r.i.i.i.s.s.p.i...c.v.s.c.'.E.'.L.,X3Xm.1.4.-.$.U g ' p.p.} ,.c.r.s..XE.n.8.1.l.p.n.X.C @.n.G.B.l.M.c.i.s.s.p.s.i.p.c.i.,.1.i.i.i.r.r.p.c.s.i.,.r.r.r.r.i.i.1.r.i.i.1.r.B.'.E.c.B.Y.B.E.M.c.1.r.c.=.r.,.1.s.r.i.r.M.s.r.s...i C Q B.M.c.>.r...r.p.s.=.s.;X.XJ.E.,X;X}.'.Y.L.}...7 I p.S I i.U ~ v.L.L...r.s...p...A A =.'.L.g.v.C.Y.=.' c.....v.,...i.' 1.i.>...} s.Y.M.|.;Xp.g R r.M.i.i.B.s.r.1.$...1.~ I 7 $.M.s.s.B.i.=.,.r.>.i.i.,...Q } Y.oX}.m.E.i...s.}.}.E.E.s.>.p.r.}.B.r.-.=.-.1.p.p.r.,.,.1.r.p.x...-.-.*.,.1.1.1.p.,.I u 7 C l I ^ Q 1..Xv.Q } d d A l A s.p.C g I V g *.L.L.B.p.-.1.4.4.1.1.1.r.r.r.r.r.r.r.r.r.1.r.1.) i.c.Q U m.c.;X6X'.c.4.=.} >.4.4.r.,.=.-.1.=.,.c.G.c.r.:.U.n.0.",
"=.M.s.r.E g g u Q ,.c.i.1.c.v.s.p.F R s.C.c...1.r.p.1.k.B...m { p.v.,.,.1.1.v.k..XB.c.s.2.s.s.t.B.v.L.&Xv.k.c.-.,.t.s.p.i.p.c.c.s.c.k.s.s.l.c.k.s.i.t.v.v.v.B.i.s e ' g.s.s.s.i.p.r.c.g.-.4.c.r.I m ' m k k I ..1.m.s.c.B.B.L.r...i.L.E.E.L.c.r.i.c.Q } E.i.Q s.Y.|.&XU.v.L.p...} ,.v.s.v.s.1.p.L.B.M.Y.}./.M.p.p.s.i.g.s.i.-.' p.6.6.M.,.7 ' B.i...B.v.=.p.x.M.s.B.v.p.1.r.r.Q m Q U A E.&XoX'.c.'..Xi.-.s.i.r.p.c.c.n.s.A 8 A p.g.g.M.Y.M.B.Q ..m..X.XY.m.c.1.A ,.B.v.r.r.i.p.p.>.r.M.C.Y.M.B.E.E.E.v.r.p.,.I 7 g p.'.E.E.r.i.L...,.s.} @.l.c.c.d.p.0.0.:.8.B.|.G.L.B.c.B.M.v.i.i.i.,...=.r.y.r.i.i.i.p.s.p.r.i.p.s.p.p.l.s.i.i.p.s.r.1.i.r...' B.}.'.E.&X.X'.|.L.-.i.i.i.p.r.p.c.s.s.B.1.g 7 E L.Y.'.|.-...c.s.1.i.J.}.&X}..X|.;X|.E.E.Y.v.B.Q u T i.....p.-.L.'...R ..r.=.=.Y..X}.|.&XB.=.s.r.c.L.,.' 1.-.E.4.g ..r.Q A m ' >...p.B.v.E.E.>.Q ..p.i.' =.c...g g F =...g k m V -.1.p.v.=.' ,.,.1.,.1.s.r.,.c.2XL.E.E.i.I Q Y.}.|.B.r.} Q 4.v./.M.i.1.1.1.i.c.1.1.1.r.r.r.1.1...,.1.1.6.r.1.1.r.1.y y l m U 6.r.,.B.T.C u 6.=.V y h Q -.' V ' | ..Q ..r.c.M.r.,.1.1.4.r.r.r.r.1.4.r.4.1.1.1.1.,.1.:.{ 8.p...,.E.E.&X.Xc.4...Q R ' $.=.,.-.=.-.r.,.1.p.d.0...Q T A a ",
"m *.*.=.A P Q I | x.v.s.x.B.M.6.U y ' M.C.*.U *.O.r.2.B.l.g i A 1.c.p.E.B.v.M.v.E.' ..c.c.i.c.L.p.B.v.-.E s.,.-.c.c.s.p.p.s.k.c.c.c.c.s.s.k.k.s.s.s.s.M.M.B.c.} 8 m ,.Q Q r.-.r.s.i.s.r.,.s.i.U i V Q I } 1.' Q } s.s.c.L.Y.L.,.-.8.i.r.1.i.s.s.,.1.u g s.1.Q s.Y.M.y.-.U Q m i V Q } s.L.c.p.v.s.s.M.'.&XY.i.4.r.r.r.s.4.i.} ' -.1.p.=.m 5 ..M.-.A r.-.=.B.=.' r.s.c.p.1.1.,.A k =.' Q Y.E.E.c.Y.|.L.-.-.s.p.c.s.M.c.c.-.z g ' 1.c.r.r...Q A m p.E.L.Y.Y.c.1.I g =.C.M.p.i.i.1.s.1.~ A ' c.v.B.1.v.c.i.r...V u Q c.'.B.Y.}.,.m.3X1.Q I / @.8.s.s.@...0.y.y.0.) Q ..E.,X|.L.s.p.s.i.r.1.,.,.r.p.r.i.s.p.i.i.i.r.r.i.i.r.r.p.p.r.i.p.s.i.r.1...I } v.B.B.M.&X.X}..XE.1.....c.M.s.p.i.p.v.,.g 7 m U B.B.`.' V 1.s.1.c.L..X&X'.).L.B.B.p.r.c.c.r.r...} -.1.i.E.'.B.v.=.Q ,.p.p.p.i.=.L.}.m.} g I -.i.1.p.r.s.|.c.r.A r.s...B.c.r.i.r.,.r.c.c.M.c.$.m >.i.r.r.1.1.1.R g m =.} m g m ..=.Q ' r.-.=.p.,.i.Q I s.E.}.;X'.L.c.=.Q I A r./.C.1.>.1.1.v./.c.r.>.-.-.>.1.i.1.,.,.6.r.r.6.6.| ,.r.6.6.1.,.,.,.A 7 I m u ^ p.6.r...m y m ..s.6.' A m A A g Q m.B.B.B.v.B.B.,.1.1.1.4.r.i.r.r.4.r.r.r.1.1.4.r.i.1.r.:.1.1.=.s.,X.XL...I ~ ' ' } -.1.4.r.4.1.r.1.1.,.,.1.:.) C Y K m ",
"6.6.P m y ' -...1.c.p.M.A.p.p.p...l ' m.c.' g U g A A T K 2 A Q ,.,.t..X'.c.k.B.r.0 ' Y.V.r.p.r.c.O.-.v.v.k.' ] c.p.i.s.v.v.v.c.k.c.k.s.s.s.k.s.s.c.k.v.M.M.1.g 2 Q Y.s.,.} m 1.-.s.g.r.i.1...} 4.B.B.r.L.B.=.=...g.p.i.m.B.c.-.r.y.p.r.1.r.p.p.s.=.V A ' Q ..i.c.@.A V m ,.=...M.B.=.r.1...Q Q ..p.M.r.I u I p.4.r.r.p.,.c...$.M.i.*.A ' 6.x.r.Q Q p.,.p.c.Q 1.v.B.v.1.r.r.1.} r./.L.s..X}.L.s.}.&XB.p.p.p.r.M.c.v.i.} g 8 i I g.s.1.i.-.' A A r.E.E.'.C.1.I g R w.B.M.p.i.i.r.i.} I u g ' 4.i.s.c...' ..A g Q L.c.....p.=.g s.p.Q ..,.D.y.1.l.p...) =.@.y.n.{ u g ..i...I I } ,.s.v.c.p.r.i.p.i.p.s.p.i.r.i.i.r.i.i.r.r.p.p.i.r.i.i.i.i.s.r.} ,.s.v.Y.Y.L.p.i.p.M.c...Q c.Y.B.M.L.1.U i 7 g 7 =.M.r.6.i g 1.i.>.'.;X&XE.B.B.w.s.i.-.-.p.s.i.r.,.-.,.,.c.W.M.,.,.V Q r.1.i.c.....=.} g g I 1...s.c.p.r.Y.&Xi.=.' g.L.g.Y.B.'.L.r.4.4.p.c.c.i.1.c.c.>.i.L.s.1.i.i.1.p.L.=.} } ' C.E.g.i.g.1.-.r...=.I Q B.|.}.E.g.L.B.c.~ V Q }.}.p.=.r.i.i.v.Y.r.,.-.>.,.1.4.i.i.1.1.6.r.r.r.p.} ,.6.1.6.1.,.1.*.l l d l =.1.6.,.1.c.1.^ =.r.i.r.L...d i 2 g 1.OX'.|..X`.E.B.-.1.1.4.r.r.r.r.r.1.r.i.r.1.1.r.p.p.8.p.y.1.-...,.s.s.>.F I ..$.>.>.r.r.r.r.1.,.1.,.1.1.,.1.0.{ m ..:.@.",
"s.x.' P g -.i.r.M.M.i.B.M...-.v.c.} $.Y.L.M.| -.Q A A B m g ' =.1.s.P.B.1.' r.c.i.U -.s.p.-.t.v.}.I =.E.1.A i.M.L.M.i...O.t.v.M.s.s.s.p.p.s.s.s.p.s.p.s.c.v.-.7 7 r.s.~ M.,Xs...r.c.c.g.r.=.r.E.E.B.B.p.c.=.-.c.p.p...} i.c.p.1.1.i.s.s.p.p.p.p.B.-.-.p.' V =.M.i.' g V U E.E.s.r.c.U K g u g i I ..-.} U F Q -.1...} 1.=.i...1.s.,.| ..L.M...^ r.1.r.s.Y.s.^ r.v.L.c...>.....1.'.'.'.Y.}.B.i.B.;X'.@.1.c.l.i.n.l.p.s.' i p m ..v.v.E.M.i.r.c.s.'.}.L.1.F V m >.,.g.B.v.r.1.i.c.4.V } B.%.R I F V ..Q A A 7 m i..Xi.Q =...A A -.U 7 =.v.n.=.r.s.s.p.X.:.p.r.G.~.i.A i u 8 4 s I U p.Y.v.i.i.p.p.p.p.i.i.i.i.i.p.r.i.i.r.r.p.p.r.i.r.r.r.i.s.p.-.-.p.L.B.c.....r.l.M.L.p.A U Q ' } ,.g 2 i i A ..E.r.1.p.1.r.g.c.L.&X&X.XJ.i.s.w.s.p.1.1.i.p.i.i.p.' ..s.v.,.I g 4.i.-.>./.&Xm.-.r.i.U i ,.g.,.Q ..v.r.1.B.i.m ..c.~ ....m..Xc.>.r.r.1.r.s.i.w.s.Y.s.Y.&Xs...p.s.i.r.i.,.A } i.s.-...Q s.oXE.p.>.=.>.1.c.Y.L.B.c.s.s.i.s.A I B.;XL.1.1.=.A Q p.m.,.,.1.1.4.4.r.i.i.1.1.i.p.r.1.6.} ,.6.6.1.=...*.I l m A i.c.} r.p.p.L.p.,.p.6.r.r.c.E ..p.' s..X|.Y.Y.A.v.A.B.1.1.r.i.r.r.1.4.r.1.r.r.w.1.1.r.p.1.:.r.r.,.,.=...} =...' $.1.$.>.1.r.r.r.r.1.1.r.0.i.r.1.r.y.{ z T =.=.",
"..B.A.s.,.c.c.M.c.x.p.c.i.*.p.`.Y.g.c..X'.;XB.L.c.r.M.s...I U ..p.V.].r.U A 1.p.M.L.c...-.-.t..X2.,.T..Xs.Q B.s.M.Y.v...} r.c.s.s.s.s.p.p.s.s.s.k.c.s.c.v.M.-.7 u ' A A v.L.g.'.E...Q } Q Q r.v.L.,.s.s.s.g.'.L.i.r.Q A } ,.1.p.p.p.i.r.r.i.c.v.s.i.p.c.1.-.s.B.v.' Q c.L..XE.M.,.=.m Q } T ..i.s.-.F V ..M.B.s.-.A k =.=...' s.s.r.' U ,.' Q c.p.T.'.M.,.*.r.M.&X,XoX4.=.I } M.3X.X&XE.Y.c.r.Y.L.s.C =.l.l.s.n.-.;.l.{ z g m =.s.Y.,Xr.' -.m.s.c.c.s.-.k k g ,.c.g.p.i.i.i.p.s.r.k $.,X-...Q V s m g Q Q A 1.;XE.i.Q i.=.A Q 1.d.=.p.s.s.' s.U.L.D.G.~.~.~.].E.1.V g V A C V S ..-.,.i.c.p.i.c.l.p.r.r.i.p.p.p.r.i.i.1.r.i.i.1.i.i.i.r.r.i.i.-.1.v.L.,...Q ,.c.E.E.M.,.i u i 7 7 u 7 g Q Q 1.E.| A r.B.}.|.L.Y.,X;X).J.h.w.w.1.i.r.0.1.1.,.,.1.i.' Q r.i.' I g Q r.1.i.E.v.' i.s..X.X..R ..=.r.>.r.r.r.-.=.U Q ..i.1...i.'.c.r.r.i.1.,.r.1.,.p.p.,.i.L.c.i.s.-.4.>.-.Q k ..s.B.g.s.v.;X,Xs.~ ~ Q r.E.c.4.v.B.v.M.M.Q s A B.;Xm.s.r.r.U u ' s.1.-.,.1.1.1.1.1.4.6.,.-.1.r.6.r.p.| ,.1.1.=.~ A C d E s.L.M.| ..s.r.p.*.Q p.L.p.B.M.L.B.:XL.*.T.}.s.s.c.1.,.B.B.i.1.r.i.r.4.1.4.r.r.i.i.r.4.1.r.i.r.0.0.1.1.i.r.=.r.r.,...=.1.=.r.4.i.i.r.i.r.1.i.r.i.r.r.r.8.) c Y 0.u.",
"v.|.Y.6.1.s.p.c.s.s.B.M.s.c.L..X|.'.}.L.r.v.6.r.L.E..X'.r.2.2.s.v.L.E.1.I ..s.p.v.E.Y.c.c.B.v.Y.B.!.'.XX,XY.V.r.....,.p.v.v.x.p.k.c.k.s.s.s.k.s.v.M.v.v.M.M.-.7 u } U ~ B.s.} s.'.Q e u u g U I ..=.1.1.r.v.v...p.M.4.Q ` ..} ,.p.p.s.s.p.p.s.s.p.c.i.1.i.L.E.c.=.g } }..XL.s.v.M.p...1.c.,.r.c.i.c.i.=.-.i.s.p.r.R V -.r.$.>.m.p.6.Q U r.r.r.c.s.A.1.A U 1.M.M.c.=.,.' -.,.Y.,X'.M.c.v.c.c.c.c.s.s.I r.l.s.p.:.$ i A 7 4 K ..s.c.v.L.Q ..v.i.Q -.1.=.=.A ' -.m.M.p.-.-.r.c.s.r.1.g ..v.I } i...Q m A Y.;XE.E.m.Q g V v.i.A I M.Y.-X;X|..Xl.'.3X.XP.=X4X#X&X[.u.I g Q =.{ U A Q s.-.Q } s.c.i.v.s.p.r.i.i.i.i.i.p.s.s.p.p.s.p.r.1.r.p.i.0.r.i.1.i.M.M.,.=.,.1.1.c.s.=.} m I ..A V m A A U s.v.} 2 U c.p.E.c.} Y.;X'.J.r.1.r.1.=.r.1.r.i.1.1.1.r.1.@.m Q 1.1.i.{ ,.4.c.L.-.V m B.5X|.B...$.'.m.-.Y.c.p.=.A >.g.,.M.s.1.v.s.M.C...1.r.1.,.r.1.1.i.1.s...Q ' ' $.i.1.B..Xv.,.i.c.s.c.c.c.E.C.Q i r i ..v.' ' c.1.....} A 7 Q 1.-.r.c.p.-.A U s.i.~ 1.4.r.r.4.1.r.r.6.=.=.1.r.6.r.s...,.,.,.=.^ I P U -.}.p.A -.|.c.r.s.`.'.T.OX,X'.,XOX}.T.*.Q -.I ..=.,...1.L.v.r.r.r.r.r.r.r.r.i.i.i.i.i.r.r.r.r.i.p.r.1.r.i.i.,.,.1.r.-.1.i.r.s.4.r.4.4.r.1.,.1.0.r.r.r.1...I m m 1.p.",
"r.r.Q m ,.B.s.s.s.i.L.L.x.c.c.B.B.L.E.,.Q ,.p.x.M.B.1.' P 2.c.s.v.].'.-.m 1.M.t.Y.i.c.B.i.!.'.s.p.M.M.v.M.Y.}.L.r.C i ..s.r.i.B.c.v.c.k.s.s.k.s.s.c.s.c.v.v.=.7 g 1.s.m..Xv...E.'.s.Q V A V V Q I c.i.i.s.r.' %.m.'.Y.i.v.L.p.i.s.s.s.s.s.s.s.c.c.i.1.=.' 1.B.r...Q v.+XE.M.s.r.Q i.v.1.s.s.s.,.-.c.B.c.i.p.c.C.c.-.Q =.r.=.4.i.,.} U ' c.x.c.p.i.x.} Q v.Y.B.,XL.s u A v.|.,XE.M.' A i.m.i.i.>.,.r.A 1.y.s.r.Q A p.=.u g :.B.s.s.1.} 7 ..E.B.v.m.1.V ..r..X.Xv.s.p.1...=.i.s.i...2 $.>.Q C c.r.U Q =.Y.B.v.v.V m m i.v.V ~ v.Y..X&X}.&X-X.X5X[.'.L.{.].L.0...p.p.0.Y.'.c...Q ' r.c...m ' l.v.s.s.p.i.y.i.r.r.r.i.p.i.0.r.r.r.1.,.r.p.i.1.1.r.0.p.v.,.} Q =.=.,.1.} A =.Q U } V A m m g m A i g =...`.'...g g ,.Y.s.h.i.w.w.=.r.0.:.1.r.r.1.1.1.p.:.7 I M.B.E.c.c.g.B.E.-.' Q B.B.,.....s.L.Q -.E.c.A g } r.} =.B.v.p.,.L.E.1.r.,.4.1.1.i.i.i.p.r.i.} A m V } 1.g.Y.'.-.,.v.i.Q Q =.} A i u U >.1.=.} i Q i.R ..A u >.1.>.' F >.>...A g ,.E.p.=.,.1.r.4.1.,.1.4.r.1.r.s.x.r.,.,.=.,.,.1.r.r.6.i.,.u A 7 V E.|.s.x.&X2X|.E.E.T.L.A.L.M.' m Q =.6...Q U Q 1.M.r.1.r.r.r.r.r.i.p.i.4.4.r.r.r.r.4.1.,.r.1.1.1.1.4.r.r.i.i.=.$.1.4.r.1.w.4.4.i.i.r.i.i.r.i.r.@.Y V c } L.}.",
"B I A P ^ B.L.p.c.A.x.1.v..X'.k.| ..E U O.U ..B.A.s.P 2 ..k.k.s.T.'.r.U l c.A.r.v.c.p.M.B.T.|.v.p.,.s.p.=.6.,.U 1.r.Q E A C Q c.v.c.k.s.s.s.s.p.v.i.v.B.i.p.O.2 A ,.L.Y.M.' =.s...m C B ..E } Q ,.....,.p.p.s.B.p.v.g 1.c.p.B.c.c.k.i.k.p.B.s.c.k.p.,.} A H 1.s.6.L.'.A.r.| A l m c.M.c.L.B.M.x.s.r.>.-.p.B.B.L.Y.i.r.c.c.4.>.>.=.r.V U M.c.p.r.s.i.6.s.M.p.p.T.-.C Q p.'.:XE.x.x.Q ' p.s.r.1.r.i.=...,.s.k.c.v.M.~.-.m B ' p.l.p.p...Q ' -.' s.=.i.v.=...,.....-.,.x.v.=.1.1.1.V m Q U Q m 1.v.i.1.p.B.r...V A -.B.E.i.} t.v..X-X'.E.E.L.c.p.k.c.i.2.r.t.0.r.p.p.r.G.n.:.T g z I K I g z _ =.r.p.0.y.l.0.u.8.r.p.u.0.:.8.y.s.p.i.r.r.r.r.p.i.r.i.i.} =...-.i...A V m I A ' i...} R Q Q I ..' ' | ' }.s.U k 7 V } 1.i.1.-.1.r.1.r.:.r.y.1.8.0.r.p.{ 7 Q s.n.'.p.M.Q i.I g 1.c.s...1.E.c.E.c.g r.B.} Q =.c.>.m 1.,X'.g.-.g.L.s.4.i.i.i.c.M.m.B.i.,.-...g F s.c.i.c.r.} =.B.v.I 1.i.c.i.-.=.r.E.r.,.1.V q } ..y.U.%.A 1.>.A V I s g ~ A ~ s.B.B.-.-.r.r.r.>...,.1.r.r.,.i.p.~ 2 R ..,.=.1.4.} ' U I k g 8 r.C.'.m.F E.i.4.g.m.c.g.v.g.i.U 7 =.'.;Xc.m m A p.c.c.r.r.i.i.r.r.r.r.1.1.1.r.r.r.1.1.r.r.1.r.r.4.6.r.1.r.s.i.4.r.4.5.4.6.1.,.r.s.i.6.i.p.c.s...U V d g r.,X'.",
"-.1.P m | M.x.t.'.A.v.V.A.v.x.B.,.U m B -.v.v.| I A C g ^ 6.k.t.L.s.C l U x.s.x.E.M.s.r.*.Q ] s.r...m E | l E 7 r.M.r.p.,...=.c.i.s.c.c.k.p.p.p.s.L.B.v.c.O.m g U =.s.-.I m O.1.0 u m I 2.' =.s.' Q ..} U M.B.=.i.=....XL.p.B.Y.s.c.k.M.c.M.s.p.s.p...B A ..p...,...' Q l 7 m ' ' Y.,X3X|.p.p.s.B.s.i.g.m.i.,.i.r.i.B.'.'.Y.Y.L.E.v.I E p.r.r.c.Y.}.E.c.r.,.....i Q p.M.'.&XB.i.1.Q ..r.r.i.r.i.t.0.0.s.v.c.k.k.B.E.' 7 K -.t.s.1.1.i.i...i.i.r.r.B.i.U Q ' A I x.i.B.x.6.| Q U - ' ,.=.*.g ' r.s.t.i.c.,.V 7 } B.p.p.P.Y.P.E.3XL.s.r.t.p.r.2.i.i.r.2.i.i.r.r.i.8.p.~.W.y.) K Q ..' A c z i u ' r.0.u.s.y.p.8.y.r.r.0.1.0.0.0.0.i.p.s.p.p.p.p.p.s.c.,.1.1.s.p.=.V g i m m I 1.v.2Xs.i.Y.E.|.E.L.Q R ,.A m m g I 1.r.i.1.1.i.p.i.y.r.8.:.0.0.1.u.s.C 7 T I I :.Q ....,.=.-.c.p.i.=.s.C.M.i.} ' ,.m m 1.=.V m A 1.c.R F p.C.Y.p.c.p.p.1.1.r.1.1.=.V V g k } '.m.-.1.-.-.v.Y.1.I E.E.r.,.i.c.p.1.A z I Y ' p.r.B.}...u I i g ..} =.-.L.v.,.s.B.i.} r.p.r.i.i.4.r.1.i.r.r.p.s.I 2 g R ,.=.1.r.A u m m g $.>.g.r.4.V k ' Q ..$.s.m.r.p.g.>.m g B.;X'.B.~ ..r.}.}.L.g.4.r.r.r.r.r.r.1.r.4.4.r.1.1.r.i.r.1.r.r.1.1.1.,.>.4.5.1.r.i.i.i.r.4.6.r.6.=.=.1...Q ^ m g C g E '..X'.",
"=.x.*.| p.B.r.c.s.1.A.E.-.=.x.r.,.E 2.c.x.M.v.C B l U P ..B.!.c.s.*.7 g *.A.B.|.'.&X'.6.r.v...U =.c.,.U ..l U | ,.c.s.c.p.6.r.c.k.p.p.s.s.p.s.c.p.v.v.c.p.] C C I ..c.p.Q T p.i.=.' V ' Y.=.-.E.E.=.V V Q E.p.,.s.s.B.B.,.E.E.p.s.M.M.M.i.t.v.M.M.=.i 8 V 1.B.p.r.' } ,...Q -.c.A.,X:XT.r.r.B.i.C.L.B.i.p.s.M.Y.v.E.;X,X|.'.'.E.'.-.V } B.M.p.c.|.`.s.-.p.A.x.=.' s.B.L.OX'.i.p.6.=.r.p.r.p.p.r.1.6.r.i.t.i.i.r.n.n.I h :.l.0.r.p.B.i.i.c.m.v.E.c.g.F m i.M.-.' s.s.r.x...,.l - i A l ....u *.E.B.r.c.L...m h =.p.r.r.E.|.*X*X.XM.i.1.i.p.i.r.t.2.r.i.t.i.i.r.r.l.u.G.~.~.U.P.~.U.{.y.0.c.y.{ :.l.u.d.r.p.r.1.y.1.0.0.r.p.s.p.r.1.i.p.i.r.r.r.r.p.i.=.-.s.E.s.1.r...I I r.'..X;X|.R ' L.'.E.E.'.v.1.r.Q k I -.-.4.' Q -.s.i.4.r.r.=.1.s.d.s.p.0.=.g g { p.G.s.Q V -.s..X'.E.v.1.Q p.i.1.V e >.c.v.-.1.A 8 V Q =.Q u U .X}.L.-.r.1.r.=.=.-...} Q A Q Q Q Q C.c.c.,.L.}.E.B.r.} Y.'.-.p.i.=.Q m 7 7 C 1.L.B.,.r.r.m U 1.R F ,.} s.B.&X}.p.M.L.-.} 1.p.r.r.>.=.r.i.p.r.i.p.p.F A I ,.1.=.r.r.I g A l ..oX,X/.i...e F %.>.r.i.c.i.i.p.i.1.,.i.oX.XY.B.-.4.L..X'.c.r.4.r.r.4.6.r.r.r.r.4.r.r.r.r.r.i.i.r.r.i.r.r.r.,.a.s.r.4.i.r.5.1.4.,.6.r.} U ..c.-.y u u i g g r.'.c.L.",
"s.L.s.s.c.r.O.k.r.P.E.x.6.t.p.r.m d p.L.k.L.:XV.] -.s.c.&X6XL.1.M.M.,.p.Y.&X.X2X}.'.`.A.L.E.L.'.,...6.B.A...=.M.M.`.E.`.`.E.'..XM.p.2.i.k.k.s.c.M.c.k.s.r...K g B ,.L.B.1.,.c.2.V.E.c.L.;Xr.i.].M.1.p.c.p.r.I ,.c.B.}.'.E.,XE.v.1.r.c.B.B.M.v.,.Q A i m ' p.}.&X2X.X&X3X.XE.L.x.p.r.] -.s.B.E.L.c.1.1.C.|.B.L.}.&X;X&X'.M.v.M.v.B.1.r.L.T.x.r.B.|.B.1.-.r.s.s.s.`.L.x.A..XL.1.s.s.r.c.s.p.s.p.r.i.s.s.i.r.p.s.s.l.=.C U l.v.0.r.B.1.-.M.s.r.c.4.' p.=.=.s.c.E.;X,Xc.} 1.^ c.| l Q g C A.i.' x.`.s.c.E.T.] A m Q A =.t.B.L.&X3XT.c.i.r.p.s.t.r.r.r.p.s.p.i.i.i.0.s.@.=.l.E.#X#X&X~.4X=X+X<X+X.X#XB.s.s.:.s.y.0.p.1.8.r.p.u.s.s.p.r.p.p.i.r.r.r.0.r.1.1.1.M.'.p.B.Y.E.L.v./.|.B.E...m ' i.s...} ' Q r.B.i.=.s.E.i.p.Q V ' i.p.r.r.,.:.s.d.@.r.G.1.4 u S ' B.U.' T -.i.c.L.....s.=.i.p.Q m V F i.L.m.s.c...*.,.$.,.Q Q i.3X,XE.1.r.s.i.Q Q Q ' ~ ' 4.-.} U } E.Y.Y.'..X;X&X|.M.s.,XM.U 1.1.,.,.} -.s.@.s.E.c.=.-.' m =.1.1.s.Y.g.r.c.E.g.1.Y.L.1.>.%.r.i.s.r.>.r.r.r.r.r.i.1.} m.E.}.r.1.r.I u m V F s.Y.g.4.>.} R s ..m.m.c.g.,.s.p.p.M./.E.'.m.v.s.i.v..X|.Y.4.,.1.4.4.1.6.r.r.r.4.4.r.i.i.r.4.r.i.r.i.i.r.r.r.,.4.r.4.4.r.r.5.4.g.i.s.p.E i U r.' 7 i A P C A i.M.p.B.",
"L.c.6.c.s.p.p.L.2X|.T.M.p.x.v.2.V d -.k.B..X`.| A r.M.M.*XL.m Q E.OX:X,X.XOX'.Y.`.M.c.T.B.x.L.E.i.=...Y.=...:XOX.X,X;X&X&X.X&X.Xp.r.i.k.v.c.p.t.s.v.s.i.r.E g m Q c.M.2.=.1.i.=.T.XX}.'.}.s.i.s.....E.v.r.y.1.1.L.Y..X;XE.E.B.E.v.s.Y.i...U I g g g i Q v.XX3X&X'.L.E.T.c.x.s.-.1.1.U ^ p.r.,.=...p.E.'.L.=.B.,XoXE.M.p.r.i.s.s.c.p.A.`.M.r.p.A.E.p.,.s.M.c.x.v.M.6.r.L.E.x.r.r.s.r.s.s.s.x.p.p.x.c.x.i.p.c.v.v.t.E g C @.u.u.s.i.} ..g.i.1.m.1.p.B.i.r.M..X3X|.| l 1.M.c.c.E.v...=.M.`.r.s.x.s.B.,XE.=.Q B g r.i.0.p.v.=.Q ,.-.r.r.r.p.s.t.r.i.t.s.s.p.i.i.t.r.p.1.1.d.c.n.G.B.:.u.D.d.;.A 0.D.p.@.=...p.s.p.y.0.r.r.r.r.0.0.0.i.i.r.0.r.i.r.1.,.r.s.i.p.s...L.Y.L.E.E.L.} 7 V m ~ ,.1.s.' V g R }.M.=.i.p.=.R M.i...' ' =.r.p.,.y.i.r.r.l.8.g 7 g I { n.s.Y :.Y.B.m...g m ..Q c.r.V g g A r.c...,.v.1.r.i.g.L.E.c.v.'.&Xv...p.i.=.A Q ' ......1.....~ c.;XoXE.;X&X|.L.L.M.M.'.Q u ..r.p.p.p.|.}.-.:.l.1.r.i...-.-.=.s.c.J.m.g.r.M.....C.m.i.1.1.,...=.1.1.r.1.i.s.r.1.A A s.E.s...,.-.g 7 I ..v./.B.=.I F A A I Q m.m.1.p.s.r.p.L.E.v.4.c.r.4...p.L.;X'.v.,.1.r.r.r.r.r.r.i.i.r.r.r.r.r.4.1.4.r.1.1.r.1.1.1.-.>.4.4.4.4.4.5.r.4.6.6...V u g A l m m m V ' p.x.E.'.L.",
"' Q *.M.c.B.P.`.L.'.M.s.V.c.6.c.g 2 *.E.,X`...5 m k.L.c.v.Q 5 M.E.`..X}.B.B.M.s.B.A.x.c.M.L.x.i g s.T.B.Q ,.B.M.OX|.L.c.c.p.c.s.r.p.c.v.c.k.s.k.c.v.M.s.Q i u A ,.v.v.Y.Y.B.B.E.E.c.M..X*XB.1.r.} M.,Xi.r.s.c.v.{.E.E.p.U ,.L.c.} A =.g 7 u A I I m g ,.XX,X.XL.L.M.B.c.=.Q ! ! B.|.1.A m u g V 1.M.p.Q ' ..B.M.E.s.r.i.i.s.c.s.s.6.r.x.r.r.x.c.E.p.=.,.i.s.1.| 6.E ..'.E.r.r.i.s.r.p.s.x.c.p.s.s.s.s.i.p.s.s.s.1.T g g ) s.l.s.1.g.g.r.s.s.M.v.1.c.M.c.B.;X|...m P x.s.=.r.c.*.1.v.c.=.' p.6.v..X}.1.Q ! ] ! v.3Xs.r.i.U u ..s.p.p.s.s.s.s.s.k.t.i.i.i.i.i.p.p.8.1.;.:.-.:.0.:.T i m c a i @...{ A I Q =.p.p.8.y.r.r.r.r.0.0.r.r.r.1.,.1.r.r.,.r.1.1.,.1.1.U i.E.c.i.g.C.i.I V m V g } g.Q A =.r.g.I ' p.1.-.r.p.i.i.1.Q V ~ s.1.l.,.s.M.) g m z K ) :.G.U.B.E.}.&X&Xv.L.B.v.i.1.1.} -.V g v.p.>.-.v.=...p.|.'.&XB.s.B.L.R g p.,.I i ..,.c.M.B.m.c.'.c.E.'.E.M.s.L.L.1.,.r.1.} p A p.r.i.p.r.v.c.X.:.1.I ..c.M.Y.R ' c.L.g.I F c.'.1...s.i.i.=.r.1...$.-.>.i.r.r.s.i.=.8 7 U ..U } 1.1.1.r.v..X,X&X;XB.F g U } v.1.i.=.-.p.p.4.C.Y.C.1.~ 1.4.,...g.v.L.s.1.-.r.r.r.r.i.i.r.r.i.p.r.1.1.1.1.r.i.r.1.1.r.1.1.1.>.4.i.s.s.i.4.4.s.p.s...g i m m d g C m A A =.E.Y.T.L...",
"C Q ,.v.k.A.A.v.,.r.B.B.k.v.A.c.U 7 ,.|.E.^ u h y -.P.s.' B 7 p.x.L.L.s.p.c.M.c.6.s.c.c.v.M.r.Q } p.M...' 6.Q s..XL.p.,.1.,.s.i.p.c.c.s.s.s.s.t.Y.Y.B.O.m V ' =.Y.E.!.5X,X.XXX3X3Xt.' ' U g g c.3X,Xs.V i.v.r.B.'.i.i.=.} i.M.v.Q 7 ' 0 g I A g V } p.XX,XV.p.c.6.6.i.r.=.' } $.M.M.=...^ g U 1.v.c.4...1.} B.E.m.p.i.s.s.s.h.s.s.c.s.p...^ p.M.p.p.6.=.=.v.E.B.x.} =.'.E.1.r.s.x.s.x.p.s.c.p.s.x.x.x.s.s.s.c.c.r.' g g 1.B.t.l.L.C.;XE.i.p.s.Q } ,.c.B.E.E.=.e d *.r.c.c.OX,.g v.x.=...1.p.6.L.L.=.' O...p.p.i.-.U B.,X&XE.E.c.p.p.p.p.p.p.t.r.p.r.r.i.t.r.r.p.s.u.1.8.y.l.c.;.A 2 i ' 1.G.P.l.@.A A Q / 8.y.1.r.r.r.p.y.r.r.u.i.y.p.i.i.p.p.i.s.i.,.,.i.s...1.m.m.s.s.M.'.}.s.' A i $.i.F F c.p.' A i.p.r.g.c.r.,.4.s.1.Q } i.r.c.p.s...9 U n./ n.l.n.'.'.].].'.&X'.Y..X;X|.E.s.p.i.m.1.1.Y.r.Q =.L.s.M.Y..XL.v.c.M.E.g.I m s.g.A 7 -.i.E.|.oX|.E..XB.C.B.i.-.=.=.r.s.c.-.-.=...i.s.i.Y.B.s.,.s.y.l.@.i Q v.;Xs...C.&X}.r.} g.'..Xs.=.4.r.1.=.=.i.c.B.c.r.r.1.>.4.p...i k R ' } >.r.,.g.E.Y.E.C.B.Y.i.U ' J.|.J.c.-.Q 1.1.,.s.'.c.i.4.~ ....=.1.B.s.i.1.,.r.i.r.4.r.i.i.r.1.4.i.r.1.1.r.r.r.i.i.1.r.r.4.4.r.1.1.r.r.i.i.r.4.p.L.B.| d l A C I A g P 1.s.x.E.E.}.r...",
"p.c.p.p.M.*X&XT.M.r.p.c.s.x.M.p.Q 5 *.v.*.i u E l O.A.-.g I d m *.Y.L.1.r.c.p.r...6.M.c.v.s.=.r.|.E.A.,...B.|.L.B.r.,.,.s.i.M.p.t.p.p.p.c.c.2.' 2.'.-.7 Q B.|.5X,X,X;X|.k.Y..XE.p.I i u U ] U v.G.s.Q I r.c.i.M.Y.c.p.} 1.M.r.v.-.I E.Q A I I ' ] B.}..X}.M.s.p.x.x.6.*.O.=.=.=.E.L.i.p.p.p.B.x.1.,.} Q >.} M.B.i.i.s.p.r.i.s.s.s.s.....E U p.M.r.=.^ A U r.c.,.p.x.M.T.v.,.i.r.p.s.c.r.p.c.p.x.s.s.s.p.p.p.k.v.v...0 g B.L.-.L.'.}.&XM.v.c.i.1.v.c.E.|.;Xv.m u g r.M.M.A.M...r.'.c.1.s.t.-.i.c.L.p.=.] ' c.E.;XM.=.T..X~.'.}.c.r.i.p.s.c.c.p.r.s.r.r.p.s.r.0.i.0.s.r.y.y.r.:.A g 7 ' .XL.n.:.l.B...' ..I 1.s.r.y.r.i.y.r.1.1.0.,.r.i.i.r.r.r.r.,.s.p.r.1.r.=.r.p.p.i.c.s.B.L...Q 1.1.v.4.} ..i.,.v.p.s.1.v.Y.B.L.M.p.4.v.E.Y.i.1.8.8.0.' 0.~.1.y.~.' 1.-XL.r.i.p.r...,...,.i.=...-.c.,.,.s.....p.i.=.Q E..XE.M.v.'..X&Xp.>.Q >.v.I V Y.E./.B.i.1.1.h.1.,.i.,.1.i.r.p.r.i.-.r.=.c.v.,.p.B.Q Q 1.@.8.c.0.U -.r.c.} $.=.,.1.I 4./.;XE.p.-.r.p.,.r.r.i.r.i.r.,.4.1.r.1.s.U s g A A } } =.I A -.4...=.s.s.-.B.;X6X,X|.L.Y.M.c.,.s.M.E.1...$.A U Q Q =.c.i.4.i.r.i.,.1.1.1.r.r.,.>.,.4.1.4.i.p.i.r.r.r.1.1.r.1.1.4.,.r.r.1.>.=.' R ~ ..} m g A g m ,.1.P ' i.M.'.OX,X'.} 6.",
"r.k.M.B.:X*X'.V.t.,...c.x.s.s.s.U i r.=.2 U s.| Q x.v.E l ,...| M.Y.p.r.1.c.s.Q U E.s.i.c...=.p.L.1...s.x.L.r.' x.i.r.p.s.x.x.x.v.c.s.=...c.I g 1.r.8 g E.v.p.p.-.r.i.i.-.c.t.} g i g U k.s.Q =.A g 7 Q ..i.M.M.n.i.r...r.c.s.c.=.p.1.m Q I v.c.E.c.L.'.E.c.c.s.r.s.r.-.-.*...,.A.&X`.M.x.s.p.*.} ' L.E.p.B.E.v.c.s.c.1.s.L.i.g.1.s.| ..-.r.T.x...P i l ,.s...' E.Y.|.T.p.r.6.p.s.s.r.s.x.r.p.c.x.g.s.s.s.p.p.s.c...* ..P.U ' |.L..XL.r.v.E.L.M.B.s.c.M.c...V A C p.c.p.r.I A r.p...,.s.L.r.,.c.1.p.,.U i.&X3XT.&X.XB.r.v.s.p.1.-.=.p.B.1.2.p.i.r.r.i.p.t.r.r.p.s.s.p.1.0.p.X.g > i T I Q -.) B.}.1.' -.1.....c.c.p.M.L.s.r.i.r.s.i.r.i.r.,.1.p.:.1.1.,.r.s.p.-.>.-.1.s.c.1.Q V U s.c.i.-.c.,.p.r.1.1.r.s.L.'.'.,XL.r.s.Y.|.'.m.s.1.,.r.c.v.p.,.p.M.I s.;Xs.} =.Q u k 7 g g u m Q p.i.r.s...g -.r.,.,.s.$X,X}.r.-.E.B.c.i.=.r.-.1.r.M.|.&XL.i.1.,.=.1.i.1.,.r.i.i.r.i.r.p.p.=...r.s.i.p.s.=.} p.1...n.n.=.p.,.r.p.B.E.E.E./.L./..XB.,.=.1.r.4.r.i.r.1.p.4.,.p.,.p.B.,.7 g g ' ..7 u e m g Q ..' ..=.U ..L.E.Y.c.Y.B.L.E.&XL.B.}.i...-.Q V F A Q v.E.i.,.4.,.p.1.1.4.r.r.r.1.1.1.i.1.i.,.1.i.>.i.i.,.r.i.1.1.4.r.>.r.p.Q g V m 8 7 7 u d ,.v.M.p.p.r.s.p.'.2X;XY.1.1.1.",
"U Q c..X'.A.A.x.1.1.p.c.s.c.c.r.E ! B.p.^ x.L.p.r.L.L.A U T.k.r.}.B.6.c.x.p.v.r.A v.B.x.s.,.,.i.-.U } c.x.x.6...B.i.i.s.p.s.p.1.p.2.Q g V ..U } U g u ' 1.Q Q 7 g g I =.1.1.Q u g g ' s.s.Q g =.L.r.A } -.s.r.c.n.s.r...1.p.M.s.v...I g U =.'..Xc.,XP.! p.B.s.r.p.p.i.1.,.1.-.| i.`.*.A 6.i.1.c.4.L.}.1.i.E.s.v.c.p.s.s.s.s.s.Y.`.*.=.E.&XL.6.p.r.' U ^ 6.k.c.|.&X.X,XE.p.i.p.c.p.c.p.p.s.s.c.c.g.g.s.s.p.p.s.s.M.| m ! ,.O.T.}.E.E.B.r.1.c.Y.L.p.p.1.I g g m Q U r.c.c.1.p...,.x...r.OXE...1.p.r.] ..s.|.'.P.E.M.L.c.r.i.r.c.c.2.U B ' ) 1.t.1.t.i.i.t.i.r.r.p.l.0.1.0.y.c.0.Y 7 C i S n.p.A G.c...I Q ..-...} ..1.M.M.L.E.M.p.p.s.s.i.i.s.p.1.s.s.p.r.i.c.c.p.p.,.=.,.i.i.=.' p.}.L.-.$.i.i.r.m.s.s.r.-.p.E.}.E.p.1.v.Y.E.Y.L.p.r.1.r.p.p.r.-.M.r.} E.Y.,.,...A k m u m Q ..s.M.p.1.r.1.i.-.>.,.g..X,X6X'.-.s 8 $.s.1.-.1.i.i.i.r.,.4.c.v.p.r.1.-.1.r.,.,.1.,.,.,.0.0.i.1.} ..s.c.c.P..X}.E.|.E.D.D...V ,.p.c.4.s.E.'.Y.c.i.L.B.r.=.1.s.s.i.4.,.4.i.c.p.1.1.} ..-.,.m m =.}.i.m i u 2 Q g.1.,.....A Q p.s.,.' i.-.i.s.L.Y.E.M.i.} ' V 7 7 A s.&XE.1.r.s.4.p.r.4.r.6.1.1.4.r.i.4.1.1.,.,.1.-.=.} Q ..1.r.i.i.1.L.1.Q g e m F I F g m A x.c.| *.-...x.Y.&X|.v...=.=.=.",
"' 6.k.x.t.r.6.p.*.| v.c.t.x.k.1.-.r.M.r.i.M.,.^ c.L.T.I | c.' ' -.,.1.r.r.p.c.' g *.x.6.=.-.-.-.' ^ 6.E.,XE.c.s.6.s.x.,.=.x.r.V Q Q m u 7 B I Q V U E U A 7 g A m B ..p.i.-.Q g g E p.v.s.,...1.E.E.Y.E.'.M.1.M.s.s.i.p.v.c.Y.1...0 7 I p.|..XL.v.&X2.7 ..i.1.v.p.r.r.i.r.6.' g ..p.=.I ^ r.M.p.=.r.i.G r.E.,.L.B.v.c.M.c.p.v.M.6.U v.E.B.*.V M.x.x.M.c.M.E..X2X.X&X&XA.,.,.i.c.s.c.p.i.s.p.x.x.g.g.s.p.p.p.s.s.p.A 7 Q p.V.'.E.Y.c.c.r.Q =.B.B.p.c.p...' ..=.1.-.c.x.' *.s.1.|.:Xc.`.A.I } s.B.B.T.L.B.P.XX'.V.v.2.-.M.c.-.=.-.i.' g g K v.Y.i.i.r.i.i.r.r.i.p.c.1.8.p.y.d.u...M i T #X~.@.' } A 9 g } ,.,...Q 7 u m g } c.i.M.p.s.p.r.i.p.i.,.i.i.r.1.1.r.r.1.i.r.1.1.1.i.g.B.Y.'.i...r.p.M.v.L.1.r.B.v.v.Y.L.L.-.=.J..X'.Y.L.r.r.r.r.r.1.1.,.p.1.,.Y.r.=.1.I m 1.r.} ..M.M.p.} ..s.C.r.i.r.i.i.M.oXE.c...m 7 m ' 1.,.i.s.1.r.1.1...} r.s.1.$.1.4.i.i.,.1.r.1.,.1.r.r.i.=.Q ,.p.c.B.}.;X|.E.L.P.~.d.m 8 ..s.p.Q A A Q Q F ~ B.Y.1.$.1.i.p.p.r.1.r.i.s.i.4.,.Q I A Q m g I 1.F k A I m ,.i.,.r.,.-.I I } ..=.1.} g A A A ..L.B.1.$.I u u R s..X.XM...,.r.>.r.>.r.r.4.1.1.4.i.i.1.1.,.1.,.1.r.} g V Q -.1.p.c.p.=.F g s V F k m s C E 2 m E g ..E.r.B.`.'.B.p.*.*.=.=.",
"*.B.B.v.s.s.6.c.Q g r.c.s.i.1.1...1.1.=.s.x...| A.T.c.m -.k.=.1.*.' | 1.p.r.c.' A 6.s.1.-.,.,...U m ' r.'.'.}.s.c.x.i.6.6.=.A u g g g B V Q ] i m 2.-.m m m A 0.Q t.V.B.=.-.' m V i.v.r.v.}.E.B.=.=.1.i.M.-.p.M.M.p.i.p.v.M.B.=.= 0 -.s.E.;X}.E.3Xp.i 0 r.v.p.p.s.p.p.c.c.*.V d ..s...A ^ 1.i.s.s.r.v.c.}.,Xm.M.v.s.>.s.M.B.B...= y c.M.c.=.u c.v.T..X`.E..X|.T.&X|.L.s.s.B.M.p.s.x.i.s.s.6.p.x.g.g.s.p.p.s.s.s.c.Q V v..X;XB.L.m.p.c.i.' ..v.c.E.M.s.1.i.s.r.r..XB.p.' A.A.L.,X`.r.1.B.Q Q L.B.E.&X.X'.V.V.p.r.Y.O.V Q A m I ..,.' m g m 2.v.r.1.r.i.i.i.i.t.s.l.1.p.l.r.p.y...i M 0.1.g z K 0.-.V U B.Y.r.r.p.1.z g 7 u V A r.s.r.1.r.r.,.,.r.1.r.r.i.r.r.r.1.r.i.p.i.r.r.c.Y.B.v.Q ' p.p.s.1.' } c.B.>.i.|.,XC.,.1.E.&XE.B.B.1.4.r.r.r.1.r.i.;.i.,.i.1...Q g V U A >.c.s.' A 4.'.E.4.r.Y.g.s.v.p.p.I g u i A Q r.v.s.p.r.1.i.g.>.I A ..,.>.1.>.4.r.,.=.-.1.1.1.r.r.r.p...Q s.s.c.B.L.c.i.r.=.1.L.B.:.=.B.c.=.V i m F V u V s.}.r.=.1.1.4.i.r.r.i.i.i.i.r.>.' ' ~ V s Q Q ..=.-.c.v.Y.i.' 1.4.=...I A A C A Q V 7 V V g Q B.L.,.=.A A =.c.L.Y.B.p.-.,.-.,.p.>.1.4.r.r.r.1.1.1.,.,.-.1.,.r.p.Q V U ..1.p.c.c.=.& i A m m A F ' 5.s.T.i...P m x.|.c.'.OXE.s.r.,.,.,.1.",
"1.t.T..Xp.1.r.c.' u 6.x.t.,.' ' U ..*...6.x.p.x.M.`.-.d B.*X:XT.Q 6.B.v.p.,.c...P B.s.=...E E C g U B.M.6.,.T.=.*.,.E C ^ I 7 y V E B V ..p.s.H Q O.r.=.} -.] U } v.V.B.Q ..A u } s.p.p.L.v.s.E.p.,.=.1.} U v.E.}.s.M.v.B.M.,.A = B s.=.c.P.Y.&XY.' i B t.B.M.r.6.s.i.i.,.m y ^ A.1.U g P 1.A.E.s.m.}.oX}.L.-.m A m 7 R 1.i.1.u 8 U s.x.B...u c.&X.X,X:X.X.X'.`.s.M.c.r.6.p.s.p.p.M.x.s.s.p.g.x.g.g.g.i.i.s.s.s.r.Q =.M.B.Y.Y.L.c.M.B.s.1.r.v.m.M.p.1.=.1.i.p.M.s.Q 1.6.,.*.}.|.B.6.s.,.Q B.E.P.}.'.L.E.c.1...1.t.s.,...m K ..O.} g i Q } =.-.i.1.0.i.t.p.p.p.p.i.1.i.s.p.s.r.' m A i } -...r.1.>.Q -.|.|.v.B.B.Y.U ..-.A g g ..r.1.1.r.r.1.r.s.r.r.i.p.p.i.i.p.i.r.4.r.i.i.r.r.i.r.g } c.B.i...-.r.s...I p.oXE.i.1.g.E.Y.c.s.c.1.4.r.r.r.r.i.i.i.i.-.>.1.A 7 k u I } s.r.} ' r.p.s.Q A =.,.Q r.i.,.,.I m g g V m p.i.....4.c.1.s.U 7 g ..1.1.p.r.i.1.=.-.1.1.1.,.1.0.1.r...} M.B.c.c.p.-.-.i.r.:.G.G.Y.}.&Xv.i.-.1.c.s...A F r.Y.,.=.r.4.r.i.1.4.r.i.i.s.p.=.' ..,.I V 1.r.i.L.i.i.B..X' ' c.1.s...A g c c u 9 g m A g / B..Xn.,.} Q ,.v.4.=.1.i.1.-.,.=.-.r.,.1.1.r.r.r.4.,.,.1.,.=.1.,.1.4.A ..i.p.c.B.M.4.A s V V s R i.Z.}.;X&X|.B.r.r.p.c.r.,.E.}.M.,.1.,.1.2.6.",
"| r.x.t.O.=.=...P g 2.t.,.1.| ] ..-...' 1.V.B.p.B.P.Q h M.B.A.6.' T..XL.x.x.p.A P E.M.6...V A g i s.T.,.-.I ' Q T.;Xc.Q *.6.| ' r.].c.} c.B.P.E.'.B.Y.E.k.c.1.! ,.v.B.B.A A g V ,.r.,.v.L.] U r.L.v.p.B.Q } B.'.'.r.r.-.1.=.V 8 V V A g s.P.c.V.r.c.c.r.c.p.p.s.r.M.s.-.Q i A M.p.....A g p.&XE.E.&X&X.XM.Q g s R A k =.v.s.r.Q r.E.Y.r.r.^ E '.'.'.'.A.c.c.p.p.,.M.M.x.r.r.c.B.c.E.B.s.s.x.c.i.g.g.s.i.r.s.g.s.1.Q Q l E m Q -.v.L.M.p.p.c.v.B.m.s.p.i.B.}.}..X|.B.A.&X`.OX2XE.x.s.1.x.,.| B.;X,X}.s.1.,.r.r.p.r.c.r...m m I H m u A M.}.'.c.t.2.r.p.p.i.t.p.i.p.r.r.p.c.s...A Q m m v.=...}.M.B.|.;X;XB.r.p.=.U e ..i.U m k A ..1.i.r.1.i.p.i.1.1.1.1.1.r.i.i.r.4.r.r.r.r.r.r.r.} 7 -.M.v.>.i.c.v.Y.B.i.m.L.r...=.i.v.v.c.c.g.r.r.4.r.r.i.i.r.s.,.1...Q g u V Q -.s.s.4.r.1.,.-.A g ,.L.s.' i.=.-.r.,.=.U A V ~ i.Q V U ..s.,...i 8 I r.s.r.1.1.,.....r.s.i.r.-.,.1.1.r.-.-.L.c.i.r.r.,.1.i.r.0.s.r.c.}.}.i.B.Y.E.).J.v.s.r.c.v.1.>.r.r.i.i.r.i.r.r.r.p.i...} $.$.' ~ U m ..B...Q M.C.g p.M.1.,.' K V I { { { Q A g C n.-X.Xy.$.=.,.r.1.-.r.C.c.,.$.,.,.-.>.1.r.1.1.1.1.1.1.1.r.1.,.r.4.1...k m -...Q Q I A s I I ~ =.C.&X&XoXE.A...u u i.B.| ^ } B.B.p.=.r.i.1.1.6.",
"B x.c.^ =.c.,.B 7 d O.-.] 6.1.r.2.,.' | x.A.v.s.!.s.l g 1.E U ! p.r.Q =.i.=.P 7 Q L.E.L.c.r.s.r.p.`...m v.s.1.r.`.T.c.M.E.E.'.,X!.&XT.p.B.B.'.3X3X3X'.'.E.L.c.V.c.c.B.c.H 0 g Q -.r.s.L.c.....O.L.-.1.c.M.|.'.Y.p.Q m u g u i g m I } O.v.L.i.s.c.v.s.=.0.O.Q I -.r.,.P d g Q ,.A i.r.V I 1.r.x.'.E.B.p.} g i } p.s.1.s.v.i.r.>.T.|.A.i.x.c.M.}.B.`.E.r.1.r.=.=.i.i...*.p.x.x.r.B.A.p.r.s.s.x.i.s.g.s.i.r.s.g.s.p.^ C Q B.x.B..Xv.g.i.r.r.i.s.M.oXm.1.i.Y.'.L.L.M.'.'.|.T.L.*.Q Q c.3X&X'.E.P.'.}.v.r.r.s.0.1.t.,.-.*.r.t.! V u i I 1.].,X<XY.r.r.p.p.i.i.t.p.p.p.p.i.p.p...A g V m i...A p.,...Y.,X|.M.-...,.} g g ' ' g g V m =.1.i.r.1.r.i.1.1.i.r.,.1.i.p.r.,.r.i.i.r.1.i.c.i...I 1.v.p.-.M.B.i.p.L.}.|.B...' } >.p.m.L.B.g.r.r.w.r.i.i.r.r.4.,.s...} ..$.>.B.v.|.E.p.,.1.p.B.p.=.1.B.}.i.' =.r.i.r.,.Q =.=.s.B.r.$.' Q =.s.=.A V U ' -.r.>.Q Q R Q =.>.-.1.,.1.r.1.r.i.r.M.r.-.-.1.1.1.-.=.@.:.=.0.E.B.U 1.M.Y.'./..XoXC.p.g.i.1.1.r.i.i.i.p.r.4.,.r.,.Q } ,.Q Q } m g r.|.s.r.E.p.I E.L.s.-.0.M.B.U.#X#X#Xy.' ..n.-X.XB.=.-.,.i.....v.L.E.M.p.1.1.r.r.,.i.1.1.1.1.4.1.,.>.4.1.r.i.i.1.I i g i...g g s A I 8 I c.L.c.s.6.r.r.' V g A 1...Q ' *.A.A.M.r.1.1.1.2.r.",
"1.`.*Xr.=.k.s.m l U ,.-.P E U ..=.O.! =.s.*.] p.k.| j I A.s.' ^ =.M.p.c.r.' I U C ..s.v.M.E.OX'.'.T.6.1.M.s.L.c.M.p.c.Y.L.B.B.A.B.U U ' -.r.Y.L.M.E.v.L.E.'.V.B.L.s.M.p...V U Q ,.c.'.|.p.,.B.s.=.A c.i.;X].,.I A g 7 g I g A Q g -.V.E.c.c.1.r.i.,.=.' ,.s.v.-.s.s.r.Q A -.r.U 1.s.p.} Q ' Q ,.Q F Q m s U ..p.E.|.L.p.r.-.=.-.Y.v.x.p.r.p.M.L.A.B.s.,.r.1...r.r.p.....6.r.s.c.c.,.^ ,.x.i.s.M.s.g.s.r.r.s.g.s.x.' U T.`.,X.XB.c.,.>.4.,.>.i.c.B.} Q 1.B.i.~ } =.Q ' E ' =.A g ..B.}.L.T.P.L.1.s.k.c.i.c.s.s.i.2.=.' O.A.v.s.,.Q 1.B..X~.L.s.t.r.p.p.r.r.p.s.s.1.p.p.p.1.K i A ..i.v.'.r.-.v.r.'.|.L.E.E.p.=.m g V I A m Q 1.i.p.r.1.r.r.,.,.r.,.i.i.1.1.i.r.-.i.r.4.r.r.r.r.i.,.M.M.r.C.oX&X;Xv.J.c...Q 1.c.i.} =.r.c.c.v.v.s.r.r.r.r.i.i.i.i.r.,.s.i.E.E.Y.;X.XY..Xr.' ,.s.c..X.XB.p.,...I ..>.c.p.i.-.U c.L.L./.'.B.B.v.1.,.>.=.-.Q s A $.} F ' } ....' } r.1.1.i.1.1.p.i.p.1.-.-.1.1.,.1.i.1.1...U -.=.7 } i.Y..X'.`.E.s.1.1.4.1.1.r.i.r.r.4.,.r.i.p.-.A R A m V } ,.c.Y.L.x.r...F } '.E.L.v.v.P.D.L..X}.E.E.B.]..XP.r.r.:.g...=...4.L.r.} 1.s.i.=.,.r.>.1.,.,.4.r.r.,.=...-.=.4.r.i.>.m 7 U B...g V m k g s R 1.' g g k k m d m P -.M.Q ^ r.r.B.c.c.1.=.=.6.r.t.",
"! 6.*.U t.r.*.O.^ 6.r.p.c.U U =.r.m l ] 6.s.c.L.c.r.t.A.t.p.s.M.r.L.M.6.=.`.L.E.Q A 1.s.x.x.L.A.`.B.Y.v.6.1.,.s.s.M.c.c.L.A.s.6...V I ..i.m.c.B.v.p.~ -.E.}.|..X..@.p.p.c.c.B.s.d.'.#X#X8.r.r.l.-.-.M.,.}...m ..U A m A g A A i I c.-.-.M.r.-.r.r.r.s.' ..E.&Xi.x.x.=.U r.c.^ 6.L.s.s.c.-.p.i.p.m ..M.M.=.Q =.s.E..XE.B.p.=.=.=.A.x.i.p.p.i.p.s.p.i.r.6.1.1.6.r.i.i.i.i.s.c.x.p.c.1.-.r.c.c.c.c.s.s.r.6.p.s.p.p.x.E ' i.T.M.M.E.p.i.i.i.r.,.-.,...V s ' -.Q U ' F e m U m.Y.F E B.Y.c.i.v.p.} I r.p.s.s.s.c.s.s.i.i.2.r.v.B.s.r.c.c.T.'.T.p.i.p.i.i.r.r.r.i.s.c.c.r.l.s.] m h E M.G.&XQ =.B.t.E..XA.k.&X`...^ g Q ,.,.-.x.E.M.&Xs.I l.r.8.=.@.0.1.8.;.8.r.0.i.1.r.r.r.r.1.,.6.p...r.M.T.|.,X,X|.x.E.Y.,.} U ,.=.*.1.6.r.p.| 1.r.r.i.i.r.r.,.,.i.1.c.i.s.D.;.c.~.m.' ;.G G h.c.E.;XE.4.i.Y.1.U >.i.r.i.6.,.r.E.6.s.Y.s.=.i.c.s.4.-.......U ..' A =.} R ..R -.} i.c.s.i.i.4.1.>.' Q A Q r.s.i.r.4.1.} u C U u g E p.E.s.p.i.*...p.1.-...1.r.1.s.,.4.r.-.1.r...Q A A u I Q Q L.|.M.-.U Q m.v.B.L.s.c.n.s.@.r.E.E.L.L.n.c.c.l.0.1.0.1.,.>.=.=.i...8 m ..s.1.=.4.1.=.,.=.-.r.r.=.-.=.U ..i.n.p.S u A A s.=.m | ..g A ^ ^ E d Q i.' P i m *.c.|.,XY.x.p.i.p.,.} -.r.-.,.r.p.",
"H r.1.^ s.V.c.x.r.c.B.L.V.r.k.M.1.E | r.t.x.B.A.c.A.L.1.*.A.'.1.6.6...I =.|.T.i.I Q s.x.v.v.M.x.M.1.i.1.s.s.r.,.r.c.c.c.M.s.r.r.r.1.i.c.m.E.Y.B.v.$.g U s.M.L.'.s.n.Y.D.B.L.W.L.~.,X'.s.I 1.p.p.L.M.p.E.1.i g M.c.r.,.s.1.;.-.-.L.v.-.c.B.,.1.i.s.1...g A d.i.u A v.=.i P V d 6.c.6.x.A.x.c.s.p.'.}.;XOXv.-.r.A.|.Y.c.c.c.r.r.c.M.s.i.p.p.p.p.x.s.p.i.i.r.r.i.s.s.x.k.s.s.s.s.p.c.s.s.s.s.p.s.c.s.p.p.s.x.x.s.r.s.Q u Q A.'.|.B.v.s.i.1.-...} ' ..A s I ' ~ ,.c.r.1.r.x./.x.^ B.;X'.l.p.c.1.{ :.M.k.t.i.i.i.s.c.p.r.p.k.s.r.-.1.v.M.}.!.v.,.i.r.s.p.t.i.i.t.p.s.0.r.s.:.A 7 c r.E.XXB.r.].k.c.{.'.Y.A.A.r.U m l E p.s.B.'.'.E.,Xp.' p.1.1.1.=.=.r.r.r.8.r.0.y.r.i.r.r.r.6.1.1.6.,.6.r.r.s.B.Y.L.,.Q d I p.i.-.' =.-.*.=.i.=.6.1.r.....,.1.r.p.i.r.r.r.r.X.K y.l.M M w.1.=.h.w.s.w.' ..J.,X).1.4.E.|.`.M.c.=...*.`.c.$.E i.*.' ..=.=.1.Q -.v.-.%...m V Q ..Q A ..1.r.p.c.i.c...k I 7 ' B.M.p.,.w.r.E A l E m g ..A.T.s.,.1.i.1.} ..s.,.,.p.i.s.r.4.p.r.p.s.i.p.i.R } r.1...r.v.M.r.r.c.i.' Q ' 1.c.0.:...=.1.:.y.r.p.l.l.r.i.p.0.,.,...} ,.s.i...1.i.i.1.1.4.1.r.=.:.=.1.r.;...} c I ....A u i m A 1.| U x.L.*...Y.6.*.Q 6..XA.,.| E ' -.L.|.'.|.T.M.,.| ..-.,.,.-.:.-.",
"1.L.k.1.c.A.r.r.r.t.p.s.O.=.c.c.1.' 6.c.s.k.6.' ^ p...B k.k.1.k.E.v.s.p.L.T.s.=.8 U x.x.s.r.p.c.=.g g H p.x.c.r.M.M.c.x.c.p.i.s.i.,.} i.g.L.c.1.>.Q m U -.,.i.c.|.c.0.n.n.n.v.D.L.~.:.K S n.Y.B.c.} ..Y.g u U } c.c.p.i.=.i.c.c.p...=.v.=.A =.r.i.=.Q m A i...7 d ..^ d u C -.s.r.r.A.B.p.p.E.,X&X|.|.}.Y.Y..X2X&XM.6.r.c.x.s.L.c.s.i.p.s.p.s.x.s.p.p.p.p.p.s.x.c.c.c.s.p.p.s.s.p.s.x.k.p.s.s.c.s.r.i.p.r.i.p.6.x.-.d t.&XT.M.=.=.>.1.1.,.,.-.=...-.=.r.M.E.|.'.|.OXE.L.p.C Q ;XE.v.1.r.s.2.0.L.L.k.i.t.p.i.p.v.s.1.t.k.s.t.r.p.c.v.}.'.B.r.i.1.i.r.r.r.p.s.s.p.1.i m K 4 c s.'.B.P.=.1.n.' V.<Xc.M.`.M.1.U 7 I B.E.s.p.'.OX,X|.,.X.1.:.=.:.0.s.;.;.r.=.0.8.i.r.i.6.1.r.i.r.1.,.r.r.1.=.-.6.p.x.A -.1.s.B.M.6...-.r.r.1.1...,.6.p.,.1.s.r.1.r.1.s.d.s.r.' K :.;.-.p.|.'.L.v.,.,.R I ,.v.B.c.r.p.x.`.Y.$.r.s.p.g.5.F g k =.1.E C m g ' 1.B.g.r.i.I g V A I m g k I ..r.p.,.L.' 7 g g M.'.s.p.r.i.s.A m m p.p.i.B.E.E.E.x.-.,.' g I B.p.=.i.1.,.4.>.r.,.1.r.i.s.r.Q ,.,.1.i.1.>.1.} =.4.A A Q m A ' ..1.;.X.....:.=.{ =.8.1.i.y.@.4.,.' Q r.c.p.s...' 1.i...=.s.,...) A A T I m c q 7 c C g m K m p.c.} A c..X6.I g g ,.s...Q U ^ | c.|.E..XE.x.6.L.M.p.s.c.6.*.1.1.=.] ",
",.c.6.2.6.,.Q =.E.B.c.L.x.V.L.B.6.| r.k.r.s.p.O.*.1.2.-.-.B B r.c.x.L.'.L.,.P g - l 6.c.p.p.x.M.A g ^ s.L.s.B.'.v.c.x.c.M.B.c.p.=.' R Y.E.v.} A $.I u u g g V V ' Y Q s.n.G.p.:.n.s.Y m Q s.s.s...1.v.-.I I m ..i.l.i.=.' i.s.c.' ' i.v.} ' M.L.=...} ' Q r.:.....s.' 7 U 6.c.A.s.,.p.1.p.A.OX,X`.E.T.M.M.E.&X&X'.M.,.} ,.c.v.L.s.p.p.s.s.s.s.s.p.i.i.p.p.p.p.s.s.s.s.p.p.p.s.s.p.s.p.i.s.s.i.,.1.*.6.s.r.p.x.r.p...7 r.'.s.1.,...1.p.i.1.1.,.-...,.r.Y.;X,X;XE.E.OX'.&XM.U >.T.p.p.0.1.0.0.0.k.p.i.r.p.s.p.i.p.r.,.p.i.i.M.v.v.t.B.|.'.E.p.r.i.r.2.1.r.t.p.t.i.} u c g 4 r.,X'.'.1.H c K ' B.M.v.x.v.2.*.A u 1.&Xv.-.1.E.&X,XM.} =.:.s.1.,.:.0.0.8.c.8.p.r.0.1.r.1.1.r.i.r.6.1.i.r.r.1.,.,.,.1.i.c.M.B.,.=.1.c.A.|.}.M.r.-.r.s.p.r.1.1.i.i.i.i.r.s.0.1...m I :.'.|..X}.}./.B.B.'.Y.i.=.=.i.B.M.c.Q l s *.c.s.6.' d ^ p.$..X/.1.' ..I I m ` |.B...I A ..' Q ..Y.E.A u } r.r.m i i ../.L.=.-.1.r.1.U m =.;X|.|.L.}.|.A...E x.=.m i.}.p.=.p.r.,.r.1.r.,.1.r.i.1.Q Q =.I R ,.,...Q ~ I Q V -.s.=.Q V m Q ..=.;.X.@.r.{ 0.L.B.d.p.-.1.} U ..c.v.r.1.,.Y.B.,.i.i.p.r.z 2 4 i m S S A C A ' { A g A ' 1...P A s.E.i.| Q g | c.p.=.Q I ,.p.=.A =.6.-.| =...p..X&Xc.....) K m ",
"-.B.M.B.c.p.1.A.|.v.p.!.|.].x.1.E U 6.M.s.x.v.c.p.c.c.V.B.!.].OX'.&X.X:XL.M.' y C V =.s.p.M.p.' i g ^ T.'.Y.p.6.*.i.M.A.L.Y.x.*.V A I L.g.=.' ..h.U s m U } } Q A m U s.p.-.} =.L.i.A i m Q ..p.-.i.M.....} Q p.c.p.p.s.i.s.r.v.i.i.p.s.i.L.&X'.c.c.,.Q Q r.i.v.|.'.c.m ^ p.s.c.i.1.x.s.`.&X&XE.E.A.v.i.,.,.1.=.x.x...g U c.E.L.s.p.p.s.s.s.s.s.p.p.p.p.p.i.p.s.s.p.r.i.p.s.x.x.c.c.s.p.p.p.,.} U I *.s.p.p.x.i.s.Q 8 ^ c.s.*.=.r.p.s.i.r.1...Q U m V ,.m.c.c.M.x.c.6.c.1.=.T.M.1.p.p.r.0.r.0.0.1.i.i.i.i.p.r.,.r.c.E.c.c.!.B.s.1.}.}.p.s.r.r.k.p.r.r.r.r.r.2.1.A u 0 A :.B.v.c.k.O.! g u ..Y.M.1.r.1.-.=.m 7 E ,.m | c.Y.L.s.Q Q -.=.1.=.p.c.s.t.r.s.r.p.i.i.r.1.1.1.r.r.r.r.r.i.i.r.1.=.......-.s.M.6.A r.|.'.&X,X}.s.,.6.r.p.v.s.} R 1.s.1.,.r.1...{ A 7 C r.L.B.c.v.L.E.L.B.}.Y.U m I Q 1.r.| ^ Q l } r.1.=.' s.s.1.*.v.=.M.'..X..} V r.;Xv.v.L.g.1.=.B..X3X..e g ' c.-.A g Q c.B.c.i.=.,.r.1.i.s.|.:XL.s.*.V.A.6...l Q C ..&XE.....i.r.r.1.1.r.1.r.r.i.,.A V r.v.L.Y.M.i.U V 7 g ~ i.i.M.M.r.A A =.i.1.=.,.r.1.Y..XB.i.i.1...I Q p.C.B.s.>...M.L.r.1.,.i.' g 2 Q -.U U Q A m Q { ..' A A ..-.' | 1.r.' m I 1.i.c.p.i.c.i.=.,.r.,.,.A.c.1.1.} y m ,.-.E C g B g i ",
"k.`.`.!..X&X'.|.OXM.M.!.L.p.| ' *.| t.M.c.k.p.k.B.M.s.!.&X3XOX&X}.T.r.s.| =.Q m Q ' 6.x.s.E.c.' ' s.B.'.p.r.p.c.*.c.`.T.M.M.k.*.V I U =.Q } 4.B.Y.Q A ' =.p.C./.E.c.p.n.i.=...1.r...A A Q -.1.r.s.i.v.Y.i.s.E.p.p.i.p.s.c.Y.c.Y.}.Y.B.L.}.;X.XL.Y.B...u V i.c.l.s.| p.^ ^ r.s.-.i.s.B.B.'.;X.XE.Y.p.r.i.*.A C P 1.r.A 2 m s.`.M.p.p.s.s.s.s.p.p.s.s.s.s.s.p.p.s.x.p.r.i.s.s.s.s.p.x.c.s.s.p.r.1.} ' ,.p.r.r.s.s.s.A g ..c.6.P ^ 1.1.r.s.c.r.Q g g V A ..1.r.s.i.1.i.r.6...i.|.c.r.1.2.i.r.r.s.c.k.v.k.r.1.i.t.0.i.v.L.r.v.|.i.' i.!.s.V ] i.p.t.p.i.r.r.r.r.r.r.O.I ' s.L.c.2.l.r.=.i 7 U 1.Y.c.p.s.} U A d g C E A 6.c.M.c.! 8 Q c.M.r.' i.L.v.B.c.1.i.i.r.r.1.6.6.r.r.r.1.6.r.p.i.1.*...=.1.6.B.} =.x.,.r.i.-.'.'.k.Q P -.1.r.' ' k u I Q m g c i i i 7 =.E.U.m.s.i.r.r.i.r.1.=.} u V Q g V I g M.L.Q *.p.p.x.c.M.T.,.| s.v.,.;XE.m k Q L.c.c.Y.B.L.B.E.v.E.L.V 4.s.A A m V 7 ..|.L.s.g.4.p.p.p.x.T.M.,.' g l ,.x.i.r.g y d x.'.M.$.,.r.-.1.>.>.1.4.r.>.,.1.Q V 1.c.,.} i.L.s.r.-.>.c.L.L./.C.E.r.p.M.c.i.1.r.,.r.v.s.=.-.r.,...' 1.L.B.c.s.,...r.~ Q L.c.r.-.A M p.s.A m V i A =.y.B..X.XE.'.p.p.c.c.s.,.Q Q p.s.r.=.-.p.r.*.p.`.}.|.|.A.i.1.A 8 V ..E A P g 7 u i ",
"..6.r.2.B.L.v.i.O.A 1.B.k.p.A.`.'.B.s.r.r.s.p.c.6.E t.!.*.! x.E.L.r.' *.P Q p.T.OX&X.X`.v.i.^ Q |.`.s.p...=.r.r.p.A.'.L.p.s.c.r.,.1.p.i.,.p.s.s.p...M.}.E.E.C.c.s.p.r.-.1.s.r.Q @...-.p.v.s.1...,.B.M.s.1.r.p.y.c.s.s.r.p.E.v.Y.|.}.+X,X,X;X}.Y.v.p.Q 7 Q c.v.c.A C Q E i.r.1.1.c.p.6.r.M.`.L.L.E.i.6.x.,.P A ^ x.,.y u | c.E.p.p.p.s.s.s.s.s.s.s.s.s.x.s.s.s.s.c.p.p.p.s.p.p.s.6.r.p.s.s.x.c.M.s.s.k.s.6.-.,.r...y g ..p.*.' r.p.i.i.s.s.>.U g Q 1.s.v.C.Y.C.4.r.r.>.U P i.E.B.v.r.0.p.t.0.r.s.v.M.c.p.r.i.p.p.r.r.1.U =.p.U A c.v.-.H @.t.s.r.i.i.r.r.r.t.s.s.=.,.v.,.H =.p.O.=...g V U Q r.s.r.i.1.,.} A m i i.L.B.c.L.M.P 2 g ' 1.' e g V u L.B.@.c.s.r.r.-.r.r.i.p.r.6.1.1.p.p.1.=.-.p.v.M.1.1.L.B.v.Y.'.'.L.M.*.V A s.p.p.V m m A A A V m i u g g u 1.l.' M.i.s.r.-.4.1.1.r.^ Q 4.v.i...} >.p.=.| c.6.=.i.r.s.r.Q s.'.T...v.p.g m 1.}.1.} U -.c.s.'.Y.B.~ m ..} ' r.Q F A >.|.E.i.r.r.p.i.p.1.6.A u g l A ,.x.,.I i | B.Y.B.Y.s.p.i.-.4.4.r.r.r.i.>.1.i...A 1.p.Q Q g.'.}.,X&X'.L.M.g.-.=.B.B.}.E.p.r.r.1.i.i.0...} 1.p.1.1.r.g.M.c.i.,.-.$.$.-...I u 1.v.g V -.Q m Q ' Q } s.|.,X&X'.}.,X`.|.}.M.c.M.p.p.|.T.L.B.i.s.T.T.L.OXB.c.s.L.r.U 5 U Y.&XY.B.c.| B ] 1.",
"E ..,.| *.U H I 1.M t.T.x.s.L.c.r.s.k.t.s.s.6.x.r.r.c.O.B h 1.T.v.r.=.' m P L.;X}.`.v.L.T.s...L.M...A | 6.6.s.p.i.s.B.v.i.s.v.p.r.1.c.i.r.c.s.s.M.i.L.B.s.'.}.B.r.A U r.M.-.1.M.G.s.c.s...' p.E.E.1.r.' -.M.L.E.E.v.c.c.c.s.} p.c.v.'..XE.Y.Y.L.B.c.1.} M.E.E.|.B.-.p.s.c.6.L.s.p.c.B.L.x.s.6.B.c.-.=.r.-.Q ^ -.E.,.5 U B.L.`.p.i.p.p.p.p.s.s.s.p.p.p.s.s.p.p.s.s.p.p.s.p.r.p.s.s.p.i.i.p.s.s.x.1.r.r.r.*.U V A m y A ..c.c.M.M.c.i.r.1.=...=.,.L.M.v./.|.L.c.r.r.1.*.} M.2X'.v.s.r.i.s.s.p.p.0.i.p.s.s.p.r.r.t.k.s.r.A A I g -.B.p.v.M.c.,.i.s.p.p.i.r.r.r.p.s.s.' V g Q p.i.] ! g i Q Q ..p.s.M.i.c.B.,.I C m x..Xs.A.OX1.7 d A i g i 8 g V g Q ' i r.p.p.c.i.r.r.i.p.p.r.1.1.r.p.6.-.1.c.M.c.r.p.B.x.'.&X|.|.L.i.P i Q E.c.=.} i i V g s m u g g Q i.=.Y g I v.,.s.i.,.i.r.1...Q c.c.1.c.s.B.c.=.^ ,.s.,.r.1.p.s.Q E s.p.E V 1.Q u ..i.} m 8 7 A Q ,.s.p.,.I m Q g =.'.i.-.r.E.E.M.g.c.p.r.s.s.x.,.m g l r.6.,.^ Q A m I L.L.Y.|.i...,.1.w.1.i.,.>.r.1.r.s.$.} c.M.' } m.Y.|.}.E.Y.c.=.A g B.'.M.E.E.s.1.r.i.,.r.i.1.,.r.i.i.,.i.r.r.s.r.=.-.-...1.,.Q 7 ' Q 7 V Q m Q B.M.s.M.v.E.|.s.=.p.E.c.M.B.s.6.*.,.E.|.E.OX&XM.L.&XP.E.'.,.=.Q =.Q g P c.OXE.s.v.i.U @.n..X",
"=.P.`.P.x.c.k.v.c.c.`.M.s.s.k.-.-.-.M.c.x.s.x.p.r.M.s.t.1...x.'.v.x.,.P g A L.OXV.Y.Y.'.OX'.Y.E.B.E $ | '.c.x.,.p.i.p.6.x.i.p.s.4.=.$.r.p.s.m.g.E.,XY.i.C./.E.|.L.p.L.C.M.v.v.,.k ..-.} ..i.B.L.r.=.s.B.'.}.}.'.}.E.M.c.M.r...p.c.v.E.'.L.v.v.c.p...i.p.1.r.;X,.' M.}.'.s.s..X&XM.p.|.E.i.M.c.v.s.Q A C A A V ....d m x.A.E.Y.x.r.p.s.p.i.p.p.p.p.i.r.i.i.r.i.p.s.-.s.s.i.x.s.p.i.s.r.p.v.p.p.x...P l U l i g l g m g ,.E.M.'.c.s.s.i.1.,.r.c.B.v.' c.&XY.L.'./.E.(.}.|.T.p.=.=.c.k.s.p.p.t.p.k.s.i.p.p.i.i.p.p.p.s.k.m 8 V A ..2.B.P.v.s.p.r.r.s.r.i.t.r.i.k.p...V u =.&X:XB.| d I ~ ....6.`.'.E.L.c.1.U m g -..XM.x.|.,X.Xx.V V m ' A V 7 ..A 7 A u m Q m.s.1.6.c.r.6.s.1.1.i.r.6.,.6.M.B.p.6.p.6.,.1.p.x.c.x.c.,.-.,.r.s.,.| } $.A ~ ..=.r.>.....v.v.Q -.,.U c.c.p.p.6.1.r.r.=.' r.6.r.M.'.&Xc.Y.].}.T.L.k.1.r.1.p.t.}.Y.C U v.~ 8 ' |.w.' } Q R Q F Q -...U =.r.p.L.}.E.B.L.Y.s.g.c.r.-.4.i.,.A U g g ' '.s.1.=.g g E ^ E.E.|.}.p.=.g.c.,.1.r.i.1.-.1.p.i.>.Q -.,.m ,./.B.C.L.Y.B.,.I I $.i.r.M.L.c.1.r.i.-.r.s.p.1.,.r.r.1.=.1.p.s.s.i.-.' ..' } i.c...g 8 I V s.1.,.Y.|.L.v.&X;Xp.Q $.,.' Q ,.s.^ P 1.B..X;X&X|.'..X;X.XT.|.L.A.x.c.E.Q u l c.T.p.p.s.*.A ' =...",
"T.,XE.L.E.A.*.| p.L.|.c.2.-.' B E H s.v.6.6.c.c.M.B.V.v.k.'.:XB.r.M.r.g g ,.|.v.T.Y.T.`.`.B.p.s.c.l g s.E.x.r.1.v.'.v.=.c.c.6.s.M.1.Q i.C.g.Y.E.Y.c.i.p.i...>.B.c.m.Y.s.p.c.v.1.Q } ' ,.s.i.c.c.-.c.&X.X,X.XE.|..XE.W.E.c.r.s..X;X|.E.n.s.s.p.,...r...U ,.Y.E.Q =.x.L.6...v.T.p.6.T.|.v.M.M...,.p.' g 7 m A m ..L.*.| M.E.OXY.6.r.p.p.p.r.i.p.p.p.i.i.p.p.r.r.p.p.i.x.c.s.p.i.x.c.M.s.s.s.p.p.r.A l d Q U V m C m g m B..XB.v.6.p.i.4.1.1.r.r.r.U 4..X&XY.B.M.v.`.}.'.m.^ d y g } =.r.p.t.0.t.l.r.p.c.p.1.r.c.v.r.P.' g m A I I 1.r.i.i.2.r.i.p.s.s.1.1.c.i.p.M.B y m .X3X|.B.,.I Q C Q s.E.}.E.M.r.6.,.U V ' E.'.L.A.'..X|.B.| A i./...k A Y...g V A V A Q ,.B.i.c.r.i.c.i.6.r.i.i.1.1.x.s.1.,.r.1.,.,.1.r.i.p.B.r.2.r.p.p.' V ' =.~ >.s.E.|.C.,.C..XL.1.E.L.-.1.1.r.r.p.r.r.6.-.' x.s.B.'.T.p.L.'..X.X.X].T.L.V.r.i.r.s.-.' v.|.,.A } r...i.i.c.s.i.p.L.B...R L.B.g.c.B.B.Y./.Y.s.-.} Q U A s g g A A g ,.T.m U M.6.U A p.3X:XL.c...} r.i.,.i.i.i.4.1.r.s.p.r.A m ~ g 1.&XL.L.s.m.1.} } v.M.s.M.L.L.c.1.,.1.1.1.r.r.,.,.r.r.,.r.r.r.p.g.s.,.} Q ..=.p.s.c...A A g i.M.s.Y.|./..X'.v...' ,.4.....1.r.P C r.E.&X,XE.M.A.L.B.A.E.T.L.'.&X&XT.c.s.| p.x.p.p...V d Q ..' ",
"v.L.T..XT.A.x.1.c.A.T.B.,.Q m I E ' x.....p.c.c.T.1.1.p.B.OXXXx.B.v.p.,.1.M.|.Y.'.M.x.c.p.6.r.x.,.5 } T.L.Y.B.v.r.L.T.c.p.c.x.x.r.r.A ..L.|.5X&X&X=.U ..Q m ~ p.i.c.c.1.r.1.v.'.oXs.r.i.R ,.;X/.s.E..X}.E.,.p.|.Y.M.E.Y.c.B.}.;X.X|.L.p.c.M.i...,.1...Y..XB.i.p.6.6.i.A g 6.p.Q A `.OXi...U m E C U Q ' -.Q V ,.|.`.E..X}.'.v.,.r.p.p.i.r.p.p.s.p.p.i.p.p.i.i.p.i.x.s.s.s.6.r.x.c.M.v.M.p.1.r.6.r.,.,.T.M.' C Q ' Q ..E.`.`.A.r.r.1.,.4.i.r.-...I v.}.Y.Y.M.1.p.g.x.x.i.*.^ ' *...=.1.i.r.0.r.s.v.r.1.p.s.s.k.s.'.E.i 8 g Q 1.r.1...=.1.-.1.c.B.1.s.s.s.M.r.p.,.7 u ' ,XM.r.i...p.v.,.,.B.x.' C U U *.=.,.c.E..XA.M.M.}.}.v.6.*.4.;XC.Q r.-.r.I } R ~ m s m U ..,.r.1.r.p.,.1.s.6.i.r.6.r.6.,.1.,.,.,.,.1.r.i.p.p.-.,.6.r.*.m 7 k A F >.4.s.4.F Q v..X'.v.M.s.i.,.....' p.s.s.t.s.Q i.s.s.6.| *.E.E.L.L.L.Y.L.V.V.c.p.1.-.V ) E.}.c.i.M.1.A =.i.r.1.,.c..XE.r.p.E.L.B.L.L.L.L.L.c.M.c.i.r.,.-.>.s.x.I g m ,...C Q B.L.M.1.M.E.Y.i.=.} ,.c.s.r.p.p.r.4.r.i.p.p.i...g g V i.|.Y.p.=.r...$...v.c.Y.L.L.B.g.r.1.r.i.4.r.1.,.1.i.i.1.r.1.r.p.g.p.,.$.>.B.Y.}.E.|.s...Q V -.E.c.B.'.'.&Xi.Q ~ =.r.i.r.6.p.r.A A B.OX:XM.=.^ ' ' Q ^ =.s.M.L.|.'.1.A.T..XE.i.-.-.Q A ^ 1.k.i.",
"m ..p.V.=.' 2.s.E.P.T.L.2.1.r.P..X3XOX=.A..XV.'.`.p.s.c.x.6.1.A.B.s.s.s.p.c.E.T.M.6.6.s.r.1.i.s.} C M.E.c.A.,.A } r.B.'.c.v.c.x.p...Q B.,X&XoXL.c...' ' m g ' p.>.L.s.U ..1.s.i.U k c.E.} 1.M...I -.-.p.r.U v.'.M.v.c...} B.|.E.B.Y.M.s.c.i.' A Q -.v.Y.1.1.c.p.1.1.s...C *.r.....L.L.r...*.-.U A m I ,.s...| L..X,X:XOXL.v.r.r.p.s.s.p.i.p.s.s.p.p.p.p.p.p.p.s.r.s.i.s.p.r.c.s.v.s.s.s...U =.r.M.L.M.E.M.1...r.L.x.B.E.v.B.c.1.,.,.1.r.i.i.1.=.1.B.s...p.s.-.s.4.>.=.4.s.c.L.'.'.M.i.2.r.p.s.s.p.i.p.p.r.i.c.M.c.m = H ..B.p.1.1.O.-.,.=.i.B.B.B.p.r.r.p.v.L.g 7 g -.E.=.=.1.-.L..X'.A.C.g.4.6.Q m =.L.'.T.'.'.L.B.M.}.}.p.=.=.1.Q g } c.} ..m v.i.1.' ' Y.g.$.m U Q ..*.Q Q ..*.,.1.6.1.1.6.r.1.1.6.r.i.i.i.i.=.=.6.p.r...A C Q Q } g.4.>.,...} r.L.B.i.p.i.i.*.E U A p.s.r.=.C g 1.=.-.M.P.].}.L.s.i.p.c.c.v.V.c.=.p..Xp.r.M.v.v.i.s.r.R ' i.i.r.c.E..X'.C.|.E.B.Y.E.Y.E.L.v.s.M.C.Y.B.s.m.&X'.Y.U u E ,.g Q 6.x.E.;X'.M.6.p.1...-.s.m.s.i.i.i.1.1.r.i.i.i.i...g F p.E.B.v.' 4...b V ' 4.p.E.C.B.c.i.r.r.r.i.r.r.4.1.r.i.i.4.>.4.s.v.s.4.1.r.E.E.C.L.c.M.p.1...Q Q B.s.B./.L.v.' I $.r.4.r.i.6.r.r.H E T.OX`.1.,.=.....=.-.,.1.s.1.,.*.E r.i.s.p.' m V l g A -.t.1.",
"u p.=.^ A y A c.`.`.!.c.*.P.:X2XOX&X!.s.&X.Xk.E.T.s.c.c.p.-.^ ..=.U g y 7 I 6.M.s.,.1.s.r.1.s.c.p.s.T.M.p.s.Q 7 ..i.6.c.L.A.6.p.c.R ~ 4.-.=.1.1.I i.E.v.} V I ..I $.R m 1.h.c.1.' ' Y.E.m.s.~ ..' -.p.-...r.'.B.s.v.1.V A p.M.s.p.v.h.p.r./ m g g m s..Xr.V Q ' E ,.v.c.*.=.c.r.M.M.s.x.x.L.E...=.m C i.E.'.OX2X;X.XA.c.p.p.6.p.p.s.s.p.p.s.x.s.p.p.p.p.s.s.s.s.p.p.p.c.p.p.v...Q U A A m P r.v.p.M...P U 1.c.M.E.p.T.`.c.,.-.-.>.,.1.4.r.r.r.r.r.B.i.Q } r.4.i.g.6.1.5.,.1.A.,X3X'.s.1.r.s.s.u.i.c.c.r.r.M.v.,.g 2 Q Y.E..Xr.r.r.1.1.1.1.B.P.i.p.r.s.c.c.B.s.2 y g 5.M.i.,.=.s.C.T.|.'.E.'.OX,X,.,.T.`.B.x.'.E.x.r.,.x.v.-.....A u k i.4.A 1.g.C.i.s.r.c.;XB.=.l E O.s.x.=.| | | *.1.6.1.1.r.i.r.r.r.i.p.r.1.=.=.=.r.p.i...A E c.c.C.'.s.4.p.g.c.B.L.$...E.Y.' l V A U r...Q l d A B.s.p.T.'.'.P.c.1.1.r.p.s.s.1.,.0.}.}...0.s.4.4...=.i.s.p.s.w.1.L.'.L.v.c.M.M.1.1.-.=.r.i.p.s.i.1.r.p.1.r.L.A.s.Q A *.6.....-.i.L.c.i.,.=.1.4.-.>.1.-.>.r.r.r.1.1.r.i.r.r.i.$.A i.'.L.$.Q m A V s i $.i.g.M.B.B.i.$.=.1.1.1.4.4.4.4.4.4.4.4.1.i.c.v.p.,.r.s.c.1.4.,.1.-.1.=.=.>.' m.m.|.'.p.>.~ } r.i.>.>.4.r.i.p.Q ^ `..XM.Q ..,.=.,.i.i.,.1.r...} E | ,.1.*.6.} l l V A Q =.i.r.",
"A c.1.' B B 6..X|.`.T.t.*.B.`.E.&XL.r.! O.6.M.!.} l ..c.t.s.2.H g y d V U r.s.r.s.6.1.r.r.r.x.B.M.L.M.s.B.c.} I ,.r.,.,.1.s.p.i.=.Q i.s.' Q Q } 1.Y.}.E.Y.p...=...~ A } c.i.B.L.r.s.B.Q ~ c.m.,Xm.r.&Xs.,.'.E.v.p.1.Q u A s.B.v.p.p.s.p.=.V i m V } c.i.I 8 g I A ,.p.s.6.r.A.s.s.L.v.c.c.s.s.-.p.r.A.:X,X,X3X.X`.B.1.6.6.p.6.s.p.p.p.p.p.s.s.s.s.p.p.s.s.s.s.x.x.p.x.v.r.=.' g d B V A Q p.E.B.x.,.d 7 g =.c.L.E.v.`.T.v.1.6.,.,.,.1.1.,.,.4.r.r.i.s.r.i.s.4.r.g.i.r.r.1.,.v..X!.B.t.r.r.p.p.p.M.p.p.v.B.k.] g Q v.E.}.E.B.p.E.B.c.s.s.B.].E.1.} =.r.v.Y.c.I * m =.(.M.,.' } g.M.i.x.m.A.|.|.E.,.Y..Xs.' 1.E.p.^ V V =...l g I 7 F Q } A m $.c.s.Q >.s.Y.1.A u g E =.r.*.E | ,.1.1.r.i.2.2.r.6.6.1.6.i.p.r.,.*.-.*.-.1.,.Q g P $.>.4.M.m././.C.L.}.&Xp.i..XY.g u ^ ] =.r.P A d u I T.`.B.M.P.!.s.0.:.:.0.r.1.=.l.' -..X,.m 1.=.>.Q Q -.' Q ' ..s.r.Y.E.v.M.B.s.c.4.i.>.-.p.p.m.i.i.i.r.r.-.....' | 7 A r.| p.p.E.}.|.6.,.1.p.1.4.1.1.=.} =.1.1.r.1.1.r.r.1.r.i.i.} .XoXY.i.A V 7 7 m I p.1.r.i.i.g.>.Q ~ ..=.1.4.4.r.r.4.1.4.r.i.i.i.r.1.,.4.i.=...i.1.p.1.1.Q =.C.m.'.}.,XY.=.>.$.>.r.4.1.1.4.i.p.x.^ Q T.`.i.' *.,.1.1.6.1.,.,.,.,.1...r.-.i.r.r.Q u y d C ..' 1.1.",
"m *.,.6.U *.].P.T.L.v.1.t.i.=.*.1.2.=.I C P ..E u u =.L.2.,.M.r.m C C g U E.`.p.,.r.p.c.v.x.p.s.6.x.c.v.T.p.A A r.-.p.p.*.=.x.r.1.I Q 1.' i V s.Y.M.p.c.'.'.Y./.}.}.C.g.s.i.B.=.' c.L.~ ~ B.B.s.A I '.M.c.'.M.v.v.=.I i A B..XE.p.1.,.,.Q i u g ..c.M.p.U g g ..=.p.p.i.s.B.B.s.c.Y.v.s.B.c.i.r.'.,X3X;XV.p.c.s.s.p.1.p.r.p.r.p.p.p.s.p.p.s.s.p.s.s.s.s.s.s.s.x.x.s.x.x.i.Q u g ,.p.i.p.c.v.s.=...A 2 d A ,.L.|.&X.X`.B.s.p.p.-.1.,.,.1.4.4.1.,.s.1.c.Y.'.B.r.p.p.i.6.6.6.r.p.s.s.i.r.r.t.p.p.p.s.p.v.v.=.m u i p.].M.p.M.c.s.B.!.Y.L.E.'.'.B.r.c.-.Q ' 1.p.g 7 1..X;XT.*.^ ,.x.x.,...| i.E.E.'..X,X:X.Xv.M.E.v.^ Q *.p.^ 7 u m V m ' =.I i.L.r.i.} 4.v.Y.I s g A ' *.*.E I ,.M.M.s.s.p.6.r.i.1.1.6.r.r.6.,.=...,.-.,.-...A m ..m.m.g.c.C.&X.X/.E..X,XE.E.E.4.g I v.r.x.s.B Q I l -.`.A.i.s.E.c.r.r.r.0.r.i.1...p.:.2.L.A m c.P.E.g.,.=.A m Q c.v.i.v.s.r.s.p.4.r.4.s.-.} ..Q -.=.,.s.s.=.U V g d m 7 Q L.v.`.&X,X.XB.6.1.,.1.=.1.r.r.1.,.1.1.,.r.r.r.4.1.1.r.i.1.r..X/.E.L.1...} V m G >.....' $.4.$.Q Q Q ' 4.r.1.4.r.r.4.4.4.r.r.1.,.,.1.1.1.r.=.r.>.,.,.r.} } .X;X;X.X'.r.$.1.,.4.4.1.4.i.i.1.6.p.Q A x.M.=.,.1.1.1.1.,.,.,.,.=.1.1.1.r.,.6.6.=.P m A A A } ' ,.,.",
"B =.=.s.1.s.M.I ..t.1.U r.2.H h m E m h P B | O.! ,.r.s.,.,.c.r.*.P E 1.s.E.c.s.r.x.s.p.s.s.p.x.s.x.c.6.s.6.I ..p.r.x.M.L.1.,.r.Q A s Q =.Q -.'.c.c.c.g.r.,.c.|.oX/.L.E.'./.'...' L.=.m 1.L.s.,.u -.E.i.,.p.v.i.,.,.c.1...U.|.p...I A A g i A Q c...U } i 7 g c.s.p.s.p.B.L.1.=.x.M.v.x.B.E.}..X:X&XM.p.p.1.r.i.p.r.1.i.r.c.s.r.p.s.s.s.s.x.s.s.c.s.s.s.s.s.s.s.s.x.k.x.M.^ u ..M.B.c.c.s.' A C m A g g A x.;X;X.XT.r.v.s.s.p.i.4.,.,.4.p.p.1.=.r.c.L.L.E.L.s.c.s.s.r.,.1.s.s.r.p.r.1.r.p.s.s.p.i.M.s.U < 2 g g T -.p.r.r.r.v.E.!.Y.P.}.'.k.1.p.M.r.,.} g ' g V B.}.g.`.s.,.m.M.r.s.p.=.i.g.6.C.B.`.E.'.M.T.`.v.6.|.,XM.A m E l F N F 1.m.}.m.M.m.C.m.g...s k } ,.=...-.,.r.L.L.L.s.p.i.1.6.r.,.i.p.r.1.=.| ^ ^ ..=.,...Q l A c.r.C./.'.L.Y.C.'.|.}.L.=.i.i.' l P B.*.i.,.d A l Q ^ ,.p.t.1.v.6.2.r.r.1.2.r.0.@.1.t.I K i T 1.i.m.}.4.m g } =.L.,.1.r.1.r.i.1.r.s.p.p.R s u 8 A A m Q *.Q g d m l 7 A A ' '.,X:X}.L.,.r.1.6.i.s.1.r.r.4.r.1.,.,.r.i.r.1.,.1.r.r.1.E.c.Q V A i.1.' =.,...U F V 7 ' <.>.} ~ A I >.1.>.-.1.4.4.1.1.=.1.r.r.r.i.r.1.r.$.1.i.1.1.r.-.I '.2XoXL.i.~ -.1.4.i.r.>.4.i.r.r.i.v.} I x.B.,.,.6.r.,.,.6.r.1.1.1.1...1.6.p.,.1...P I ,.6.,.r.*.i.r.",
"E v.v.v.s.c.x.^ O.-...B ! ! B d B l m g d E p.B.`..XB.c...,.L.B.x.T.M...x.M.s.r.6.i.s.p.i.r.p.s.p.M.c.1.i.U g P ' 1.E.OXx...| ..g m g U L.L.B.v.s.B.M.M.>...=.M.M.r.p././.'.s.,.r.s.i.-.i.L.c.$.A U =.Q A ,.-.s.r.i.,.i.Y.}.v...7 i m m g g V ..B.1.-.' u 7 ..B.c.s.M.E.E.c.....x.s.c.c.L.E.B.B.B.s.6.r.r.6.r.s.r.i.p.p.p.p.p.i.s.p.i.i.p.s.s.s.s.s.s.p.p.p.s.s.p.s.s.s.M.' C c.M.,.1.' ..Q c...' Q U u A E.&XL.v.' | p.r.M.p.r.r.i.r.,.1...p.1.s.c.M.M.v.s.i.i.p.p.i.r.r.t.i.1.r.r.i.r.r.r.t.s.p.L.v.2 g l A A g =.,...i.,.s.p.,.i.E.'.Y.1.1.2.i.1.c.-.,.Q 2 ,.;X>.r.s.-.r.s.r.>.r.i.v.v.s.-.g.p.c.s.4.r.s.g.c.p.;XE...i ..' m m P | 1.v.1.P -.i.|.M.,.=.^ A.L.c.s.=.i.M.x.B.A.v.L.M.r.1.6.6.6.1.r.c.1.' ' } 1.,.v.M.,.' ^ v.M...E.6.^ Q ..x.E.Y.g.r.r.5.s.p.| U r.6.r.T.=.Q *...| 1.p.1.6.p.6.2.2.6.2.r.r.1.=.1.=.8 7 V Q s.=.1.Q A m >.1.m.i.V 1.v.r.i.c.p.c.s.0.1.V i u m g g 7 ' } l s m $.,.p.v.Q ,.&X:XB.s.p.,.,.1.1.p.r.1.r.i.r.1.,.1.r.p.i.r.1.4.r.r.4.g.s.r.g k R >...1.1.s.s.Q g g A ..~ $.Q u k 7 I -.-.....' ' -.=.,.,.1.1.1.1.1.1.1.1.1.1.4.1.>.=.1.|.x.-.,...6.6.6.6.r.r.6.6.1.1.6.1.i.=.d M.'.,.=.,.1.r.r.6.6.6.p.-.p.,.,.-.,.r.1.U E m ,.1.r.p.=.r.} ",
"H M.6.6.c.s.,.2.2.' I g B m C ! x.r.=.^ ^ r.c.r.`.].k.p.p.p.c.r.B.|.1.,.c.r.=.p.p.p.s.s.p.p.x.c.s.c.p.1.,.C i Q i.M.A.E A | U l g m U ..B.i.$.p.|./.L.L.c.c.M.E.m.E.L.&X'.p.=.1.C.E.v.p.M.1.} s.,...c.v.i.r.=...p.s.1.,.s.L.p.Q i g A U A A Q r.1.c.L.1.V Q M.&Xp.`.p.s.,.U 1.,.s.s.c.c.M.c.r.r.p.r.6.p.p.p.r.p.i.p.p.p.s.p.p.p.p.p.p.p.s.s.s.s.s.s.s.p.p.s.s.s.s.p.p.p.s.*.} A.v.Q *.U r.p.6.*.1.m d U 1.L.B.s.,...E ..i.6...6.c.r.r.p.,.V I ..g.c.M.v.s.r.,.-.-.=.:.t.s.r.r.p.r.r.r.p.s.s.i.0.v.1.A 2 7 Q Q =.s.1.=.=.r.r.r.} ! 1.M.v.c.i.1.1.,.=.r.p.-.g A E.E.Q } s.-...=.1.g...,.s.c.s.p.s.,.s.s.r.i.c.s.i.c.1.U k 7 Q ' A E ,.x.T.Y...A ^ '.M.P ,.A.E.x.Q E.`.B.s.s.x.r.' Q } *.1.p.r.6.p.1.,.6...| =.,.i.p.M.x.,.s.L.OXL.r.1.m V Q >.s.Z.x.r.i.i.6.r.6.=.' =.r.p.v...*.=...r.B.B.r.-.,.-.1.r.r.6.1.6.1.1.M.p.U 1.L.c.B.s.-.m I -.4.p.m.s.' =.} ' r.v.s.r.1.2.@.g g I I V u l ..| u y C $.p.OX'.&X:X}.x.1.,.1.-.1.r.1.r.1.1.r.i.r.1.,.1.r.i.r.1.1.r.i.r.4.g.E.c.~ >.$.>.' r.c.L.4.1.i.=...,.' V k R m I s.-.Q m V V F =.w.,.,.1.1.4.4.1.1.,.r.i.1.>.1.,.=.B.C.' U ..=.r.r.6.6.6.6.6.6.1.1.s.r.,.-...|.`.,.-.,.6.r.r.1.1.,.=.=.r.,.i.p.r.*.g V g d r.E.L.O.! :.-.",
"U k.s.v.B.v.k.s.c.s.r.E ^ p.T.!.c.c.c.x.k.M.c.2.'.V.| ..M.c.k.6.Y.x.A s.1.,.s.r.s.s.p.p.s.k.c.v.c.s.,.,.] g l 6.B.B...u *.r.' Q m Q i.s.c.' I B.&XL.v.c.c.M.'.|.E.}.C.'.c.-.B.'.B.....c.c.,.=.-.v.s..X;XY.,.-.' { ,.s.M.M.s.=.A A Q -.r.=...i.v.s.v.M.i.-.s.v.1.A i.c.s.=.^ r.L.'.T.P.M.x.p.1.p.1.r.p.s.x.x.s.p.p.p.p.p.p.s.s.s.p.p.s.k.x.x.s.p.p.p.p.p.p.s.s.s.c.s.c.c.p...U ..A U g 7 1.| A u m 7 l =.T.`.x.1.,.=.V g ,.r.1.,.,.1.i.-.=.Q Q 1.B.m.g.i.1.-.-.-.....=.r.i.2.r.s.2.r.i.p.s.p.r.,.1.u . g A ..=.B.;X1.} -...,.>.} 2.2.r.s.i.-...,.1.r.-.=.Q u 1.M.A e I ..Q ..r.1...A r.v.s.i.i.Q r.s.r.=.,.p.p.r.s.I g m g ' 1...-.x.v.}..XB.Y.E.5X'.i.A.E.'.B.1.,.=.x.L.x.*.A u i i l ' s.v.p.6.s.p.r.=.*.1.1.6.p.s.,...s.E.T.*.*.1.*.1.g.T.L.Z.i.6.4.6.6.1.4.r.U | r.r.x.-.x.c.,.B.`.A.p.,.,.1.2.r.p.r.1.1.6.r.L.Y.} ' i.r.r.=...Q ,.=.,.g.i.' ,.s.,.r.B.M.c.r.1.p.' q A v.t.! Q ] ! A d ..=.' M..XL.E.L.x.r.1.=.,.-.r.i.6.6.,.1.r.i.r.1.1.1.r.i.1.,.,.r.i.r.1.,.C...A 4...$.Q I =.i.~ c.E.i.,.r.s.....B...c.oXr.=.} =.,.,.i.i.1.1.1.1.r.r.1.,.>.r.i.r.1.1.r.r.6.,...=.r.6.-.,.r.r.r.6.6.6.1.1.r.p.1.6.r.Y.p.,.-.,.1.6.6.1.,.,.1.r.r.1.1.| Q m C g g ,.E.A.c.1.t.p.n.",
"I 1.=.*.-.c.B.s.k.p.L.P.M.V.T.T.1.1.p.c.x.s.c.V.L.*.m Q M.s.p.2.B.,.Q B.| 1.L.t.x.s.p.s.x.c.c.c.c.r.*.,.U u C M.c.M.p.p.c.E r.s...r.1.=.c.v.s.E.%...p.m.v.s.B.c.v.r.p.c.U Q M.i.I $.,.v.E.v.r.v.p.i.v.c.} U ,...} } i.B.v.1.Q S I i.M.v.s.s.M.M.B.r...=.r.i.' u Q 6.Y.L.Y.A.p.L.B.s.c.v.c.k.r.p.r.s.s.s.s.x.x.s.s.p.p.p.p.s.s.s.p.s.s.x.x.x.s.p.p.p.p.p.p.p.p.p.s.c.c.M.s.E 7 d V V V ..6.l U ,.Q ..6.c.E.E.c.r.p.E C d A I | 6.*.-.} g A ,.s.E.L.v.i.r.4.r.r.r.,.1.,.=.-.r.t.i.1.r.i.i.r.r.r.r.U 8 g F A V s..XM...r.C...U A } -.V C r.i.i.r.r.,.i...B g m M.' 7 7 m A A -.r.' V u ,.L.s.,.s.c.s.i.=...-.r.i.i...A A b g A ..' r.B.'.,X:X&X:X.XOX'.&X.X.XT.x.| ..Q c.'.s.U 7 y d g y i Q r.p.r.6.i.i.,.,.r.p.p.p.x.r.=.r.p...g m ,.s.i.s.A.s.g.x.s.6.1.6.6.6.i.Q ..1.r.Y...=.A.B.|.E.s.r.r.1.r.6.t.p.r.6.1.r.p.s.c.A 7 Q =.1.1.} v.oX' 1.r.4.-.} p.r.p.p.=.=.Q ' ..g 4 m r.} I r.i.=.U u =.1.s.`.A.|.c.r.i.i.=.6.r.1.r.r.6.i.6.r.i.i.r.1.1.1.4.i.r.1.1.r.r.r.1.4.g.R m 1.=.$.' A =.i.' ,.} Q s.i.=.s.s.-...'.-.m.M.v.C.C.B.C.s.r.4.1.1.r.r.1.,.r.1.1.i.i.1.4.p.,.*.r.i.r.6.,.p.r.r.r.r.r.r.6.6.,.r.r.i.1.1.| 1.,.,.1.1.1.1.1.1.1.1.,.1.,.A P P U V Q B.i.-.s.M.E.r.n.",
"m t.2.t.!..XB.V.L.U.&X!.2.t.v.B.=.1.p.c.c.p.s.M.,.d u | v.p.x.s.B.L.B.v.,.s.c.c.c.x.s.x.v.M.v.c.s.,.| *.m y U Y.'.B.T.L.=.E `.p.C.;XL.L.;X3X.Xp.A I r.c.s.4.s.r.s.4.v.4.U >.M.=.A s.Y.'..XE.B.C.c.c.c.v.' ' c.c.E.r.=.} Q Q I U / Y.B.,.i.v.B.B.B.c.s.c.s.i.-.} ,.B.M.M.}.OX.X.Xv.1.,.1.6.p.p.s.i.s.s.p.i.s.s.p.s.s.p.p.p.p.s.s.s.x.x.s.s.s.s.s.s.s.p.p.p.p.p.p.p.c.p.s.p.A 8 m ^ | .X|.1.-.p.v.^ 1.B..X&XT.x.p.r.Q U y I =.' U k g s u A =.4.'.v.g.s.c.m.m.s.r.p.p.1.=.-.r.t.r.r.i.r.0.r.t.p.r.V u I g I $..XE.,.I } c.i.=.Q i.r.i m r.' } ,.=.-.1...i g } V.I g g ' s.v.i...m g I =.>.' ,.1.,.i.,...-.i.p.i.i.r.,.=.F F I -.1.M.'.3X|.M.B.B.B.M.x.`.E.`.M.,.U i.1.c.1.A C m m P Q P d g U =.s.6.6.,.-.,.6.p.r.p.x.p.1.-...C d E 1.1.6.p.-.g V 1.r.r.r.r.r.6.r.6.U ..A.,X6.=.T.`.&XT.r.6.6.,.1.r.r.r.t.r.r.r.i.i.Q u m -.1.,.s.i.-.,.k 1.p.1.-.,.v.r.r.i.1.1.Q g g 7 m V Q I i.E.p.4.| k ^ ~ m.Q ^ x.6.,.6.r.,.p.p.6.r.r.6.p.i.r.i.i.i.r.1.4.r.i.r.r.r.r.r.r.r.p.p.4.} 1.1...~ Q r.s.v.C.....v.B.B.m.p.p.B.v.' 1.i.v.E.Y.m.m.s.p.i.r.r.r.r.r.1.i.r.1.r.i.r.r.i.r.*.1.,.,.i.1.r.6.6.6.6.6.6.6.6.i.1.6.p.1.,.*.r.1.6.6.1.1.1.2.6.,.1.,.i.p.U E Q l u ..p.d C 1.A.M.r.L.",
"2 T t.XX,XXXu.:.2.L.T.] u O.V.V.=.c.A.x.t.t.s.c.c.E Q r.c.t.x.c.E.L.'.v.c.'.c.p.c.x.s.x.c.v.c.s.p.| U A u g ,..XE.L.&X'.|..XL...E./.s.|.&XB.v.>.-...1.r.1.1.g.c.s.s.r.Q =.s.,.Q $.M.}.&XE.Y.|.L.B.B.M.M.A m 1.Y..XY.p.A i g g Q B.;Xv.=.p.M.E.'.'.|.&X&X.X|.E.B.c.v.1.| L.,XL.s.M.1.6.1.1.x.c.s.i.s.s.s.k.x.s.p.s.s.p.p.p.p.s.s.x.x.s.s.p.p.p.p.s.s.p.p.p.p.i.i.p.c.p.p.,.g 7 A P A.L.E A s.i.U C 1.`.,X'.p.=.' ' U m m M.|.-.A m A I ..=.>.-.M.v.c.s.v.B.M.c.i.s.2.,.1.i.r.2.1.t.r.1.1.i.p.r.=.u u Q w.B.Y.L.} ' g g } ,...$.L.' u 1.XX} u ' p.p.p.-.u E L.B.m g U 4.Y.c.~ V s U C.|.r.g I ' 1.i.1.-.1.p.i.r.p.r.i.,.G A A i.}.&X|.}.6.} r.x.A.s.s.M.L.r.1.,.x.M.s.1.A i U | ' -.1.,...^ I E ..6.,.| =.r.p.c.s.p.r.-.*.| E d m =.c.r.r.x.1.C g A Q >.p.i.6.r.i...5 A M.E.s.1.1.x.Y.M.1.1.6.,.6.r.r.r.t.p.r.r.r.1.g 7 V ..1.>.r.p.-.1.=.Q >.i.c.-.i.,.,.r.p.s...I I g m C 1.s.XX|.x.1.....i.^ ..Q E.c.,.-.1.1.6.r.i.1.r.r.1.i.r.4.r.r.r.r.r.r.i.r.r.r.r.r.r.i.i.4.4.c.1.} ..' R A -.r.E.E.B.'.E.c..X/.'.,X;X=.1.Q Q } p.p.>.i.s.i.i.i.r.r.r.r.r.r.i.i.r.r.p.p.i.1.=.6.1.6.p.,.=.1.1.1.1.1.1.2.6.s.1.r.r.,.,.=.,.6.r.r.r.6.1.1.1.1.r.r.r.s.^ m d m m r.6.y A ' } 7 A -.",
"u H c.&XL.v.2.' ] 2.r.' B t.P.T.p.P.A.r.6.c.T..X:XT.B.V.c.k.p.M.|.x.A.B.T.|.i.r.c.x.s.s.s.x.s.p...A m u u U v.|.`.'.&XT.'.'.M.`.E...g 1.r.} -.1.r.r.i.s.p.s.i.p.s.B.4.} s.,.Q A 1.,XoXE.'.B.E.,X&X|.E.c.I A i.|.M.M.v...Q A A p.,XW.-.1.M.L..X.X'.|.|.|..X|.Y.c.M.|.'.1.*.} I =.....p.s.p.M.c.r.p.s.s.x.c.c.x.s.s.s.s.s.s.s.s.s.s.s.s.s.p.p.p.p.p.p.p.p.p.p.p.i.p.s.x.x.Q 7 g m i.E.I l =.s.v.E.B.;X,XE.-.' ..A g u u r.T.=.' p.v.v.r.p.1.i.s.M.v.c.s.s.s.s.p.p.r.1.r.p.s.t.1.-.r.2.-.......! I e } Y.3XE.=.Q I u g ~ 1...g I ,.g A E.3X=.8 m ! 1.1.E 7 =.E.1.m c.E.L.g.-...1.1.M.,...Q m m A } >.r.r.1.r.r.r.i.1.r.i...R $.E.3XOXE.c.,.,.r.p.s.6.s.i.v.r.,...1.s.s.6.=.=.-.r.6.x.s.i.p.s.1.| ' ..| ^ 1.c.c.A.A.x.p.,.=.*.' l E ..r.=.1.,.r.p.r.U C ^ r.i.1.r.p...m ..E.A.c.1.=.i.c.i.-.1.r.r.i.i.r.r.i.r.r.6.r.$.A Q A A r.m.r.4.4.r.4.I ,.i.=.,.4.r.p.c.L.L.c.c.0.I u c s.n.B.r.p.1.s.c.x.4.*.} &XM.=.1.x.r.r.1.r.1.r.r.1.r.1.1.1.r.r.r.r.r.r.r.r.r.r.r.r.r.r.4.r.1...~ ' } R A ,.v.M.' p.&XE...} s..XM.i.Q U =.Q V V V U ,.p.,.1.r.r.4.4.r.r.r.r.i.i.-.} ..1.6.1.1.,.,.,.,.r.,.,.,.,.1.1.6.r.1.r.p.1.,.=.^ ^ =.,.1.6.6.1.1.1.-.-.6.1.p.^ g d ^ p.v.=.E r.,.g g ..r.",
"i O.L.!.k.1.! U -.l.:.h c P.].k.s.M.B.L..X&X|.|.P.'.T.T.E.|.T..XE.T.M.B.|.M.A c.M.c.s.s.s.s.s.s.V u g d V ' s.p.=...c.'.v.v.'.`..XL.M./.s.p.p.1.i.s.i.g.i.s.i.c.i.v.1.=...m -.M.'.,XE.B.B.E.oXY.|.|.,X|.'.Y.E.B.i.=.-.1.v.r.-.,X'.} m 1.M.M..X}.L.E.E.L.v.p.s.L.'.&X..6.c.' p.M.s.i.c.6.| 1.s.p.s.p.p.s.x.x.s.s.s.s.s.s.s.s.s.s.i.p.s.s.p.p.p.p.p.p.p.p.p.p.p.p.p.r.x.s.m 7 E P 1.Q Q p.p.r.,.|.|..XY.p...1.c...g A A c...l -.1.r.,.' i.i.p.c.g.i.s.c.c.p.r.1.1.,.t.s.p.p.s.r...-.1.-.Q V g g i R M..XY.1.A ..-.I A ~ s.B.-.,.} * B -.A i H ,.' B m 8 u -.1.I ..E.E.s.i.B.E.'.C.....,.A u g V u A =.p.r.r.i.i.r.i.r.p.4.-.Y.,X'.c.s.=.1.r.-.r.p.,.x.x.1.p...' P g ^ ..r.s.p.c.i.s.s.1.=.r.c.v.s.=.-.,.c.v.1.i.p.s.s.r.6.,.=.A ' s.1.6.}.c.,.x.p.c.Q Q 6.i.1.r.p.P d ' `.A.=.U x.`.Y.s.,.1.i.r.6.t.r.r.r.r.6.6.t.,.,.Y.4.V 1.c...=.g.v.s.1.r.i.1.c.1.1.i.B.'./.Y.'.p.} ! ..v.M.M.E ^ Q L..X6.g.x.'.E.L...6.r.=.,.6.i.6.r.r.1.r.1.1.1.4.r.4.1.4.4.i.r.4.4.r.r.1.1.5.i.R I ~ ' ..V A } s.v.Q Y.|.=...} I >.r.' m } p.r.Q g g Q -.} ..=.1.1.1.,.1.1.s.,.1.p.} 7 u ' 1.,.-.1.r.,.-.6.1.,.,.1.1.6.r.i.,.p.r.-.s.r.E A ' ..=.1.1.1.,.,.6.*.1.1.r.U d Q x.s.' ..s.c.p.=.O.s.-.",
"{ V.v.L.-.H I M 2.c.0.-.1.*XT.s.x.B.!..X.X'.T.L.A.!.'.&X&X'..X*XE.v.r.T.M.-.=.r.s.M.M.r.r.p.P E y i m m p.s.x.r.| U *.p.,.1.L.}.|.&XoXY.g.i.r.r.p.i.p.s.c.g.s.s.r.g.s.=.I >.M..X.X'.L.M.v.B.M.s.c.s.c.L.}.|.E.B.-.Q g } 1.r.|.;Xr.U -.E.E.}.}.c.v.v.v.M.c.s.v.Y.:X1.2 r.| r.c.,.Y.3Xv...r.s.x.r.r.i.p.s.x.x.s.s.s.s.s.s.s.s.s.s.x.s.s.p.p.p.s.s.s.p.s.x.s.p.p.s.c.r.s.6.u U p.1.s.B.E.T...r.6.M.6.i.1.,.| r.M.m A ..| ' u r.E...=.B.i.p.c.r.M.E.c.c.h.s.p.i.r.r.i.k.v.M.c.k.s.,.} ,.A g m V g ..B.L.m.,.g g Q M.1.} Q 1.=...p.F m I K B u B t.-.h A i U L.-.u ,.}.B.r.p.,.4.' g V s.r.Q m ~ =.>.c.i.1.1.i.p.i.1.g.r.,.s.E.E.c.r.r...^ ..1.1.r.x.p.=.M.r.s.1.V d Q 6.c.1.' 6.L.x.B.1.=.r.1.s.x.L.r.=.1.v.x.,.=.1.r.s.x.p.c.r.Q ..n.-.s.r...=.-.1.s.,.-...) p.O.] m m 1.i.U g A r..XL.r.,.1.r.r.r.6.r.r.r.6.r.6.1.1.s.c.i.=.1.h.1.c.E.,X|.v.r.4.c.r.s.s.c.M.'.B.M.M.l.2...c.L.E.T.T.^ -..X' ^ p.A..X'.s.,.r.p.1.,.r.r.r.r.r.r.r.r.r.4.1.r.r.r.4.r.p.4.1.i.r.1.i.i.r.p.R R R ' Q V A i.r.Q Q }.M...=.U g g V g u ..-.i.>.i.i.=.4.=.r.r.1.=...1.i.4.r.1.i.4.A u g P r.p.1.,.6.1.,.r.6.,.1.1.6.,.*.r.s.=.A.Q P p.A P | U r.6.r.1.=.r.i.*.,.1.=.^ ' B.OXp.s.E.L.=.s.E.E.s.Q ",
":.0.r.:.H g h ' V.*X!.].{.~.c.t.t.s.c.B.B.A.L.T.L.].E.L.B.v.B.M.B.,.A 1.| P l E r.} l 1.-.l i y V d U r.M.i.p.M.' | p.c.1.r.A.L.i.s.c.s.i.r.i.i.p.s.s.s.s.s.s.s.c.i.p.r.v.|.&X.XE.B.c.g.p.i.r.1.i.r.1.i.c.B.M.v.M.,.r.M.M.E.&XB...-.L.,X3X;XE.s.i.s.B.Y.Y.Y.E.E.E.-.i | Q -.U l ....A 6.:X.XB.r.r.i.p.k.x.x.s.p.s.s.s.s.s.s.s.s.s.s.p.p.p.p.p.p.p.p.p.p.p.i.i.p.i.B.s.Q l ..x.B.s.x.E.A.6.r.s.v.} r.s.1.p.E.p.7 Q }.p.=.' r.=.Q i.s.1.i.M.Y.'.L.v.c.s.p.i.i.i.i.1.i.k.c.s.c.v.,.A U B g i A ..M.B.C.r.=.A g ..M.,.p.c.c.1.4.i.m r.L.}.v.A g s.&Xc.-.H } L.' u 1.Y.c.L.B.=.U V ../.s.~ ..-.c./.&XE.M.i.1.r.r.r.r.=.1.r.i.i.1.-.1.=.*.=.=.-.1.i.s.' r.6.1.=.,.i.p.'.T.s.p.L.T.1.l ..r.Y.E.s.p.1.B.x.p.s.v.p.1.1.,.6.1.p.s.M.p.1.B.'.].M.} Q 1.p.,.,.2.1.=.{ ..U Q E 1.6.V U A A ,.|.M.6.,.6.r.6.6.r.i.r.r.6.6.4.,.1.i.i.r.r.m.B.1.r.3X'.Q ~ i.B.'.L.r.Y.E.s.s.i.M.r.' T :.E.T.Y.L.c.v.c...l *.g.`.}.L.i.-.1.i.r.6.i.r.6.r.r.r.r.r.i.r.4.r.r.r.4.r.r.i.i.i.1.1.r.1.c.=.R >.,.} V g g -.p.1...i...Q m m F g g Q =.4.i.r.1.L.L.i.g.c.c.=.' ..1.i.r.-.i.p.p.' u u m A ] ,.1.,.,.,.,.,.r.1.1.=.,.6.,.6.,.M.,.7 2 g l m u l ..Q ' 6.p.,.,.,.p.r.1.1.1.L.T.|.|.1.' Q =.c.M.'.V ",
"0.k.k.0.) T ) n.{.~.!.XX~.v.u.c.k.s.p.t.t.k.M.A.A.!.B.s.t.r.s.s.L.6.A ..C l l =...E d =.A * A A A A ..c.6.6.p.p.*.-.1.' A ' p.p.-.-.,.r.i.i.i.i.p.g.c.s.s.g.c.s.c.i.c.s.'..X|.E.B.p.i.p.i.1.1.r.i.r.1.1.r.p.c.v.E.Y..X|.}.;XL.} ..B.}.|.&XE.c.s.r.p.p.s.c.M.L.Y.P.s.C ..s.v.,.=.^ Q U v.2X.XB.p.i.p.s.x.x.x.s.p.p.p.s.s.s.s.s.s.s.p.p.p.p.p.p.p.p.r.i.i.r.r.r.p.i.v.r.V Q x.T.OXL.c.}.`.'.A.B.t.=.p.p.1.T.E.} g ,.&X6.c.s.,.Q =.Y.E.}.E.M.E..XE.L.M.s.i.i.i.i.i.t.s.v.c.p.v.p.' g m B B -.E..XP.-.1...,.-.~ c.L.-.-.1.s.g.v.c.4.s.v.E.v...O.c.|.|.P.L.B.E.} I v.r...p.i.i.1.} i.M.r.-.g.p.B.E.C.}.M.r.1.r.r.r.p.1.i.p.p.i.1.,.r.1.1.,.=.,.r.1.....x.| =.1.p.c.c.6.'.|.A.E..Xc.Q } 6.,.U ..L.s.x.x.c.M.c.p.p.s.r.p.i.i.1.r.p.*.^ E ..E ..i.i.2.r.-.r.r.t.s.U B Q I | E u s.c.r.B.`.x.,.,.r.6.1.6.6.r.r.6.1.6.6.1.r.r.4.=.-.c.B.p.Y.s.g 7 R =.r.r.Q c..X=...s.=.....C A i.E.'.L.V.1.c.1.l ' B.c..X|.B.p.1.1.r.p.r.p.r.6.6.r.r.r.r.i.r.r.r.r.r.1.4.4.i.i.4.1.i.i.r.>.~ ~ ..~ R g e } 1.,.1.i.1.Q i m V u A E.|.4.r.i.p.r.M.L.c.v.s.$.....-.1.1.1.1.r.s.v.Q i V A A U ' ,.1.=...,.1.1.,.1.,.1.6.-.1.p.r.V g C g C l | m g u g E 1.,.r.6.r.1.1.1.=.6.1.r.,.Q 1.-.-.L.p.T.A ",
"l.~.l.v.G.U.{.*Xk.H G.~.v.v.u.t.c.x.s.p.t.t.s.k.x.c.r.t.p.6.p.c.p.6.' | d g ' E.|.M.,.Q y i m l A ^ =.,.,.M.T.B.T.T.B.,.' r.B.c.i.r.1.i.s.i.i.p.i.s.c.p.p.s.c.g.s.p.c.s.B.M.s.i.s.4.r.s.p.i.s.g.p.p.p.p.p.p.p.p.i.E.E.L.|.'.,.' s.E.E.v.c.i.1.i.s.s.i.,.8.d.M.v.B.i.u | A.p.M.p.6.L.Y.L.T.E.E.c.r.p.k.c.c.s.s.p.s.s.s.s.s.s.s.s.s.s.s.s.p.p.p.p.p.p.i.i.r.r.i.s.s.i.1.C *.`..X`.c.c..XL.1.^ s.B.i.c.' E s.-.u g x.c.| Y.6.,.x.B.m.'.$Xm.-.r.B.E.E.B.g.i.i.p.i.i.r.i.v.c.s.v.,.A g =.r.@.L.'.M...p.p.>...} I s.Y.s.1.i.s.s.1.} 1.,.=.-.U Q t.M.}.L.B.}.L.P.,.-.s.-.=.p.4.i.$...c.r.} Q p.v.B.Y.Y.E.c.4.r.i.r.r.p.i.i.1.w.p.i.1.1.p.p.6.-.1.p.,.^ ,.6...*.,.*.*.A.V.M.B.L.`.`.c.6.c.E.c.' ,.L.6.M.c.M.M.x.i.s.v.s.s.p.p.1.1.s.1.U ..p.p.t.k.B.i.r.0.r.i.c.i.u V Q E m m I A.'.&XOXL.i.=.,.r.6.1.6.1.2.1.1.1.6.r.r.=.-.r.r.r.i.=.' v.r.m m ~ ..r.-.m -.1.m ..r.Q I g i A i.M.E.L.c.s...P A c.x.r.OX'.c.i.r.1.6.p.i.p.r.1.1.r.r.r.r.p.i.r.r.r.4.1.1.r.r.4.,.r.i.1.1.5.F ~ ..V u g } ,.s.r.,.i.,...g g m Q L.3X'.>...p.s.r.s.v.s.p.-.I ..>.-.,.r.,...=.~ ..I g u A 1.*.^ ..i.r.1.,.=.-.=.1.r.r.1.=.i.1.y 7 m C m A m | ..| P g Q r...-.,.1.1.=.E A E Q ' ^ ^ r.1.1.v.1...*.",
"B.!.0.l.~.~.V.V.Q a V.L.k.v.l.t.p.s.s.s.s.t.r.r.2.r.1.r.p.1.6.r.6.i.s.1...-.B.,X,X|.B.*.U ' U =.r.r.1.r.L.`.}.OX|..XOX|.`.].E.p.p.r.r.p.p.i.p.s.i.s.c.p.i.p.s.s.c.s.i.s.M.B.4.r.r.1.i.i.i.s.c.s.p.p.p.p.p.i.r.1.-.L.B.B.}.Y.l.n.Y.E.L.c.i.r.r.i.r.p.i.r.p.c.s.r.,.U 2 Q v.p.v.-.,.L.E.M.c.E.E.i.i.p.s.c.x.s.s.p.s.s.s.s.s.s.s.s.s.s.s.s.s.s.p.p.s.p.i.i.i.r.p.s.s.p.,.A i..XE.1.=.,.M.p.C d ..r.c.T.U A p.| d l B.,.Q p.g Q v.=.p.c.-.V A ..i.L.B.c.p.i.s.s.s.i.1.r.v.c.c.s.Q i g i.p.-.E.c.Q E ....,.' I k ~ 1.V -.B.p.i.p.-.s.k.0.i.' } c.c.B.p.V m V ] } p.Y.1.=...-.1.G -.Y.1.c.r.s.M.E.|.;XE.c.r.i.p.r.1.r.1.i.i.r.r.1.,.i.r.p.p.r.6.r.r.1.6.=.,.s.c.C g 1.^ U =.=.U | 1.r.Q ^ | ,.i.=.P B.L.A.B.c.i.p.x.s.s.1.r.s.r.,.r.r.}.~.].s.O.l.=.-.r.r.s.0.' 0 ..{ *.| ^ -.p.B.OX.XM.6.=.1.r.1.1.6.1.1.1.1.1.1.6.r.s.1.>...' Q I ' i.C.Q V ....i.E.B.>.F g Q ..,.Q 2 i Q s.v.E.M.r.| l y U >.R r.`.v.6.1.r.1.6.p.p.i.6.1.1.6.r.r.r.i.r.r.r.r.1.1.1.p.1.4.r.s.1.I F I d I F b R >.M.,.i.4.,.v.s.c...k =.B.'.L.=.I U c.r.1.B.Y.c.r.4...=.' ' 1.p.} k u 2 V A A i Q Y.M.-.' } ..1.6.=.,.,.1.,.,.-.^ ^ ^ V ' l u I -.-.Q ..1.s.p.M.M.-.=.1.,...A i m ^ } I A ^ ..P ..1.=.Q ..",
"k.V.U.~.~.0.4 H B -.G.B.n.u.l.k.s.s.s.s.s.p.r.r.-.x.s.t.p.s.p.1.x.x.L.B.'.OX&X.XE.,XE.L.T.E.E.&Xc.c.p.x.|.'.E.'.L.A.Y.`.'.`.M.,.i.i.p.s.s.s.g.c.s.s.c.s.s.i.i.p.s.s.i.v.B.B.1.p.r.r.i.i.r.p.s.i.p.p.i.p.p.p.i.r.s.M.L.E.B.l.L.Y.L.c.s.s.i.i.s.s.1.i.i.i.p.s.r.=.' u g A p.`.B.i.p.c.M.B.B.B.c.r.i.p.s.x.s.s.s.s.s.s.s.s.s.s.s.s.s.s.p.p.p.p.p.p.p.p.p.p.i.r.i.p.i.1.Q | E.A.,.=.-...=.6.A A ' U ,.=.7 Q A.' i m | l g } d Q c.r.L.s.A 8 I >.s.E.c.p.i.i.p.s.i.4.1.i.v.c.c.1.A A ..c.p.s.'.=.h O.r.} Q m U =.p.B.Q i.v.-.1.v.g.B.P.c.B.t.r.v.r.1.I 7 ..E.T.=.,.B.B.s.Q ' ' A =.1.p.3X3X}.'.,X&XE.B.s.r.r.r.1.1.r.p.g.c.s.s.r.r.s.r.r.r.r.r.r.r.r.s.r.,.M.x.7 g ..V d ^ ^ Q c.x.E A A U 1.p.*.U r.L.B.M.c.i.i.p.p.6.1.1.p.1.-.1.*.,.K T I Q B.@.-.p.0.p.r.s.s.].=.A ' Q p.A.p.s.B.p.1.-.1.r.6.1.6.6.1.2.2.1.,.,.1.>.,.p.=.I g g } ;XC.} =.i.1.B.,Xc.E.v.1.i.r.r.U -.1.s.L.L.L.c.i.$.=.4.c.c.r.'.C.i.6.r.i.r.r.i.i.r.6.1.1.6.r.r.r.i.r.4.r.r.1.1.1.i.1.i.p.s...u i e s m e I c.Y.4.p.1.>.r.E.Y.'.E.g.E.s.r.i.Q g A r.,.r.M.L.c.r.1.4.1...' ..' A V I -.4.V A Q p.v.s.M.M.r.*.1.p.r.p.x.c.6.6.1.U d m ^ Q y A ' ,...| =.x..X.X`.p.,.6.p.=.Q P m C m V 7 g E P l *.r.x.B.^ ",
":.l.!.].!.@.= Q ' V.L.G.L.u.t.r.c.x.x.k.s.s.t.r.6.M.c.s.x.c.v.p.s.r.s.s.E..XL.x.A.`.*.,.B.B.1.E | i.v.Y.E.|.E.A.L.B.M.M.B.A.c.r.p.s.c.c.c.v.v.c.c.s.s.v.c.s.p.s.i.s.g.c.c.i.$.p.s.r.i.p.i.p.s.p.s.s.s.s.c.c.c.s.i.s.L.v.,.1.r.i.s.p.1.1.i.p.p.s.c.s.s.p.s.s.i.,.Q 7 m m 6.}.M.v.|.E.Y.T.E.M.s.v.r.p.s.s.s.p.s.s.s.s.s.s.s.s.s.k.s.p.p.i.i.i.i.p.p.p.p.p.p.i.i.p.1.*.U x.E.6.*.r.1.-.=.=.d C 1.1.i.Q V M.;X*.l ' r.Q | r.} } 6.s.Y.s.U U -.r.C.Y.s.p.i.i.p.i.r.,...1.s.r.p.=.I t.E.V.B.Y.-.g m r.E.L.s.c.Y.&X.XY.m.v.i.1.M.E.E..XV.B.E.p.} 1.c.B.H Q '.3Xp.m C ..Q 4.r.r.$.,.C.Y.,X;X/.&X;X&X/.C.i.r.1.1.r.6.i.p.p.p.i.i.s.i.1.4.i.r.1.1.6.r.r.1.p.s.1.| g = Q E.,.l ' r.1.-.A i g ..,.s.p.M.A.M.x.p.i.r.1.r.r.1...6.r.r.p.c.s.^ V h g B =.&Xl.s.G.t.r.c..X;X.X' y } } p.L.} =.p.1.1.,.1.1.6.6.1.6.2.1.6.1.,.,.,.1.4.r.F 7 7 m i.L.i.1.=.' 1.B.s.i.Y.v.i.r.,.r.Y..X].E.n.v.p.i.p.p.v.c.M.m.p.s...1.i.p.r.i.i.r.r.1.6.6.6.6.4.r.r.r.w.4.r.r.r.4.r.r.r.i.=...U 7 m R k m } m.c.s.-.1.,.p.c.B.v.A.&X&Xc.4.p.Q i A A -.1.r.1.>.-...} ..s.p.$.Q A I =.}.3XB.s g Q L.c.6.`.,X.Xc.=.....6.r.i.,.-.=.' } ,.,.Q A r.6.6...Q L.3X.XB.L.1.=.,.1.....*.' U g y U c.U d | x.c.Y.B.^ ",
"! { c U 0.-.) V.{.!.L.k.t.k.u.l.k.k.k.x.x.k.s.p.p.c.k.x.x.p.x.c.c.p.i.p.s.L.s.s.M.6.P ' 1.,.A u *.c.'.3XT.'.B.x.c.M.M.M.M.v.p.1.r.p.s.s.c.M.c.i.c.p.s.M.B.c.c.m.c.p.s.4.c.>...4.s.1.4.s.s.s.h.c.p.s.s.c.c.s.s.s...p.E.r.r.n.,.p.1.p.r.1.s.s.r.i.i.i.i.p.s.s.r.,.B i h Q L.&XE..X.X'.L.M.A.B.s.x.r.p.s.s.p.p.s.s.s.s.s.p.p.s.s.s.s.s.p.i.r.i.i.p.p.p.s.s.s.p.p.p.-.,.,.T.p.1.c.,.r.=.=.*.A ' E.L.B.=.1.'.OX=.l | ,.} s.x.,.r.c.c.c.1.} c.L.L.|.E.i.i.i.p.p.p.i.r.1.p.s.-.-.H g c.B.H A ..i V r.L.'.6X&X,X|..X;X'./.'.Y./.;X;X}.'.v.Y.].s...c.'.L.=.i.L.1.g m Q E V =.E.,XY.Y.}.,X.XE.m.B.r.i.p.,.1.r.r.i.i.i.p.p.r.i.i.p.s.r.1.r.,.p.s.r.1.6.p.s.i.1.1.m $ g A p.,.U -.i.-.Q m Q x.T.p.6.-.L.&XA.1.1.,.=.O.,.,...*.p.r.i.i.r.p.*.U ' =.E..XY.] V..Xc.2.s.E.c...g ,.;X&Xc.-.V s.A.=.,.1.,.1.1.6.1.2.1.1.6.6.,.,.,.4.-...g i A A =.r.r.>.Q =.v.p...Q I ..r.-.c.B.E.v.P.L.-.=.] =.1.6...P P ' I F =...r.r.6.p.p.r.p.1.6.r.r.6.1.r.i.r.r.1.r.i.r.r.r.p.i.1.A g i 8 I A g m 4./.g.s.p.=.} ,.p.B.M.,.,.c.r.=.>.U 2 u A s.1.1.-.Q V m Q ' s.p...} ..-.i.g.1.A g ' Q L.|.}.E.B.i...g 7 m A g d d u g } `.,XL.M...,.r.M.M.T.|.'.s.r.Y.p.A.i.-.P P U E r.L.p.r.'.' ' T.L.`.r.d C ",
"g h 7 O.n.1.@.v.P.E.G.k.k.c.s.t.t.c.s.s.M.k.i.c.c.c.c.c.s.s.p.p.p.s.s.M.M.=.U ' } } A m I m A ..i.1.E.|.B.Y.E.B.B.c.c.v.v.p.r.i.p.r.r.6.p.'.-.7 U m r.s.s.c.M.M.v.i.g ' Q U r.,.i.i.i.p.c.v.c.c.s.l.l.s.s.s.s.y.1.n.l.s.d.8.8.s.u.p.p.s.u.y.y.p.s.i.p.c.s.=.Q Q =.{ g Q c.r.p.s.v.}.Y.Y.c.p.p.x.p.s.x.s.s.p.p.s.s.p.p.s.x.s.s.s.p.i.p.s.p.p.s.i.s.6.i.s.6.r.i.,.1.,.p.M...s.6.p...I Q 1.E ..1.U A r.|.c.A u A =...v.s.6.i.i.i.i.s.' =.Y.E.].}.1.t.p.r.c.c.p.i.} =.p.t...Q 7 H p...i O.2.Q 1.M.B.&XE.!..X|.E.L.T.'.'.XX;X&X|.'.Y.P.E.}.c.} p.r.Q -.E.s.g g I -.s.-.v.'.E.Y.L.B.}.E.c.r.i.r.2.r.r.r.i.s.s.p.i.i.s.r.r.r.i.i.r.1.1.i.i.i.r.r.p.l.i.-.i.r.i g U i Q ..A ..r.r.@.c.B.XXs.! r.T.Y.B.p.M.p.=.^ U Q ^ P ' 1.i.r.r.r.p.s...=.B.XX:Xr.V p..X' ..'.M.m l l E.;XL.L.v.v.}.r.,.r.4.,.i.i.1.1.2.=.1.1.,.2.1.,.=.,.T 7 i Q ..=.1.r.Q A r.p.c.A.,.V V A 1.T.L.i.| c.p.U i.c.| | *.*.Q d y ..'.|.i.-.1.i.r.i.i.,.,.r.1.,.r.i.r.r.4.,.>.,.1.4.4.r.,.r.} g g m i m g A ..E.v.s.M.i...} B.g.Y.c.r.s.>.,.=.Q A u ' c.c.1.r.1.,.' g A F V $...Q $.>.i.,.Q A g U -.'.,XE.i.=.U u i m m g V m g A =.c.m.r.s.1.U 1.c.s.A.:XT.s.6.1.i.v.B.s.,.O.*.1.k.M.M.6.v.c.A 1.T.T.1.P ' =.",
"q g @.U.r.K B :..XP.n.c.l.p.p.c.c.v.s.s.v.c.p.s.v.v.c.c.s.t.i.r.t.s.s.c.s.1.u 7 7 I m u V A =.r...1.E.Y.c.L.M.1.i.c.c.s.s.c.i.=.' *.U l ' x.P * m V Q ^ 6.E.v.c.'.=.8 =.,.c.i.c.s.p.p.p.s.c.s.p.s.l.c.l.l.l.d.s.r.n.s.p.l.r.0.s.u.u.p.s.u.y.y.p.y.s.c.c.1.=.i.B.T.p.U 0.B.1.A ' B.B.k.v.r.2.L.r.p.x.v.M.v.c.s.p.s.p.p.s.c.M.c.p.i.r.p.s.p.p.s.i.6.v.p.} r.,...' *.p.M.c.,.A.B.r.I Q =.Q g 6.B.p.,.|.L.1.| P U 6.B.E.A.T.E.c.k.A.s.p.L..X'.L.t.V A =.,.i.r.Q m i A ,.,.} -.i.L.E.t.=.,.r.p.s.s.E.Y.s.c.M.v.s.2.r.c.c.B.L.V.L.P.Y.L.P.E.s...i.c.:.,.v.} u g ' k.r.s.B.'.E.V.v.v.E.M.r.-.1.r.i.p.p.s.i.r.i.s.s.p.i.r.0.r.i.i.r.2.0.i.r.i.r.1.y.s.r.k.c.1.8 5 i l E O.g { r.k.s.l.B.r.V Q s.L.B.x.-.A.x.r.,.*.=.1.,...*.,.1.r.i.6.1.' r.|.|.v.Q 7 A ,.=.=.c.:X| y v.M.1.} r.}.,X;Xv.,.1.r.i.r.1.r.r.r.x.s.} s.2...=.s.-.I g A Q | -.| =.m g ' =.1.*.m I *.=.=.-.s.i.m Q A U T.s.U *.M.1...' 1.v.s.s.c.4.1.r.r.r.i.4.1.r.1.,.1.r.r.r.i.r.r.r.4.1.1.r.i.s.~ g Q =.Q g =.1.s.L.g.L.L.M.p.L.;X'.,XL.r.p.M.$.=...m m L.,Xc.r.$.1.,.r.v...~ ..-.V A p.i.' Q I s g ..r.c.C.1.m i A U U A m V m 7 Q M.}.' } | ,.r.| 6.s.B.,X;XM.,.,.1.s.B.v.c.t.=.r.s.k.c.*.! *.] C O.*.| P O.*.-.",
"h H =...h g c +.!.V.c.l.t.r.s.s.i.p.s.k.s.s.c.M.s.k.k.s.s.p.p.p.c.s.s.M.p.-.2 i I O...g U -.p.r.t.M.~.B.k.B.v.r.t.s.p.r.s.v.r.' m i 7 m Q ' l g E ..A V C r.E..X..7 ..E.B.M.v.p.d.s.p.s.s.s.p.i.p.s.l.l.d.l.s.p.p.c.y.p.l.p.r.p.p.u.p.s.u.y.y.p.p.c.s.s.=...c.B.p.' s.5X.XT.r.0.L.v.B.s.-.*.M.p.x.x.s.s.s.s.s.s.i.s.s.p.s.s.p.6.r.1.p.x.s.p.s.p.1.*.' U r.*.1.B.p.c.A.x.,.p.p.-.A A Q l A L.A.p.v.T...i.r.Q ' x.L.L.x.L.:X&X'.P.M.E.|.|.E.T.Y.2.c.A g ' Q i g m E M.B.s.M..X.XP.B.p.-.r.B.v.B.&Xv.r.r.r.,.1.-.-.p.p.s.k.p.s.v.v.M.M.c.2...r.Y.V.-.s.m m 2.v.B.L.].}..XB.r.k.V.Y.M.r.-.r.p.p.p.i.s.s.p.p.i.r.r.i.i.i.i.s.s.t.i.i.i.r.p.r.1.i.p.0.p.c.r.g g j ' ] =.c =.r.t.c.k.P.'.I ! 2.Y.L.*.U M.B.A.M.c.A.B.p.,.=.,.6.6.r.r.,.| r.B...d l E ,.c.-.g 1.A.P 1.T.} 7 g } '.'.M.M.v.i.i.i.r.1.r.r.1.6.i...=.r.p.t.,...A u g ' r.c.1.r.l Q r.M.1.' ^ 6.p.6.1.=.p.' A 1.^ I x.| m | r.1.p.,.1.*.m ' c.r.,.-.=.,.1.1.1.4.1.1.1.4.r.r.i.i.i.i.4.,.1.r.r.,.A R r.g.i...} 1.Y.E.c.M.i.v.p.c.-.' E.L.c.L.4.g g A g V g.M.x.p.1.v.Y.E.E.1.Y.}.E.} Q m.s.Q 8 m Q p.c.s.v.B.~ m k I ' ....U =.$.p.E.L.L.} 1.1.-.*.Q 6.L.|.;XE.r.,.1.=.1.x.c.t.r.' E m C =.^ B 1.-.=.1.| O.1.-.r.v.",
"i :.k.t.p.p.U U =.=.2.t.0.r.p.p.v.c.M.M.c.k.c.s.p.s.s.s.s.s.s.s.B.v.c.v.1.I = u } t.!.] =.M.k.k.c.B.L.v.s.s.t.p.s.p.t.p.s.s.1.=.} u A c.L.p.' g B ,.r.E...I i.U 2 u i.p.E.B.c.c.s.s.s.s.s.d.s.s.p.s.s.s.s.s.s.p.p.c.y.p.l.p.p.p.p.y.p.p.p.y.y.p.s.s.r.c.>...-.Q m h :.P.T Q -.@.1.=.0.E U A V ..x.s.s.p.p.p.p.p.r.s.c.c.p.r.r.i.i.r.p.c.s.p.s.x.-.A ..p.6...s.M.B.s.L.r.,.1.' A A U } P A | ..r.'.c.E | Q M..XE.T.'.E.'..X`.E.E.P.&X}.V.B.L.E.L.c.Q m m g h A V r.L.M.B.L.}.Y.c.=.' ,.P.E.E..XT.p.1.,.=.O.1.r.r.k.s.c.c.p.t.p.t.i.p.t.t.2.=.1.=.v.M...p.!.M.r.E.,X&X;XL.1.c.E.Y.B.p.r.p.s.p.i.1.p.s.s.s.r.1.r.t.p.t.p.s.s.p.i.i.i.y.s.i.1.r.i.r.i.s.2.V m ..B.B.:.Q i.s.p.c.r.s.-.} =.p.L.x.P | M.B.A.B.B.Y.B.r.r.x.B.M.i.6.r.1.-.c.B...Q r.E.;Xc.U 5 m A 5 } L...g V A s.p.i.B.v.r.,.i.B.M.g.c.L.=.m A A 2.-.O.i g g A ..c.V.M.'.`.c.E.,.r...} r.6.p.B.|.L.i.P *.T.6.A ^ g u P Q =.s.,.=.1.,.M.C.c.r.1.,.1.1.1.1.1.r.r.1.4.r.4.r.4.4.r.1.,.1.4.,...V ..c.g.v.i.=.g.E.c.s.v.r.s.r.,.Q ' Y.m.r.i.g i g k g i ..i.p.c.Y./..Xc.' i.|.&XoXp.' ' I b ..c.'.E...c.}.i.s.U m ' ~ A ' i.v.,.i.i.L.Y.s.=...' ^ m m Q p.L.s.-.1.i...^ *.=.Q E H m i P 1.| A x.1.,.2.1.1.=.O.B.&X",
"K v.V.!.'.n.=...0.t.l.c.s.r.r.p.c.p.s.c.v.v.k.2.s.s.s.s.p.p.p.p.p.c.c.s.-.g g h V v..X=...s.c.c.r.v.v.c.c.t.r.t.i.s.v.c.t.2.2.r.-.1.V.}.|..X'.t.v.B.c.c.} V ] 7 7 U s.c.r.M.L.c.s.s.s.s.c.c.c.c.l.c.l.s.s.s.s.s.p.l.p.s.s.y.s.s.p.y.y.u.p.p.y.p.p.p.i.v.=.' I u u K K B 7 0 ..r.=.' I A V m i E ,.6.p.x.x.s.i.r.r.r.i.s.p.6.r.p.p.r.p.s.p.s.k.s.Q ' i.c.^ 1.B.i.,.s.&X' d A I *.s.M.p.} ..i.L.'.v.Q m | } |.,XT.}.T.M.L.M.,.1.x.B.|.E.G.L.v.s.t.,.v.,.I I m A M.'.P.r.k.v.B.p.-.Q V ..B.V.|.,XM.i.,.2.-.:.s.c.c.s.i.p.s.p.s.s.r.t.i.r.s.s.,.=.,.P.=.M.&Xv.p.r.E.'.L.].'.c.B.T.Y.s.r.r.p.p.i.i.r.t.r.2.i.s.s.i.r.i.i.p.s.p.r.1.1.i.p.s.p.r.i.p.r.r.p.1.A i =.2.:.n.l.B.B.k.p.) i 8 B U 1.p.c.,.L.T.B.c.s.6.6.r.6.*.s.L.x.-.*.=.=.i.B.B.x.A.|.'.|.s.m y ' =.' M.v.u Q 1.$.s.1.4.=.} } R } s.1.Q } c.Q = m -.t.g g A g V ..t.1...] B.-.,.s.B t.c.k.c.-.s.B.L.,.' -.r.i...' =.A U | c.p.i.p.v.|.,X&XE.Y.v.p.i.r.1.1.1.,.r.p.w.w.r.4.r.1.1.4.r.1.1.1.1.r.' =.p.s.p.' ..,.Q g Q r.i.>...,.v.}..Xp.,.-.m Q } I A I i.v...,.c.c.1.V g v.,X|.Y.-.F U ' ' 1.=.F V 7 =.}.c.c.i.=.,.r.r.s.r...p.4.,.E.s.1.-.=.Q E U U U ,.p.r.=.1.r.} P A m l 7 u u B *.] m O.E.s.6.=.-.-.*.^ 2.v.",
"K k.T.*X!.G.c.@.l.~.L.1.:.l.v.p.p.s.c.k.k.k.s.s.p.p.p.p.t.t.p.p.p.s.v.s.Q $ U 1.E V.=.g E s.B.1.c.E.L.c.i.r.p.i.p.c.c.p.p.s.2.....!.&X'.&X.X.X|.Y.E.Y.=.i.k.,.} U c.B.s.E.M.p.v.s.c.c.c.c.c.c.c.c.c.d.p.p.p.s.s.y.s.s.d.s.r.s.s.u.y.y.u.s.p.p.u.i.s.s.p.A m i g g m g C B A s.s.1.=.I ' d i Q E Q ^ | =.6.t.p.p.c.p.r.i.p.i.r.r.p.p.s.p.i.s.s.6.V r.p.,.Q x.v.c.r.Q } 7 i E A Q ' .X3XE.E.}.'.p.Q E 6.;X,X,XE.|.}.A.r.r.i.1.1.*.s.E.B.v.L.v.t.r...i.B.E.Y.-.} E.E.E.s.i.,.=.' B ! A Q =.p.E.'.s.r.1.p.i.i.c.k.s.s.r.r.r.r.p.s.i.s.p.r.c.s.i.=.M.v.I p.L.s.L.v.}.i.p.V.k.r.P.~.s.r.1.r.p.t.i.p.t.t.i.i.p.p.i.r.r.t.i.p.s.p.r.1.1.p.i.s.i.r.i.p.r.2.p.i.{ B r.O...r.l.k.t.@.-.] A B.,...s.s..XOX.XL.`.T.r...1.i.=.' 6.6.| Q ^ *.r.c.v.r.6.A.E.M.v.r...5 ...XE.;XT.M.E.Y.B.B.....I g V u i I g 8 k I 0 i I =.I u m u A ' -.r.1.2.M.E.p.V 7 A s.,.t.1.1.c...A i A p.1...| ,.s.-.p.B.OXL.c.A.B.L..X`.}.'.L.c.g.p.1.1.1.>.r.s.4.1.i.1.i.r.1.r.r.r.1.1.,.i.4.s.s.1.1.} ....} } 1.-...' I Q M.oXL.r.s.m.>.i.J.c.r.c.E.-.m g g A g g =.c.E.s.$.A V >.c.=.i.B...Q ' =.c.c.s.=.Q 4.c.1.i.i.=.s.,.Y.}.x.1...U =.p.1.-.,.c.p.,.1.r.1.Q m g l m A ,.O...6.| ' !.T.1.6.2.r.s.V.|.V.t.",
"T 1.0.:.) @...U 1.n.=.h I r.c.n.L.P.M.s.s.s.t.s.i.p.p.p.p.s.s.l.v.s.c.=.7 . } c.r.s.m 7 ..T.k.p.E.'.B.s.=.' =.=.s.i.1.2.s.v.i.=.s.'.'.|.3Xc.....i.E.'.M.'.}.V.L.'.s.s.i.E.B.B.r.s.s.c.c.c.c.c.c.d.d.s.y.y.p.s.u.r.u.p.d.u.r.d.p.u.y.y.u.s.p.p.u.p.p.s.,.g g i } 0.) { 2.K O.P.l.Y.L.v.r.U Q i.6.| Q U Q | ,.1.1.x.c.s.6.6.p.s.p.p.s.x.p.r.s.p.=.A c.x.i.p.6.E } U u u g U A m E x.T.M.E =.c.-.u A B..X&X&XE.v.Y.T..X|.L.s.s.x.=.p.B.s.r.p.i.r.i.r.r.L.c.,.v.M.r...r.r...I V A i B H ,.c.L.E.s.=.1.:.i.r.r.t.r.1.s.i.i.i.r.t.p.i.r.i.p.s.....m i.M...s.c.T.!.c.].s.p.s.=...B.B.=.p.r.i.s.p.p.s.t.i.p.k.s.r.,.1.r.p.t.p.s.s.i.1.1.i.r.i.r.1.i.p.r.i.s.1.,.-.A.'.&X!.~.L.=.g m M Q L.-.v.c.1.t.1.1.A.T.B.,...r.i.| =.s.r...^ E ' x.c.v.s.r.p.s.r...' 7 A U Q ,.v.c.r.=.1.}.;Xs...A g g u g m g m A V 7 B V g 8 m U g p.Y.M.c.r.i.E.Y.E.I i -.=.] k.U 1.s.} U I } ,.6.r.s.r.x.i.p.L.L.c.M.M.p.r.c.}./.'.C.g.c.s.i.p.r.>.r.p.,.,.r.1.r.r.4.r.r.1.1.1.,.,.i.c.p.>.,.r...1.E.L.c.Q i g m m i.Y.s.i.i.s.U ,.c.4.,.r.1.g g g 7 g A -.'.B...V g g g ..,.V ..5X;XM.C.c.v.>.r.r.I I ..i.Y.M.-.,.p.'.C.1.r.1.6.c.x.x.`.|.'.1.' ,.=.^ A g V ^ m ,.T.M.6.1.1.A.'.' u ' s.x.x.V.].t.' ",
"s.l.=.K V c 2 I L.p.C u K E { G.c.i.' Q p.B.s.i.k.l.s.s.p.s.s.s.r.s.x.I 8 ..E.s.r.1.-.' 1.B.A B.E.P.M.M.-.H Q } -...=.r.s.t.c.L.E.].|.!.s.i V =.v.|.B.'.M.s.'.!.L.s.c.B.c.M.r.p.p.s.s.s.c.c.v.v.d.d.d.s.s.d.d.s.y.p.y.d.s.y.l.r.u.r.y.u.s.p.p.u.v.i.r.=.A ~ G s.=.:.n.L.@.V..XXXT.A.'.! ' p.=.p.s.,.} ' ..=...^ ^ ,.1.' Q *.r.r.s.c.c.p.t.c.p...} M.x.1.p.| u d u m g m m g ..s.L.p.,.d A ..^ U c.2X&X'.E.r.r.p.1.x.B.A.c.i.1.^ =.c.k.t.s.k.c.s.r.v.'.s.} ,.2.-...=...H m g H m B U T.*X}.'.s.1.k.r.s.s.i.s.t.p.p.i.p.s.i.t.p.i.p.i.,.] g I m }.M.,.'.&X|.M.V.;X.Xp.2.p.p.i.=.} s.r.r.p.p.s.s.i.p.r.r.r.t.t.i.r.r.r.t.s.p.r.1.1.i.w.r.1.,.i.p.1.r.s.-.t.c.x.].*X,X~.L.{ u C m :.' A B.i.p.*.E 1.'.1.Q | =.*.....*.c.c.r...g u | x.x.s.=.A A I 7 d C V l A m ' } u } Y.3X}.s.1...Q A I Q A A A u V V m A =.,.I B ,.Y.L.k.s...] B.L.r.P ,.V...i.,.t.s.r.i.v.-.1.r.A.E.'.L.'.v.,.M.s.1.6.=.6.p.6.E.g.c.r.=.,.,.,.r.i.>.r.i.-.-.r.,.,.,.1.4.1.,.,.1.r.1.1.=.=.i.4.$.' r..X>.Q } A V i g 1.s.1.i.>.1.' 1.Q A s.Y.i.I ..-.1.Q ..Y.|.,XE.Q k A s I i.1.B.'.v.B.E.1.i.,.Q Q g I 1.g.m.>.i.v.Y.s.B.' Q ,.p.6.,.c.Y.6.1.1.U ^ A u g V I ..B.!.c...^ | t.`.-.i m r.x.-.-.B.s.-.] ",
"p.s.s.c.r.:.' 0.s.1.I c I { ] { h 0 m ..v.p.c.p.s.s.s.k.k.k.c.c.v.c.s.m u |.T.B.] -.s.E.c.-...v.'.....p.k.,.H V ..1.-.-.2.v.'.'.'.E.i.:.g i A p.L.v.0.2.:.!.M.V.c.c.v.c.v.c.i.c.s.s.s.p.s.s.c.s.s.s.s.s.s.s.s.s.u.p.y.u.d.l.s.p.p.r.r.p.s.p.s.c.c.p.p.-.-.1.....I t.s.l.=.P.B.T A I E Q =.p.1.,.s.E.A.} ,.r.' 7 7 A m 5 g V U p.p.p.s.1.r.p.=.=.p.s...1.I g P u m C A U ..U ' ,.Y.p.A m P =.i.L.}.`.|.E.c.r.1.r.i.p.x.v.=.V g d } E.s.p.r.B.p.i.-.B.c.I ' Q 1.t.1.1.B A V A T ..1.|.,X,X&X|.L.l.r.p.p.i.s.s.t.i.r.k.1.s.p.s.s.c.1...O.A A =.t.}...p.'.'.,.-.V.M.s.c.c.r.s.} A ..2.s.p.r.p.c.s.i.i.t.p.p.i.r.i.t.i.s.s.t.r.r.p.s.i.w.1.r.p.c.c.1.1.r.1.=.,.p.v.L.c.P.s.O.K I 1.@.} =.c.r.=.x.M.c.p.Q } *.} ' ^ ' p.c.M.s.A g ^ Q =...6.U 2 d C I Q ..' =.-...,.| V v.;XY.M.c.M.r.=.' =...>.=.Q g ....Q V p.'.M.=.P.'.....1.Q i.|.G.-...1.r.=.t.p.n.p.@.B.c.-.2.L.3X'.c.M.2Xi.Q Q Q ' A ' p.1.=.r.>.i.-.=...} i.s.i.i.1.g.p.-.r.1.r.r.r.1.1.1.1.1.r.r.,.} Q 1.-.1.} w.r.R ..4.r.' U I ......1...Q A g u U r.v.} ..,.s.Y.L.s.s.M.B...1.A g U >.,.i.1.1.~ Q A U M.E.p.I A i.E.M.1.,.'.L.E.v...I } } 1.1.,.c.p.r.U Q } 7 d m A V A 6.A.|.s.,.P E t.1.m g Q =.1.-.*.,.Q U I ",
"2.,.Y.c.l.=.r.p.1.c.t.=.1.l.c.1.B g ,.E.v.=.c.s.l.l.s.s.s.k.c.c.v.k.2.u h c.l.M.Q Q v.-.! M.v.v.-.! O.,.1.2...' Q Q U =.v.L.L.s.v.c.1.r.Q ! ' r.B.0.B B A p.n.c.-.1.s.c.v.c.i.c.c.c.c.s.s.s.c.s.s.s.s.s.s.s.s.d.p.p.p.u.s.l.d.s.s.s.p.s.p.y.y.p.c.i.r.,.$.' Q ..{ t.!.p...P.s.c g g ,.Y.v.p.p.s.c.|.B.m A ,...u i A I C m A I P ' ,.i.,.i.c.6.1...i.| P g C A C U A A *.v.....p.r.=.Q P ' x.p.L.|.Y.L.v.r.6.,.1.6.6.6.6.' m C A =..Xv.v.p.p.v.i.O.=.m 8 I r.k.2.r.s.E H ..1.i.E.'.3X'.s.i.M.r.! r.s.p.i.p.p.i.i.r.s.1.s.t.s.s.k.O.V m u A c.A.p.A v.M.,.1.p.p.,.I B -.p.s.p.r.' r.s.t.2.r.p.i.i.i.i.i.i.i.i.i.t.t.s.s.i.0.r.i.p.i.s.s.r.,.r.s.p.s.c.p.1.2.r.2.2.@.t.s.l.s.t.t.O.=.p.2.' -.B.B.B.=.1.E.E.r.,.,.r.p.L.c.-.*.6.L.OX..d y l g P =.*.L.T.M.T.`.A.x...A C.M.c.i.r.v.} m g ..,.1.c.M.1.i.p.,.O.P.}.v...p.k.M.i.1......Xc.=.! K ..1.p.0.s.0.r.l.' { s.L.i.' 7 ' p.C ..} Q m y g Q -.p.*.i.=.=.=.} I A Q L.4.i.c.-.-.g.i.1.1.r.i.,.*.>.i.1.r.=.I I -.-.1.1.A i g $.s.i.p.,.M.r.A A R V V i m Q =.=.=.Q >.i.i.B.E.v.=.I i m 1.U Y.v.r.E.g.w.U u u g 1.2X}.&XE.L.Y.Y.B.c.h.=.4.E.L.' u Q s...| *.i.1.-.l m 1.Q P l g l E c.p.^ U ' m -.`.A.! P Q ! | -.2.r.^ E U ",
"T C s.r.r.) 0.p.L.c.2.t.s.l.L.l.A I I ' k.v.c.r.c.c.k.s.s.c.c.c.2.i.=.5 U 1.t.M.A ..v.=.,.M.i.c...A U r.c.s.2.i.v.c.c.E.].Y.v.i.k.s.0.c.p.c.t.s.s.:.m B C 0.L.s.i.i.v.v.c.c.s.v.c.v.v.c.s.s.s.p.s.d.l.d.s.u.s.s.p.p.p.p.p.u.s.s.0.y.p.u.s.l.c.l.c.c.r.1.=.=.m.}.G.~.L.O.s.B.' g g O.L.'.}.Y.p.c.s.B.=.A -.=.A g A M.1.l g m A g m ,.A.s.1.=.E I A U U V g Q U Q s...Q p.`.*.' x.i.I g m -.}.L.|.3X'.B.i.,.2.1.6.r.r.6.6.=...p.s.'.|.i.,.s.c.i.' I Q g A U p.M.B.'.p.B.V.t.s.L.v.].!.r.....1.-.:.p.k.s.p.s.s.t.p.r.s.r.s.p.s.s.p.A V ..A u -.s.Q Q M.r.H ' B.B.] h } '.L.r.s.p.I c.c.p.r.r.r.r.t.i.r.r.r.i.t.t.t.i.p.p.r.r.r.r.r.i.s.c.i.-.1.p.s.r.p.i.r.p.k.s.p...@.p.c.c.s.1.1.1.s.1.=.6.c.v.r.p.s.M.r.*.p.B.B.c.v.x...' s.s.' A *.A d m C ' ..A.|.OX:X&XE.M.p.-.E.c.c.1.p.s.R i s 1.s.p.Y.}.p.r.s.v.'..X-.Q A ..E.i...-.I U B.) E ) I -.p.=.{ 1.' 2.r.I ..c.c.=.A A ' A m p.|.:X|.i.Q ..} *.*...U ..-.-.' m A -.,.~ =.i.1.i.1.s.-...1.p.r.1.r.1.p.-.A Q -.,.r.-.U } ,.=.r.1.=.p.1.-.1.} s u k V m Q r.i.4...$.4.i.1.Q A $.,.A F ~ ..Y...1.v.,.=.$.V V ,.'.,XE.E.E.M.4.=.r.L.}.1.^ ' Q ..,.s.4.-.} ,.6.1.*.d g 6.|.E...Q ,.r.6.2.6.s.=.A 1.L.'.1.-.s.6.s.k.x.t.-.=.O.",
") @.k.s.0.s.k.l.s.] ..!.XXV.t.K 7 E U I 1.i.r.c.k.c.c.c.c.c.c.k.s.c.O.8 V I I m u ..s.s.V.r.1.s.p.Q ) M.'.v.s.G.&X;X&X&XE.s.t.i.s.s.0.s.s.B.s.t.s.p.-.@.U 1.n.0.p.1.r.r.i.c.c.v.s.c.c.s.p.p.p.p.d.l.l.d.p.y.y.p.u.s.u.p.y.y.p.u.u.d.s.p.p.d.l.s.s.c.=.Q A U i.s.1.U.0.1.0.H c Q ] V.!.Y.&XOXs.s.v.L.U y p.,.l g g s.^ y C ^ 1.r.Q ,.*.C u u u d g V ,.,.y C ,.p.M.c.s.M.M.E ..|.&X6.Q 1.B.`.M.`.v.6.1.=.-.r.p.s.r.p.r.r.1.p.Y.E.E.1.=.A ' -.U U i h g U A -.E.3XB.i.L.M.c.v.T.&XP.c.=.=.,.i.,.s.s.c.s.p.s.s.p.s.t.s.t.s.s.s.c.r.g V ..U g :.i.A 1.c.' g ' V.c.B u -.B.1.i.i...' Y.B.p.i.p.r.r.p.i.r.r.r.i.t.t.i.r.i.i.r.i.i.i.r.i.i.p.i.r.i.p.i.r.p.i.2.t.s.k.k...{ i.0.-.@.@.V.c.i.p.c.-.,.M.=.p.6.1.,.p.Y.L.i.B.1.,.Q V Q A 5 } .XY.' A A *.x.'.`.A.L.T.Y.i.1.L.E.Y.s.,.p.=.Q u m r.s.c.L.M.} -.L.M.=.I u Q ' s.1...U Q I B 1.{ ! { T :.2.=.n.s.Q @.-.Q =.r.:.x.Q ^ } Q =.i.p.c.L.c.p.E.r.=.1.} ..r.i.g.M.s.i.~ ,.u A p.i.B.c.r.,.>.r.r.1.r.s.1.s.-.A =.r.r.r.=.....s.M.L.c.i.s.s.,.1.r.i.c.=.V g ~ i.w.1.4.i.s.i.i.=.I ..s.s.=.I 1...i r.=.Q } s.,.,.E..XE.g.1.>.-.=.$.=.r.v.=.I I ..M.Y.s.I v.....E Q U u A c.&XT.r.-.1.1.6.c.T.T.t.} r.s.c.-.| 1.1.B.T.L.t.t.r.r.",
"p..XP.t.2.!.t.=.s.@.r.&X,X'.B.' Q ,.s.v.O.H =.L.s.k.c.c.c.v.c.s.' Q m 7 m ' ..Q m ] c.c.p.i.L.s.s.s.c.B.B.c.M.E.E.T.B.v.s.p.s.t.k.l.t.p.r.l.s.t.c.s.c.r...n.~.U.L.r.,.1.i.c.s.r.p.c.c.s.p.p.p.p.s.s.s.u.y.r.r.y.s.s.s.s.p.s.s.d.u.u.p.p.p.l.c.c.c.i.' Q I A R g ! -...n.:.} @.} B.v.E..X}.B.1.2.B.p.Q | Y.r...,.i.,.' ,.1.*.p.r.|.c.Q i i m A V m m A I u =.T.p.p.s.r.p.L.s.A.;XOX}.E.:XT.1.-.i.U E =.1.r.s.p.p.s.x.p.p.1.6.c.s...i B 7 c A h B i g B -.p.M.L.p.B } P.B.B.}.,X3Xv.s.,.-.s.E.p.i.p.s.p.p.s.p.i.s.p.p.p.s.s.s.c.,.g m A V Q c.s.Q 2.v.E A s.p.B 8 m 2.s...r.} I t.E.M.i.r.s.p.r.p.p.i.r.i.i.p.i.i.r.i.i.r.i.p.i.r.i.r.r.r.r.i.p.i.1.p.t.1.2.r.t.s.K T s.s.1.O...E.s.r.r.p.*.6.E.s.,.,.r.c.M.c.1.Q V g g d m g m i.B.s.s.=.A } T.OX.XT.p.r.p.v.,.x.|.E.E.s.1.-.-.=.m } c.p.v.v.>.F c.#XE.-.U A r.i.=.-.m I r.I h c.t.=.=.T :.2.r.&XL.t.s.0.1.r.1.2.| } U i.L.L.L...m u g ' c.M.M.,.i.B.v.p.p.M.'.E.E.1.u i A A =.,.r.r.r.r.1.,.1.i.,.w...R i.c.g.s.1.r.U v..Xp...4.r.,XE.,.1.p.s.i.$.~ =.i.-.-.c.B.>.4.v.M.s.m.E.E.C.Y.|.Y.M.$X.Xr.>.1.r.s.M.Y.C.r.,.=.-.r.r.,.-.1.=.~ ,.v.v.} G A ' g g d V C g Q M.M.*...} ....1.P.A.v.6.A ' 6.' H ! p.r.1.| Q I 1.2.t.",
"V.].n.:.r.l.' ] ].s.v.E.l.1.p.c.B.E.v.v.1.Q Q 1.p.s.k.s.c.v.k.t.U i 7 V A ,.c.s.v.c.'.B.s.v.c.t.p.M.c.p.i.r.v.Y.v.B.k.i.i.s.v.s.s.l.l.s.p.s.s.s.k.2.l.p.r.'.XXXX'.r.....,.c.v.s.p.s.s.s.p.p.s.d.p.p.y.r.r.y.p.p.r.r.r.y.p.u.s.s.s.u.s.l.l.s.d.l.B.=.} i.m.s.1.Q Q V.].~.:.c.n.L.].E.'.E.r.H m ..x.' r.:X'...r.s.s.1.1.A.A.i.v.B.E...V A C l m u U 1.| U ' Y.}.s.p.r.1.s.OX;X&X`.L.OX|.OXi.^ -.,.*.-.x.x.p.p.i.r.p.s.s.k.i.r.p.6.V g A m m g B g V A U E -.r.2.V i ,.3X3X'.*X;Xr.i.r.1.r.c.V.2.s.s.s.s.s.k.p.i.s.i.i.s.p.p.t.s...7 m H } c.T.v.1.t.M.p.i.i.' m g U v.L.O.-.-.1.L.M.s.1.1.s.p.i.i.p.p.p.p.p.p.t.i.p.p.p.i.i.i.r.r.i.r.i.r.,.1.p.s.=.r.p.r.r.i.t.s.m T u.k.r.{ I p.Q 1.r.i.M.E.E.M.p.6.=.=.] P C m V A A m P | i.'.L.' A P U ,.Y.'.L.M.s.s.r.i.Q s.}.Y.B.s.,.Q 1.=.i } p.=.1.,.' A 1.2.-.=.,...i.,.] c...r.1.U v.B.2.1.=.Q 0.p.r.L.{ r.B.s.s.r.0.t.=.1.p.s.p.} U V ..' l A -.c.x.-.i.v.i.i.4.,.v.v.Y.Q i e m g r } s.i.r.r.i.p.r.-.r.,.' ..B.L.Y.E.L.,.I =.U i } i.i.Y.v.r.-.I m I $.} =.1.1.r.'..Xi.v.c.1.i.E.|.L.E.&X&X|.$X}.&XB.c.h.s.C.'.T.s.1.1.1.1.1.1.r.r.r.s.1.r.,.' i m ' =.P g g l l m ..B.6.Q Q A =.1.r.P..Xp.P g | ,.E u ' L.T.r.-.=.2.O.-.0.",
"B.V.v.s.c.p.=.s.n.=.l.v.{ m h ! 1.V.r.i.c.r.U Q p.s.s.p.p.k.s.r.g 2 u B U p.Y.}.3XXX.X'.B.s.=.6.c.i.=.p.M.i.p.B.M.Y.M.s.i.i.c.t.r.u.u.p.r.0.t.u.l.t.p.r.r.l.l.r...V m A Q r.c.s.i.s.s.y.i.y.s.c.d.p.r.0.r.y.p.p.r.r.0.r.p.p.y.r.d.u.d.c.l.8.@.@.0.T ..v.Y.B.s.1.s.#XE.B.G.'.L.~.|.&XE.1.U y y ..x.i.A.`.i.| c.,.,.s.c.p.-.=.p.L.s.A V ..U g ' ..T.B.p.B..X,Xv.-.c.L.'.'..X`..XE.'..XY.B.-.=.r.6.r.6.s.p.r.p.s.s.1.6.r.s.p.r.p.1.m ] i.-.A A O.U A } 1.r.p.p.s.] ' &X*XE.'.'.c.1.s.r.p.c.t.1.Q 1.c.v.c.c.v.s.i.s.i.i.s.t.t.i.s.' 8 B O.V.;X&XY.p.c.s.c.t.Q U 1.,.Q -.=.B i.'.E.L.t.i.1.2.p.p.r.i.t.p.s.s.s.p.p.p.t.p.p.i.r.i.r.r.r.r.i.i.,.,.i.p.1.s.k.p.t.r.2.2.U ..r.1.O.I m ....r.B.E.:X&XL.B.A.p.' Q U g g g l A A A ..`.3X|.M.p.U E 1.x.Y.B.E.x.i.x.s.r.u U E.C.g.i...R ' A g } c.i.c.m.s.1.=.-.' g ' B.|.c.1.|.;Xi.-.i.t.E.r.r.@.Q 0.u.p.s.i T :.2.t.@.:.1.c.1.M.=.....E U ' x.,.r.L.E.p.s.i.r.r.p.p.1.r.p.L.i.I A -.} g A } =.r.p.p.w.w.i.r.=.Q p.L.B.B.Y.M.,.c.v.r.m..XE.Y.r.Q A ..i.=.I m U -.i.i.r.E.E...,.r.s.Y.'.}.|.'.E.E.M.v.v.v.B.v.E.'..X2XE.-.1.1.p.g.p.i.i.4.-.,.i.c.-.~ V Q =.6.| g U U ' r.|.A.U A | m ..r.M.x.B.E y ..L.,...*.=.O...' s.r.2.t.t.t.",
"=.s.v.k.1.l.p.l.n.1.r.Q g A B ) 1...Q 2.t.p.1...s.s.p.r.r.p.i.1.0 u I U ] B.].,X&X'.T.XXr.,.M.1.c.t.-.M.}.M.c.v.M.B.c.s.s.s.c.t.l.k.l.s.s.u.s.k.k.c.t.p.p.1.t.:.i 2 i A I } ..Q i.p.p.i.r.r.p.s.c.s.r.0.r.r.y.r.d.s.p.p.s.s.y.0._ _ =.s.l.1.@.@.A V 1.M.c.s.r.r.k.L.s.!.XXB.].].].B.M.1.C m Q -.c.c.s.B.Y.c.'.'.M.1.M.p.U } m.B.|.....L.1.E r.M.p.g ...X'.s.E 1..X|..XOX.XE.}.A.L.x.s.M.r.p.i.r.r.1.p.p.i.s.p.6.s.p.p.c.s.r.p.1.U ..M.,.} v.B.-.p.i.1.p.c.c.B.M.L..XB.c.i.i.i.r.1.r.s.r.r.p.Q ' v.v.c.c.c.p.r.t.p.i.s.t.t.r.s.Q i =.'.3X#XB.c.i.r.1.Q m B -.B.v.2.1.E V p.c.,.s.r.p.i.r.p.t.r.r.i.p.s.l.s.s.s.s.r.i.t.r.r.r.i.i.8.1.r.i.r.r.i.r.,.i.t.r.i.i.r.i.) 1.r.=.' K K 1..XB..X3X,X}.T..XT.x.Q E U m C A *.B.c.L.,X&XB.,.M.s.' 6.c.A.2XE.L.s.p.c.r.-.y ..oXY./.B.=.1.G u A Q s.i.p.c.p.' 1.t.c.,.p.Y.v.] 1.L.E.c...Q ..=.s.l.t.0.B.k.k.s.=.' { 0.k.+.r.r.r.1.r.....,.M.} E ,.s.&X|.|.B.M.c.1.r.,.1.i.,.r.s.i.g Q c.E.,Xr.A V U ,.c.s.r.r.,.} U c.M.r.1.p.>.v.|.v.}..Xm.Y.E.'.i.A ..s.1.B.p.i.p.m.E.c.,.i I L.;X}.}..XE.v.v.v.i.p.>.1.i.i.i.c..X,XY.i.1.i.i.r.1.,.,.1.r.i.i.4.i.r.i...$.r.,.6.| B.s.-.*.r.U g *.p.E M.M.1.*.C m ! t.v.' 6.r.p.-...! L.P.P.U.V.k.",
"=.B.s.r.s.c.i.p.V.M.v.c.s.r.B ..p.1...k.s.r.t.x.V.t.k.t.t.c.:.! - 5 ] B.c.P.&XV.k.r.6.=.m ^ s.c.c.c.@.2.B.2...r.k.B.s.l.p.r.v.r.v.s.s.p.r.p.c.r.i.c.s.s.r.t.c...< 0 c 2.2.-.=.H r.s.@.g C H 1.@.0.=.r.s.i.s.p.r.s.0.y.8.y.s.:.r./ g / d.Q 7 A T 9 :.s.p.r.d.L.s.E.L.n.P.c.,.L.XXv.-.t.k.c.B.&X].s.s.C.&XE.Y.,X&X|.}.L.L...r.p.m.=.g r.c.$.r.p.m.c.c.'.Y...F ' 1.`.`.E.T.`.Y.p.p.6.6.r.r.r.1.6.r.6.r.p.s.p.p.s.c.c.p.s.s.i.t.1.! g U v.L.Y.E.M.}.E.r.v.M.'.L.s.&X,XE.s.r.i.i.r.t.p.r.s.r.s.-.g m -.t.Y.v.:.2.p.0.0.t.p.p.p.s.p.r.t.*X4X.XV.t.2.u.v.E B 0 I c.1.O.' =.i.=.r.p.p.p.r.0.i.s.s.i.i.p.i.i.t.t.s.l.s.r.i.s.s.t.r.i.t.p.r.1.r.p.r.r.r.r.r.1.s.i.i.p.2.p.-.] ..U Q V I i.~.*X*X'.s.s.|.|.B.|.M.p.P.v.L.v.|.`.'..XY.,.l m | ^ ,.`..X2X`.1.A A c.6.p.A l E.|.L.A.p.c.p.*.U g I ,.p.M.Y.}.s.s.r.r...v.,Xp.B ,.}.E...' 1.c.M.G.B.L.!.E.n.L..XE.'.L.n.-.@.1.p.r.'.}.i.p.p.v.E.p.,.p...-.v.B.i.1.i.i.r.1.1.1.-.I i I =.U { s...A N u ..p.r.1.r.-.=.r.D.d.:.i.y.=...I g -.l.v.l.i.c.B.p.-.p.E..X,X}.c.'..X,.r.i.E.'.E.E.|.E.g.r.s.g.r.s.r.r.-.r.1.c.'.}.v.1.1.i.p.i.r.1.1.1.1.1.-.k.r.-.=.c.s.p.v.Y.2.1.Q ] U U P L.}.M.M.Y.1.*.r.| ^ R ^ u U =.s.-.t.A.B.B.!..X,X#X{.",
"..c.r.i.s.s.2.t.c.i.s.B.|.}.=...p.].B.t.v.c.s.c.s.r.1.2.t.k.0.K * l =.t.x.`.P...A A m l i ! 2.k.p.r.t.s.O.Q ..O.2.l.l.r.p.k.s.p.s.s.p.p.s.s.p.p.c.c.i.t.p.B.c.A * m m c.V.r.r.I A s.Q 2 m u h m A / 0.v.s.r.r.0.1.s.s.d.s.r.r.p.C q m I u z M m c T =.1.p.B.c.r.c.}.k.r.i.i.Y.E.i.V I 1.}.!.2.Q 1.E.3XY.g.'.Y.i.B.,.-.L.r.1.4.M...1.B...A p.&X,XY.c.r.Q g u g R ..-.p.B.E.L.r.6.1.,.,.1.1.1.1.1.6.r.p.p.i.i.p.s.s.p.c.c.r.1...I m Q c.v.B.,X;X}.v.v..X3X}.,.i.|.'.v.2.,.r.r.i.i.s.s.p.s.s...i 7 g U O.' :.-.1.r.r.p.p.t.t.p.u.r.c.!.G.t.r.r.t.l.t.' m B =.u.-...m ' s.1.-...-.i.s.p.i.t.i.i.t.s.i.p.p.i.r.i.i.r.p.s.p.i.r.i.r.r.r.1.r.i.1.1.r.1.-.-.p.p.r.p.i.s.=.T I i g g ' B.}.|.L.p.-.p.T.B.1.Y.T.'.3X&X&XY.1...' ' l u m y ..1.*...,.v.*.m A U ..i.=.i ,.|.c.r.r.i.s.6.Q | } *.r.=.c.|.T.1.-.i.-.1.V.i.Q 1.Y.'.p.' 1.B.L.B.B.B.B.B.M.B.!.&X].i...r.E.B.M.i.M.i.U ..M.r.c.c.,.E.1.,.=.v.s.r.r.r.r.r.r.1.1.r.=.-.U A A C T ..m c C Y Q Q ;.1.8.:.8.l.r.=.1.=.m M z m ..1.8.p.1.r.y.r.l.~.-X&X}.r...=.R Q }.|.L.c.r.r.p.r.1.i.1.i.4.4.4.g.i.i.1.i.v.B.c.r.1.1.2.1.1.1.r.r.r.r.r.r.-.r.r.1.=.=.T.Y.-.{ E ,.i.r.'.E.M.v.p.*.A ' x.7.,.*.,.U | 1.,.1.v.L.v.V.!.!.U.G.n.",
"-.v.p.s.l.s.2.p.-.Q ..i.E.'.L.P.L.p.1.V.P.t.s.V.'.L.1.-.1.2.@.a y I 2.1.s.B.O.m m l u m H ] -.v.p.:.v.P.r.v.&XL.L.B.l.=.:.r.:.c.M.M.c.c.c.p.i.c.k.c.s.s.s.k...* c g ' ~.0.=.M.-.T I i g C h T U :.d.n.l.y.r.y.1.8.n.r.0.p.s.n.8.3 u K K c I I ....A K m m T K A I s.t.p.s.i.B.p.Q m A A -.Q 7 ! Y.&X,Xv.s.c.} A A g U c.4.c.v.c.,.1...,.s.B.v.' m I U U $.=.I Q Q I Q *.x.M.p.x.r.1.,.1.6.6.6.6.r.i.s.s.p.i.i.p.t.p.c.k.1...) K m U B.'.E..X'.c.M.E.'.Y.} i i.E.E.v.i.2.r.p.s.p.s.1.t.i.p.,.B A Q Q m 7 1.0.r.c.t.p.r.0.0.r.t.r.t.k.1.O.2.t.t.s.k.0.m E l.r.0.0.,.1.s.2.r.,.r.s.r.r.i.p.p.i.i.i.p.p.p.i.r.r.i.i.p.t.i.r.t.p.i.1.r.1.1.r.1.1.r.r.s.1.i.1.,.p.i.,.] I A u m ' p.E.E.s.,.r.,.-.p.p.M.E.A.B.L.v.M.,.*.1.A A Q U U l C ..' ' ,.-.A A ^ p.A g g g c.L.r.r.r.s.x.r.P 1.c.,.p.p.E.B.' } ..-.c.;X*XV.v.B.!.Y.r.=.p.B.M.v.s.c.c.p.s.M.L.B.1.H A I -.Q r.i.i.-.g =.L.p.M.} c.M.r.E.,.i.r.1.r.1.1.4.r.1.1.i.M.|...2 m { @.1.M I :.I C ' s.8.1.;.:.y.1.=.=.Q z / ..:.r.p.:.1.r.r.0.:.r.Y.].W.r.U A U g A L.s...I A Q Q I Q ..r.g.r.1.,.i.1.1.1.1.,.1.r.r.0.r.1.1.1.2.r.r.1.1.r.r.1.p.i.} 1.n...A T c.v.1.B.*X|.1.Q =.=.=.*.c.M.x.6.,.6.-.6.6.s.,.1.=...c.V.) c g a ",
"=.c.i.t.i.t.r.i.! g ' i.c.-.=.1.r.M.!.,XB.s.c.M.].B.O.O.-.@.U 8 m H k.P.P.A.2.6.k.O.Q -.=.-.t.!.L.l.k.t.@.B.,X~.P.p.-.H u c ..!.r.r.s.v.i.-.,.2.' ..=.p.B.t.I 8 B C B.B.C ..l.k.c.:.C g B m M ..c.s.1.) :.B.l.r.p.B.;.Q =.c.r.m $ A I K @.T Q E.' / ;...A A c q A ' -.p.1.,.p.1.' A ' -.U 2 A .Xc.p.} =.=.I A A 7 g ~ -.I =.p.-.} I V M.'.s.s...A ..=.r.}./.4.s.E.r.| } ,.r.1.p.p.r.6.6.r.r.i.p.p.s.g.g.s.p.p.p.p.p.s.s.1...' ' m ..}.;XE.Y.v.i.r.B.B.=.m A E.L.M.s.r.1.2.i.p.i.k.-.v.p.i.p.U Q ..-.Q ) V.c.0.0.r.r.0.0.0.0.0.0.-.2.2.0.s.t.0.t.2.k.! 2.XXV.0.0.s.-.1.,.s.s.i.,.2.r.i.p.t.i.r.2.r.i.i.r.r.i.i.t.r.r.r.i.s.c.p.1.1.,.1.i.r.1.i.r.=.,.s.p.-.1.s.p.Q h c U ..r.L.].E.r.-.i.,...-.i.1.1.1.r.r.r.r.Q g L.Y.E.s.' g m ,.p.1.p.B.,.l g V l ' p.P ..E.c.1.p.p.1.p.1.l ..E *.p.s.E.B...1.i...v.].c.s.G.p.L.L.c.i.s.s.s.s.r.p.t.0.i.s.p.1.Q g i u A m ..=.r.}..X,X|.i.E.s.B.i.v.,.U r.c.r.i.r.4.4.r.r.r.i.p.'.0.g A 0.s.X.C =.G.1.p.~.U.:.@.=.:.r.0.1.=.K Q r.1.} Y @.@.=.;.1.1.,.r.G.E.n.1.=.Q ' ,.=.v.s.V m ' r.-.' Q ~ 4.i.r.r.r.i.i.s.1.1.1.:.:.-.;.1.r.2.1.1.2.1.,.-.1.p.t.s.p.} s.E.=.' 1.c.s.1.T.&Xr.I Q c.Z.m.*.~ ^ 6.6.r.r.r.p.r.1.x.r...=.' B C M c c ",
"O.v.t.1.1.k.c.c.=.B Q ..=.Q U I -.E.p.=.E s.L.XX!.-.H c I U i q B I L.!.x.c.c.L.A.6.k.XX`.T.V.v.' B.L.n.n.B.V.c.n.Q a q u ) s.k.u u ..v.s.s.M.s.A A A O.B.-.i u I B.<Xv.@.G.v.v.0.@.:.K m =.t.G.s.{ ' / c..Xp.s.n.c.1.I / 1.S * c C 8.B.d.1.P...2 Y 0.y.{ { ;.Y V ' -.=.1.s.2.r...I =.B.1.t.}.c.V V g V g 7 V m A A ..,.g A 1.v.p.s.p.oXE.s.oXE...p.p.c..XY.1.L.E.x.p.p.p.p.1.r.r.r.r.r.r.r.i.s.p.s.g.x.g.s.s.s.s.s.s.k.r.=...=.,.'.;XY.M.B.s.r.1.i.1.V i Q p.' 1.1.1.r.i.t.p.t.p.r.c.i...} B g ! r.i.B.n.t.-.1.1.1.2.0.0.0.0.0.2.0.0.t.t.2.0.s.2.k.@.2.].L.:.0.r.1.c.p.s.c.M.M.s.s.p.r.2.r.t.i.0.1.1.r.i.i.i.r.1.1.0.i.k.l.i.-.,.,.1.i.r.1.r.1.i.i.i.i.1.i.s.r.I 8 g r.s.0.B.;X|.M.i.=.} -.i.i.p.6.,.r.1.,.' i -.&X;X`.P ..^ =.x.p.r.c.'.E.p...Q 1.|.&Xs.T.`.s.1.i.x.,.p.' y A ' i.p.s.c.-.^ 1.Q ! v.r.V m I } s.c.c.s.v.B.M.c.s.t.r.1.r.t.r.1.} A A ..=.=.r.,.r.1.1.,.' V i.M...=.p.=.i.p.,.1.i.s.i.4.r.p.p.r.B.L.=.M S ;.D.L.n.D.l.r.P.-Xs.@...;.0.p.r.0.,.I { s.p.,.' :.=...:.8.p.c.L.'.D.:.$.1.U I p.i.-...V Q c.E.B.i.1...} 4.p.r.r.1.,.1.=.r.r.i.d.s.p.s.r.1.1.1.2.r.2.1.r.r.r.s.p.E ..,.1.1.1.' } -.G.r.V l *.E.A.p.~ A E r.s.6.=.1.v.L.s.,.r.B.k.=.I i M c h ",
"-.v.r...' r.c.c.! I ] r.s.r.O.U | ..C ' ^ M.T.'.k.U g g U U a C *.s.].x...c.E.L.B.| E =.O.v.P.c...E.B.t.G.G.n.L.O.B g K :.L.s.i g u Q r.1.i.c.r.V m B ' =.A 7 V c.&XXX].~.#X].B.c...G.p.{ B.~.B.;.Y ) @.L.G.T ..p.:.{ c g A u u U c.G.G.#XW.E.A m ;.p.p.1.l.[.B.A B.B.] ,.t.O.r...,.] k.!.;XL.g u g Q A k U A g V A >.i.U R s.E.p.v.B.|.L.c.B.U I =.i.c.L.1.I -.Q } p.v.s.p.i.s.6.r.r.i.r.r.p.x.p.p.s.g.s.s.s.p.s.k.c.c.s.=...1.B.}.Y.s.M.v.,.,...A g 7 ' c.p.} -.,.r.s.s.i.r.r.r.c.-.-.Q U 2.I ..s.r.M.-.=.1.t.:.:.1.0.0.0.0.0.u.0.2.2.2.2.2.r.s.u.-...u.k.@.t.t.c.}.B.s.s.v.s.=.r.p.r.r.t.s.p.i.r.r.t.s.p.r.1.1.0.r.i.p.p.r.-.1.,.r.r.1.,.1.,.r.p.i.v.B.c.i.=.g g ..P.v.c.'..XE.i.=.....1.r.i.p.,.*.,.-.6...C s.`.1.Q m T.s.6.c.p.B.E.'.Y.E.T.L.5Xp.C ,.'.B.1.p.r.x.p.i.m 5 g x.s.,.s.1.A d I m ..].t.i g g g Q O.p.v.V.L.M.s.s.t.i.p.p.r.-...-.' } B.s.i.t.p.p.U m i m A ..-.} ' U r.y.=.-.s.4.i.r.1.1.s.i.>.=.s.' Q n..X]..X-XD.' 1.U.P...1.;.8.r.y.8.0.1.T 1.8.=...) ..:.y.y.d.B.L.G.B.s.=.,...A U Y.}.c.A C ..m.L.v.s.s.i.A =.g.r.r.1.1.-.i.r.....1.r.1.0.r.r.1.1.r.0.2.1.i.1.r.2...g m | Q :.t.....2.p.I m P ^ ....5...~ M.T.M.7.t.x.T.T.] 1.V.s.E ] 0.+.v.s.0.",
"..r.' A h ' 1.r.-.' ' r.p.i.p.c.V.B.v.c.-.L.,X!.B h B -.V.s._ ! ..r.2.E E p.B.6.1.E P =.6.A.E.T.XX,XP.l.L.P.v.t.O.t.E.L.T.E.:.I I m m U =.s.B.B.H U 1.r...} ..i.P.c.r.E.G.V.!.B.l.l.k.1.L.G.s.p.A Q Q ' r...g C ) T z 4 u A K I n.].L.P.#X<X&Xy.@.r.s.p.u.c.n.s.c.|.v...' U ..1.r.-.Q E.,Xr.g m g U ,.-.4.p...' A Q r.p.=.-.i.,.=.s.Y.}.E.E.B.=.,.c.B.c.r.R u V ' ..s.s.1.6.6.r.r.r.r.p.p.p.s.c.p.p.p.s.s.s.s.p.s.c.c.c.t.{ { t.p.r.=.,.i.=.=.p.v.,...,..X|.s.1.2.,.r.p.i.=.O.,.s.s.-...Q 2.].k...s.1.c.r.,.1.:.2.1.2.0.r.0.0.0.t.2.2.2.2.2.r.2.2.2.r.2.r.2.@.0.1.i.V.r.-.2.-.B U =.p.s.p.s.p.r.p.i.t.s.s.i.r.r.r.r.i.r.i.i.r.1.r.1.r.r.1.1.r.r.p.E.Y.B.r.A g m g H =.B.r.v.].Y.c.' ] 1.2.1.-.0.1.1.,.p.r.p.' m r.B.I i P E.'.}.|..X2X|.p.A U | r.=.g A =.M.v.,.r.6.i.p.' u l A ..=.=.=...6...Q i.B.E.} u m A g A ' r.n.v.k.p.r.r.r.p.s.t.,.} E p...} v.r.i.r.,.,.s.Y.s.1.....Q A -.-.p...1.i...=.>.>.>.r.p.r.-...p.A m B.<X&X.XG.r.@.L.&Xn...:.1.0.r.p.r.r.1.T :.-.0.r.r.1.8.8.r.p.c.c.y.0.y.p.,.I g Q }.;XL.} } s.Y.L.v.c.c.M.A ' 1.,.r.-.r.c.B.p.U u c m g c 1.,.,.1.2.2.1.,.r.2.i.' g u B s.p.].~.1.=.s.p.A V c.'.p.A g g ' ,.,.| ^ r.r.r.| O.L.1.B O.2.-.c.U.n.s.",
"..=.I m i T 2.c.} V m p.M.p.i.L.&X*X&X'.OX'.`.k.B U E k.'.n.2...O.-.E E 1.r...A l g H c.T.L.M.'.'.n...Q ] t.B.r.r.k.T.p.s.t.A @.B.k.} E i.M.c.v.s.i..X].t.L.|.P.r.1.=.1.1.k.s.B.B.!.n.=.c.p.l.' I B.y.:.p.@.T m Q ' c g ' s.l.' =.{ I n.W.{.s.;.p.0.s.r.p.p.=.1.L.=.H s.1.U k.=...A =.,XE.Q 7 i m p.c.c.M.,.....1.>.p.v.M.M.c.>.p.E.&XE.Y.Y.s.i.i.M.Y.c.,.Q m A c.p.c.p.1.s.x.p.r.1.1.r.p.s.s.s.g.s.s.s.s.s.p.p.s.c.s.p.1.) ] l.v.s.-.Q g m ..c.Y.|.'.'.,XL.i.Y.v.p.t.s.i.=.,.s.r...r.Q A s.M.1.E p.r.p.s.-.1.1.r.0.0.0.r.0.0.r.r.2.0.2.:.2.s.s.t.0.u.s.2.=.r.v.L.p.,.V A 1.c...Q ,.s.p.i.t.t.r.r.r.r.t.r.1.1.2.r.t.p.i.r.i.p.p.i.1.r.r.r.r.s.s.L.s.V 7 g i I -.I i g =.Q ..v.v.0.] 1.i.2.1.=.-.*.=.=.1.,.1.U l A A u V C *.B.r.p.`..Xr.^ g g V g | E.&X'.M.1.1.,.s.p.x.I A ,.r.s...,.r.,.v.6.r.G.}.} i U A V i.1.-.2.p.t.r.2.1.,.2.r.1.,.-...} r.r.s.L.,.2.k.r.-.v.E.c.i.,.r.-.,.'.E.,.,.v.r.Y.%.$.=.4.p.s.i.1.v.M.' U r.n.B.E.#X'.'.&X.X;...{ 1.1.0.s.p.r.1.K -.:.y.1.r.r.d.0.d.y.p.s.r.8.0.0.=.Q R p.,XB.} ` s.'.oX'.L.g.p.v...I U Q ~ i C -.s.r.I q i g u c ....=.-.1.r.2.1.1.r.r.A 8 I ' L.B.r.' O.r.:.:.,.6.A.T.Y.g.~ y E ,...^ P 1.r.L.A.!.2.2.B.k.1.r.k.G.k.:.",
"g I A i m =.c.-.' u I B.L.c.Y.!.,XA.V.'.T.L.k.m m U t.t.@.h +.l.].V.x.1.k.T.-.B 7 U =.`..XL.2.2.] I K ] 0.#Xl.r.) u I T B { c.].&X2.I p.E.L.t.r.t.B.].B.E.L.2...1.:.:.1.1.1.2.0.c.L.r.] r.r.1.m @.s.n.P.D.G.:.Q s.L.s.r.E.~.W.1.T Q c y.d.p.:.;.{ ..l.r.s.r.@.' Q Q =.,.-.Y.s.B 7 H T.L.k.i.' g $.s.i.i.r.R A Q E.E.p.s.r.v.'.;X.X&X|.;XB.c.p.Q U ,.i...r.r.A V r.p.p.s.E.&XE.x.p.r.6.s.x.s.p.s.s.g.s.g.s.s.s.s.p.c.c.v...{ =.v.B.p.U i g g r.}.B.B.c.'.M.1.s.,XP..Xs.,.1.-.r.1.g 7 Q C g ' -.I 8 ..r.p.1.1.-.1.! ....2.u.0.0.2.r.2.:.r.r.s.! H ! k.O.:.@.I u.L.M.r.M...=.s.r.v.,.-.r.2.t.r.p.p.r.r.0.1.1.r.r.1.p.r.1.r.i.t.r.1.i...r.p.r.=.p.M.r.7 7 u U A Q ..g g U -.g Q -.} O.U =.=.=.,.p.,.=.,.=.i.,...I m u m A ..1.p.' V d ....E | U ' ,.v.|.,X}.B.s.1.1.6.r.p.s.l m P C U ' r.p...=.6.|.}.! m ..i.} r.P.} I E.v.s.s.t.p.t.r.-.1.i.-.' Q p.E.].s.U i.T.c.,.,.Q ..1.i.1.r.p.v.r.c.v.,.s.M.r.r.g.x.i.4.i.i.p.M.i.;.y.r.p.E.~.E.E.r.L.G.' { =.p.0.y.0.y...C ..p.s.y.l.l.r.1.l.c.l.s.l.l.r.=...U -.Y.E.=.A ..Y..X;X'.v.i.r.1.Q A ..A 7 i u g a K q m a u N A V U ..,.1.2.1.,.,.1.-.m g B Q H A m ) l.-.1.1...6.Y.c.B.A.i.1.m..Xs.r.6.r.B.`.*XV.I 1.c.V.r.0.r.n.v.l.",
"i A E U } s.c.-.h m =.v.t.k.E.'.V.t.2.*.] 2.1.M h B.~.-.! q @.#X.XP.2.k.B.,.1.s.,.=.t.B.v.c.s.U 0 B ) r.~.&XL.I u C g c c O..XT.1.A V E.,XB.1.r.0.1.i...=.O.} } r.2.1.1.2.2.r.t.v.c.' E r.=.I C 1.8.0.B.L.L.s.0.c.n.l.~.&XU.E.B.P.W./ ' 0.p.:.0.i Y s.s.s.s.n.c.Q I H =.p.,.m B H p.c.=.k.B.,.I p.'.}.Y.M.,...' }.s.i.r...r.c.M.|.}.L.v.i.i...g R E..XM.s.p.=.1.s.r.1.L.A.p.M.B.p.p.p.x.x.p.p.x.g.g.g.s.s.s.s.s.c.i.s.l.:.m r.p.1.m m i U v.|.E.i.,.i.v...,.M.s.L.i.I I A q V I B 7 H U i g Q I u ..r.k.-.1...' I U U @.0.@.:.p.0.2.t.r.:.u - 0 H @.t.1.H B -.r...] L.B.2.r.c.c.s.-.1.i.s.i.p.-.r.r.i.r.r.i.r.2.t.i.i.t.t.i.1.,.-.s.s.c.i.,.-.M.g 7 I B g A I 7 i m r.'...' Q A ..C } -.i.s.c.r.-.p.1.1.6.*.A y E ,.,.B.|.,Xc.g A 6.' Q g i r.:XE..X}.B.p.r.1.1.1.6.r.r.y 7 i u -.1.r.r.*.1.r.A.' A 2.M.s.v.}.M.V B B.M.v.2.O...=.1.r.t.t.=.I g U r.c.-.! Y.&Xv.i.r.,.-.U ' i.1.-.r.{ X.,.,.p.r.C.s.r.i.r.i.p.i.i.p.r.-.:.r.l.l.i.8.1.0.B.1...r.1.u.0.r.0.r.) c ..1.0.1.1.8.p.n.0.y.r.1.=.X.{ ' Q ~ ,.i.=.U Q M.,X&XE.v.i.1.=.} ' >.,.Q i m V A z m c K Q ) / @.L.O.I ] i.s.t.p.s.,.H i g A ....K T G.P.s.Y.i.r.c.E.L.A.s.p.p.m.m.*.r.p.p.OX:Xc...i E t.U.r.1.r.l.v.v.",
"..-.k.B.M.c.p.r.I B ..s.1.-.t.p.r.1.=.A P 1.] g c T.v.{ v.O.-.L.v.t.-.x.p.O.M.OX!.L.L.P.L.^ C g B { ' ..=.p.L.T q V C H ] c.P.0.1.p.s.,X.Xs.i.s.i.=.1.=.=.....-.p.r.r.r.r.r.p.k.B.2...2.t.r.+.T r.s.n.U.G.B.c.B.l.u.s.].E.p.c.G.B.s.{ =.r.p.s.@.g K 0.c.s.s..X-XY.i.} 1.M.1.g m r.'.c.1.t.2.....}.}.'.'.C.p.v.Y.oXc.s.1.r.p.,.>.,.s.L.c.p.=.I g 4.,XE.>...c.c.s.p.s.c.'.B.s.}.L.r.i.s.s.p.r.i.x.s.s.s.p.p.s.s.s.i.k.t.r.m m r.1.' i g A i.B.p.r.=.i.B.i.i Q c.,.} A I ,.E i ' s.U g V Q h Q ..g Q V U P.n...i B I ....-.u.s.u.-.1.:.k.2.U 4 g h B E 2.! q M E ] U E ' ..i.i.M.T.M.i.s.r.1.-.p.r.r.r.i.p.p.s.p.i.1.,.-.1.p.c.s.1.i.1.r.,.,.s.i.A u g m A g m A m r...-.=.m =.i.p.-.H } -.r.i.c.s.x.s.i.r.-.U V y ' s.p.p.^ U =.' r.'.'.E m p.`.|.|.}.B.r.1.1.6.r.s.p.p.1.i m ^ ,.| ,.,.r.1.r.1.=.I -.T.r...k.B.1.K ..L.B.v.=.} ' ' =.,.,.0.=.A u A A g g ' ].'.,.Q 1.p.,.....r.i.1.p.,.-.,.v.;X;XY.g.4.4.r.p.s.r.r.,.r.,...i.s.} Q / I =.1.S ..r.r.u.0.y.r.8.Y c 1.) K T ) ' X.=.:.K u C ' Q A A ..-.r.1.,.r.B.;X.XE.v.s.i.r.$.~ -...' i.-.A i K ' g i g =.n.0.s.c.t...I H ' -.,.....i g ..'.,Xi.Q T.*XXXv.v.L.r.s.M.A.B.p.s...P P A 1.A.T.].M.! l h ! 2.t.K { v.u.v.V.",
"' -.,.1.=.,.L.E...Q ..t.s.p.p.i.,...' A | s.U y T s.E U V.t.u.G.L.k.L.c.,.V.|..X].`.A.M.t.m A r.s.v.' =.K =.v...i m Q t.L.G.c.s.c.s...c.M.p.p.=.r.O.r.i.r.-.r.r.s.p.p.p.p.t.s.l.l.{ H @.p.P.c.1.p.G.~.~.L.G.c.s.y.i.8.c.;.@.r.s.p.I I r.L.c.r.A 9 m ' p.p.B..XB.p.1.B.}.s.i.1.,.E.V.r.c.s.r.Q H L.-.I A V Q M.,XE.B.,.$.E.B.=...A U r.1.r.-.} ..p.L.' g Q /.B.r.r.p.c.M.s.E.:Xc.1.6.p.p.r.6.p.c.s.s.s.s.p.s.s.s.p.i.p...2 c H { i g A ,.L.1.-...-.,.' g u } v.r.2.-.v.}.r.Q ,.r.7 A } =.g Q i.] V ! r.L.@.' m C c A _ l.G.0.:.u.t.-.k.-.8 h B a h I T a i B B O.M.v.1...v.s.p.Y.M.E.E.p.t.r.p.r.r.r.i.t.p.p.t.r.s.s.i.1.i.k.c.t...Q M.s.p.-.1.7 u ..Q Q ,.,.} Q ! I ..O.Q s.s.p.c...=.-.r.i.p.1.=.*.r.1.Q C ..Q ..=.6.p.Q V | =.6.x.E.Q 6.c.L.Y.E.L.s.1.2.r.r.r.1.,.i.,.g l U ..=.x.p.M.p.p.p.6.1.r.v.] r.|.E.r.U p.E.v.s.O.=.=.=...} ..-...A g ..r.U i U '.v.A i ..i.1.c.i.i.,.s.1.=.i.B.'.&XY.g.i.i.i.r.r.p.i.r.,.i.1.@.0.1.A / ' / ..{ A :.8.r.p.0.p.y.1.K C p.' Q ..@...T c c 7 u Q ' z m ;.s.s.p.1.g.L.m.g.c.s.p.p.r.=.} ~ ' A V 1.p.c.s.c.s.Q K S c.'.P.P.s.1.-.1.O.A u 7 g h u ! ,.s.r.Q ' { 2.O.I A m } s.c.v.s.r.s.Q C ,.*.*.x.|.B.Q C y B ] c.B.O.s.c.2.u.v.",
"V 1...E A ' M.1.,.M.B.i.r.B.B.1.O.E E Q t.x.I B B.!.v.t.-.U :.v.T.B.c.O.2.|.].L.T.V.k.t.' =.v.B.V.r.) s.0.B.c.{ a O.O.V.c.E r.l.s.Q i 1.M.1.,.1.r.,.i.i.r.1.l.p.s.p.u.s.s.p.s.l.0.' 7 ' ~.B.I Q s.c.L.E.'.E.c.;.r.p.0.r...1.y.8.p.r.s.Y..X1.) ) :.1.1.p.c.'.P.I i m c.|.r.i.c.s.B.p.i.s.s.t.A B B.c.s.c.p.v.E.L.m.4.I >.;XY.c.s.r.' } I } s.L.B.Y.>.A V =.}.r.r.x.,.c.c.c.}.E.i.1.r.i.p.i.r.p.c.g.g.g.g.s.s.s.s.i.k.s.q 4 g c i A V ..s.p.-.1.m i i i i m Q r.1.' ] r.v.c.P.'.2.g I ..1.H ! s.r.M.p.' B H c...4 m { u.G.c.@.-.s.t.2.B.+.8 m g B =.=.U h i h =.'.}.v.B.i.1.1.p.B.Y..XB.' 1.p.i.r.i.r.r.i.i.r.r.r.=.i.v.B.M.v.c.s.=.Q 1.-.s.} 1.i.B.&X'.E..Xs.,.i.1.Q ,.t.-.r.r.E.B.O.' I ..2.r.=.| 6.,.Q m d } Q r...p.p.,.-.' U ..c.*.P ,.A c.L.c.c.i.6.i.t.r.r.p.r.s.-.m A Q *.s.E.E.}.c.1.r.r.i.1.E.i.-.B.s.I g t.L.t.r.-.r.,.i.1.=.-.,.' V g ' i.-...I } V i A ' i.p.1.,.v.1.s.i.M.;X3X.XY.i.1.4.i.i.r.r.i.i.0.r.1.,.1.1.@./ 0.:.1.;.=.X.y.r.0.r.r.p.y.1.C A @.=.s.n.s.:.} A I X.c.U.y.m c 0.c.p.1.=.s.Y.g.1.i.r.r.1...Q U Q A 7 A 1.r.L.P.+X~.B.n.G.G.8.s.B.L.r.-.s.L.v.r.,...I i V A I g m @.) Q h h A I -.1.M.B.p.5.,.F ' '.'.A.L.T.-.j d P ! *.s.-.E 2.! O.-.-.",
"=.v.r.i.:.=.v.1.L.XX!.r.r.v.t.' ' ! ..1.c.1.B U 2.0.k.k.r.t.L.G.c.t.g g r.c.s.s.s.t.O.p.v.'.Y.r.1.! =.G.].!.s.' H t.c.k.=.Q =.,.i.U V p.M.r.1.M.t.s.c.s.k.i.v.s.p.t.p.s.s.s.s.s.l.' M B.&X..m { l.s.D.E.~.n.u.r.p.p.p.s.0.r.r.1.y.c.G.s.0.' 8.L.+Xn.y.W.].E.,.g h T ,.r.=.c.v.c.v.i.r.1.r.' 8 ' B.M.C.}.}.|.;X'.i.A i p.E.s.E.v.B.L.c.Q Q i.L.C.B.U Q r.Y.E.Q -.c.p.`.`.'.&Xv.6.r.r.i.i.i.i.p.s.g.s.s.p.p.p.p.p.s.l.I ; q m U I =.m } r.M.L.s...' V g A A I } I Q 0.V.v.c.'.~.2.] i.v.i.U ) i.s.p.=.-.1.s.B...B r.].].n.s.l.l.2.2.B.T.B a B H 2.k.k.0.-.m g s.'.l.' ..=.c.B.M.E.L.'.s.E 2.r.1.p.r.r.r.p.s.s.s.k.c.s.i.p.v.L.E.E.=.A g A ..p.L.L.,XE.L.B.=.A r.}.}.M.M.c.i.i.r.M...} ,.=.1.r.2...E ..d 7 C g | c.E.i.B.6...' ..c.M.'.^ d E ..c.s.s.s.r.6.i.r.6.r.p.1.1.E g Q =.c.B.E.A.M.-...=.r.c.E..X,.! ' U g ' B.Y.2.-.1.r.-.1.1.r.p.2.Q m m p.c.2.v.-...c h V ..i.r.,.r.Y.E.v.Y.&X,X'.s.r.p.w.4.r.r.r.i.i.4.1.r.:.-.r.1.;.0.n.1.r.1.8.1.1.r.1.r.r.r.y.:.z M ' 1.c.n.s.p.p.r.G..X&X|.L.:.' :...A i g ..c.p.i.r.r.4.1...~ Q Q A g 1.c.8.1.0.E.#X{.~.-Xc.K :.c.].V.1...=.p.v.v.E.s.! U ,.s...=.=.i.=.E H V ,.c.p.T.M.1.*.^ l Q *.^ *.L.V.-.....O.1.r.t.' ..V.1.2.2.:.",
"i.p.k.v.s.v.|.,X}.B.,.1.M.c.1.-.=.2.r.r.1.E B ' 0.{ E ! 2.V.v.l.x.| 8 m 1.,...] ] ! P p.&X'.c.v.@.=.v.'..XP.0.T I { n.s.p.n.r.t.] m u I ,.B.p.p.r.k.l.s.v.r.s.i.s.p.r.p.s.s.s.s.B.@.' L.l.Q B.'.n.B.~.P.B.:.8.s.s.p.s.p.l.r.8.r.l.c.'..X.X{.E.l.1.S ' ]..Xr.m m ' i.t.=.} i.c.!.L...H U ..V 2 I V I ..B.'.'.|.}.Y.1.r.|.L.M.|.M.=.Y.g...} ....>.A m r.|.;XC.Q ,.x.T.|.!.|.'.i.,.6.r.p.i.r.r.p.s.g.s.p.r.r.r.p.p.i.I * V m c I V.Y.-.1.p.Y.v.r.p.J.B.,.V m V ..r.s.E.&X].E.L.k.r.M.M.c.-.,.s.s.r.p.r.c.i.n.L.v.V.L.U.B.B.n.t.t.u.t.c.1.q q m ' t.-.k.v.v.=.] 0.+.T g g } B.r.-.k.t.1.0.c.!.s.1.i.r.0.r.p.s.s.s.s.v.c.M.E.!.v.=.Q g 7 A ,.,.v.B.1.1.,.r.| g =.E.|.'.!.B.r.r.p.r.-.A ] Y.}.|.v...K ..=.d g A C ..r.-.Q ,.,.,.=.s.&X'.*.m A -.B.s.c.c.x.r.6.i.r.1.r.i.r.x.} P *.r.M.}.A.-.E P ,.p.M.}.;Xs.A 1.c.t.p.L.}.Y.-...,.,...........} A g V B.E.t.1...M.} u Q s.r.-.p.L.E.E.|.,X;XY.p.1.>.1.r.4.r.4.1.r.i.1.1.r.,.,.r.r.0.s.s.:.8.=.0.:.=.0.1.r.r.0.y.8.a z ) =.r.y.s.l.c.n.G..X'.G.n.8.@.p.r.A e V 4.M.p.p.>.1.r.1.=.' Q U V -.D.-.r.n.Y.E.E.B.s.G.-.@.'.].T.r.=.s.Y.M.v.L.c.k.,.s.'.2.' t.l.{ s.2.=.' } E.B.`.i.' R ^ } ,.p.E E s.k.=.=.| r.t.2.r.2.0.-.h ! ' { ",
"-.M.*XL.i.L.L.E.B...A ' s.1.' -.L.`.B.6...U ..s.k.s.2...r.t.{ v.:.u l E O.k.1.U I h ..T.].2.r.t.c.V.2.s.1.k.@.I m I @.c.c.r.r.2.A g g m Q c.i.p.i.c.p.i.c.,.p.k.l.p.0.t.s.k.s.s.t.k.-.0.:.] '.n.B.L.'.n.p.@.:.:.s.s.d.8.l.p.l.G.P..XW.c.B.y...0.{ I X.B.s...A @.s.,.,.s.r.=.E :...A m m g 7 A A A ..1.s.B.E./.B.B.'.|.|.i.s.g...Q r.m F s.i.Q ..A -.}.'.s...$.L.}.&XT.B.T.c.,.p.6.p.s.p.p.p.c.M.m.c.s.i.r.p.s.x.m < A g m A ' k.1...r.s.=.} M.r.s.).@.g r.c.p.c.|.L.c.Y.;X'.r.r.1.,.c.i.k.2.i.'.'.s.c.r.U.n.' T k.G.G.n.0.) ' -.k.U 8 B g H t.s.v.T.t.O.k.T.L.p...A E s.=.m p.].s.m V i.E.t.1.i.r.0.r.r.r.,.=.@.1.1.i.r...m 7 7 V c ' v..Xc.1.s.,.1.-.] A c.c.M.V.T.M.t.i.r.s.c.,...i.s.B.r.U g E ,.....A =.c.A 7 I 1.p.L.L.}..Xv.m m ,.x.1.M.M.B.c.i.r.p.r.6.r.1.1.s.Q A 1.M.'.B.6.^ A ' B.s.6..X'.1.A ] 2.B.Y.T.Y.c...' -...} =.' A g g g g g =.-...p...r.=.1.L.L.r.-.,.E.L.....Y.|.c.,.1.1.r.,.4.i.r.>.,.r.1.0.r.r.i.i.p.i.1.:.1.1.=.r.0.i.r.1.0.0.1.s.i.g g N ' ,.r.s.1...=.Y.E.B.l.p.Q m Q i.U A -.L.B.4.i.-.1.1.$.Q A m g m 1.p.;..X'.E.L.s.p.=.@.B 0.-XP.1.1.i.v.B.M.c.c.t.M.Q A i...@.i.1.2.r.O.p.L.Y.,.Q r.,.} A } x.m.>.T.`.E.v.,.,.1.1.s.r.2.2.1.' M ' -.u.",
"s.'.s.E =.M.=.r.' B h O.c.k.s.x.T.x.=.,.M.A.c.c.v.p.P.M.G.P.c.l.K M m ' 0.t.t.=...t.T.].A.2.-.2.-.U Q M.v.! I A B A ..c.s.1.t.p.=.V i V =.k.r.s.c.s.p.p.s.s.s.s.s.s.s.p.p.s.s.p.p.s.i.....A =.1.-.M.Y.s.s.r...1.r.p.r.i.i.p.c.r.p.l.@.{ ..@.{ t.:.1.p.:._ q K n.p.k..X'.P.s.2...=.=.2.H A -.Q I s.}.|.Y.T.B.p.c.c.c.s.p...O.U i I c.....r.' =.r.Q L..Xi.6.,.*.=.r.|.v...x.M.1.1.p.i.s.c.x.c.v.c.B.r.x.Q P Q Q ..y m m u g ..A.M.E A 1.i...*.' Q s.s.i E B.v.1.c.s.A =.Y.E.p.Q U V h ' ' -.2.p.k...@.i.u.n.{ ' n.].*XG.2.Q c Q @.U h 7 I I H c.L.M.,...^ s.E.M.].'.x.B.Y.M...r.A.} y A 1.x.p.v.1.1.r.c.c.u.C g g g c C g 4 q B H U 7 } }.B.1.r.,.x.r.1.....i.p.r.p.v.1.V 1.i.s.r.s.1.-.r.=.E Q i ' *.i.r.s.:XL.=.s.^ Q x.r.P | s.' i ,.L.B.p.M.B.v.s.r.r.r.i.i.r.s.,.1.d A s.c.s.i.p.r.s.L.B.A..X.XM...V ,.p.s.T.L.A.,.I A s.p.} Q d u g m d u ..1.=.i.,.1.p.s.r.T.L.,...M.B.B V ..E.Y.i.2.i.i.1.r.6.1.1.1.6.r.i.i.r.6.i.p.i.r.2.-.i.,.,.p.r.=.i.p.1.p.! A Q u u U s.h.} } Q m ' i.c.i.i...A m Q ..U v.C.s...1.,.| ,.6.U g 7 g m A p.*.k.&XY.B.L.1.-.O.Q m P -.s.i...,.p.c.B.p.,.1.r.Q m E P ,.6.k.V.A.M.E.OX!.t.r.B.c.,.,.r.1...| ,.5.i.v.M.r.=.s..X`.r.r.k.r.-.r.s.v.",
"1.^ m ^ *.s.s...i E h P B.s...c.g.I E Y.,X.XE.`.i.'.L.c..XP.t.2.C i u ' u.u.c.B.V.!.`.B.s.s.p.6.E ..=.c.U m c V u } v.}.L.1.1.k.p...} ..l.B.r.1.s.p.t.p.s.s.p.s.s.s.s.s.s.s.s.s.c.s.-.m m V i.c.M.1.1.r.s.c.p.t.v.p.r.c.s.1.r.1.1.-.=.0...@.-.1.0.=.0.] a @.L.:.u.G.&X.XE.s.k.p.2.c.P.t.r.r.Q 1.Y..X|.A.c.r.,.p.=.p.s.,.| A l V A 6.s.p.6.r.p...m L..X..*.p.=.A P ..A r.c.-.x.1.r.p.c.c.c.M.B.M.c.x.| g l g 7 ^ m m V C P L.&Xs...,.p.p.,.,.r.p.,Xv.V Q r.r.r.x.,.8 A k.s.1.Q g g g @.' -.c.r.c.E A :.p.T ) .XXX].L.:.T g c ' { 7 V B B B -..X'.-.=.r.1.c.Y.M.'.'.L.Y.`.|.E.c.=.d A r.L.v.,.6.i.p.u.r.l.-.c i M g c M c a a c h V E c.}.M.6.i.p.v.s.i...} r.x.s.p.c.-.g ..1.p.t.1.r.1.r.] g h K ,.r.A V E.p.d =.:XB.M.c.U I 1.Q 7 V Y.OXT.B.T.L.B.s.6.6.r.r.p.p.r.A.r.l Q ,.-.x.T.|.OX:X,X`.c.B.r.| Q ~ =.c.B.`.}.p.Q A @.n.1.c i u U Q Q *.*.1.,.}.p.E x.s.1.s.1.r...L.E.r...t.Y.].v.-.,.1.2.1.1.1.1.1.1.6.r.r.r.1.1.6.r.r.1.1.1.i.s.i.:.r.k.i.1.-.) c u g V A =.c.i.R A b u A V -.=...R V m / Q V s.} Q m Q U | ' U g m g C A 1.=.^ -.' A } P ....U l i g Q 1.U | ..^ U U A A Q m d A ..} s.T.XX'.L.!.&XOXV.r.c.!.M.^ H ' | E C ^ p.A.A.k.6.2.*.s.s.2.r.2.1.u.-.2.r.",
"....| r.x.T.x.] *.^ E 6.T.k.2.V.g.*.c.:X;X}.'.E.B.3XY.s.B.] ) ' ' 2.2.t.c.c.G.!..X'.T.V.c.k.s.x.L.E.E.E...Q I V ! v.}.&X'.p.r.c.p.v.E.}.;XXXv.1.s.p.t.s.s.p.p.p.p.s.s.k.k.k.s.s.p.k.r.V g Q B.v.c.} ,.c.p.s.v.v.2.k.c.c.s.s.c.r.=.' ' :.+.1.1.2.s.1.Q m u 1.P.G.!.XX.XE.s.' :.0.0.n.v.{ 1.2.K } `.E.B.s.6.-.,.i.p.p.*.m A i V | p.1.s.L.L.L.M.i.,.M.x.U ..i...m ' r.U ..6.r.6.r.i.s.p.i.p.c.x.r.*.=.g m 6.p.l g U A g Q p.E.,.m =.c.r.r.p.p.L.E.s.l m c..XY.v.s.-.H U ,.c.t.I 7 A ..M.r.i.s.2.p.=.t.@.:.l.k.].#XL.O.M i h ' 0...K Q =.p.v.!.&X}.r.O.i.c.v.c.1.r.6.-.1.L.E.L.s.p.' 1.s.B.M.s.r.s.r.c.c.L...u q ) s.r.1.:.1.@.' ) t.`.&X'.B.r.r.c.p.i.1.Q U 1.s.s.M.p...A -.r.2.=.,.c.r.r.i.=...=.'.s.A I c.A l M.'.-...s.c.B.}.A.1.s.'.E.L.`.&XOXL.x.r.r.p.i.p.s.p.v.' l U =.p.}.&X;X'.L.M.r.=.1.,.Q E | | Y..X}.B.Q u u =.p.2.T E | r.6.p.p.*.6.c.s.P A p.,.,.i.! Q m 1.E.!.c...Y.L.1.=.2.1.2.0.6.r.r.r.r.r.r.6.r.6.1.6.r.r.6.6.2.p.r.,.t.1.....-...g g g g I V r...G i b I I ' ` I b U R m b >.1.' 1.E U A ^ C A m g d P A E *.*.p.*.*.^ d l g d d V P g ^ L.v.' ,...U m d l V g C g m s.'.'.T.E.A.B.'.|.p.U A ..B.A.O.A A A m C | p.p.6.6.=.E g m B ! r.t.1.2.k.k.k.",
"=.' r.L.`.L.U ..!...6.P.p.1.x.M.A.E.OX}.m.B.E.Y.].|.L.V.1.m { ! :.G.n.p.k.v.L.~.T.L.V.A.v.p.p.c.E.M.L.'.Y.c.p.=.L.'.E.L.t.=.1.t.p.Y.}.E.'.}.L.n.s.p.p.s.s.p.t.p.t.p.s.k.l.k.s.s.r.s.i.V g ..L.i.,.U ..p.i.s.s.-.p.B.c.p.v.M.1.m U =.@.2.0.=.) 1.O.) u i H K U c.P.V.:.=.Q g { r.1.r.:.A ..2.-.v.}.c.6.6.,.,.1.,.p.1.U 7 i m ' p.p.x.T.OX'.s.v.:XM.s.1.} 1.*.A g 1..XB.r.i.c.1.,.r.s.s.s.c.c.,.Q C g y A ..*.m C r.A d p.`.'...U ,.c.r.p.B.Y.'.L.' U s.L.M.1.r.r.|.M.1.s.k.r.! m ..G.i.-.1.-.c.i.r.s.p.c.n.T.-XL.=.A i H :.B.B.t.Q I p..X,X.XE.'.1.s.'.P.r.1.,.-.} } ,.E.M...U *.c.M.p.i.-.6.r.c.c.-.I ! H g U s.T.G.l.B.'.'.T.'.E.`.Y.A.A.s.r.x.1.r.1.Q Q i.M.c.v.1...=.i.r.r.1.v..X|.L.t.i.v.}.;X;XM.s.r.g U B.p.g V T.3X&X}.'.L.c.M.L.'..X|.E.v.s.i.p.p.r.i.s.M.Q g C A s.`..Xc.v.p.1.1.,.,.1.6.1.s.B.L.,X'.1.U m h Q r.2.0.1...=.r.1.p.s.=.1.-.1.s.i.r.r.c.1.M.s...I i.;Xc...c.s.-.-.r.1.r.p.i.i.i.i.r.r.6.6.r.6.6.6.r.r.r.r.i.p.r.r.c.U i U A A 8 i A H ' A ..' 1.s.r.r.i.J.Y.w.A g 7 g V  .p.p...-.' =.1.' Q U U Q ..U Q 1.r.B.r.s.s.A V ..=.E l g g 1.OXx.r.=.Q | *...E 7 u U d Q E.E.v.M.s.v.V.P.M.| I ] B.!.P.p.=.*.-.1.,.s.M.p.*...Q g P =.p.s.k.s.r.t.=.O...",
"m } P.V.| ^ U s.,.=.t.r.,.p.B.].oX}.L.s.6.r.p.m.L.r.v.T.v.0.G.t.B.G.t.u.L.G.L.!.A.P.A.k.r.s.x.s.,.=.p.B.V.c.v.M.E.!.P.s.Q U r.v.M.'.'.P.E.E.Y.v.p.p.p.s.s.p.p.p.i.p.s.s.s.s.s.k.B.v.r.g u =.B.1.U ! -.=...O.' U O.s.p.r.-.Q V u K 1.r.r.-.{ } c.0...1.p.r.@.=.=.O.Q i A m g 1.!.'.p.0.=.p.2.1.v.r.' Q | ..=.-...P P V m g ' 6.c.M.OX&X`.r.Q *.,.U | r.,.1.^ m g -.A.,.s.*.' c.,.-.s.c.s.p.,.P u g 5 l A ~ m V c.|.Q } T.r.L.A.p.c.B.E.'.|.,X;XT.r.E.|.=...s.v.=.v.} -.|.p.,.1.B } c...=.s.c.G.2.p.:.l.s.@.P.].{ T ' { r.G.p.{ ' =.v.,X|.c.p.1.t.=.B.;XE.k.E.E.1.^ U Q 6.| I I =.c.p.6.r...1.6.-.l.] h i V g ..V.k.u.r.v.].].~.].Y.v.c.B.B.x.r.1.,.1.1.' ' p.x.r.1.r.s.p...,.s.v.'.|.}.B...i.'.4XA.E.B.L...| A.A.Q 7 *.OX'.E.E.r.s.c.A.'.}.L.x.p.i.r.r.r.r.r.p.x.p.g m I Q `.`.x.r.r.6.1.r.i.r.1.1.6.B.L.|.E.=.d i B A -.i.2.:.1...1.c.6.s.`.M.r.s.c.A.=.,.r.1.c.}.T.i.,.M.L...,.E.L.r.:.,.,.r.r.r.r.r.6.6.6.6.6.r.6.1.6.6.6.6.r.s.1.v.v...7 g } Q U h i h E ....L.r.c.B.w...=.s.%.` %...s V Q =.1.p.i.s.,.p.i.c.v.r.1.6.p.} Q ..s.| i.;XL.,.B.`.'.c.C m r.L.A.r.=.Q U ^ | s.v.Q m ' Q s.B.1.s.c.k.B.B.s.r.6.p.A.A.x.*.Q ..1.r.6.s.x.L.Y.r.I h l k.v.c.p.s.k.r.:.r.2.,.",
"' '.p.Q ' r.p.6.| ..,.,.x.B.c.].}.T.s.>.1.1.,.i.i.i.B.M.L.L.E.Y.!.{.!.~.&XXX].U.L.A.B.c.x.k.s.t.=.p.t.c.1.s.1.v.c.c.s.i...=.B.E.E..X].]..X}.Y.p.t.t.p.s.s.p.p.s.p.s.s.k.s.s.s.s.p.r.=.m g ] =.E U 2.n.1.' U h g A ..} A g 7 g I H T ..2.=.p.n.B.k.0.L.c.' ' v.t.1.' A ' B m 1.E.....p.2.s.r.t.s.| Q Q ..*.,.,.| l d u A A ,.s.c.,XOXL.x.-.v.:XY.T.A.A.1...E U ' c.r.A U =...1.6.s.B.x.*.Q C u u u C A m ,.} } T.`.c.L.c.U 1.1.U r.c.'..X|.&XOXT.=.x.=.U v.OXc.A I ' =.E.r.1.1.g ) r.p.i.p.v.r.1.p.k.n.B.B.c.E g K c.L.].!...I { 1.}.5XL.,.i.p.s.i.i.B.!.}.&X!.1.,.P P ..E U 1.`.1.r.c.c.r.c.x.....! I B K c =.B.c.c.B.P.~.L.c.c.L.B.L.B.i.r.r.=.,.1.6.| ' 6.1...1.v.Y.c.U ,.k.,.Y.v.2...} '.'.k.B.p.r.L.1.B..X1.U Q v.E.c.M.c.,.c.T.E.E.c.i.i.r.r.r.r.r.r.p.s.s.P g A l ...Xv.=.p.i.6.1.1.1.1.-.4.>.6.1.s.' l g A U m -.l.c.2.-.A i.1.' A.M.U 1.|.r...g ' p.r.'.Y.L.} t.B.Q 0 I .XP.r.1.2.r.i.1.r.6.6.6.6.r.r.i.r.r.6.r.r.6.r.i.r.i.t.' A 7 I r.s...U h A ..=.1.} m R >.>.>.=.%.%.' c.J.Q I I } s.-.B.1.p.c.,.M.M.i.s.s.s.*.,.p.A.i.E.}.' | `.T.x...U =.B.c.*.....I U m P c.M.' r.,.r.E.,.-.T.x.r.s.s.2.6.s.6.] U ^ U B E ,.r.2.p.c.Z.A.k.| U Q O...| ' U H { u.s.t.r.",
"k.2X1.| s.6.2.x.c.=.s.A.B.s.=.s.c.g.i.1.1.p.x.s.t.M.B.t.c.s.c.G.l.!.'.P.G.L.P.v.x.s.s.c.s.=.O.,.=.r...O.-.c...r.p.i.} ..s.c.M.L.|..XL.B.M.c.c.l.i.i.p.s.p.t.p.s.s.s.c.k.s.p.s.k.c.t.r.O.=.i.,.=.s.s.c.p.i.,.I g 1...g 7 V V m V A I ' r.c.~.L.r.l.k.n.@.u B c.'.L.r.1.p.Q Q -.r.h p.].,.=...r.i.x.p.r.i.c.M.r.Q I m g Q -.r.s.B.;XM.=.Q ^ M.,X;X3XY.x.1.i.s.T.,X'.c.=.I B.c.^ p.L.A.-.A V g g C E p...-.L.v.E.OXs.L.A.' Q r.Q d U 1.r.M.L.M.M.r...^ u Q c.1.A u s.].,.,.....Q g ' ,.s.r.} =.@.t.2.n.'.,XG.1.Q K I E..X-X~.2.B.~.}.}.E.s.1.1.=.-.r.-.t.E.Y.M.B.B.x.} =.1.E m ' =.Q M.|.M.p.x.c.,.A m q i E @.k.B.B.G.!.'.L.c.c.c.r.s.c.r.-.1.6.,.6.r.s.,.*.6.6.=.p.M.L.v.E k.B.=.k.t.=.-.i.|.1.m P ' E ,.Y.`.E.M.p.c.B.x.p.1.^ ..r.c.s.c.1.r.s.6.i.p.i.r.p.s.6...y l C l p.E.r.,.*.*.1.p.i.r.r.6.6.5.i.6.1.^ m A } -.{ v.'.n.0.O.E x.r.-.`.1.d x.r.*.s.} ..E.OXL.M.c.Q =.-.A m ] T.c.,.r.i.i.t.1.r.r.r.r.r.r.r.r.r.r.r.i.i.r.r.p.1.s...7 B h Q p.-.B g A =.i.1.1...' >.=.} -.p.g.,.i.s.} A r.i.i.p.=.i.} i.s.,.s.p.,.p.p.1.=.x.M.r.x.r.I d =.'.L...i Q 1.Q A g m y Q c.| l P A U E.-.6.M...6.v.s.1.1.p.s.p.p...i g P P l m ' 1.s.x.`.Y.c.B.c.6.t.k.] I ' ] ) ..2.=.=.*.",
"c.E.x.s.k.c.p.2.6.p.|..XL.x.2.L.L.6.6.s.r.i.x.r.c.s.t.t.c.t.c.c.G.l.1.@.! U ..O.=.r.s.=.E P U E ....Q I r.i.' -.E.E...} V.M.i.B.E.}.L.v.r...,.p.r.r.i.p.p.i.p.s.k.c.c.c.s.p.s.k.v.1...' ..2.1.v.Y.p.s.c.s.p.1.,.i.) h } 1.A g E r.n.1.@.t.B.s.s.p.t.u...4 U B.P.s.O.,.t.' r.k.r.=.B.v.U r.c.c.k.p.r.,.1.B.'.c.Q l A | p.`.p.r.L.B.=.P g r.&XE.A.s.r.s.6.s.x.M.L.'.s.=.} i.U ..A.i.=.C u m m g m A U d E.,X'.2X|.L.i.*.m Q c.-.A Q c.,.c.`.c.p.=.r.E * } c.| C A Y.V.I =.' V g 0 V } =.M.s.p.s.i.k..XP.B.r.s.s.! =..X'.'.k.=.~.'.,XV.=...,.-.-.i.1.,.-.r.p.B.'.E.'.B.E.x.=.r.B.=.U M.L.*.s.B.6.A m I A ' -.l.c.c.v.n.L.B.1.=.r.p.1.r.6.1.p.r.*.| -.,.t.-...1.6.1.t.i.c.M.Q B.&X'.c.{ I c..X'.I V A g m m P | E.`.p.,.s.r...| | *.v.v.r.c.-.,.r.1.r.p.r.6.p.p.| m g m A ' T.M.,.=.,.=.1.6.-.=.1.i.4.p.s.6.' *.E F i.v.s.v.G.' { ..r.s.E.B.6.} E -.^ A *.6.c.`.'.=.' h g ..v.E.c.L.Y.s.-.r.r.-.i.t.6.6.r.r.r.6.1.,.6.6.r.r.r.6.6.r.p.r.-.g h m =.r.Q g g ..s.p.1.r.} =.p.1.,.M.C.s.=.1.,.Q ' s.,.s.*.x...=.6.r.B.T.E.p.p.p.6.1.s.-.-...P A 6.'.T.=.V u =.p.6.1.Q | C m E A ..1.P ..r.x.M.Q P L.s.i.r.,.s.x.2.r.t...| ] Q E ^ ' | -.x.`.`.A.A.p.2.A.k.*.O.r.t.2.2.0.=.=.=.",
"2.k.V.r.1.p.,.*.6.x.A.'.s.s.M.c.x.p.i.s.s.s.s.s.t.p.s.s.s.l.n.B.u.t.t.E h h g B B P I B B B m d -.s.U Q V.,.U '.XXE.p.c.L.B.Y.'.|.}.Y.s.=...1.c.r.t.s.s.s.p.s.l.s.t.M.c.p.s.p.v.v.! A i V } 2.|.Y.c.v.c.,.-.2.=...! ' E.v.m ..'.&Xc.=.i.k.s.t.i.s.r.s.} g =.E.r.^ B ..B.L.s.6.M.}.&X6.Q i.s.1.r.s.6.1.A.E.L.r.d u ' r.'.s.E M.E.2.C i ^ `.'.B.6.6.r.r.r.r.r.r.p.s.Q A U r.Q ..6.V 7 y d C Q Q A ,.=.r.`..X'.E.c.r.,.^ i I c.p...' x.x.E.'.s.i.,.*.5 l ,.c.c.p.E.M.Q g =.Y.U u m V O.Y.T.p.r.p.i.v.r.Q A I =.M.p.|.,X'.M.t.r.E.#Xv.r.-.-.,.-.,.r.i.r.r.i.s.c.M.G.L.&XT...c.}.6.-.r.r...U L.&Xc.m I } s.B.c.c.M.c.V.B.B.r.,.r.v.i.,.-.r.,.-.1.*.-.p.1.p.p.1.r.i.r.t.p.k.,.H ..E.E.i.=.=.P.|.=.V ..=.' A m V g l E l ..,.Q A C U ..`.T.A.s.1.=...1.,.1.p.r.,.p.' A A E ' c.`.p.*.1.6.6.6.1.1.1.6.r.r.4.r.5.=.^ I } i.L.L...) q Q s.L.B.=.| E A -.1.p.r...,.L.E.6.m 7 U I r.,XT.=.,.c.2.-.,.2.i.t.0.6.1.1.6.6.1.1.r.r.6.1.1.6.r.i.p.-.s...i V g A U h i Q =.M.i.c.s.=.r.M.c.1.c.-...s.1.r.1.=.c.E.i.=.r.c.r.s.|.|.L.L.c.s.s.s.c.1.U ,.*.,.s.c.i.' V y Q 1.6.p.M.}.x.1.} ' V | s.p.-.1.=.^ s.B.M.s.6.p.r.s.s.r.p.x.r.T.!.B.r.s.t.*.r.M.Y.m.x.v.1.^ E ^ ^ 2.1.v.t.k.-.O.-.1.",
"1.M.M.1.=.1.6.6.x.r.1.O.I U p.M.s.r.r.p.s.s.s.s.p.p.s.s.s.k.c.n.k.t.s.-.! ) { 2.A.*.I h i d B | ~.H V t.c.U Q p.r.v.c.B.E.L.Y.E.'.Y.v.t.r.r.p.s.i.t.s.s.s.s.s.s.p.t.v.c.s.l.c.Y.r.= * A ] c.s...m Q 1.r.-.1.s.t.s.s.M.M.A I .X&Xk.H } p.M.v.t.,.c.t.s...V ..c.B.I ,.|.,X'.L.c.s.'.`.>.E r.c.r.6.,.x.x.s.p...A g ..E.T.E.....c.v.m 7 I L.&XB.1.6.6.6.r.r.r.r.r.i.6.,.B | A.s.1.*...C g g U M.E.r.1.i.L.&X`.x.i.,.s.i.Q l ^ s.p.c.6.M.E.OXT.6.6.-.V g Q ..1.p.i.B...} m I ] I :...Q M.&X].E.r.i.i.p...' Q U E ..i..Xr.p.s.Q ' p.c.c.t.1.1.2.1.r.t.p.i.i.p.s.s.s.l.s.c.p...r.6.I ' p.B.6.' ' Q } I A 1.M.s.p.P.'.L.1.v.V.r.i.p.k.r.| ,.r.=.=.,.,.r.s.6.s.x.p.c.c.s.c.r.=.Q h Q i.=.' v.&X'.r.m 8 Q x.1.^ U Q ' E U g | p.r.' C ' B.'.B.s.r.1.,...*.=...,.p.r.1.Q ' B.E.E.'.E.r.,.p.r.r.r.r.6.6.6.6.p.r.i.4.=.| ^ -.M.|.s.U =.U Q 2.B...A ^ =.1.r.6.1.r.x.B.B.6.P i =.p.r.s.k.T A 1.s.i.r.r.r.r.r.r.r.6.6.r.r.6.r.i.i.r.6.1.6.r.r.r.i.s...i h h m B A -.v.....U ] =.=.s.i.r.m.p.U I L.s.s.s.p.v.i.U ,.p.c.p.M.}.E.v.L.v.c.c.s.c.x.r.*.6.c.M.M.P u V ,.r.=.,.E.E.E.M.M.Y.M.=.} *.r.1.,.6.p.E.`.B.r.-.,.1.s.s.2.6.6.O.V.E.B.6.c.V.p.k.`.E.L.M.x.-.U l E ..1.1.c.L.U.v.t.2.=.",
",.A.c.r.6.,.p.c.s.k.c.,...=.`.].p.r.r.i.s.s.s.s.s.s.p.p.s.k.l.c.l.t.v.v.t.k.G.].P.-...U U O.,.M.1.u =.L...m ,.1.r.L.G.Y.'.Y.v.c.M.k.r.r.i.s.p.t.p.s.s.s.s.s.s.s.s.t.s.c.B.s.....A X 7 B u A ! m g ..s.c.p.s.s.p.B.Y.].L.h A L.2.I i -.c.!.V.r.t.s.c.,.m m v.v.B.Q ] v.A.1...,.M.T.B.1.} 6.c.p.p.v.s.s.p.,.E g m r.r.i.L.s.,.=.=.Q m ' E.E.i.=.i.i.i.i.p.p.p.p.p.6...A A.B.x.B.p.p.-.U g A ....V 1.E.OXT.,.| *.' E.M.g 7 ..E.T.T.Y.|.:XE.p.p.i.Q d d V u ..x.p.6.r.-.} ....-.B.r.E.E.E.i.r.} v.V.c.1.t.s.B.E.Y.&Xv.m ! -.U ..k.c.s.p.i.r.r.i.i.p.s.p.t.p.p.i.r.r.i.1.6.1.6.=.Q 1.,.p.*.6.-.E U g } =.-.1.V.|.E.s.s.r.k.1.@...=.E ..c.p.,.1.1.r.s.1.,.p.r.1.p.M.T.Y.v.1.U i B ,.-.=.p.M.' V A h ..M.s.i.i.p.s.s.p.^ 1.M.`.&X&XOX&XM.6.r.r.r.p.1.-.r.p.1.Q I =.^ ..p.B.c.p.6...*.i.1.6.6.r.i.i.i.r.6.4.6.,.-.-.,.c..X|.=.U 0.r.1.p.,.A ^ r.r.1.,.i.r.1.s.r.| U V ^ p.p.=.} U m ..Y.i.p.p.p.i.1.1.i.r.6.6.r.r.r.r.i.p.r.r.6.6.6.6.6.i.r.=.g g Q ..,.v.M.,.I k.Y.L.s.1.r...$.B.M.s.v.}.E.E.}..X.XL.,.B.Y.E.L.'.}.M.s.p.i.s.c.x.c.B.M.=.r.p.r.'.-.} p.XXr.1.B.E.c.L.B.E.,X}.v.=.,.A.L.c.r.1.' Q Q } -...=.p.s.6.t.s.1.p.c.k.r.B.E.L.`.}.A.Z.s.r.,.U U t.v.x.s.k.l.0.2.2.6.r.",
"=.V.s.c.s.! =.c.p.V.P.x.k.A.OXE.s.p.i.p.p.p.p.p.s.p.t.t.p.s.l.l.u.0.c.B.c.V.~..Xk.^ 1.p.L..Xv.k.} =.E.s.' Q M.i.k.s.-.p.E.B.p.i.r.r.r.r.r.r.r.t.s.s.s.s.s.k.k.s.s.s.p.c.M...g u g g A A A Q I A ..r.c.c.v.M.v.v.E.&X&X.XV.k.V.r.h I M.B.Y.s.r.-.-.c...7 A |.M.V.r.O...P u C ..r.c.,.=.1.x.L.B.A.M.*.p.s.,.1.| m ' } c.p.,.C ..c.s.,.p.}.L.c.r.1.p.p.p.p.s.s.s.p.r.*...|.M.p.x.c.i.r.' ' p.,.U C M..X'.p.^ U Q A Q U 7 Q M.'.E.E.&X.XE.1...p.,.C 7 U 1.| c.x.p.p.1.' i.r.t.L.c.s.s.Q ,.=.} ] k.1.,.c.Y.L.'.,X&X,Xi.........r.t.s.r.p.p.r.r.i.i.i.p.i.i.t.t.r.r.r.1.,.r.=...,.r.c.v.r...x.M.v.i...i.c.M.L.'.P.p.1.U U -.i.r.' } ..=.c.,.*.6.,.1.6.r.6.p.r.1.i.c.L.M.k.=.A 0 g } ..' 1.i.Q m V I r.s.6.r.s.6.1.r.6.r.p.p.p.x.M.v.c.r.1.p.6.1.s.x.s.i.r.,.=.=.-.Q 1.6.i.,.1.r.1.6.r.1.1.1.6.r.i.i.r.r.6.i.r.p.c.B.|.,XL.-.i.k.L.]..XT...=.B.B.s.p.r.r.-.s.,.| *...p.t.B.s.r.r...Q I r.p.t.i.i.,.,.i.r.r.6.r.r.6.6.6.r.r.r.6.6.r.6.6.2.r.r.g i ,.B.!.}.v.-.-.].*X.XL.1.,.>.i.L.L.&X}..X|.}.|..X}.E.L..XOX.X|.&X|.c.M.p.s.x.s.r.1...E g ,.x.=.r.^ | s.p...B.;XE.c.`.A.T..XB.s.6.A.}.'.x.1.1.P P Q *.p.t.6.s.s.2.2.t.6.6.1.2.6.x.x.x.'.M.g.s.1.r.*.m ' P.P.L.T.T.r.@.k.v.V.P.",
"-.M.r.c.-.7 U v.s.s.=.,.r.L.T.c.s.s.p.p.p.s.p.p.p.t.t.t.s.s.k.k.k.l.n.V.V.T.].!.2.] L.'.c.1.! 1.p.s.p.! 1.p.B.s.B.,.Q r.T.v.r.p.r.i.p.i.r.r.t.s.s.s.s.s.s.s.s.s.s.v.c.s.,.m 8 g g V g A r.c.=.=.k.k.t.r.k.B.E.}.*X5X|.T.|.XX'.s.Q r.E.M.M.i.p.m C Q A u C 6.Q M.M...$.*.' $.r.s.Y.1.>.p.x.g.p.p.....v.s.i.T.x.E *.B..X..E U ,.p.p.s.B.E.p.p.r.6.i.i.i.p.p.p.p.r.6.M.x.M.|.T.=.1.c.L.A.T.L.s.M.E.'.M...^ I m Q ,.6.A m E.,X'.L.T.B.1.I g P E g u d =.M.1.c.r.r.x.=.p.&XE.s.M.i.L.B.r.v...V } O...,.M.B.'.,X&XE.M.i.M.6.=.r.1.6.6.2.p.s.i.r.i.t.r.p.r.r.i.t.i.i.i.1.6.i.*.| p.B.M.x.1.6.i.-.p.6.c.E.&X&X'.T.p.Q V g g m E i.,.=.6.,.p.' ' 6.1.1.r.p.r.r.,.,.,...*.t...V g m B I V U s.M.s.=.' i.Y.x.6.1.r.r.s.s.,.s.r.6.1.^ h g A ,.1.r.=.-.s.c.c.p.r.1.1.1.-.I ..r.6.-.s.A.c.s.6.p.r.6.6.6.r.6.2.4.4.r.4.i.x.c.L.c.r.1.v.r.B.].'.`.r...x.r.=.s.i.s.r.M.1.1.B.v.c.M.E.r...i.r.-.r.i.r.2.r.r.1.1.i.i.r.r.r.6.6.6.1.1.1.6.6.r.r.r.r.t.p.r.h g c.'.}.L.k.L.'.}.V.M.s.=.p.M.M.L.B.&X|..X}.L.c.x.i.r.x.s.x.s.i.x.r...6.r.x.x.6.=...U l U B.;X'.x.,.=.1.,.s.L.c.c.B.E.A.B.c.r.1.s..X`.Y.M.s.B.6.1.,.....=.| ,.s.6.,.6.r.p.2.1.1.r.,.| 1.E ..,.,.x...u =.!.P.!.'.XXr.r.P.L.B.x.",
"1.B.r.6.U = Q !.s.,.E 6.c.B.r...i.p.p.p.p.s.s.s.t.t.t.p.p.s.s.k.k.n.l.v.G.P.T.n.=.r.,X'.' B E s.i.1.=.Q r.p.c.r.B.1.=.B.E.i.,.i.t.i.r.r.p.s.s.p.s.p.p.p.p.p.p.p.s.c.p.s.O.i 7 m g m I ] 1.,.-.p.v.c.s.p.s.V.].,X;X].B.c.p.s.i.E Q L.1.Q M.6.U - Q Q U V V ' Q c.=.l ^ m.x.6.s.L.L.g.6.r.} F } *.1.s.x.M.}.}.M.M.T.A.r.....p.=...v.c.M.v.,.-.r.x.p.p.p.p.p.p.i.r.r.p.x.p.|.'.6.r.s.x.s.,.l m s.M.|.E.s.,.^ A 1..X'.Q l 1.c.,.=...| Q g g Q Q m g g Q Q l =.r.i.1.P.M.s.L.Y.v.-...Q B.}.,.=.k.-.t.i.c.M.&X.Xr.-.=.1.r.,.p.r.,.x.p.i.s.s.p.t.p.s.p.p.i.r.i.i.i.i.t.p.p.s.p.r.B.`.Y.x.p.B.s.r.c.r.Y.&X.X`.L.s.^ g 7 I A ..Q A | c.1.,.6.| ' 1.r.r.p.6.1.,.' Q E U ' ,.Q 7 g Q ] ..} r.L.c.v.L.E.&X'.s.x.s.1.r.B.M.1.,.1.x.M.6.' A l A U Q ' 6.c.i.r.x.s.6.} Q =.Q ..c.v.M.E.'.L.B.x.p.r.r.6.6.r.r.r.,.,.,.=.,.,.} } A ,.2.,.' :.1...U ' =.v.=.C -.r.,.*.,.' ..L.E.v.p.s.' ' p.2.-.c.s.1.1.i.r.2.i.i.i.i.r.r.6.r.6.6.1.1.6.6.6.r.r.i.t.r.O.A Q |.,X|.'.v.B.M.i.p.x.-.,.'.|.L.`.Y.L.`.Y.M.r.,.1.,.,.6.2.6.1.=.=.-...6...6.r.-.=.,.1.1.c.M.L.E.B.M.s.1.A.-...U | r.c.r.p.1.r.i.B.OXE.E.'.E.E.M.s.,.} Q H A O.k.s.6.r.r.r.r.6.,.r.s.O.Q P ,.1.>.s.' d 2.A.V.L.t.l...-.t.*.O.O.",
",.v.1.^ g u =.L.=.6.t.P.`.v.=.U r.p.p.i.i.s.s.s.t.p.s.p.p.p.s.s.0.t.+.-.k.s.r.:.6.r.B.r.^ 1.c.c.t.B.B.r.1.r.r.,.1.-.i.P.B.1.0.r.i.r.r.r.p.p.p.t.p.p.p.p.t.t.s.s.s.i.r.c.-.g u i P ..1.p.p.r.r.r.r.i.c.B.B.E..X].L.p.p.c.r.1.1.' 6.&Xx.-.|.Y.=...T.A.s.*.*.V.L.B.m m *.6...5.s.1.6.p.$.' l s ,.g.M.V.s.E.3XE.p.B.L.r.E ,.p.x.p.T.`.'.'.A.x.i.s.s.s.s.s.p.p.i.i.i.p.*.r.s.v.c.p.,.x.p.' U U *.B.r.s.`.E.s.' m Q 1.C y V C Q A A g P ^ U ' ,.,.=.U m ..-.*.x.B.B.x.i...E r...Q ..1...E.p.U 1.r.,.s.v.}.2X.X=.m Q p.s.,.1.s.r.6.s.p.p.s.s.p.p.p.s.s.p.i.r.i.t.i.i.i.i.r.p.s.s.M.Y.B.M.s.p.-.r.s.p.L.'.T.L.v.' d u A l 1.&XL.....s.-.I *.2...*.r.1.1.r.6.=.Q Q Q Q *.U B 7 A =.-.r.M.V.}.T.E.E.E.}.P.|.].L.v.M.B.s.1.s.E.&X.XA.B.c.1.C m m U r.p...1.p.=.1.c.r.-.Q 1.c.V.A.B.s.6.r.,.6.6.6.6.6.r.r.r.6.6.r.6.i.6.Q C g ] @.Q B @.0.I U E ..M.c.*.1.p.T.x.r.,.=.r.=.m ' ' A ' t.i.p.M.c.-.1.s.2.r.p.r.6.r.r.6.6.r.r.r.6.r.r.r.r.r.r.i.r.-.H A ..|.XXE.P.c.-.I A -.i...} M.Y.B.T.L.,.1.1.=...=.,.1.1.1.1.,.,...| ,.,.r.1.r.r.1.r.r.i.M.A.s.s.p.p.r.p.r.6.m U ^ ..,.p.,.1.1.p.p.x.v.L.E.B.Y.L.E.B.x.i.6.| =.x.B.p.1.2.,.1.2.r.1.t.v.r.*.6.S.M.,.O.A d ! ,.2.2.^ ] ..1.-...=.2.",
"O.s...h 7 B =.*.C r.`.'..XP.L.c.r.p.s.i.r.p.p.p.p.s.s.s.t.i.p.s.t.t.) ..k.0.=.-...U U H g Q s.x.c.E.M.1.r.c.p.p.r.s.L.E.k.1.s.r.i.p.p.p.i.i.i.p.p.s.s.s.p.p.s.c.t.i.i.v.=.i g V U p.2.! } 1.s.v.M.B.}.&X.X&X}.s.1.1.1.1.1.i.s.i.B.B.`.}.L.E.}.'.E.L.M.r.6.E.`.1.g k 5.M.6.p.c.p.x.m.E C d C m.c.-.M.L..X.Xc.,.Q ' 1.r.M.|..X.X.X.X,X&Xc.r.1.s.c.p.s.s.p.r.6.r.r.1.c.r.1.r.r...d 6.'.r.=.c.t.6.p.x.M.r.-...E | r.P P 1.6.'.L.6...p.r.p..X&X`.}.c.v.'.'.|.&XXX'.'.L.' U T B r.M.v.'.L.B 0 1.-.B.L.v.E.'.| y U ,.p.x.6.r.1.r.x.r.p.p.p.i.p.p.t.p.p.i.r.r.t.p.i.i.i.i.p.i.p.r.p.x.r.c.B.v.r.x.,.r.B.T.B.s...V l m d E E.Y.i.&XY.E C 7 | B.r.,.c.s.i.p.=.Q Q ,.1.Q A m h g ..c.i.i.V.E.'.}.E.v.s.V..X.XM.,.r.B.s...' s.c.E.OX}.T.c.,.p...A P =...Q p.r.r.M.M.,...m V 1.x.x.6...*.i.1.6.r.r.r.2.1.1.1.5.4.i.p.c.s.Q l m i m m q =.E.] A.=...i.c.s.c.|.E.6.*.p.B.E.Y.1.' =.,.i.r.i.v.v.c.O.1.l.1.1.s.1.,.1.6.1.1.r.r.r.i.p.p.r.r.6.r.i.p.=.g g U r.r.-.1.=.B g Q c.p.' g g A E ' s.1.=.*.=.,.1.,.,.,.-.,.,.1.....p.x.s.x.p.1.p.M.p.6.x.i.r.c.i.B.r.r.=.=.1.6.E } ,.r.v.r.p.r.,...U 1.s.,.p.6.M.p.6.p.s.p.M.E.A.6.2.p.r.r.6.r.2.1.6.1.r.6.L.Z.5.! C C B ..=.*.] ..s.B.x.P.V.v.",
"..K 4 q m A ' I A i.p.s.1.>.i.M.x.s.r.r.p.r.r.k.s.p.p.r.r.t.s.k.v.2.U r.2.k.k.s.] B ! E B m k.*.x.`.s.O.p.s.s.B.c.s.V.L.p.6.p.6.i.i.p.p.s.s.s.p.p.s.s.s.p.p.s.x.s.c.s.M.,.7 7 U ,.M.r.-.p.E.M.B.L.,X}.E..X'.r.r.1.1.1.1.1.2.r.r.s.p.c.' =.,.p.c.x.M.c.1.,.B.M.^ g l 1.x.p.M.c.v.'.'.| A E 6.s.r.6.A.oX}.Z.x.*.l V P *.M.OX.X(.2X&XA.x.s.2.r.c.s.p.k.6.r.s.t.r.r.6.1.k.p.1.^ P 0 1.B.x.M.s.c.B.p.p.p.k.] C 1..X3XT.c.r.'.!.c.E.c.k.A.'..X|.'.!.T.'.|..X.X'.E.E.'.`.T.c.p.B.E.B.M.M.^ C | M.-.=.M.A.&X|.^ E ' x.s.r.r.6.r.p.s.s.p.s.s.p.p.t.t.p.p.r.r.t.p.p.p.p.p.p.s.t.p.x.p.-.O.x.B.k.t.p.s.P.|.E.r...d u ,.x.1.c.B.A =.`.=.A l m P r.s.r.s.i.6.=.V l C *...E m d g 0 *...p.`..XOXL.p.i.,.,.B.E.c.r.| A.B.p.r.O.x.t.-...k.6.I r.t.p.2.H P P ' r.6.s.c.M.E P Q d -.i.s.6.,.p.p.=.1.6.r.r.r.1.1.1.6.p.r.c.p.s.*.g I R -.I U v.i.=.L.-.r.1.r.I ,.=.A P } c..X&X,.^ ..p.s.1.c.E.M.p.Q ..p.6.i.,.r.r.1.1.1.1.r.r.r.2.2.r.i.r.1.1.2.r.,.' m i C U P C } U u Q x.' i m C *.Q h ^ B.p.1.1.*...=.=.*.*.=.1.1...' ,.i.p.s.t.1.p.v.p.1.1.,.p.1.1.r.r.p.i.-.t.k.c.i.-.....=.p.1.*.m g | 6.s.,.1.1.1.r.x.M.B.A.L.T.A.6.1.s.1.p.6.r.r.1.6.r.=.,.p.p.r.| g l *.v.c.r.-.6.v.L.B.L.M.c.",
"I B g A V g } 1.O.U | *.A *.6.E =.,.6.p.s.x.s.r.s.p.p.p.p.s.k.k.p.2.U O.c.k.t.r.B B v.B.O.! L.v.p.6.Q O.c.c.s.r.6.M.L.M.s.i.6.r.s.s.p.p.s.s.s.s.s.s.s.s.p.p.s.x.s.s.s.M.r.u y U v.s.1.c.E.E.B.Y.E.A.r.B.`.A.=.,.,.1.6.r.i.t.p.p.r.p.p.A O.c.v.p.s.s.Q i ' T.B.E Q *.1.x.r.A.r.s.p.,...s.k.c.c.p.L.'.(.T.B.>.P d l ^ x.}.`.A.Y.L.c.L.s.*.6.6.1.x.2.2.k.V.c.s.s.p.s.t.6.,.r.6.=.u O.c.I C 1.B.p.6.p.r.1.Q | '.,XE.k.I ..L.c.s.c.1.'.].].!.T.E.`.'.!.P.V.B.v.M.V.L.P.'.OX&X&XP.x.6.2.t.A.|.A.,.] ..B.'.c.P 6.k.c.p.s.t.r.t.s.k.s.s.s.s.s.s.p.p.p.p.i.t.t.p.p.p.p.p.r.s.p.t.p.6.-.=.s.L.B.c.M.P.XX*XY.,.V V i.c.' ' ,.' ..B.B.-...' A E Q ..x.s.1.x...m ' Q r.1.=.A A ,.U ' r.`.|.`.L.L.p.,.,.s.A.c.p.s.c.p.Q s.!.p.V.s.,.E E I m 1.A.=.r.x.s.' ! O.6.r.s.=.B =.p.=.Y.M.i.1.1.6.r.p.6.6.6.1.1.6.i.s.p.s.B.p.U Q U E =.p.c.' =.}./.m.p.g Q 1.=.U 6.Q ..-.r.L.E.E.1.} Q s.c.i.Y..XM.=...=.,.r.i.6.,.,.s.6.,.,.r.i.r.r.r.0.r.r.2.,.,.1.x.=.C g A Q U A m 7 U i.=.P A U I =.M.c.x.'.A.=.-.^ ! ..*.| | O.' } Q Q ..,.,.6.r.1.6.6.1.1.6.-.-.=.-.1.r.i.-.Q } i.V.&Xc.1.! ' E Q U u A M.L.s.-.1.,.-.p.B.B.p.Y.P.A.A.B.i.1.1.r.r.r.6.6.p.r.=.-.,.1...E U ! -.M.V.L.A.B.v.x.x.c.s.s.",
"u V g m S ' c.v.p.1.r.r.p.x.' ^ =...,.t.p.s.x.r.p.p.p.s.k.x.k.s.t.s.T B k.{ U H i ' k.u.l.-.s.v.s.2.Q =.p.r.k.1.1.!.T.p.k.s.6.k.c.x.s.s.s.s.s.s.s.s.x.s.p.s.s.x.s.s.x.c.1.8 7 | L.x.s.c.i.^ ,.A.-.U E M.T.c.=.,.1.6.i.p.s.s.p.p.s.i.r.Q c.!.B.s.2.,.E U p.L.c.p.`.`.r.M.c.c.6.r.p.P m ..| r.T.T.'.E.6.r.p.R l P R E.;XOXS.=.$.,.1.s.6.t.s.P i O.x.....,.O.-.r.,.1.k.r.1.k.x.r.- H B 7 ..B.2.' *.c.x.1.U ..'.`.1.P y 6.|.T.M.,.-.T.T.P.A.B.B.A.L.A.M.v.B.V.V.B.M.c.6.r.L.OXB.r.U =.-.-.-.! p.L.L.P.E...u 6.c.r.r.s.p.t.t.s.k.s.s.s.s.p.p.p.p.s.s.p.p.p.p.p.p.p.t.r.s.p.r.r.1.-.1.L.].`.`.|.&X*X!.s.U 7 E M.,.C ..p...c.c.,.i.i.=.*.P A 1.M.s.p.r.U P r.-.r.B.p.Q E.}.Y.Y.M.A.|.Y.B.T.x.1.s.L.E.c.r.,.s.1.U 1.t.' A.r.*.| r.x.| ] ..*.p.B.|.s.Q ^ I E *.U d ..] M 6.1.*.,.s.s.6.r.r.r.6.1.1.r.p.s.p.s.x.U i *.^ C ,.E.B...r./.Y.h.U m A =.A.M.A.x.r.r.p.`.'.A.6.| v.&XE.p.x.p.} U -.i.p.B.c.s.1.p.,.i.i.,.,.i.i.,.i.2.1.r.r.1.,.1.=.1...Q ,.T.M.' A g ,.r.E ' p.L.k.v.A.B.`.!.s.1.=.U U O.*.| | | | ..} ..1.r.r.s.=.*.*.=...' Q Q } -.r.i.p.1.' A Q ..=.t.} 1.r.s.A g g A 1.L.c.1.1.=.-.i.t.,.*.=.6.,.*.t.V.p.*.r.1.r.6.1.6.t.,...1.1.r.Q A *.s.B.E.L.A.T.`.V.k.k.p.p.s.",
"7 S A T =.y.s...Q s.r.6.M...7 | s.=.6.c.s.t.s.p.r.t.s.s.k.s.s.p.k.k.U u +.H h u a =.O.O.B.k.v.k.=.s.=.2.x.x.L.s.t.!.A.2.t.p.r.c.x.s.s.s.s.s.s.s.s.s.x.s.s.s.s.x.c.p.s.x.r.7 5 ' s.1.c.c.p.Q | ..U A ..L.c.p.r.i.6.r.p.s.s.p.t.i.s.p.i...A.|.L.A.c.s.v.'.OXT.A..XE.*.s.p.B.c.r.'.P.2...O.=.L.&X'.`.x.E ^ ^ y y C Q |.`.m.6.E ^ 6...^ | t.=.u d p.s.Q C h d C I B p.M.B.P.s.A I 8 H =...,.s.s.c.B.s.s.,.E ' 6.' u m ' M.x.1.| P r.x.x.x.k.s.s.s.s.x.x.M.L.T.L.B.c.s.k.B.V.p.A 6.s.c.i.| E ^ A..X'..X'.1.C 6.s.2.s.s.p.r.r.t.s.s.p.t.r.r.t.t.p.s.s.s.s.s.p.t.p.p.r.t.s.p.r.r.1.1.r.`.`.L.`.OX.XV.' ' C g V Q 1.c.M.r.r.s.*...6.,.1.s.....M.x.=.1.=.y P ..' ^ E.p.-.E.c.v.L.1.} s.x.x.L.B.L.'.T.c.r.p.r.6.r.6.=.U B E | ,.6.v.s.^ ^ 1.k.v.r.s.s.1.6.B l B m u ' ' C | ..U P -.s.r.r.r.r.r.r.r.r.r.r.c.1.E 8 g A.x.U Q s.....E.&Xs.V g -.-.r.L.,.P ..s.1.M.'.A.,.E U p.A.1.| ,.^ C U =.1.1.p.s.c.r.1.2.i.r.1.1.i.i.2.0.2.1.1.1.1.1.1.p.,.r.L..XOX`.B.x.M.M.' ' c.T.&X].L.r.^ s.c.1.*.=.! ..r.r.6.r.6.r.6.1.r.s.s.s.x.1.^ U Q E l C ..=.i.p.p.v.i.Q g Q ..=.I g Q r.,.U m C -.L.L.r.-.2.=.,.s.p...Q ' O.E E -.c.s.1.s.1.r.1.,.6.-.] | ,.,.*.C U p.c.A.v.x.t.p.s.6.-.6.k.s.x.",
"m ` ' -.p.p.s.1.*.B.s.x.p...' p.p.r.v.A.k.s.x.r.r.p.s.s.s.p.p.p.s.r.B i U Q ' E ' x.k.x.2.=.A.] ..v.r.c..XE.x.=.s.c.s.1.2.r.p.x.s.s.s.x.x.x.s.s.s.s.s.s.s.s.s.x.c.t.p.c.c.m 2 E v.1.B.x.c.,.1...,.i.M.c.' =.s.p.i.p.p.p.p.i.r.r.6.x.s.E =.L.L.A.k.s.M.A.M.M.c.6.! B | B.B.1.P.P.! ,.r.1.c.].|.A.T.g.,.p.r...,.6.6.x.*.~ V m *.*.E -.r.6.*.C H s.t.1...I A P m C ^ v.B.r.U u ^ m =.&Xx.H =.s.M.L.A.x.' d H *.E h C p.M.' l m ' M.v.c.s.r.2.1.6.r.t.t.p.s.k.s.s.s.B.x.v.A.V.=.E.].|.OX.XT.'.E.T.A.!.L.B.2.s.k.r.p.s.p.r.6.r.s.s.t.p.t.t.i.t.p.p.p.s.s.s.t.t.p.p.r.t.s.r.r.p.p.r.s.M.p.6.x.B.s.^ 2 A u m ..=.r.p...*.r.6.6.1.E A ' x.B.p.s.6.m i C u A A m C r.Q | s.s.2.-.=.*.6.s.v.B.x.v.B.i.1.6.1.c.r.2.1.' ..! 1.6.6.k.V.1.^ s.B.=.k.k.P E =.| ! Q B m g ' =.P 2.r.} U =.i.1.,.6.r.r.r.r.6.1.,.r.E u l A | Q g i ,.,.v.3X;Xi.I Q ,.c.A.,.Q -.M.v.c.|.B.| A g P ..=.m B i.x.p.c.r.M.E.x.6.6.c.s.c.r.,.r.p.r.r.s.,.6.6.,.-.1.1.1.,.Q ^ 1.p.r.p.x.v.L.c...c.;XE.'.T.x.c.=.6.L.T.*.' ' =.r.p.k.x.p.s.r.r.r.r.6.6.1.=.I A | *.^ ..i.p.s.r.p.B.x.Q d Q 1.x.*.U ' ,...^ O...=.x.B.k.,.-.,.,.,.p.x.,.I ..U ] =.,.r.6.r.6.r.6.6.6...^ =.-.| A m 1.L.s.r.=.p.r.O.^ U E =.M.c.c.",
"Q y.i.s.L.Y.E.B.s.A.p.s.r.m.L.p.1.p.v.p.1.p.c.6.t.p.s.s.p.p.p.s.p.1.g g B O.s.p.L.*XL.k...E r.U r.M.k.P.:XB...*.k.r.r.p.t.p.x.s.p.p.s.x.c.x.s.p.s.s.s.p.p.p.s.s.s.s.p.x.6.g 8 =.T.*.r.} ,.p.c.B.r.M.v.,.I ,.x.6.r.i.i.i.i.r.i.i.r.s.s.Q U O.=.r.s.p.s.p.r.v.s.Q m B E A.k.1.s.B d *.c.p.A.P.v.c.7.1.m.}..X|.|.'.|.B.E d y l ~ E ..E.P.p.6.B 0 | 2.| I u m P h A g ..' d u U 1.g m ! g h r.c.B.A.=.M.B.p.A.T.,.E | c.B.*.l Q M.v.v.c.x.s.r.6.6.r.r.r.r.r.6.1.2.r.V.A.E.!.V.| 1.,.x.P.].E..XM.c.L.T.c.L.M.s.x.p.6.s.s.t.r.t.s.s.t.s.s.s.p.t.t.t.t.p.s.s.r.r.p.p.t.r.t.r.r.s.k.p.s.s.2.-.r.1...U 2 m V P i.T.i.Q I 1.s.r.c.p.^ E C U U E =.r...I l g m A U *.| A U 6.1.,...E =.s.p.c.c.6.1.1.,.r.s.6.6.1.r.' H 6.=.r.r.r.s.1.I ..:X1...M.T.=.-.r.-.r.v.,.O.' 6.6.C 1.i.r.p.M.c.r.1.6.6.6.6.6.r.r.6.! l 0 U A l l l Q L.|.oX}.c.h.M.|.}..X'.p.B.&XT.-.p.B.Q g A Q Q ' r.| -.'.&X.X'.L.|.3XA.=...x.6.Q 6.v.s.1.1.6.1.6.r.r.,.,.1.2.1.,.*...Q P | 1.,.*.| ,.s.E.;XE.A.p...6.V..XOXT.p...1.r.t.s.s.r.,.r.6.r.i.i.p.p.1.U g m ^ ..-.1.1.i.x.x.s.s.1.} U ,.p.1.s.,.s.r.s.B.`.c.1.r.c.k.1.,.1.1.,.6.t.O.H U H *.*.] 1.r.6.6.2.6.r.1.| | 1.2.=.' 2.'..XB.p.s.Y.c.O.| ..,.c.A.M.k.",
"..).}.}.;X.XY.,.x.x.1.r.M.`.c.*.r.k.s.,.*.1.t.r.p.r.r.r.p.s.s.s.s.1.i i I ,.v.B..X&Xr.] 2.r.s.c.k.r.s.V.L.,.! x.v.k.s.k.x.x.x.s.s.s.s.x.x.x.s.p.s.p.p.p.p.p.p.p.p.c.p.s...m y x.c.Q 1.} M.OXv.i.6.s.1.=...s.s.6.r.r.i.p.i.i.p.p.c.6.p.*.A A H ' ,.,.,.-.,.,.' C m i 1.2.=.x.^ l ^ r.L.x.M.2.E P P U ,.s.A.E.c.M.'.T.*.C F ^ *.,.B.T.t.*...u u x.s.H i y A O.| *.=.^ B h A I E 7 ^ Q C H -.p.M.=.=.T.|.L.A.c.-.t.'.`.M...m ' c.p.p.s.c.v.x.t.r.r.t.t.s.k.p.r.6.r.6.s.B.B.c.-.=.,.M.L.'.|.|.E.T.`.'.M.T.M.r.x.s.s.p.s.p.r.p.k.k.r.s.s.p.p.t.t.t.t.r.p.p.r.r.s.s.p.r.p.r.r.s.p.2.2.s.r.6.t.1.1.=.A Q B.p.-.v.v.p.p.1.s.6.i.p.p.x.=.=.P ^ 1.r.r.^ 7 P U ' 1.x.p.p.*.6...-.=.V r.E.M.s.p.r.s.s.p.p.1.c.,.6.k.=.C | -.x.,.=.r.r.t.x.k.m =.s.2.O.s.x.A.B.P.c.p.r.T.L.1.p.c.M.x.s.x.x.s.r.6.1.6.r.i.i.i.=.E B I U i.B.L./..X}.Y.c.r.s.c.B.`.E.Y.}.}.B.' P -...m A ^ ,.E C r.x.E.:X|.B.1.c.r.x.i.} -.1.m 8 ..M.p.,.1.6.=.i.,.=.1.r.6.2.r.x.......I V Q *.,...1.M.M.x.p.r.,.U E B.OXA.=.r.k.B.v.x.v.s.,.,.1.6.s.c.x.M.x.=.A u V ' Q ' 1.,.1.i.c.x.=.' | *.1.i.=.s.s.x.=.r.|.XXB.c.L.M.k.r.1.1.2.6.1...! E h U t.2.=.r.1.t.1.1.2.1.O...=.1.2.1.6.'..XT.T.k.P.`.x.=.p.c.M.T.A.c.p.",
"w.'.}..X&XY.m.s.s.| *.s.x.A.*.R v.x.s.k.p.=.O.1.s.6.,.1.t.k.k.s.s.1.d u | t.V.T..Xs.! I -.B.v.T.A.,.t.x.2.Q A r.B.A.x.p.x.x.p.s.c.x.s.x.s.s.s.p.p.p.i.i.i.p.p.p.s.c.6.c.i...g p.v.s.3XT.}.,X1.} L.B.r.r.s.M.i.i.r.i.p.p.p.p.p.i.c.r.p.' g P E Q =.t.-.' O.] C u g -.c.c.t.U c.6.c.v.P.p.c.r.! C l V ^ } x.Y.p.Y.A.M.A.6.E ,.A.M.P.r.....I 0 U T.2.d m ^ *.s.p.k.r.x.s.P m Q O.m ..s.,.| s.2.p.p.s.V.c.O.Q h g 6.&X'.p.' Q O.r.x.p.s.c.v.k.r.r.p.p.r.r.r.r.r.r.t.6.s.s.r.r.t.p.L.L.L.T.'.c.A.L.M.A.s.B.p.,.t.1.p.t.p.p.r.p.x.s.r.t.t.i.r.t.t.p.p.r.p.p.6.r.s.s.p.t.s.p.t.r.1.*.O.1.,.1.r.r.c.c.} B.OXE.T.T.=...s.,.x.r.1.p.6.p.B.s.r.r.1.i.6.' ..c.M.i.x.=.M.'.,.1.6.' A m c.M.1.'.s.,.i.r.1.i.6.6.6.x.6.=.j g ..t.p.M.s.=.c.x.u g =.M.p.' 6.x.L.,.*.1.1.1.M.2.O.B.'.'.s.=.6.r.*.r.r.r.r.p.p.i.r.M.6.r.-.6.&X.X|.|.E.B.h.4.w.w.=.r.r.r.M.E...A m ^ B.r.1.p...r.U =.x.r.c.L.r.*.U P I 6.M...r.p.Q i C } 6.p.r.6.i.r.| ^ ,.i.1.,.r.,.| ....E Q 1.p.i.p.r.s.6...*.,.r.' 1.L.p.2.....s.v.t.6.c.6.| =.1.r.x.c.p.p.,.P A V p.&XB.r.s.s.6.-.1.1.| Q ' } U ,.1.*.,.....p.-.6.| 6.E.P.x.,.,.6.2.,.2.p.1.] d ' c.r.2.,.! =.6.6.6.-.] *.6.,.*.Q | L.c.6.M.| t.M.t.,.s.s.r.c.M.s.2.",
"..g.L.B.L.C.p.g.r.4.i.m.x.*.Q ] p.t.p.p.A.=.^ r.B.p.P ! s.x.c.c.v.O.y d r.`.s.E.B.E g t.`.!..X'.P.t.r.v.| m A s..Xv.s.p.r.p.p.c.s.v.p.k.x.p.c.i.p.p.p.r.r.p.s.p.i.r.p.p.s.s.x..XL..X&X,X;X`.A U '.'.M.c.v.M.M.1.r.p.p.1.6.p.i.1.c.t.,.| u Q x.s.E ....H m I Q A U x.1.r.2.' t.s.s.1.c.] =.Q x.-.*.M.A.Y.s.x.x.s.s.M.p.,.i.m.^ 5.k.s.B d l g ! =.=.E *.x.L.6.M.t.p.p.p.,.V 1.k.i O.-.t.`.`.L.].v.*.6.' ....E Q 1.T.r.1.r.=.s.`.A.| 6.k.p.p.t.r.r.r.p.p.r.t.s.s.t.p.t.t.p.r.r.s.B.!.A.v.s.2.6.i.r.c.k.2.-.1.r.r.t.p.t.t.s.k.k.s.t.r.t.p.t.r.r.p.s.s.p.s.p.r.6.r.r.p.r.k.6.1.t.6.s.k.r.1.6.p.s.p.t.T.T.|.}..X,.=.=.p.6.r.r.s.M.M.M.s.x.M.r.1.L.B.=.=.s.| s.c.A.B.M.6.p.A.6...p.,.L.OXr.1.=.,.p.,.6.6.1.t.1...- U E.x.s.r.1.r.r.E g *.^ 1.1.E.&X,Xc.U r.' ' x.B.1.M.,Xc.1.' -.p.c.6.1.1.6.1.p.r.p.6.r.s.T..X.X&XOXB.Y.E.L.s.1.,.1.1.r.,.i.6.p.,.A ' ,.1.6.p.=.6.6.-.,.r.=.=.} m V m l } ,.s.s.B.T.| V d Q E E 5.5.>.=.I m 1.i.*.6.=.| ..A P g U ,.*...,.*...-.,.,.,.2.-.r.L.B.c.=.6.1.1.1.=.-.' ,.1.p.x.6.,.6.^ C C l 1.Y.Y.L.A.B.T.A.A.x.1.=.*...$.' i.,.p.m.5.i.r.L.O.' c.'.T.x.6.6.2.1.r.2.r.r.^ l U Q -.t.1.O.B E ^ E ..6.k.| A m g B =.r.=.! C ,.2.V.1.-.c.,.*.p.r.*.",
"%.g.s.i.g.g.=.$.r.m.s.s.k.t.r.-.=.6.c.M.M.1.s.L.M.k.E m | p.k.p.p.,.g g O.6...B.| P ,.].:X,X&XE.A.r.O.t.r.=.*.M.|.v.s.p.r.s.s.x.i.x.p.x.s.r.s.r.p.p.p.r.r.p.s.p.c.x.p.p.c.r.-.c.B.c.s.T.v...7 ..E.E.s.p.s.v.x.s.s.p.s.s.p.1.i.c.p.s.k.^ 5 r.XXk.B.=.C g u P P h c.c.k.r.' O.T.A.c.1.*.^ ..' 6.t.x.x.p.(.A.s.s.i.p.i.5.*.*.p.=.6.1...d g C B | 2.=.s...' t.] v.A.1.p.s.6.| s.6.l 2.A.M.s.1.B.T...c.A.k.c.k.A.V.r.*.E U E =.'.OX6.O.1.r.6.t.p.t.p.t.p.s.p.t.p.p.p.t.r.r.t.r.6.p.v.T.=.^ -.t.r.r.t.k.t.6.6.r.p.s.s.s.p.t.t.p.s.p.t.p.s.p.p.r.r.t.p.p.t.p.s.r.r.s.p.c.6.p.r.6.r.6.s.p.r.6.t.s.p.i.r.v.=.6.i.,.P p.E.c.x.r.p.,.,.,.Q 1.B.M.=.s..XL.,.x.' Q i.r.s.B.B.B.v.M.r...c.`.,XE.1.1.,.,.i.,.6.,.1.6.6...u B B.A.6.=.*.s.x.1.' 1.2.x.x.A.`.'.k.M.`.M.k.L.T.L.&X`...' ^ ,.p.s.r.6.,.i.x.c.,.r.c.,.,.p.B.Y.'.E.x.v.v.s.i.r.i.i.i.r.1.r.6.p.6.Q =.M.6.=.6.i.B.B.p.1.s.p.v.i.U m u g 6.,.' ..1.,.m V l | } ~ ,.6.i.1.C F 1.,.*.>.^ ' g d 7 m ' P A A m V ^ *.1.p.1.,.1.p.V.B.A.1...6.r.1...-.O.2.2.r.x.p.i.r.Q g g } M.`.A.v.M.L.E.L.Y.B.i.6.6.>.} ..*.i.Z.x.5.Z.;X,X&X.X|.E.L.x.2.6.6.2.r.2.t.s.*.i O.,.=.1.s.k.^ y g H 2.x.p...O.U H A O...g d I r.C C B E | A H 1.p.6.",
"$.r.5.g.g.4.~ ..s.B.r.1.t.x.c.6.r.B.T.A.c.c.'.A.t.p.*.U *.c.p.1.=.! 8 l -.,.O.M.| O.E.'.Y..X'.A.p.O.! t.c.p.r.T.'.v.s.r.t.k.s.p.x.c.s.s.r.6.c.c.p.p.i.r.p.s.s.p.p.s.s.r.p...C Q E E A A l g g M.A.B.1.-.s.P.c.v.s.r.4.i.p.r.r.i.x.x.t.O.r.|.c.^ B.,.| ' | ,.1.' 2.A.s.k.V.c.B.s.1.c.c.A.s.r.=.r.M.1...S.Z.6.s.g.x.6.,.*.R *.7.r.s.-.U ' *.| 2.r.2.x.1...*.' v.p.=.p.p.6.s.L.,.B ,.x.2.,.^ 1.,.C r.2.r.M.p.B.T.c.L.' | B.]..X'.c.2.r.6.6.s.s.s.s.p.p.p.p.p.t.p.s.p.r.r.p.p.t.s.c.c.....p.x.6.1.i.v.t.p.x.p.p.s.p.p.p.r.r.r.r.p.p.s.s.p.t.r.r.t.t.p.r.p.p.r.r.s.s.s.r.s.t.1.p.p.r.p.r.r.t.p.t.r.t...l U E C A x.p.-.A.,.r.x.`.L.| =.L.p.-.Y.=.P '.OXi.r.r.,.1.r.6.i.*.*.x.c.|.OXT.s...-.1.,.r.1.r.k.r.2.r.^ 5 u p.r.-.L.`.!.s.2.,.k.i.,.-.=.x.B.v.P..XE.k.`.3X&XA.*.m =.r.,.-.,.p.i.p.c.p.x.r.=.Q ' ..1.r.p.p.i.r.,.=.*.-.1.w.w.w.p.6.r.1.r.1.^ *.i.1.x.Y.'.}.'.M.6.p.1.v.B.,.' A ..,.r.6.U I 1.| E ' m.B.i.p.4.6...I 6.s.P m P F g 7 A V r.A.,...E l ' Y.A.r.s.p.O.O.1.s.x.A.s.6.,.2...^ -.1.p.p.6.s.s.p...V g ^ E.|.E.v.c.B.M.x.i.g.c.x.g.g.*.V k C ,.i.6.Z.}..XT.|.XXT.s.p.p.1.6.r.6.r.1.r.x.,.U 1.r.c.B.s.r.] m U ..v.c.2.| ,.| 6.1.-.^ B ! s.6.U B B m P h 2 Q -.,.",
"%.M.p.g.,.*.~ >.r.M.L.x.s.c.v.L.E..XB.c.B.'.OXr.1.,.r.r.c.V.6.6.=.A 5 Q s.p.c.L.p.A.'.c.r.V.L.B.x.^ ^ L.L.k.c.|.P.x.p.r.t.x.s.r.p.r.s.c.p.6.p.i.p.i.i.i.p.s.s.p.s.x.p.r.c...i g u } ,...U E P 1.L.M.,.U r.B.,...p.p.i.r.s.c.s.6.s.s.6.,.T.`.=.6.t.T.,XE.T.c.B.x.s.p.=.p.1...M.^ ] s.M.B.=.x.s.M.m.6.s.Y.M.7.p.g.i.r.*.R C *.g.>.k.6.=.p.s.r.s.6.p.t.x.x.x.6.t...*.r.r.,.c.`.6.P 2.s.r.L.p.p.-.^ 1.O.=.v.s.A.'.|.&XT..X*X|.].T.x.v.v.x.k.c.c.s.k.s.t.r.p.p.p.p.s.s.t.t.p.s.p.s.s.t.p.c.M.p.6.6.r.M.2.r.c.p.p.s.r.r.r.r.r.r.r.p.s.s.p.t.i.p.p.s.p.p.r.t.t.2.6.p.t.r.k.k...E 6.v.r.s.p.r.r.6.6.t.k.*.V A P A Q s.' c.:Xp.1.s.L.p.1.M.,.^ U -.r.s.E.}.,X&XL.M.v.,.} y g =.'.'.'.L.A.p...-.1.,.6.1.6.=.r.t.,.P m 1.L.*.E x.L.L.1.6.t.B.....B.x.*.=.A.p.*.! ..T.A.,.Q m g r.c.-.,.1.x.x.1.p.6.-.A m P ' O.,.2.6.,.-.6.1.-.-.4.i.i.r.r.i.6.r.,.6.1.} ..T.M.Y.E.E.B.B.p.' 6.6.i.=.Q 6.A.;Xc.B.E.*...`..XT.`.&XE.p.6.=.$.I R >.=.F V C k C m l Q B.M.r.6.M.r.s.'.L.1.p.s.! P ^ -.1.s.r.6...=.| =.k.t.6.6.x.s.p.p.' V C r.&X'.B.c.M.M.s.6.1.6.g.M.B.c.*.V C ..p.r.s.|.;XY.L.V.V.M.p.r.r.r.r.r.6.r.1.r.s.=.m ' *.c.B.,.=.=.=.c.M.c.2.,.| ..1.2.*.*.=.r.L.E.-.O.,.*.] 6.6.U C E P ",
"M.>XY.g.} $.$.>.g.6.r...r.`.T.|.|.L.| r.'..XE.1.1.=.r.t.x.c.6.k.r.$.' ,.6.s.`.T.g.`.M.,.r.M.A.M.p.A P A.c.p.A.T.M.r.r.r.t.x.p.r.p.=.,.1.*.=.r.p.i.i.i.p.s.s.s.s.v.p.,.,.x.,.m g r.E.&X&XE.c.,.x.B.p.,.P i.r.| Q =.r.s.p.r.p.s.p.x.6.s.2.x.M.....,.'.OXA.A.k.x.`.`.s.t.,.| ' x.t.x.s.c.1.! r.c.s.$.*.M.x.6.i.6.i.6.r.^ C } x.M.*.s.k.x.B.B.V.A.x.p.v.t.A..Xt.1.6.1.s.v.6.p.T.c.U | t.r.c.1.s.-.' 6.t.6.c.T.&X|..X!.XX,XL.p.P.T.s.M.B.B.B.B.c.p.p.s.p.t.p.s.s.p.s.p.t.r.t.p.p.t.p.s.s.k.t.6.p.x.p.s.*.=.p.t.s.x.r.r.r.r.r.r.r.p.s.p.p.r.r.t.p.p.p.r.r.t.t.2.6.t.r.r.c.1.m y ' c.s.s.p.t.r.6.6.t.x.-.V g U ..r.E.E.,XL.^ =.1.,.V E c.=...^ s.'.Y.=.E.3XT.v.*.......Q ' B.|.L.x...B.M.1.1.r.1.6.6.1.,.-.6.s.| m V.T.=.A | ^ E B 6.!.L.M.V.c.p.r.k.s...^ B C r.] h g m g ^ Q E 6.r.1.=.,.s.| U U =.M.r.2.,.1.p.i.1.1.i.r.r.p.s.i.r.i.1.1.6.2.i.p.-.*.A.r.p.s.A.c.p.' ^ r.i.p.1.-.L.:X.X}..X,X:X.XE.s.L./.}.B.i.r.>.} R ,.| } ..^ ~ V u C P 1.1.A m p.A.B.,.,.-.' ' U i P r.1.I C ! =.,.*.' 2.x.2.,.r.M.r.1.1.Q A C 1.L.c.s.c.x.p.p.s.i.4.r.c.c.i...F ^ i.5.1.,.=.g.M.x.1.-.1.1.,.=.=.r.6.1.6.2.r.p...y ,.p.6.-...2.r.r.L.V.p.=.1.*.| ,.' O.p.6.p.!.'.=.U ' 6.r.k.s...6.=.U ",
"m./.g.m.4.} R ~ $.~ ^ U p.&X!.A.A.O.m p.XXT.p.r.1.1.r.1.1.t.t.p.s.r.,.} *.B.OXA.A.`.$.F | ,.p.6.U i m r.] ..M.c.x.1.6.r.r.p.2.1.r.' *.,...,.p.c.i.i.p.s.s.p.p.s.i.6.1.,.6.1...1.:X,XOX|.'.T.!.,XT.v.c.1.M.6.1.s.1.,.,.r.i.6.r.s.s.p.k.r.M.1.m h k.L.,.r.k.L.v.,XM.,.M.2.E.OXT.&X`.B.`.s.,.1.p.p.x.A.'.x.p.m.m.Z.p.E d P x.p.*.1.,.r.r.1.1.6.2.=.r.s.=.!.L.^ k.c.A.'.'.x.t.M.V.E ..p.s.s.1.s.t.r.p.B.V.!..X`.s.T.E.B.B.2.*.x.c.s.,.s.c.c.c.s.6.,.r.p.s.s.s.s.s.p.s.p.p.p.p.p.p.t.i.6.r.t.r.t.s.s.s.,.,.r.p.s.x.t.p.p.p.t.t.r.t.r.s.s.p.t.r.r.r.r.r.r.p.p.r.r.s.p.r.x...g u E r.s.r.r.t.p.r.r.r.s.Q l y U s.T.|.E.r.m l 1.x.M.=.} ,.s.x.p.OXk.I E L.k.' ,.i y ' r.'.L.`.v.O.^ B c.M.6.1.r.6.r.p.6.x.2.1.2.| 7 ] Q H C ,.,.=...M.&XE.T.s.A H c.!...] 1.Q B =.-.P l U Q ' Q E r.r.*.A Q *.V | E..XE.V.v.s.r.6.6.r.6.4.4.r.r.r.1.1.w.1.1.1.1.r.p.=.! A A ..x.L.B.6.P Q ,.2.B.|.|.&X|.}.Y.L.B.M.T.A.,.' 1.g.g.g.x.i.=.>.c.' } p.r.r.*.g ..6.,.E A m x.p.1.P Q Q y y u C | v.*.l B ' ' I B I s.x.=.| *.i.r.r.-.A E ' B.L.t.1.r.6.,.1.r.i.5.,.r.s.=.P V *.c.1.r.r.} 6.m.r.6.r.r.r.p.s.6.6.1.1.6.6.t.p.| M s.p.,.,.1.r.1.t.A.B.x.1.6.*.| O.O.6.x.2.6.B.k.Q h Q 2.r.1.! B B.r.! ",
"R $.} g.m.} F R A =.x.A.E.E.L.c.r.A A L.|.M.-.2.1.p.p.r.1.r.s.1.p.=.R l p.OX.XT.|.S.| k C ' ..E d l P i.O...c.B.k.1.1.2.-.O.^ ^ U C -.c.p.p.p.p.p.p.s.x.s.i.i.p.r.r.c.s.6.p.B.|.|.`.M.s.M.A.P.!..XOXE.Y.M.s.M.E.E.c.6.r.s.s.p.p.1.s.s.r.x.^ U p.c.p.E E Q | ' 6.| m s.s.`.3X:X!.1.6.V.=.p.p.c.!.OX:X'.m.p.^ | =.} y d ~ s.*.E p.k.M.c.p.s.s.1.1.v.=.r.A.' B p.v..XOXB.6.s.M.!.| ' r.M.B.x.x.s.c.T..X&X,X.XM.=.P.c.k.x.^ ! x.r.| A | ,.1.6.6.=.' | 6.x.s.t.p.s.p.s.s.s.s.p.p.p.p.6.6.s.x.p.6.r.p.k.p.r.t.s.k.s.p.x.s.p.t.t.p.t.t.s.p.p.t.r.6.r.r.r.r.s.s.t.p.s.s.6.x.^ d B O.p.t.6.r.r.p.p.r.t.s.Q C m | x.A.p.A i P ..M.`.|.`.Y.s.1.s.1.x.,...' r.} ^ p.Q I 1.Y.Y.L.E.r.m m Q T.c.1.1.p.i.p.c.p.1.M.2.d d m U C H U 1.v.|.&X|.!.L.] P ....x.M.,.1.Q h ! t.1.Q ] =.A.L.L.p.p.p.i.' m U | B.'.M.p.k.x.M.s.-.,.r.6.r.r.i.r.r.r.r.r.r.r.1.1.6.r...B A ' 6.p.*...' P A i.B.'..X}..XE.M.-.p.s.*.,.s.,.>.6.i.i.p.i.g.g.g.>.k P p.m.x.g.v.L.1.P ^ 6.r.1.6.' h | ' d E =.6.*.,.E ! r.k.' d g ^ L.x.| A l ..r.s...V r.M.OXY.t.-.-.=.-.,.=.5.5.....4.$.V V $.i.6.6.i.i.r...*.1.s.s.6.6.6.1.6.6.1.r.6.t.s...H | U ' p.t.6.1.x.P.V.x.1.,.....,.,.' ^ 2.M.s.Q B C 2.x.v.v.O.^ ,...P ",
"s $.=.i.C.g.p.=.m.L.p.T.`.c.L.B...M ...X`.V.1.=.r.k.t.p.6.1.k.6.s.| g g `.2XE.|.|.x.i.^ R 1...m g C A k.v.2.p.B.c.1.1.,.| E m B C i } r.-.2.s.v.p.s.x.c.s.r.r.p.x.1.r.i.6.s.M.L.M.r.*.6.M.c.c.B.M.|.M.B.r.L.|.OXOX`.c.1.,.i.p.r.x.2.t.s.s.1.V.T.A.k.s.U B y A m u ..x.s.`.M.M.1.u ^ 6.E V.E.v.A.Y.OXL.E.A.d l P d m ,.*.6.s.g.L.v.L.L.L.'.E.v.A.'.6.B.*.g A ! E.'.T.! U k.L.XX2.I s.|.'.E.L.x.p.'.*X*XE.c.k.*.6.6.p.M.=...x.1.] 0 H ' ' =.,.] P B *.k.s.r.r.s.s.p.s.s.p.i.r.r.t.s.p.p.r.6.p.s.t.r.p.p.r.s.s.s.k.x.s.r.r.t.s.s.s.r.t.p.t.r.6.r.p.p.p.k.x.p.t.p.t.6.v.U - C r.B.s.t.r.r.r.r.r.p.x.U d V r.s.6.=.A ' v...6.3X;X`.'.M.i.x.r.M...*.c.M.s.r.=.-.-.p.}.E.A.c.,.m Q i.M.M.p.p.c.s.s.c.p.B.M...7 g A P P.B.c.t.,.p.L.B.M.p.! | T.p.P.E.A.p.E j ' 1.p.2.r.1.}.|.:XY.r.i.c.p.,.Y.T.T.s.*.1.*.=.r.p.1.i.s.,.1.r.r.1.1.i.i.r.i.r.1.1.r.i.=.C ..i.c.r.A C C m r.|.&X&X.X'.}.L.i.r.6.1.1.4.1.p.,.i.g.B.M.p.x.Y.c.^ V C P P ~ i.v.E.1.6.A.p.E.i.I V l ,.s.s.'.c.=.O.c.1.| 1.B.c.k.-.=.k.Q m m m V ' ..A m L.A.M.p.1.,.=.| -.p.i.*.$.m y R R l C r.6.x.i.,.r.*.A H E =.p.6.,.2.r.6.6.6.r.1.6.p.O.| =.P E r.6.6.6.s.T.M.1.' ......*.1.E E 6.r.2.r.| Q s.B.T.E.6.r.2.r.=.",
"b ' =.s...,.,.v.6...' O.1.s.B.P.r.E t.OXT.6.,.2.1.r.s.p.r.r.t.r.6.E k *.OX`.L.M.M.6.s.E E 6.' E E l ^ V.r.p.M.M.6.,.' C m d y B P P U C U ..| 2.r.v.t.s.v.t.r.s.1.6.p.p.6.r.r.1.1.' E O.k.E.L.6.M.c.M.V.Q x.|.;X|.L.s.r.t.t.p.s.s.p.r.r.x.B.v.r.r.c.c.c.1.g H Q *.r.t.c.p.P E U i ^ t.!.2X:XB.6.1.U s.v.C ^ 6.1.] | | ..-.s.Y..X*XXXT.!.M.M.M.!.OXx.c.k.-...6.!.c.,.' C -.M.t.U M s.|.|.T.B.v.2.B.`.L.M.6.O.E t.r.r.6.2.t.x.k.r.P p.^ P | 6.^ l C M.x.7.x.r.s.p.s.x.s.r.5.6.p.p.p.r.s.p.7.s.x.1.6.r.5.s.i.c.p.p.p.s.s.g.s.p.p.p.r.t.6.t.r.s.1.s.p.c.6.1.x.s.1.s.p.' F g k ,.Z.1.p.r.6.p.r.c.B.*.g l I =.c.] Q ] ].`.t.p.6.r.L.r...-.6.s.c.1.B.OX'.6.=.r.=.E M.'.r.c.r...P ..:XM.*.B.L.L.E.M.v.E.`.Q 2 C C ' M.OX}.x.p.r.p.$.,.s.1.r.'..X|.&X.X|.1.A m ' 1.s.r.-.6.1.p.c.v.1.s.B.c.L.L.B.M.6.*.,.-.=.c.6.6.,.,.r.r.r.1.6.p.r.1.r.1.1.x.r.r.,.=.' B.i.A.E.L.p.Q ..E.XX|.E.M.p.i.r.i.6.5.1.5.6.i.p.6.7.6.`.OXY.Y.m.6.R C C l E F E =.v.x.r.B.,.t.! U r.P.E.T..Xc.t.' s.*.O.,.M.L.v.c.s.I M B g H U U Q g 8 =.L...P >.x.1.$.| *.,.s.*.A ^ Q m P V s..XB.g.M.A.B.M.x...E *.r.v.O.1.1.1.2.2.2.1.1.1.1.*.6.2.^ *.p.,.t.A.M.v.O.^ | | 1.i.k.*.r.t.c..Xr.Q ..| =.L.6.' ,.-.1.r.",
"g R } ' A I Q ..Q *.=.! ' k.T.V.r.E k.P.s.2.=.r.2.t.s.p.p.p.p.t.6.*.,.Z.}.m.m.p.v.k.r.g d 6.k.s.=...r.v...*.p.x.O.-.B y A m g ' ^ | *.' C h H H ' 2.k.k.s.t.r.6.r.r.p.r.1.6.6.1.1.=.=.=.x.B.*.^ 6.B.E.L.m A M.E.Y.c.r.r.t.t.6.r.s.s.t.r.p.k.p.1.i.x.r.B.p.B ..r.p.t.t.A.c.m j l U !.,XOX|.p.! | 2.2.1.U 2 | B.V.v.1.-.p.k.p.B..X!.`.T.V.r.2.c.`.!.B.!.`.k.s.s.c...U P U r.L.r.m y -.B.T.E.T.B.6.k.!.B.,.6.r.r.p.6.6.6.2.r.s.p.2.P =.5.p.,.Q g R s.`.c.r.s.r.s.p.6.6.6.p.x.g.p.6.s.7.p.s.r.s.x.r.s.g.i.s.6.p.7.i.s.p.7.r.i.p.r.6.c.p.p.s.6.r.B.6.6.6.,.1.1.Q m U V k V V C ,.M.p.6.p.x.s.2.p.r.C - d H r.s.M.L.`.L.^ t.`.s.C l =.' B.`.M.E.`..X:X].t.,.1.,.^ 1.t...5.^ P Q T.:X*.g ' *.=.1.,.=.1.,.s C m ~ E.}.(.Z.,.*.6.x.r.5.>.p.c.|.OX.X.XT.A.Q d A 1.x.r.,.c.6.1.| P I ' L.'.c.T.E.M.p.,.1.s.=.,.c.r.i.6.2.r.r.p.6.6.p.6.,.r.x.6.1.2.1...,.B.L.M.}.|.'.'.B.`.|.'.v.t.,...1.x.r.6.4.4.4.r.i.i.5.i.6.M.x.>.p.x.^ d y P ,.,.*...U E P ! s.| ] P t.T.!.c.c.E.s.=.r.r.| 6.V.XX'.B.*.U u P U 0 l E { =.} ..V.E.r.=.c.x.6.5.| *.*.*.Q I ..| P U m ..V.A.P.L.T..X&X.Xv.] | 6.x.r.6.2.2.2.6.6.6.6.6.2.-.6.k.x.v.t.,.x.t.V.Y.| P ^ O.p.B.B.r.t.r.s.L.=.I ..1.2.x.E B *.1.6.t.",
"b ' ;.X.-.,.,.-.-.1.6.1.,.k.V.M.,.Q c.c.,.r.,.t.6.t.s.s.s.p.p.p.p.p.M.A.x.,.x.x.p.M.1.y d s.T.B.6.t.s.t...,.t.r.E C 0 g m A ,.x...x.*...1.^ H B I ! r.c.k.p.r.r.s.r.r.r.6.t.s.t.2.1.s.r.x.1.l Q 6.x.B.x.u 7 c.L.M.p.1.6.r.r.6.6.t.s.s.p.t.p.t.6.r.t.-.T.P.6.s.x.k.t.6.x.M...| U r.v.T.T.p.E l l 1.x.| g u *.M.B.v.M.A.T.|.OX.X'.v.V.L.k.,.*.k.T.k.s.V.V...t.t.=.A C A ..r.P.L.=.E V..X.X|.B.,.Q T.T.r...p.1.r.,.6.t.p.r.t.s.p.6.p.} | r.r.*.E x..X|.g.r.s.p.x.p.p.p.p.s.s.p.7.7.1.,.6.p.i.6.i.p.p.p.r.p.6.r.r.p.s.p.7.6.r.p.p.p.,.M.t.1.c.,.s.,.m m C U U B m P d V C V R s.Y.M.c.r.6.s.t.t.-.u d P ..v.c.|.,X.Xr.C 1.1.=...U l ! -.&X&XE.'.OX.XE.p.2.,.r.*.^ ' r...V C $.&XOXA.r...C g m P A g g l ^ l 6.`.c.B.p.| *.s.p.p.6.*.r.c.L.L.L.B.p.t.E ..r.6.r.s.6.6.p.r.1...P m x.:X.X;X|.M.6.=.-.r.*.1.c.r.r.r.6.1.r.p.6.6.s.i.6.p.6.i.-...,.1.r.M.M.A.}.L.B.T.L.'.!.E.,.I ^ i.v.1.6.6.6.6.r.r.6.6.,.5.=.,.} F ..7.} l d ^ M.6.5.>.] ] ] ^ 1.^ ..r.r.L.L.=.-.r.1.2.=.=.k.!.'.E.k.6.E A H 1.2.! | =.-.i.p.B.P.p.,.1.T.x.x.x.| 5.p.*.A m l C C Q P U U ] 6.x.A.'.`.B.B.! E ..*.6.,.1.2.6.6.6.r.r.r.r.t.s.c.T.A.6.2.u.A.T.V.] ^ p.v.T.B.v.s.p.t.c.B.1.6.M.B.t.6.U P ,.2.r.t.",
"` >.1.1.c.L.B.M.v.r.p.A.P.V.c.s.' U p.x.1.t.6.r.6.r.p.s.p.p.p.p.s.g.p.*...| 1.6.2.s.' u B i.v.=.=.6.r.6.2.s.k.t.} g u | ' ' M.c.6.p.^ O.B.k.=.=.' ! ..O.,.6.6.x.k.t.r.r.r.p.x.s.1.,.s.c.p.E m ,.r.^ } ^ i g M.E.M.p.2.2.r.t.t.p.r.s.s.p.p.p.p.t.k.c.x.T.V.M.s.t.k.p.r.1.6.*.2.=.*.2.x.v.*.C M E P..X1.C C ,.x.6.A.|.OX|.OX2X|.s.p.k.v.6.6.2.k.k.t.t.k.p.P 6.c.1.' ^ ^ 6.,.c.v...M.*XOXL.r.E H ' &X.Xs.6.s.*.6.r.s.k.k.s.p.s.s.p.,.,.Y.2X,XT.i.x.|.A.6.i.s.i.g.r.p.p.p.i.i.p.6.1.| *.7.p.r.6.6.6.7.6.6.i.r.r.r.p.7.i.i.r.i.p.p.p.M.B.U d ' I B l g l C m g m P B C R C l *.'..XM.r.| =.v.1.E I h Q 2.L.L.P.L.|.A.1.U *.H A ..c.-.| P M.E.P.'..X].c.r.r.1.c.-.U | ,.' =.g.T.oXL..X}.v.r.' m g V I l A y A M.s.r.s.p.| $.M.i.p.r.1.r.c.c.s.c.p.=.*.g U *.r.v.c.1.i.r.6.L.c...C } L..X|.L.p.r.i.r.1.=.r.x.r.6.r.r.,.6.r.,.1.p.i.1.r.1.s...B 1.s.s.p.1.p.B.c.c.L.T.E.E.v...] r.s.x.r.6.6.6.6.r.r.6.4.6.7.,.6.=.' >.7.} d P 6.x.5.7.s.A.A.M.! E U ] k.6.2.=.] k.p.1.1...*.A.`.B.t...] A O.s.L.T.]..Xv.p.v.v.E.P.p.p.s.c.p.s.1.P ,.7.^ P A d C Q 1.6.2.' B A *.x.V.v.p.r.^ 2.6.=.6.1.r.2.2.2.6.6.6.6.6.1.k.p.2.! ' A.XXA.v.t.| t.`.E.P.s.t.s.r.t.c.c.2..XE.p.1.M.v.1.*.r.t.p.",
"..s.i.v.c.M.4.p.s.c.A.E.'.'.M.*.B C ] s.t.1.r.1.r.r.p.p.s.p.p.s.6.s.>.P ..} U U ] | h 0 A =.1.' -.2.p.t.p.p.s.c.=.U m r.V.r.s.p.M.^ =.s.t.c.L.V.2.u.=.U U ! | s.x.t.r.r.6.6.r.6.,.-.1.v.r.! *.i.=.j U P g V r.E.c.p.r.r.t.s.k.k.p.p.p.r.i.t.r.6.r.6.c.r.P P B ..k.r.s.s.1.^ 6.c.A.}.r.U U u 7 =.`.x.,.B.s.6.M.T.|.E.A.L.Y.B.s.6.r.r.s.1.p.p.s.6.p.p.x.v.Q 6.M.t.x.p.c.|.E.].c.U c.E.V.k.,.P ^ B.`..Xs.r.,.=.p.k.s.k.s.p.t.p.p.s.6.v.`.*X|.L.].].T.x.6.s.p.r.s.t.p.s.s.p.k.c.r.*.*.t.c.s.r.r.r.r.s.r.r.p.k.p.p.t.r.r.6.r.s.x.6.*.^ m 7 0 u m h l B A U B g C H g m F A ' S.,X`.r.1.^ ] s.-.m g l ^ x.T.V.A.s.B.P.*.U x.1.*.6.A.c.| ' | U B.,X].`.6.2.p.r.c.| B O.F $.E.`.;X'.s.M.x.1.v.M.=.I m B Q P l ,.Q C ,.-.} l C r.6.p.i.6.c.B.x.p.s.1.' I C l A ' ,.=...s.v.B..X,.*.i.-.i.M.x.r.,.6.s.r.*.1.s.s.r.1.r.i.1.r.,.,.1.i.i.6.1.i.p...A v.p.x.r.,.1.p.p.c.L.L.L.v.c.r.p.s.r.r.p.r.r.6.6.6.6.6.6.r.6.6.s.s.6.6.r.} e *.Y.i.p.6.x.!.s.=.C E =.=.r.x.2.! A *.,.p.v.| Q ,.6.p.B.v.x.k.E..X'.L.E.A.*.1.p.i.c.c.p.c.i.p.g.6.Q R 7.*.U *.2.,.p.2.1.r.t.s...O.x.P.V.x.r.] ' V.s.r.,.1.6.6.2.2.2.2.2.2.2.2.k.-.T B ! c.B.| -.6.*.x.XXL.p.t.6.p.6.2.p.1.*.x.s.p.c.V.B.s.t.c.c.M.",
"' c.c.B.p.s.-.c.L.'.OX|.`.E.x.' C B U p.k.,.p.r.p.t.p.s.s.p.p.s.6.x.,.F ,.,.U P C P g g E =.2.r.B.p.r.i.x.p.s.k.s...] s.r.*.p.p.,.A ,.c.s.c.n.L.V.P.v.c.=.g P s.s.r.r.t.r.r.t.6.2.p.6.c.p.,.x.,.*.! c.2.U m Q v.p.i.r.r.p.s.k.p.p.r.r.r.t.p.p.t.M.1.v.s.E C H r.p.2.k.k.p.6.c.s.,Xx.m i A u u ,.7.P $..XA.p.E.2XL.s.7.g.x.6.1.p.r.t.p.6.r.r.s.p.t.t.s.c.E | p.p.t.p.E.XX'.].s.Q s.c.s.B.B.,.r.'.|.A.| 1.1.6.r.t.s.s.s.t.r.t.s.s.6.x.s.1...] V.T.E.M.k.s.p.r.p.p.s.x.p.-.| ....| s.B.v.r.r.p.p.s.k.r.p.s.M.x.x.k.k.r.2.t.c.c.*.A d g m ^ ' ..A E A M H U P ^ *.*.,.*.1.A.OX}.t.' ' ^ U ! H g B ] ,.x.1.6.6.r.6.M.A 7 6.,.2.M.,.' -.2.6.' v.*X].v.-.r.s.r.s.I i ! V $.B.A.oXL.s.p.6.] s.E.Y.v.,.1.L.' l ' ..p.*.V C d U s.M.B.A.A.E.T.s.6.r.1...U A m U } =.,.p.`.].&X;X' *.A.p.c.p.6.1.,.,.1.,.' 6.s.r.r.,.6.r.1.r.=.1.i.r.p.c.s.p.M.=.l ,.-.s.1.p.r.1.,.r.p.p.r.-.s.t.r.r.r.p.i.r.r.4.4.6.6.r.r.1.1.6.p.i.6.6.6.>.d p.`.6.B.s.A.B.Q A Q 2.c.p.r.2.s.-.E ^ ,.A.T.Q =.c.p.r.s.x.s.B.v.B.A.M.x.s.r.s.E.|.Y.r...-.1.7.p.| E 6.P.*.| t.c.c.P.c.t.2.r.k.B.'.OX`.B.s.1.U H 1...-.] =.2.r.r.6.6.2.2.2.2.s.s.O.I P E ] Q Q O.O.A ..P.M.1.1.2.r.2.6.p.2.1...1.M.E.s.-.r.`.v.v.c.",
"' s.i.r.i.M.B..X&XOX&X.XE.B.p.>.U A Q s.c.r.p.s.s.t.p.s.s.p.t.p.p.g.,.F -.p.=.*.' *.^ H ] r.p.c.A.6.6.s.L.V.V.c.P.r.k.s.! ..c.t.^ ' =.p.v.k.6.k.V.L.!.,Xs.l ..M.r.2.r.p.r.r.s.s.p.M.s.x.p.-.-.| 2.k.|.P.i.....v.c.s.i.i.t.s.p.t.t.t.r.r.p.s.x.c.x.*.1.p...E 1.A.M.p.x.6.r.x.x...s.m V ,.,.^ =.c.1.1.s.,.R B.OXY.x.x.s.p.r.5.1.1.r.s.s.s.6.r.p.s.k.k.p.t.U P 6.v.B.M..XV.c.L.c.k.E.B.6.t.t.=.1.c.T.6.} r.c.s.6.p.s.p.p.t.p.p.s.s.r.x.p.P i g ,.M.T.B.x.p.t.s.p.p.t.-.^ P B C Q *.M.B.p.1.r.p.t.s.s.6.p.p.c.s.x.x.r.r.r.t.k.r.Q u l B l ] A.T.c.c.-.,.,.=...,.p.s.E.Y.E..X|.c.] C u Q U m g h *.!.P.B.=.=...O.....Q y =.r.r.s.1.M.k.p.T.L.B.T.E...*.t.t.r.s.H u m A =.5.L.|.x.r.1.E U r.s.s.v.B.XXT...' *.A.'.1.1.| *.v.'.&X.XOX.X`.L.6.1.r.i.6.E } E 6.T.A.1.-.M.x.L.s.P =.r.,.c.r.,.,.6.1.r.1...1.p.,.r.,.1.6.,.1.' =.1.^ ..p.6.1.c.U - g Q p.p.1.r.1.,.1.i.p.1.} ] } 1.r.=.,.s.r.6.4.4.6.6.r.r.6.6.p.p.i.r.6.p.*.P g.A.p.M.c.T.s.A U r.r.6.6.1.2.p.r.x.M.T.A.*.i ,.T.V.M.p.B.M.B.p.r.c.M.s.p.M.B.}.&XE.1.U A ' 6.*.E ..A.V.U *.6.r.p.B.A.!.T.'.'.OX:X`.x.s.k.p.! P Q O.s.=...1.r.r.6.6.2.6.r.r.:.r.=.B B ' -.x.-.=...H ' x.r.,.,.2.1.2.r.p.s.k.x.t.r.c.2.r.k.L.'.`.E.",
"Q p.v.c.}.;X|.|.|.`.T.L.B.L.C.x.Q H O.x.v.s.6.k.s.t.r.p.p.i.r.r.s.6.*.A *.x.p.,.T.!.p.P E 2.2.t.1...p.A.'.E.'.T.s.t.t.1.t.T.!.V.M.A.A.Y.c.t.V.v.t.V.T.'...E (.S.r.2.r.t.6.6.t.p.s.v.x.s.6.E m ' ,.v.L.L.P.L.D.Y.L.m.p.r.r.t.p.u.s.s.p.p.t.p.s.c.r.,.*.-.' I L.XXT.k.B.x.t.t.M.c.t.*.=.r.r.i.s.r.x.p.s...E T.|.m.r.p.p.i.6.5.r.p.s.k.p.c.p.s.r.s.k.x.k.6.U C 6.M.M.r.M.' =.A.L.].`.B.6.6.,.' ^ ^ I ! 6.1.r.r.p.k.t.r.r.t.p.p.p.p.p.r.1.A ..c.M.k.B.c.p.1.r.x.t.r.k.! g A ..1.p.c.B.x.,.,.s.s.r.p.s.r.p.r.p.,.r.t...,.t.r.,.] C 7 i P *.k.c.r.T.s.x.T.T.p.=.-.=.' B.L.`.E.V.s.] g H ' B A 2.v.T.*X.XP.A.t...P ' U u h ' s.s.p.p.1.r.p.c.s.x.M.k.l ..t.6.6.x.E l d ' c.,.Z.m.1.6.=...| r.1.r.c.s.L.L.P | x.L.p.,.p.x.v.E.'.,X&X}.M.p.1...=.1.,.} 7 A ' p.r.1.v.M.p.A | m u 1.r.1.s.M.1.,.6.6.r.1...1.p.-.p.1.1.6.1.=.I ' ^ 7 i Q U m E 7 g I ^ ..,.=.i.r.,.,.6.6...g ..-.=.....,.,.6.4.4.6.r.r.r.r.7.5.6.6.7.i.1.5.*.*.A.Z.x.,.$.1.| j Q x.6.,.x.x.B.x.1.x.r.p.2.I r.E.T.v.V.s.c.2.1.6.r.t.V.T.A.E.}.L.Y.L.L.i.^ =.M.=.| x.!.2.0 ^ r.k.M.V.v.E.T..X*XOX'.M.6.6.r.,.' ! ' A..Xt.E ' r.r.6.6.2.r.r.r.2.2...B =.T.v.k.p.p.L.P.E.B.,.6.6.p.1.1.6.2.p.p.p.x.p.2.^ 6.c.c.c.x.k.",
"..L.c.E.oX}.L.m.B.B.m.m.B.C.=.' C p.L.c.t.M.r.2.r.t.p.s.t.t.p.s.s.p.,.Q ^ 6.t.O.O.| E H ..+.1.k.^ -.c.T.P.T.|.T.c.M.k.c.B.E.B.`.|.}.E.OX`.A..XP.t.B.T.*.V P m.`.r.r.t.p.s.s.s.s.r.s.x.c...d m A ..B.V.v.L.P.D.r.....s.l.s.1.u.t.t.t.p.p.p.t.t.r.r.r.1.1.*.k.,X`.2.x.V.p.x.p.1.] r.].B.s.L.m.h.L.M.m.g.(.`.OX|.p.5.s.g.i.7.g.x.s.g.p.c.g.g.c.s.x.x.x.p.p.P M E 7.! ,.| P P.A.B.`.B.c.r.2.2.| H m m i ..,.| 6.p.s.p.p.p.p.p.t.r.r.r.p.=.H -.B.T.A.B.] ..6.1.,.2.2.O.U A *.2.v.v.V.A.r.r.,.-.t.6.r.*.] s.s.6.E 2.2.=.2.-.U u C B ! -.P p.M.B.v.r.s.c.T.r.l 1.x.=.6.s.B.6.=.p.s.m j m E ,.v.XX].XX].B.1.Q d d U s.-.m m P p.6.,.r.,.r.M.c.=.B.1.E m ..s.2.p.6.C 7 1.M.p.M.v.B.6.:.2.-.i.i.r.r.s.p.p.' i c.E.s.Q ..' c.E.v.E.E.M.v.c.i.*.U =.1.=.U Q c.r.} ,.B.L.A.M.M.6.} g ^ E.`.'.E.p.r.r.1.1.=.*.M.r.1.,.6.=.p.r.Q d A d C ' Q m g A l g P p.Q A ,.6.r.6.p.p.=.,...p.,...1.,...-.*.=.r.r.r.i.6.i.6.6.1.6.6.6.p.1.,.=.r.2.' ' l I ^ *.6.p.i.5.i.M.1.6.6.1.6.*.E E p.s.A.L.B.M.s.6.p.p.s.M.Y.L.c.r.r.i.g.c.m.B.Y.'.c.] E ,.1.U C E c.s.c.v.x.A.'.].'.A.c.s.p.r.2.1.1.H O.B.-.U O.-.-.r.2.r.t.2.r.r.1.@.+.+.u.P.1.B.&Xi.B.P.L.s.6.=.p.1.1.2.1.s.6.U H s.2.! E 1.,.^ *.^ r.",
"*.L.C.'.T.g.i.s.p.s.i.s.s.g.~ F 6.A.v.6...1.6.x.r.t.p.s.t.t.p.s.t.p.6.*.*.t.2.Q ] | B g u.V.k.k.6.,.c.'.!.L.L.x.A.p.1.s.c.x.2.B.oX|.oX}.E.'.OX|..X|.|.p.^ E i.Z.1.2.6.r.p.s.s.k.s.x.c.s.I 5 d h A s.V.k.c.B.y.' z Y r.s.s.r.s.r.t.t.t.t.t.p.p.p.x.6.*.r.s.M.`.r.] ^ | *.p.6.6.r.L.E.L.M.M.i.=.=.i.p.x..XoX|.Y.6.x.s.i.6.i.g.g.g.c.x.m.r.5.c.m.g.x.6.6.k.^ j C p.2.6.1.*.V.V.M.x.t.r.r.r.-.P u u P -.p.O.=.x.s.i.p.p.t.t.t.t.p.s.M.s.' g ! ,.r.p...E ' -.r.c.t.E B u g | -.t.1.2.r.-.U B ] r.r.t.B E 1.O.-.=.2.-.=.' i 8 i i H !.x.U r.V.L.M.x.L.T.v.1.] k.c.p.p.r.6.,.6.1.] y d g =.M.'.#XU.n.2.*.1.=.P ] =.-.] *.m m 1.2.c.V.t.V.x.r.6.|.c.| H 1.6.2.,.B g m ' U | r.x.A.p.i.0.1.i.t.r.r.p.r.r.m } M.M.|.p...p.Y.x.-.c.c.p.r.r.,.I ' L.T.p.r.M.E.r.6.T.}.E.T.B.E.`.E.r.p.T.L.'.|.c.p.,.E m V Q ,.-.r.c.r.*.1.-.g 7 Q =.p.r.' l m m m P P ' U } 1.,.,.-.r.r.,.x.s.i.-.} *.6.1.i.6.,.4.1.6.p.6.r.r.r.1.r.6.6.p.1.6.1.r.t.*.=.^ 1.p.p.i.g.c.M.A.B.R $.,.,.| E V P A | c.E.E.S.c.p.p.s.x.B.Z.M.s.6.6.r.i.s.s.g.M.L.M.1...| P y l *.2.t.V.T.L.L.L.v.x.t.2.6.r.r.r.r.t.I ! -.H g ! -.t.v.s.t.u.0.r.2.0.2.:.2.c.P.0.s.:.H ) ] =.=.,.-.2.=.,.1.,.r.,.A ] s.1.*.^ ..*.-.*...x.",
"*.p.r.T.A.i.1.6.4.r.r.y.r.r.R m 1.r.' ..*.=.1.r.r.t.p.p.p.t.p.s.r.p.p.6.r.c.t.^ 2.s.] ! U.T.k.V.'.s.v.E.v.t.x.x.' A ^ x.v.6.*.M.oX|.;XL.A.OX.X:X&X'.T.p.,.,.m.Z.,.1.6.r.t.p.s.c.s.k.k.,.j 7 P Q | 2.k.k.B.d.) M u W r.u.s.p.u.0.t.t.t.r.t.p.p.s.s.,.! ,.2.=.O.P j M ! *.x.p.s.c.r.} U V G $.' U p.Z.A..X}.`.M.i.p.6.7.g.g.p.i.g.s.i.i.' P ,.x.r.,.x.M.7.P d P 6.v.x.A.P.V.V.B.2.r.r.6.,.Q i 0 m ^ '.A...=.r.r.x.s.p.t.r.r.i.s.s.r.t...H ..| ] *.-.=.U H H ! ..C m m E ..E I B U H Q u 7 ] 2.O.] 7 d H A ' ' B U ..U A E *.' | 6.P C L.OX`.A.B.E.M.1.1.s.c.v.L.x.1.1.r.p.] A i B H s.s.c.t.-.-.! | r.] g O.p.p.B.T.,.U | 1.s.-.=.s...*.k.:XV.6.,.,.p.6.Q 5 d I ^ A 1.p.x.M.r.p.r.r.r.r.r.r.r.r.0.Q r...A i.} Q L.&Xp.r.B.p.1.-.,.i.-.B.`.c.,.s.x.p.} c.OX`.M.p.-.B.T.E.M.L.T.c.T.Y.c.i.} A A l u C C ^ p.,.*.,.=...1.T.A...g A Q U g l P A E ..M...*.^ A *.c.p.1.s.-.,.=.,.p.6.1.r.r.s.r.5.5.,.r.r.p.6.r.6.6.r.1.r.6.,.6.-.*.*.s.r.p.x.Y.(.'.}.M.^ ,.1.s.6.i.5.x.A.`.'.T.m.s.x.c.s.c.B.Z.c.p.6.4.4.4.4.r.r.r.p.s.6.,.2.p.,.! ^ 2.v.B.P.T.B.c.s.1.6.1.1.1.6.r.r.p.=.H ' t.-...1.2.t.l.r.1.1.:.1.=.0.r.2.s.n.G.p.-.A A ....=.,.r.i.1.=.1.2.1.r.=.A =.x.t.r.| E ! O.| *.x.",
"=.1.,.B.B.g.r.5.r.i.i.s.s.i.R m ^ ..U 1.r.1.r.-.r.t.p.p.p.t.p.p.r.p.p.p.x.A.B.6.s.c.r.s.'.V.u.T.L.6.c.L.1...,.r.g l -.T.V.t.t.E.T.T.Y.p.x.E.T.'.s.x.x.,.i.M.Y.x.1.6.p.p.t.t.s.x.M.x.p.^ 7 y Q ..r.1.-.@.1.X.m g I o.r.u.u.i.t.t.t.t.r.r.i.p.s.s.x.-.E 1.p.O.P m P *.x.p.x.s.s.p.r.} Q b ..'.B.r.Y.OX|.A.g.M.g.6.6.i.g.x.p.5.6.g.x...R k C p.Z.5.1.M.p.P y d ^ 7.M.L.XX,XV.v.s.,.r.t.2.*.E l m Q *.x.U C 1.r.6.p.s.s.p.r.r.r.p.s.2.s...h I E ..s.t.1.U ' | E =.O.,.,.t.*.I U I E i g u ..v.-.' ..m B B B ! Q 8 m P m I 1.L.A.P.r.u ' ,X*XA.v.M.x.c.v.B.B.p.t.M.*.*.p.s.6.*.' H B B r.-.0...) ' H ' 1.B y | 2.x.T.!.P.=...B.M.' v.v.*.2.L.,XM.r.r.1.M.' u g I B U *.L.A.L.B.1.i.r.r.1.0.r.r.r.t.0.m m V I -.Q ..Y.L...M.E.i.,.-.r.-.r.L.x.6.,.r.} ^ =.'.&XT.B.c.r.M.M.c.i.x.s.,.c.L.v.i.} Q ..U d m u g *...,.p.r.L.E.|.E.,.I | 1.,.i.r.Q E s.Y.s.Q Q m 8 P s.x.i.s.-.1.-.,.,.E U =.>.p.p.i.i.6.p.6.s.r.2.6.2.r.2.6.r.=.=.,.-.1.t.,.x.L.}.T.L.T.6.*.g.g.L.s.M.M.T.:X2X.XZ.i.,.i.g.s.m.B.B.g.r.6.4.6.4.1.r.6.6.6.6.1.-.2.x.B.M.V.P.].`.P.x.r.2.1.-.6.6.r.r.r.r.t.t.O.m B =.t.k.l.u.0.k.2.-.1.2.r.:.:.1.-.p.s.u.r.E I 2.v.i.1.1.1.r.1.1.6.r.r.p.,.U ,.v.s.1.Q Q ] ..x.A.'.",
",.M.A.A.p.r.4.5.r.i.p.g.s.r.I m 1.B.k.M.6.-.p.r.i.t.p.p.p.p.p.p.r.t.s.s.k.B.V.x.v.t.r.l.l.t.-.=.E E x.L.r.*.' ^ 7 g ,.s.6.r.V.`.x.g.>.=.6.r.s.s.] *.1.>.x.M.g.*.1.r.p.p.r.r.p.x.M.k.r.! g I ,.r.L.E.l./ S A p 9 X...;.u.p.r.r.s.t.t.r.r.t.p.s.k.x...P s.L.s.E A M.`.].k.p.6.r.1.1.i.c.1.Y.;Xw.=.'.OX(.g.*.,.=.5.g.x.g.5.>.5.p.g.| V V k l >.x.p.B.O.l 0 y j | c.M.`.].|.x.r.*.=.v.s...P H Q *.r.x.x.Q ..s.1.6.p.r.p.s.p.r.t.s.p.r.k.' 2 i I -.s.2.] I s.V.2.t.t.=.O.1.E ! t.1...' B U V.c.B B ] +.1.=.' ..:.h H m i u O.T.k.L.E.t.L.,Xc.-.r.p.*.t.L.B.B.c.x.s.O.| p.1.=.x.t.E B ! 2.O.s.0.=...! 1.1.d B | *.M.B.c.B.1.-.V.B.*.!.A.6.k.E.2XB.r.r.c.k.i = P ..l V *.A.Y.|.E.1.r.r.0.:.2.r.0.t.p.1.g q } L.W.s.n.U.I c s.G.1.:.,.r.| *.6.6.c.r...I A 1.M.x.s.x.x.M.B.L.B.1.^ A I r.L.s.,.Q C m m Q =.^ Q 1.,.i.c.s.c.x.p.x.p.p.c.c.s.,.1.s.s.p.x.s.p.,.E u g U | p.c.p.-.E ' U i A E I ~ | ,.r.*.} ,.s.6.1.2.2.r.6.1.s.-.O.t.x.k.t.m.T.T.T.p.,.p.^ ^ B.`.:XM.M.L.'.L.`.B.p.6.1.i.p.p.s.x.x.p.6.5.4.r.4.5.r.r.6.5.4.=.1.r.t.p.x.A.!.T.T.M.r.1.1.1.,.,.6.r.6.6.r.t.r.O.M h ) 2.t.0.-.r.s.:.@.:.2.r.1.:.-.@.0.:.@.@.m r.E.U.p.1.1.,.,.1.1.2.2.6.r.=.Q ,.p.*.^ B ' 6.t.'.OX&X",
"*.L.(.m.,.7.4.5.r.p.s.g.s.w.G m L.|.P.M.=.,.s.r.t.p.p.p.p.p.p.t.r.i.s.s.p.k.k.r.k.t.k.s.{ -.+.m ! ' k.v.s.t...! C E c.c.p.P.OX`.p.6.Q >.6.*.6.O.' U R ^ i.1.,.,.,.2.r.t.r.r.s.x.p.r.1.^ E =.r.s.&X].y.{ / S M M r.{ X.c.s.r.r.p.r.t.t.t.p.p.s.s.p.| I r.s.6.Q | `.P.V.p.v.s.s.p.c.E.}.B.).m.A ..M.g.g.x.>.$.$.g.,.6.,.$.,.g.g.5.F d V F A ^ *.>.6.j 5 d J C *.B.V.E.c.s.t.6.| ,.x.6.Q C Q 1.p.p.-.x.t.p.*.H ] *.-.6.s.p.p.s.s.s.2.t.] 0 B =.r.@.H B E c.B.2.u.c.h B @.I ] v.k.-.k.s.B.t.B h ] ! O.' U ! ! E i H ' H K l.t.U t.s.L.`.!.=...1.6.1.-.s.1.k.T.P.p.r.=.v.r.,.c.-.O.t.0.0.=.t.k.r.:.-.6.' 7 H ' ,.`.E.s.*.] ,.,.6.1.s.....s.V.].2.,.x.c...7 5 m Q E ' ,.c.L.&XL.1.,.r.0.1.r.t.0.p.p.@.u c ) p.s.......M A c.c.r.r.1.1.=.i.s.1.,.' A A ..v.p.p.L.x.i.M.i.c.c.-.U A *.B.x.s.,.A g m U =.s.c.c.B.x.i.p.r.1.r.,.,.-.p.r.4.6.v.v.M.v.E.'.A.Y.A.1.P A ! E Q ..,.Q m I A A ....} ..' ~ E C m *.p.2.,.6.2.6.6.-.t.1.' s.B.s.,.Z.E.B.M.6.*.5.E *.T..X:XA.Y.|.|.s.A.7.,.6.1.r.5.6.6.7.7.7.6.6.1.6.4.4.r.r.6.4.4.*.1.t.r.2.2.t.s.v.M.p.=.=.1.1.6.1.r.p.6.6.r.6.1.I B K -.c.s.:.=.k.l.:.=.:.-.1.-.:.;.=.8.0.@.-.T L..XD.d.g.M.i.*.-.1.,.,.1.2.=.' | ] P U A ^ 1.t.c.L.c.",
"^ Z.Z.5.>.x.r.4.p.p.s.x.s.4.I V T.T.B.p.*.p.p.=.p.p.p.p.p.p.p.t.i.r.p.s.t.r.1.O.+.2.c.s.T :.0.U s.t.c.r.t.c.,.-.' | A.B.x.A.T.5.p.5.^ 6.r.*.6.' | A l C *.$.1.x.,.1.r.r.r.r.p.k.6.2.=.U U ' Q ' '.u.C { 0./ [ X.d.{ =.L.s.y.r.2.t.t.t.p.p.p.s.s.x.,.' 6...| ' p.M.t.2.p.T.M.v.B.E.}.).g.h...g >.4.} ,.M.6.,.,.Z.~ } ..$.i.M.g.$.>.k s F ,.i...F R e l E E P 3.c.V.L.6.-.t.r.*.r.| ] ^ O.k.v.1.' ..r.r.s.6.*.1.*.*.2.p.p.p.k.k.s.s.r.' u H t.V.1...:.U.XXt.H m m 0 B s.O.-.v.c.s.c.].&X{ 8 O.P.r.k.! U 2.1.! I =.u.] @.P.U c v.1.,.M.B.=.1.2.r.k.6.r.=.p.T.P.=.1.r.A.B.p.r.Q t.&X1.=.r.s.n.k.@.O.I y 2 A ! p.P.T.p.! U 1.*.r.c.t.B ' s.c.M.P U p.r.I g m u C ..s.s.c.Y.|.s.,.-.1.0.1.i.i.1.u.u.{ 8 I / ;.8.' I I ' ;.U.n.c.p.8.:.*.M.L.1.A V I E 1.A.6.c.'.p.,.,.,.6.r.,...r.'.,Xi.M.p.U U ,.6.r.i.L.E.Y.B.r.6.1.6.,.1.r.c.L.*.E c.L.s.v.p.s.M.Y.p.M.6.E =.M.-.m g E V V U Q -.i.c.B.L.i.~ V k C O.s.r.,.r.2.2.6.-.6.1.E r.c.,.O.p.A.p.m.x.5.i.^ p.`.(.A.i.x.T.p.^ 7.*.5.x.7.5.| 5.5.5.5.5.6.6.4.6.5.4.6.6.4.4.6.t.r.1.=.O.-.2.t.v.M.6.] ..,.2.t.t.k.s.r.6.r.1.=.M c H @.k.t.0.l.L.V.t.0.u.0.0.0.0.@.:.0.u.:.0.:.G.E.l.n.B.L.p.' =.1.,.-.1.2.=...U P C E A Q ....=.p.$."
};
